P3
240 180
255
0 0 70 1 0 70 2 0 70 3 0 70 4 0 70 5 0 70 6 0 70 7 0 70 8 0 70 9 0 70 10 0 70 11 0 70 12 0 70 13 0 70 14 0 70 16 0 70 17 0 70 18 0 70 19 0 70 20 0 70 21 0 70 22 0 70 23 0 70 24 0 70 25 0 70 26 0 70 27 0 70 28 0 70 29 0 70 30 0 70 32 0 70 33 0 70 34 0 70 35 0 70 36 0 70 37 0 70 38 0 70 39 0 70 40 0 70 41 0 70 42 0 70 43 0 70 44 0 70 45 0 70 46 0 70 48 0 70 49 0 70 50 0 70 51 0 70 52 0 70 53 0 70 54 0 70 55 0 70 56 0 70 57 0 70 58 0 70 59 0 70 60 0 70 61 0 70 62 0 70 64 0 70 65 0 70 66 0 70 67 0 70 68 0 70 69 0 70 70 0 70 71 0 70 72 0 70 73 0 70 74 0 70 75 0 70 76 0 70 77 0 70 78 0 70 80 0 70 81 0 70 82 0 70 83 0 70 84 0 70 85 0 70 86 0 70 87 0 70 88 0 70 89 0 70 90 0 70 91 0 70 92 0 70 93 0 70 94 0 70 96 0 70 97 0 70 98 0 70 99 0 70 100 0 70 101 0 70 102 0 70 103 0 70 104 0 70 105 0 70 106 0 70 107 0 70 108 0 70 109 0 70 110 0 70 112 0 70 113 0 70 114 0 70 115 0 70 116 0 70 117 0 70 118 0 70 119 0 70 120 0 70 121 0 70 122 0 70 123 0 70 124 0 70 125 0 70 126 0 70 128 0 70 129 0 70 130 0 70 131 0 70 132 0 70 133 0 70 134 0 70 135 0 70 136 0 70 137 0 70 138 0 70 139 0 70 140 0 70 141 0 70 142 0 70 144 0 70 145 0 70 146 0 70 147 0 70 148 0 70 149 0 70 150 0 70 151 0 70 152 0 70 153 0 70 154 0 70 155 0 70 156 0 70 157 0 70 158 0 70 160 0 70 161 0 70 162 0 70 163 0 70 164 0 70 165 0 70 166 0 70 167 0 70 168 0 70 169 0 70 170 0 70 171 0 70 172 0 70 173 0 70 174 0 70 176 0 70 177 0 70 178 0 70 179 0 70 180 0 70 181 0 70 182 0 70 183 0 70 184 0 70 185 0 70 186 0 70 187 0 70 188 0 70 189 0 70 190 0 70 192 0 70 193 0 70 194 0 70 195 0 70 196 0 70 197 0 70 198 0 70 199 0 70 200 0 70 201 0 70 202 0 70 203 0 70 204 0 70 205 0 70 206 0 70 208 0 70 209 0 70 210 0 70 211 0 70 212 0 70 213 0 70 214 0 70 215 0 70 216 0 70 217 0 70 218 0 70 219 0 70 220 0 70 221 0 70 222 0 70 224 0 70 225 0 70 226 0 70 227 0 70 228 0 70 229 0 70 230 0 70 231 0 70 232 0 70 233 0 70 234 0 70 235 0 70 236 0 70 237 0 70 238 0 70 240 0 70 241 0 70 242 0 70 243 0 70 244 0 70 245 0 70 246 0 70 247 0 70 248 0 70 249 0 70 250 0 70 251 0 70 252 0 70 253 0 70 255 0 70
0 1 70 1 1 70 2 1 70 3 1 70 4 1 70 5 1 70 6 1 70 7 1 70 8 1 70 9 1 70 10 1 70 11 1 70 12 1 70 13 1 70 14 1 70 16 1 70 17 1 70 18 1 70 19 1 70 20 1 70 21 1 70 22 1 70 23 1 70 24 1 70 25 1 70 26 1 70 27 1 70 28 1 70 29 1 70 30 1 70 32 1 70 33 1 70 34 1 70 35 1 70 36 1 70 37 1 70 38 1 70 39 1 70 40 1 70 41 1 70 42 1 70 43 1 70 44 1 70 45 1 70 46 1 70 48 1 70 49 1 70 50 1 70 51 1 70 52 1 70 53 1 70 54 1 70 55 1 70 56 1 70 57 1 70 58 1 70 59 1 70 60 1 70 61 1 70 62 1 70 64 1 70 65 1 70 66 1 70 67 1 70 68 1 70 69 1 70 70 1 70 71 1 70 72 1 70 73 1 70 74 1 70 75 1 70 76 1 70 77 1 70 78 1 70 80 1 70 81 1 70 82 1 70 83 1 70 84 1 70 85 1 70 86 1 70 87 1 70 88 1 70 89 1 70 90 1 70 91 1 70 92 1 70 93 1 70 94 1 70 96 1 70 97 1 70 98 1 70 99 1 70 100 1 70 101 1 70 102 1 70 103 1 70 104 1 70 105 1 70 106 1 70 107 1 70 108 1 70 109 1 70 110 1 70 112 1 70 113 1 70 114 1 70 115 1 70 116 1 70 117 1 70 118 1 70 119 1 70 120 1 70 121 1 70 122 1 70 123 1 70 124 1 70 125 1 70 126 1 70 128 1 70 129 1 70 130 1 70 131 1 70 132 1 70 133 1 70 134 1 70 135 1 70 136 1 70 137 1 70 138 1 70 139 1 70 140 1 70 141 1 70 142 1 70 144 1 70 145 1 70 146 1 70 147 1 70 148 1 70 149 1 70 150 1 70 151 1 70 152 1 70 153 1 70 154 1 70 155 1 70 156 1 70 157 1 70 158 1 70 160 1 70 161 1 70 162 1 70 163 1 70 164 1 70 165 1 70 166 1 70 167 1 70 168 1 70 169 1 70 170 1 70 171 1 70 172 1 70 173 1 70 174 1 70 176 1 70 177 1 70 178 1 70 179 1 70 180 1 70 181 1 70 182 1 70 183 1 70 184 1 70 185 1 70 186 1 70 187 1 70 188 1 70 189 1 70 190 1 70 192 1 70 193 1 70 194 1 70 195 1 70 196 1 70 197 1 70 198 1 70 199 1 70 200 1 70 201 1 70 202 1 70 203 1 70 204 1 70 205 1 70 206 1 70 208 1 70 209 1 70 210 1 70 211 1 70 212 1 70 213 1 70 214 1 70 215 1 70 216 1 70 217 1 70 218 1 70 219 1 70 220 1 70 221 1 70 222 1 70 224 1 70 225 1 70 226 1 70 227 1 70 228 1 70 229 1 70 230 1 70 231 1 70 232 1 70 233 1 70 234 1 70 235 1 70 236 1 70 237 1 70 238 1 70 240 1 70 241 1 70 242 1 70 243 1 70 244 1 70 245 1 70 246 1 70 247 1 70 248 1 70 249 1 70 250 1 70 251 1 70 252 1 70 253 1 70 255 1 70
0 2 70 1 2 70 2 2 70 3 2 70 4 2 70 5 2 70 6 2 70 7 2 70 8 2 70 9 2 70 10 2 70 11 2 70 12 2 70 13 2 70 14 2 70 16 2 70 17 2 70 18 2 70 19 2 70 20 2 70 21 2 70 22 2 70 23 2 70 24 2 70 25 2 70 26 2 70 27 2 70 28 2 70 29 2 70 30 2 70 32 2 70 33 2 70 34 2 70 35 2 70 36 2 70 37 2 70 38 2 70 39 2 70 40 2 70 41 2 70 42 2 70 43 2 70 44 2 70 45 2 70 46 2 70 48 2 70 49 2 70 50 2 70 51 2 70 52 2 70 53 2 70 54 2 70 55 2 70 56 2 70 57 2 70 58 2 70 59 2 70 60 2 70 61 2 70 62 2 70 64 2 70 65 2 70 66 2 70 67 2 70 68 2 70 69 2 70 70 2 70 71 2 70 72 2 70 73 2 70 74 2 70 75 2 70 76 2 70 77 2 70 78 2 70 80 2 70 81 2 70 82 2 70 83 2 70 84 2 70 85 2 70 86 2 70 87 2 70 88 2 70 89 2 70 90 2 70 91 2 70 92 2 70 93 2 70 94 2 70 96 2 70 97 2 70 98 2 70 99 2 70 100 2 70 101 2 70 102 2 70 103 2 70 104 2 70 105 2 70 106 2 70 107 2 70 108 2 70 109 2 70 110 2 70 112 2 70 113 2 70 114 2 70 115 2 70 116 2 70 117 2 70 118 2 70 119 2 70 120 2 70 121 2 70 122 2 70 123 2 70 124 2 70 125 2 70 126 2 70 128 2 70 129 2 70 130 2 70 131 2 70 132 2 70 133 2 70 134 2 70 135 2 70 136 2 70 137 2 70 138 2 70 139 2 70 140 2 70 141 2 70 142 2 70 144 2 70 145 2 70 146 2 70 147 2 70 148 2 70 149 2 70 150 2 70 151 2 70 152 2 70 153 2 70 154 2 70 155 2 70 156 2 70 157 2 70 158 2 70 160 2 70 161 2 70 162 2 70 163 2 70 164 2 70 165 2 70 166 2 70 167 2 70 168 2 70 169 2 70 170 2 70 171 2 70 172 2 70 173 2 70 174 2 70 176 2 70 177 2 70 178 2 70 179 2 70 180 2 70 181 2 70 182 2 70 183 2 70 184 2 70 185 2 70 186 2 70 187 2 70 188 2 70 189 2 70 190 2 70 192 2 70 193 2 70 194 2 70 195 2 70 196 2 70 197 2 70 198 2 70 199 2 70 200 2 70 201 2 70 202 2 70 203 2 70 204 2 70 205 2 70 206 2 70 208 2 70 209 2 70 210 2 70 211 2 70 212 2 70 213 2 70 214 2 70 215 2 70 216 2 70 217 2 70 218 2 70 219 2 70 220 2 70 221 2 70 222 2 70 224 2 70 225 2 70 226 2 70 227 2 70 228 2 70 229 2 70 230 2 70 231 2 70 232 2 70 233 2 70 234 2 70 235 2 70 236 2 70 237 2 70 238 2 70 240 2 70 241 2 70 242 2 70 243 2 70 244 2 70 245 2 70 246 2 70 247 2 70 248 2 70 249 2 70 250 2 70 251 2 70 252 2 70 253 2 70 255 2 70
0 4 70 1 4 70 2 4 70 3 4 70 4 4 70 5 4 70 6 4 70 7 4 70 8 4 70 9 4 70 10 4 70 11 4 70 12 4 70 13 4 70 14 4 70 16 4 70 17 4 70 18 4 70 19 4 70 20 4 70 21 4 70 22 4 70 23 4 70 24 4 70 25 4 70 26 4 70 27 4 70 28 4 70 29 4 70 30 4 70 32 4 70 33 4 70 34 4 70 35 4 70 36 4 70 37 4 70 38 4 70 39 4 70 40 4 70 41 4 70 42 4 70 43 4 70 44 4 70 45 4 70 46 4 70 48 4 70 49 4 70 50 4 70 51 4 70 52 4 70 53 4 70 54 4 70 55 4 70 56 4 70 57 4 70 58 4 70 59 4 70 60 4 70 61 4 70 62 4 70 64 4 70 65 4 70 66 4 70 67 4 70 68 4 70 69 4 70 70 4 70 71 4 70 72 4 70 73 4 70 74 4 70 75 4 70 76 4 70 77 4 70 78 4 70 80 4 70 81 4 70 82 4 70 83 4 70 84 4 70 85 4 70 86 4 70 87 4 70 88 4 70 89 4 70 90 4 70 91 4 70 92 4 70 93 4 70 94 4 70 96 4 70 97 4 70 98 4 70 99 4 70 100 4 70 101 4 70 102 4 70 103 4 70 104 4 70 105 4 70 106 4 70 107 4 70 108 4 70 109 4 70 110 4 70 112 4 70 113 4 70 114 4 70 115 4 70 116 4 70 117 4 70 118 4 70 119 4 70 120 4 70 121 4 70 122 4 70 123 4 70 124 4 70 125 4 70 126 4 70 128 4 70 129 4 70 130 4 70 131 4 70 132 4 70 133 4 70 134 4 70 135 4 70 136 4 70 137 4 70 138 4 70 139 4 70 140 4 70 141 4 70 142 4 70 144 4 70 145 4 70 146 4 70 147 4 70 148 4 70 149 4 70 150 4 70 151 4 70 152 4 70 153 4 70 154 4 70 155 4 70 156 4 70 157 4 70 158 4 70 160 4 70 161 4 70 162 4 70 163 4 70 164 4 70 165 4 70 166 4 70 167 4 70 168 4 70 169 4 70 170 4 70 171 4 70 172 4 70 173 4 70 174 4 70 176 4 70 177 4 70 178 4 70 179 4 70 180 4 70 181 4 70 182 4 70 183 4 70 184 4 70 185 4 70 186 4 70 187 4 70 188 4 70 189 4 70 190 4 70 192 4 70 193 4 70 194 4 70 195 4 70 196 4 70 197 4 70 198 4 70 199 4 70 200 4 70 201 4 70 202 4 70 203 4 70 204 4 70 205 4 70 206 4 70 208 4 70 209 4 70 210 4 70 211 4 70 212 4 70 213 4 70 214 4 70 215 4 70 216 4 70 217 4 70 218 4 70 219 4 70 220 4 70 221 4 70 222 4 70 224 4 70 225 4 70 226 4 70 227 4 70 228 4 70 229 4 70 230 4 70 231 4 70 232 4 70 233 4 70 234 4 70 235 4 70 236 4 70 237 4 70 238 4 70 240 4 70 241 4 70 242 4 70 243 4 70 244 4 70 245 4 70 246 4 70 247 4 70 248 4 70 249 4 70 250 4 70 251 4 70 252 4 70 253 4 70 255 4 70
0 5 70 1 5 70 2 5 70 3 5 70 4 5 70 5 5 70 6 5 70 7 5 70 8 5 70 9 5 70 10 5 70 11 5 70 12 5 70 13 5 70 14 5 70 16 5 70 17 5 70 18 5 70 19 5 70 20 5 70 21 5 70 22 5 70 23 5 70 24 5 70 25 5 70 26 5 70 27 5 70 28 5 70 29 5 70 30 5 70 32 5 70 33 5 70 34 5 70 35 5 70 36 5 70 37 5 70 38 5 70 39 5 70 40 5 70 41 5 70 42 5 70 43 5 70 44 5 70 45 5 70 46 5 70 48 5 70 49 5 70 50 5 70 51 5 70 52 5 70 53 5 70 54 5 70 55 5 70 56 5 70 57 5 70 58 5 70 59 5 70 60 5 70 61 5 70 62 5 70 64 5 70 65 5 70 66 5 70 67 5 70 68 5 70 69 5 70 70 5 70 71 5 70 72 5 70 73 5 70 74 5 70 75 5 70 76 5 70 77 5 70 78 5 70 80 5 70 81 5 70 82 5 70 83 5 70 84 5 70 85 5 70 86 5 70 87 5 70 88 5 70 89 5 70 90 5 70 91 5 70 92 5 70 93 5 70 94 5 70 96 5 70 97 5 70 98 5 70 99 5 70 100 5 70 101 5 70 102 5 70 103 5 70 104 5 70 105 5 70 106 5 70 107 5 70 108 5 70 109 5 70 110 5 70 112 5 70 113 5 70 114 5 70 115 5 70 116 5 70 117 5 70 118 5 70 119 5 70 120 5 70 121 5 70 122 5 70 123 5 70 124 5 70 125 5 70 126 5 70 128 5 70 129 5 70 130 5 70 131 5 70 132 5 70 133 5 70 134 5 70 135 5 70 136 5 70 137 5 70 138 5 70 139 5 70 140 5 70 141 5 70 142 5 70 144 5 70 145 5 70 146 5 70 147 5 70 148 5 70 149 5 70 150 5 70 151 5 70 152 5 70 153 5 70 154 5 70 155 5 70 156 5 70 157 5 70 158 5 70 160 5 70 161 5 70 162 5 70 163 5 70 164 5 70 165 5 70 166 5 70 167 5 70 168 5 70 169 5 70 170 5 70 171 5 70 172 5 70 173 5 70 174 5 70 176 5 70 177 5 70 178 5 70 179 5 70 180 5 70 181 5 70 182 5 70 183 5 70 184 5 70 185 5 70 186 5 70 187 5 70 188 5 70 189 5 70 190 5 70 192 5 70 193 5 70 194 5 70 195 5 70 196 5 70 197 5 70 198 5 70 199 5 70 200 5 70 201 5 70 202 5 70 203 5 70 204 5 70 205 5 70 206 5 70 208 5 70 209 5 70 210 5 70 211 5 70 212 5 70 213 5 70 214 5 70 215 5 70 216 5 70 217 5 70 218 5 70 219 5 70 220 5 70 221 5 70 222 5 70 224 5 70 225 5 70 226 5 70 227 5 70 228 5 70 229 5 70 230 5 70 231 5 70 232 5 70 233 5 70 234 5 70 235 5 70 236 5 70 237 5 70 238 5 70 240 5 70 241 5 70 242 5 70 243 5 70 244 5 70 245 5 70 246 5 70 247 5 70 248 5 70 249 5 70 250 5 70 251 5 70 252 5 70 253 5 70 255 5 70
0 7 70 1 7 70 2 7 70 3 7 70 4 7 70 5 7 70 6 7 70 7 7 70 8 7 70 9 7 70 10 7 70 11 7 70 12 7 70 13 7 70 14 7 70 16 7 70 17 7 70 18 7 70 19 7 70 20 7 70 21 7 70 22 7 70 23 7 70 24 7 70 25 7 70 26 7 70 27 7 70 28 7 70 29 7 70 30 7 70 32 7 70 33 7 70 34 7 70 35 7 70 36 7 70 37 7 70 38 7 70 39 7 70 40 7 70 41 7 70 42 7 70 43 7 70 44 7 70 45 7 70 46 7 70 48 7 70 49 7 70 50 7 70 51 7 70 52 7 70 53 7 70 54 7 70 55 7 70 56 7 70 57 7 70 58 7 70 59 7 70 60 7 70 61 7 70 62 7 70 64 7 70 65 7 70 66 7 70 67 7 70 68 7 70 69 7 70 70 7 70 71 7 70 72 7 70 73 7 70 74 7 70 75 7 70 76 7 70 77 7 70 78 7 70 80 7 70 81 7 70 82 7 70 83 7 70 84 7 70 85 7 70 86 7 70 87 7 70 88 7 70 89 7 70 90 7 70 91 7 70 92 7 70 93 7 70 94 7 70 96 7 70 97 7 70 98 7 70 99 7 70 100 7 70 101 7 70 102 7 70 103 7 70 104 7 70 105 7 70 106 7 70 107 7 70 108 7 70 109 7 70 110 7 70 112 7 70 113 7 70 114 7 70 115 7 70 116 7 70 117 7 70 118 7 70 119 7 70 120 7 70 121 7 70 122 7 70 123 7 70 124 7 70 125 7 70 126 7 70 128 7 70 129 7 70 130 7 70 131 7 70 132 7 70 133 7 70 134 7 70 135 7 70 136 7 70 137 7 70 138 7 70 139 7 70 140 7 70 141 7 70 142 7 70 144 7 70 145 7 70 146 7 70 147 7 70 148 7 70 149 7 70 150 7 70 151 7 70 152 7 70 153 7 70 154 7 70 155 7 70 156 7 70 157 7 70 158 7 70 160 7 70 161 7 70 162 7 70 163 7 70 164 7 70 165 7 70 166 7 70 167 7 70 168 7 70 169 7 70 170 7 70 171 7 70 172 7 70 173 7 70 174 7 70 176 7 70 177 7 70 178 7 70 179 7 70 180 7 70 181 7 70 182 7 70 183 7 70 184 7 70 185 7 70 186 7 70 187 7 70 188 7 70 189 7 70 190 7 70 192 7 70 193 7 70 194 7 70 195 7 70 196 7 70 197 7 70 198 7 70 199 7 70 200 7 70 201 7 70 202 7 70 203 7 70 204 7 70 205 7 70 206 7 70 208 7 70 209 7 70 210 7 70 211 7 70 212 7 70 213 7 70 214 7 70 215 7 70 216 7 70 217 7 70 218 7 70 219 7 70 220 7 70 221 7 70 222 7 70 224 7 70 225 7 70 226 7 70 227 7 70 228 7 70 229 7 70 230 7 70 231 7 70 232 7 70 233 7 70 234 7 70 235 7 70 236 7 70 237 7 70 238 7 70 240 7 70 241 7 70 242 7 70 243 7 70 244 7 70 245 7 70 246 7 70 247 7 70 248 7 70 249 7 70 250 7 70 251 7 70 252 7 70 253 7 70 255 7 70
0 8 70 1 8 70 2 8 70 3 8 70 4 8 70 5 8 70 6 8 70 7 8 70 8 8 70 9 8 70 10 8 70 11 8 70 12 8 70 13 8 70 14 8 70 16 8 70 17 8 70 18 8 70 19 8 70 20 8 70 21 8 70 22 8 70 23 8 70 24 8 70 25 8 70 26 8 70 27 8 70 28 8 70 29 8 70 30 8 70 32 8 70 33 8 70 34 8 70 35 8 70 36 8 70 37 8 70 38 8 70 39 8 70 40 8 70 41 8 70 42 8 70 43 8 70 44 8 70 45 8 70 46 8 70 48 8 70 49 8 70 50 8 70 51 8 70 52 8 70 53 8 70 54 8 70 55 8 70 56 8 70 57 8 70 58 8 70 59 8 70 60 8 70 61 8 70 62 8 70 64 8 70 65 8 70 66 8 70 67 8 70 68 8 70 69 8 70 70 8 70 71 8 70 72 8 70 73 8 70 74 8 70 75 8 70 76 8 70 77 8 70 78 8 70 80 8 70 81 8 70 82 8 70 83 8 70 84 8 70 85 8 70 86 8 70 87 8 70 88 8 70 89 8 70 90 8 70 91 8 70 92 8 70 93 8 70 94 8 70 96 8 70 97 8 70 98 8 70 99 8 70 100 8 70 101 8 70 102 8 70 103 8 70 104 8 70 105 8 70 106 8 70 107 8 70 108 8 70 109 8 70 110 8 70 112 8 70 113 8 70 114 8 70 115 8 70 116 8 70 117 8 70 118 8 70 119 8 70 120 8 70 121 8 70 122 8 70 123 8 70 124 8 70 125 8 70 126 8 70 128 8 70 129 8 70 130 8 70 131 8 70 132 8 70 133 8 70 134 8 70 135 8 70 136 8 70 137 8 70 138 8 70 139 8 70 140 8 70 141 8 70 142 8 70 144 8 70 145 8 70 146 8 70 147 8 70 148 8 70 149 8 70 150 8 70 151 8 70 152 8 70 153 8 70 154 8 70 155 8 70 156 8 70 157 8 70 158 8 70 160 8 70 161 8 70 162 8 70 163 8 70 164 8 70 165 8 70 166 8 70 167 8 70 168 8 70 169 8 70 170 8 70 171 8 70 172 8 70 173 8 70 174 8 70 176 8 70 177 8 70 178 8 70 179 8 70 180 8 70 181 8 70 182 8 70 183 8 70 184 8 70 185 8 70 186 8 70 187 8 70 188 8 70 189 8 70 190 8 70 192 8 70 193 8 70 194 8 70 195 8 70 196 8 70 197 8 70 198 8 70 199 8 70 200 8 70 201 8 70 202 8 70 203 8 70 204 8 70 205 8 70 206 8 70 208 8 70 209 8 70 210 8 70 211 8 70 212 8 70 213 8 70 214 8 70 215 8 70 216 8 70 217 8 70 218 8 70 219 8 70 220 8 70 221 8 70 222 8 70 224 8 70 225 8 70 226 8 70 227 8 70 228 8 70 229 8 70 230 8 70 231 8 70 232 8 70 233 8 70 234 8 70 235 8 70 236 8 70 237 8 70 238 8 70 240 8 70 241 8 70 242 8 70 243 8 70 244 8 70 245 8 70 246 8 70 247 8 70 248 8 70 249 8 70 250 8 70 251 8 70 252 8 70 253 8 70 255 8 70
0 9 70 1 9 70 2 9 70 3 9 70 4 9 70 5 9 70 6 9 70 7 9 70 8 9 70 9 9 70 10 9 70 11 9 70 12 9 70 13 9 70 14 9 70 16 9 70 17 9 70 18 9 70 19 9 70 20 9 70 21 9 70 22 9 70 23 9 70 24 9 70 25 9 70 26 9 70 27 9 70 28 9 70 29 9 70 30 9 70 32 9 70 33 9 70 34 9 70 35 9 70 36 9 70 37 9 70 38 9 70 39 9 70 40 9 70 41 9 70 42 9 70 43 9 70 44 9 70 45 9 70 46 9 70 48 9 70 49 9 70 50 9 70 51 9 70 52 9 70 53 9 70 54 9 70 55 9 70 56 9 70 57 9 70 58 9 70 59 9 70 60 9 70 61 9 70 62 9 70 64 9 70 65 9 70 66 9 70 67 9 70 68 9 70 69 9 70 70 9 70 71 9 70 72 9 70 73 9 70 74 9 70 75 9 70 76 9 70 77 9 70 78 9 70 80 9 70 81 9 70 82 9 70 83 9 70 84 9 70 85 9 70 86 9 70 87 9 70 88 9 70 89 9 70 90 9 70 91 9 70 92 9 70 93 9 70 94 9 70 96 9 70 97 9 70 98 9 70 99 9 70 100 9 70 101 9 70 102 9 70 103 9 70 104 9 70 105 9 70 106 9 70 107 9 70 108 9 70 109 9 70 110 9 70 112 9 70 113 9 70 114 9 70 115 9 70 116 9 70 117 9 70 118 9 70 119 9 70 120 9 70 121 9 70 122 9 70 123 9 70 124 9 70 125 9 70 126 9 70 128 9 70 129 9 70 130 9 70 131 9 70 132 9 70 133 9 70 134 9 70 135 9 70 136 9 70 137 9 70 138 9 70 139 9 70 140 9 70 141 9 70 142 9 70 144 9 70 145 9 70 146 9 70 147 9 70 148 9 70 149 9 70 150 9 70 151 9 70 152 9 70 153 9 70 154 9 70 155 9 70 156 9 70 157 9 70 158 9 70 160 9 70 161 9 70 162 9 70 163 9 70 164 9 70 165 9 70 166 9 70 167 9 70 168 9 70 169 9 70 170 9 70 171 9 70 172 9 70 173 9 70 174 9 70 176 9 70 177 9 70 178 9 70 179 9 70 180 9 70 181 9 70 182 9 70 183 9 70 184 9 70 185 9 70 186 9 70 187 9 70 188 9 70 189 9 70 190 9 70 192 9 70 193 9 70 194 9 70 195 9 70 196 9 70 197 9 70 198 9 70 199 9 70 200 9 70 201 9 70 202 9 70 203 9 70 204 9 70 205 9 70 206 9 70 208 9 70 209 9 70 210 9 70 211 9 70 212 9 70 213 9 70 214 9 70 215 9 70 216 9 70 217 9 70 218 9 70 219 9 70 220 9 70 221 9 70 222 9 70 224 9 70 225 9 70 226 9 70 227 9 70 228 9 70 229 9 70 230 9 70 231 9 70 232 9 70 233 9 70 234 9 70 235 9 70 236 9 70 237 9 70 238 9 70 240 9 70 241 9 70 242 9 70 243 9 70 244 9 70 245 9 70 246 9 70 247 9 70 248 9 70 249 9 70 250 9 70 251 9 70 252 9 70 253 9 70 255 9 70
0 11 70 1 11 70 2 11 70 3 11 70 4 11 70 5 11 70 6 11 70 7 11 70 8 11 70 9 11 70 10 11 70 11 11 70 12 11 70 13 11 70 14 11 70 16 11 70 17 11 70 18 11 70 19 11 70 20 11 70 21 11 70 22 11 70 23 11 70 24 11 70 25 11 70 26 11 70 27 11 70 28 11 70 29 11 70 30 11 70 32 11 70 33 11 70 34 11 70 35 11 70 36 11 70 37 11 70 38 11 70 39 11 70 40 11 70 41 11 70 42 11 70 43 11 70 44 11 70 45 11 70 46 11 70 48 11 70 49 11 70 50 11 70 51 11 70 52 11 70 53 11 70 54 11 70 55 11 70 56 11 70 57 11 70 58 11 70 59 11 70 60 11 70 61 11 70 62 11 70 64 11 70 65 11 70 66 11 70 67 11 70 68 11 70 69 11 70 70 11 70 71 11 70 72 11 70 73 11 70 74 11 70 75 11 70 76 11 70 77 11 70 78 11 70 80 11 70 81 11 70 82 11 70 83 11 70 84 11 70 85 11 70 86 11 70 87 11 70 88 11 70 89 11 70 90 11 70 91 11 70 92 11 70 93 11 70 94 11 70 96 11 70 97 11 70 98 11 70 99 11 70 100 11 70 101 11 70 102 11 70 103 11 70 104 11 70 105 11 70 106 11 70 107 11 70 108 11 70 109 11 70 110 11 70 112 11 70 113 11 70 114 11 70 115 11 70 116 11 70 117 11 70 118 11 70 119 11 70 120 11 70 121 11 70 122 11 70 123 11 70 124 11 70 125 11 70 126 11 70 128 11 70 129 11 70 130 11 70 131 11 70 132 11 70 133 11 70 134 11 70 135 11 70 136 11 70 137 11 70 138 11 70 139 11 70 140 11 70 141 11 70 142 11 70 144 11 70 145 11 70 146 11 70 147 11 70 148 11 70 149 11 70 150 11 70 151 11 70 152 11 70 153 11 70 154 11 70 155 11 70 156 11 70 157 11 70 158 11 70 160 11 70 161 11 70 162 11 70 163 11 70 164 11 70 165 11 70 166 11 70 167 11 70 168 11 70 169 11 70 170 11 70 171 11 70 172 11 70 173 11 70 174 11 70 176 11 70 177 11 70 178 11 70 179 11 70 180 11 70 181 11 70 182 11 70 183 11 70 184 11 70 185 11 70 186 11 70 187 11 70 188 11 70 189 11 70 190 11 70 192 11 70 193 11 70 194 11 70 195 11 70 196 11 70 197 11 70 198 11 70 199 11 70 200 11 70 201 11 70 202 11 70 203 11 70 204 11 70 205 11 70 206 11 70 208 11 70 209 11 70 210 11 70 211 11 70 212 11 70 213 11 70 214 11 70 215 11 70 216 11 70 217 11 70 218 11 70 219 11 70 220 11 70 221 11 70 222 11 70 224 11 70 225 11 70 226 11 70 227 11 70 228 11 70 229 11 70 230 11 70 231 11 70 232 11 70 233 11 70 234 11 70 235 11 70 236 11 70 237 11 70 238 11 70 240 11 70 241 11 70 242 11 70 243 11 70 244 11 70 245 11 70 246 11 70 247 11 70 248 11 70 249 11 70 250 11 70 251 11 70 252 11 70 253 11 70 255 11 70
0 12 70 1 12 70 2 12 70 3 12 70 4 12 70 5 12 70 6 12 70 7 12 70 8 12 70 9 12 70 10 12 70 11 12 70 12 12 70 13 12 70 14 12 70 16 12 70 17 12 70 18 12 70 19 12 70 20 12 70 21 12 70 22 12 70 23 12 70 24 12 70 25 12 70 26 12 70 27 12 70 28 12 70 29 12 70 30 12 70 32 12 70 33 12 70 34 12 70 35 12 70 36 12 70 37 12 70 38 12 70 39 12 70 40 12 70 41 12 70 42 12 70 43 12 70 44 12 70 45 12 70 46 12 70 48 12 70 49 12 70 50 12 70 51 12 70 52 12 70 53 12 70 54 12 70 55 12 70 56 12 70 57 12 70 58 12 70 59 12 70 60 12 70 61 12 70 62 12 70 64 12 70 65 12 70 66 12 70 67 12 70 68 12 70 69 12 70 70 12 70 71 12 70 72 12 70 73 12 70 74 12 70 75 12 70 76 12 70 77 12 70 78 12 70 80 12 70 81 12 70 82 12 70 83 12 70 84 12 70 85 12 70 86 12 70 87 12 70 88 12 70 89 12 70 90 12 70 91 12 70 92 12 70 93 12 70 94 12 70 96 12 70 97 12 70 98 12 70 99 12 70 100 12 70 101 12 70 102 12 70 103 12 70 104 12 70 105 12 70 106 12 70 107 12 70 108 12 70 109 12 70 110 12 70 112 12 70 113 12 70 114 12 70 115 12 70 116 12 70 117 12 70 118 12 70 119 12 70 120 12 70 121 12 70 122 12 70 123 12 70 124 12 70 125 12 70 126 12 70 128 12 70 129 12 70 130 12 70 131 12 70 132 12 70 133 12 70 134 12 70 135 12 70 136 12 70 137 12 70 138 12 70 139 12 70 140 12 70 141 12 70 142 12 70 144 12 70 145 12 70 146 12 70 147 12 70 148 12 70 149 12 70 150 12 70 151 12 70 152 12 70 153 12 70 154 12 70 155 12 70 156 12 70 157 12 70 158 12 70 160 12 70 161 12 70 162 12 70 163 12 70 164 12 70 165 12 70 166 12 70 167 12 70 168 12 70 169 12 70 170 12 70 171 12 70 172 12 70 173 12 70 174 12 70 176 12 70 177 12 70 178 12 70 179 12 70 180 12 70 181 12 70 182 12 70 183 12 70 184 12 70 185 12 70 186 12 70 187 12 70 188 12 70 189 12 70 190 12 70 192 12 70 193 12 70 194 12 70 195 12 70 196 12 70 197 12 70 198 12 70 199 12 70 200 12 70 201 12 70 202 12 70 203 12 70 204 12 70 205 12 70 206 12 70 208 12 70 209 12 70 210 12 70 211 12 70 212 12 70 213 12 70 214 12 70 215 12 70 216 12 70 217 12 70 218 12 70 219 12 70 220 12 70 221 12 70 222 12 70 224 12 70 225 12 70 226 12 70 227 12 70 228 12 70 229 12 70 230 12 70 231 12 70 232 12 70 233 12 70 234 12 70 235 12 70 236 12 70 237 12 70 238 12 70 240 12 70 241 12 70 242 12 70 243 12 70 244 12 70 245 12 70 246 12 70 247 12 70 248 12 70 249 12 70 250 12 70 251 12 70 252 12 70 253 12 70 255 12 70
0 14 70 1 14 70 2 14 70 3 14 70 4 14 70 5 14 70 6 14 70 7 14 70 8 14 70 9 14 70 10 14 70 11 14 70 12 14 70 13 14 70 14 14 70 16 14 70 17 14 70 18 14 70 19 14 70 20 14 70 21 14 70 22 14 70 23 14 70 24 14 70 25 14 70 26 14 70 27 14 70 28 14 70 29 14 70 30 14 70 32 14 70 33 14 70 34 14 70 35 14 70 36 14 70 37 14 70 38 14 70 39 14 70 40 14 70 41 14 70 42 14 70 43 14 70 44 14 70 45 14 70 46 14 70 48 14 70 49 14 70 50 14 70 51 14 70 52 14 70 53 14 70 54 14 70 55 14 70 56 14 70 57 14 70 58 14 70 59 14 70 60 14 70 61 14 70 62 14 70 64 14 70 65 14 70 66 14 70 67 14 70 68 14 70 69 14 70 70 14 70 71 14 70 72 14 70 73 14 70 74 14 70 75 14 70 76 14 70 77 14 70 78 14 70 80 14 70 81 14 70 82 14 70 83 14 70 84 14 70 85 14 70 86 14 70 87 14 70 88 14 70 89 14 70 90 14 70 91 14 70 92 14 70 93 14 70 94 14 70 96 14 70 97 14 70 98 14 70 99 14 70 100 14 70 101 14 70 102 14 70 103 14 70 104 14 70 105 14 70 106 14 70 107 14 70 108 14 70 109 14 70 110 14 70 112 14 70 113 14 70 114 14 70 115 14 70 116 14 70 117 14 70 118 14 70 119 14 70 120 14 70 121 14 70 122 14 70 123 14 70 124 14 70 125 14 70 126 14 70 128 14 70 129 14 70 130 14 70 131 14 70 132 14 70 133 14 70 134 14 70 135 14 70 136 14 70 137 14 70 138 14 70 139 14 70 140 14 70 141 14 70 142 14 70 144 14 70 145 14 70 146 14 70 147 14 70 148 14 70 149 14 70 150 14 70 151 14 70 152 14 70 153 14 70 154 14 70 155 14 70 156 14 70 157 14 70 158 14 70 160 14 70 161 14 70 162 14 70 163 14 70 164 14 70 165 14 70 166 14 70 167 14 70 168 14 70 169 14 70 170 14 70 171 14 70 172 14 70 173 14 70 174 14 70 176 14 70 177 14 70 178 14 70 179 14 70 180 14 70 181 14 70 182 14 70 183 14 70 184 14 70 185 14 70 186 14 70 187 14 70 188 14 70 189 14 70 190 14 70 192 14 70 193 14 70 194 14 70 195 14 70 196 14 70 197 14 70 198 14 70 199 14 70 200 14 70 201 14 70 202 14 70 203 14 70 204 14 70 205 14 70 206 14 70 208 14 70 209 14 70 210 14 70 211 14 70 212 14 70 213 14 70 214 14 70 215 14 70 216 14 70 217 14 70 218 14 70 219 14 70 220 14 70 221 14 70 222 14 70 224 14 70 225 14 70 226 14 70 227 14 70 228 14 70 229 14 70 230 14 70 231 14 70 232 14 70 233 14 70 234 14 70 235 14 70 236 14 70 237 14 70 238 14 70 240 14 70 241 14 70 242 14 70 243 14 70 244 14 70 245 14 70 246 14 70 247 14 70 248 14 70 249 14 70 250 14 70 251 14 70 252 14 70 253 14 70 255 14 70
0 15 70 1 15 70 2 15 70 3 15 70 4 15 70 5 15 70 6 15 70 7 15 70 8 15 70 9 15 70 10 15 70 11 15 70 12 15 70 13 15 70 14 15 70 16 15 70 17 15 70 18 15 70 19 15 70 20 15 70 21 15 70 22 15 70 23 15 70 24 15 70 25 15 70 26 15 70 27 15 70 28 15 70 29 15 70 30 15 70 32 15 70 33 15 70 34 15 70 35 15 70 36 15 70 37 15 70 38 15 70 39 15 70 40 15 70 41 15 70 42 15 70 43 15 70 44 15 70 45 15 70 46 15 70 48 15 70 49 15 70 50 15 70 51 15 70 52 15 70 53 15 70 54 15 70 55 15 70 56 15 70 57 15 70 58 15 70 59 15 70 60 15 70 61 15 70 62 15 70 64 15 70 65 15 70 66 15 70 67 15 70 68 15 70 69 15 70 70 15 70 71 15 70 72 15 70 73 15 70 74 15 70 75 15 70 76 15 70 77 15 70 78 15 70 80 15 70 81 15 70 82 15 70 83 15 70 84 15 70 85 15 70 86 15 70 87 15 70 88 15 70 89 15 70 90 15 70 91 15 70 92 15 70 93 15 70 94 15 70 96 15 70 97 15 70 98 15 70 99 15 70 100 15 70 101 15 70 102 15 70 103 15 70 104 15 70 105 15 70 106 15 70 107 15 70 108 15 70 109 15 70 110 15 70 112 15 70 113 15 70 114 15 70 115 15 70 116 15 70 117 15 70 118 15 70 119 15 70 120 15 70 121 15 70 122 15 70 123 15 70 124 15 70 125 15 70 126 15 70 128 15 70 129 15 70 130 15 70 131 15 70 132 15 70 133 15 70 134 15 70 135 15 70 136 15 70 137 15 70 138 15 70 139 15 70 140 15 70 141 15 70 142 15 70 144 15 70 145 15 70 146 15 70 147 15 70 148 15 70 149 15 70 150 15 70 151 15 70 152 15 70 153 15 70 154 15 70 155 15 70 156 15 70 157 15 70 158 15 70 160 15 70 161 15 70 162 15 70 163 15 70 164 15 70 165 15 70 166 15 70 167 15 70 168 15 70 169 15 70 170 15 70 171 15 70 172 15 70 173 15 70 174 15 70 176 15 70 177 15 70 178 15 70 179 15 70 180 15 70 181 15 70 182 15 70 183 15 70 184 15 70 185 15 70 186 15 70 187 15 70 188 15 70 189 15 70 190 15 70 192 15 70 193 15 70 194 15 70 195 15 70 196 15 70 197 15 70 198 15 70 199 15 70 200 15 70 201 15 70 202 15 70 203 15 70 204 15 70 205 15 70 206 15 70 208 15 70 209 15 70 210 15 70 211 15 70 212 15 70 213 15 70 214 15 70 215 15 70 216 15 70 217 15 70 218 15 70 219 15 70 220 15 70 221 15 70 222 15 70 224 15 70 225 15 70 226 15 70 227 15 70 228 15 70 229 15 70 230 15 70 231 15 70 232 15 70 233 15 70 234 15 70 235 15 70 236 15 70 237 15 70 238 15 70 240 15 70 241 15 70 242 15 70 243 15 70 244 15 70 245 15 70 246 15 70 247 15 70 248 15 70 249 15 70 250 15 70 251 15 70 252 15 70 253 15 70 255 15 70
0 17 70 1 17 70 2 17 70 3 17 70 4 17 70 5 17 70 6 17 70 7 17 70 8 17 70 9 17 70 10 17 70 11 17 70 12 17 70 13 17 70 14 17 70 16 17 70 17 17 70 18 17 70 19 17 70 20 17 70 21 17 70 22 17 70 23 17 70 24 17 70 25 17 70 26 17 70 27 17 70 28 17 70 29 17 70 30 17 70 32 17 70 33 17 70 34 17 70 35 17 70 36 17 70 37 17 70 38 17 70 39 17 70 40 17 70 41 17 70 42 17 70 43 17 70 44 17 70 45 17 70 46 17 70 48 17 70 49 17 70 50 17 70 51 17 70 52 17 70 53 17 70 54 17 70 55 17 70 56 17 70 57 17 70 58 17 70 59 17 70 60 17 70 61 17 70 62 17 70 64 17 70 65 17 70 66 17 70 67 17 70 68 17 70 69 17 70 70 17 70 71 17 70 72 17 70 73 17 70 74 17 70 75 17 70 76 17 70 77 17 70 78 17 70 80 17 70 81 17 70 82 17 70 83 17 70 84 17 70 85 17 70 86 17 70 87 17 70 88 17 70 89 17 70 90 17 70 91 17 70 92 17 70 93 17 70 94 17 70 96 17 70 97 17 70 98 17 70 99 17 70 100 17 70 101 17 70 102 17 70 103 17 70 104 17 70 105 17 70 106 17 70 107 17 70 108 17 70 109 17 70 110 17 70 112 17 70 113 17 70 114 17 70 115 17 70 116 17 70 117 17 70 118 17 70 119 17 70 120 17 70 121 17 70 122 17 70 123 17 70 124 17 70 125 17 70 126 17 70 128 17 70 129 17 70 130 17 70 131 17 70 132 17 70 133 17 70 134 17 70 135 17 70 136 17 70 137 17 70 138 17 70 139 17 70 140 17 70 141 17 70 142 17 70 144 17 70 145 17 70 146 17 70 147 17 70 148 17 70 149 17 70 150 17 70 151 17 70 152 17 70 153 17 70 154 17 70 155 17 70 156 17 70 157 17 70 158 17 70 160 17 70 161 17 70 162 17 70 163 17 70 164 17 70 165 17 70 166 17 70 167 17 70 168 17 70 169 17 70 170 17 70 171 17 70 172 17 70 173 17 70 174 17 70 176 17 70 177 17 70 178 17 70 179 17 70 180 17 70 181 17 70 182 17 70 183 17 70 184 17 70 185 17 70 186 17 70 187 17 70 188 17 70 189 17 70 190 17 70 192 17 70 193 17 70 194 17 70 195 17 70 196 17 70 197 17 70 198 17 70 199 17 70 200 17 70 201 17 70 202 17 70 203 17 70 204 17 70 205 17 70 206 17 70 208 17 70 209 17 70 210 17 70 211 17 70 212 17 70 213 17 70 214 17 70 215 17 70 216 17 70 217 17 70 218 17 70 219 17 70 220 17 70 221 17 70 222 17 70 224 17 70 225 17 70 226 17 70 227 17 70 228 17 70 229 17 70 230 17 70 231 17 70 232 17 70 233 17 70 234 17 70 235 17 70 236 17 70 237 17 70 238 17 70 240 17 70 241 17 70 242 17 70 243 17 70 244 17 70 245 17 70 246 17 70 247 17 70 248 17 70 249 17 70 250 17 70 251 17 70 252 17 70 253 17 70 255 17 70
0 18 70 1 18 70 2 18 70 3 18 70 4 18 70 5 18 70 6 18 70 7 18 70 8 18 70 9 18 70 10 18 70 11 18 70 12 18 70 13 18 70 14 18 70 16 18 70 17 18 70 18 18 70 19 18 70 20 18 70 21 18 70 22 18 70 23 18 70 24 18 70 25 18 70 26 18 70 27 18 70 28 18 70 29 18 70 30 18 70 32 18 70 33 18 70 34 18 70 35 18 70 36 18 70 37 18 70 38 18 70 39 18 70 40 18 70 41 18 70 42 18 70 43 18 70 44 18 70 45 18 70 46 18 70 48 18 70 49 18 70 50 18 70 51 18 70 52 18 70 53 18 70 54 18 70 55 18 70 56 18 70 57 18 70 58 18 70 59 18 70 60 18 70 61 18 70 62 18 70 64 18 70 65 18 70 66 18 70 67 18 70 68 18 70 69 18 70 70 18 70 71 18 70 72 18 70 73 18 70 74 18 70 75 18 70 76 18 70 77 18 70 78 18 70 80 18 70 81 18 70 82 18 70 83 18 70 84 18 70 85 18 70 86 18 70 87 18 70 88 18 70 89 18 70 90 18 70 91 18 70 92 18 70 93 18 70 94 18 70 96 18 70 97 18 70 98 18 70 99 18 70 100 18 70 101 18 70 102 18 70 103 18 70 104 18 70 105 18 70 106 18 70 107 18 70 108 18 70 109 18 70 110 18 70 112 18 70 113 18 70 114 18 70 115 18 70 116 18 70 117 18 70 118 18 70 119 18 70 120 18 70 121 18 70 122 18 70 123 18 70 124 18 70 125 18 70 126 18 70 128 18 70 129 18 70 130 18 70 131 18 70 132 18 70 133 18 70 134 18 70 135 18 70 136 18 70 137 18 70 138 18 70 139 18 70 140 18 70 141 18 70 142 18 70 144 18 70 145 18 70 146 18 70 147 18 70 148 18 70 149 18 70 150 18 70 151 18 70 152 18 70 153 18 70 154 18 70 155 18 70 156 18 70 157 18 70 158 18 70 160 18 70 161 18 70 162 18 70 163 18 70 164 18 70 165 18 70 166 18 70 167 18 70 168 18 70 169 18 70 170 18 70 171 18 70 172 18 70 173 18 70 174 18 70 176 18 70 177 18 70 178 18 70 179 18 70 180 18 70 181 18 70 182 18 70 183 18 70 184 18 70 185 18 70 186 18 70 187 18 70 188 18 70 189 18 70 190 18 70 192 18 70 193 18 70 194 18 70 195 18 70 196 18 70 197 18 70 198 18 70 199 18 70 200 18 70 201 18 70 202 18 70 203 18 70 204 18 70 205 18 70 206 18 70 208 18 70 209 18 70 210 18 70 211 18 70 212 18 70 213 18 70 214 18 70 215 18 70 216 18 70 217 18 70 218 18 70 219 18 70 220 18 70 221 18 70 222 18 70 224 18 70 225 18 70 226 18 70 227 18 70 228 18 70 229 18 70 230 18 70 231 18 70 232 18 70 233 18 70 234 18 70 235 18 70 236 18 70 237 18 70 238 18 70 240 18 70 241 18 70 242 18 70 243 18 70 244 18 70 245 18 70 246 18 70 247 18 70 248 18 70 249 18 70 250 18 70 251 18 70 252 18 70 253 18 70 255 18 70
0 19 70 1 19 70 2 19 70 3 19 70 4 19 70 5 19 70 6 19 70 7 19 70 8 19 70 9 19 70 10 19 70 11 19 70 12 19 70 13 19 70 14 19 70 16 19 70 17 19 70 18 19 70 19 19 70 20 19 70 21 19 70 22 19 70 23 19 70 24 19 70 25 19 70 26 19 70 27 19 70 28 19 70 29 19 70 30 19 70 32 19 70 33 19 70 34 19 70 35 19 70 36 19 70 37 19 70 38 19 70 39 19 70 40 19 70 41 19 70 42 19 70 43 19 70 44 19 70 45 19 70 46 19 70 48 19 70 49 19 70 50 19 70 51 19 70 52 19 70 53 19 70 54 19 70 55 19 70 56 19 70 57 19 70 58 19 70 59 19 70 60 19 70 61 19 70 62 19 70 64 19 70 65 19 70 66 19 70 67 19 70 68 19 70 69 19 70 70 19 70 71 19 70 72 19 70 73 19 70 74 19 70 75 19 70 76 19 70 77 19 70 78 19 70 80 19 70 81 19 70 82 19 70 83 19 70 84 19 70 85 19 70 86 19 70 87 19 70 88 19 70 89 19 70 90 19 70 91 19 70 92 19 70 93 19 70 94 19 70 96 19 70 97 19 70 98 19 70 99 19 70 100 19 70 101 19 70 102 19 70 103 19 70 104 19 70 105 19 70 106 19 70 107 19 70 108 19 70 109 19 70 110 19 70 112 19 70 113 19 70 114 19 70 115 19 70 116 19 70 117 19 70 118 19 70 119 19 70 120 19 70 121 19 70 122 19 70 123 19 70 124 19 70 125 19 70 126 19 70 128 19 70 129 19 70 130 19 70 131 19 70 132 19 70 133 19 70 134 19 70 135 19 70 136 19 70 137 19 70 138 19 70 139 19 70 140 19 70 141 19 70 142 19 70 144 19 70 145 19 70 146 19 70 147 19 70 148 19 70 149 19 70 150 19 70 151 19 70 152 19 70 153 19 70 154 19 70 155 19 70 156 19 70 157 19 70 158 19 70 160 19 70 161 19 70 162 19 70 163 19 70 164 19 70 165 19 70 166 19 70 167 19 70 168 19 70 169 19 70 170 19 70 171 19 70 172 19 70 173 19 70 174 19 70 176 19 70 177 19 70 178 19 70 179 19 70 180 19 70 181 19 70 182 19 70 183 19 70 184 19 70 185 19 70 186 19 70 187 19 70 188 19 70 189 19 70 190 19 70 192 19 70 193 19 70 194 19 70 195 19 70 196 19 70 197 19 70 198 19 70 199 19 70 200 19 70 201 19 70 202 19 70 203 19 70 204 19 70 205 19 70 206 19 70 208 19 70 209 19 70 210 19 70 211 19 70 212 19 70 213 19 70 214 19 70 215 19 70 216 19 70 217 19 70 218 19 70 219 19 70 220 19 70 221 19 70 222 19 70 224 19 70 225 19 70 226 19 70 227 19 70 228 19 70 229 19 70 230 19 70 231 19 70 232 19 70 233 19 70 234 19 70 235 19 70 236 19 70 237 19 70 238 19 70 240 19 70 241 19 70 242 19 70 243 19 70 244 19 70 245 19 70 246 19 70 247 19 70 248 19 70 249 19 70 250 19 70 251 19 70 252 19 70 253 19 70 255 19 70
0 21 70 1 21 70 2 21 70 3 21 70 4 21 70 5 21 70 6 21 70 7 21 70 8 21 70 9 21 70 10 21 70 11 21 70 12 21 70 13 21 70 14 21 70 16 21 70 17 21 70 18 21 70 19 21 70 20 21 70 21 21 70 22 21 70 23 21 70 24 21 70 25 21 70 26 21 70 27 21 70 28 21 70 29 21 70 30 21 70 32 21 70 33 21 70 34 21 70 35 21 70 36 21 70 37 21 70 38 21 70 39 21 70 40 21 70 41 21 70 42 21 70 43 21 70 44 21 70 45 21 70 46 21 70 48 21 70 49 21 70 50 21 70 51 21 70 52 21 70 53 21 70 54 21 70 55 21 70 56 21 70 57 21 70 58 21 70 59 21 70 60 21 70 61 21 70 62 21 70 64 21 70 65 21 70 66 21 70 67 21 70 68 21 70 69 21 70 70 21 70 71 21 70 72 21 70 73 21 70 74 21 70 75 21 70 76 21 70 77 21 70 78 21 70 80 21 70 81 21 70 82 21 70 83 21 70 84 21 70 85 21 70 86 21 70 87 21 70 88 21 70 89 21 70 90 21 70 91 21 70 92 21 70 93 21 70 94 21 70 96 21 70 97 21 70 98 21 70 99 21 70 100 21 70 101 21 70 102 21 70 103 21 70 104 21 70 105 21 70 106 21 70 107 21 70 108 21 70 109 21 70 110 21 70 112 21 70 113 21 70 114 21 70 115 21 70 116 21 70 117 21 70 118 21 70 119 21 70 120 21 70 121 21 70 122 21 70 123 21 70 124 21 70 125 21 70 126 21 70 128 21 70 129 21 70 130 21 70 131 21 70 132 21 70 133 21 70 134 21 70 135 21 70 136 21 70 137 21 70 138 21 70 139 21 70 140 21 70 141 21 70 142 21 70 144 21 70 145 21 70 146 21 70 147 21 70 148 21 70 149 21 70 150 21 70 151 21 70 152 21 70 153 21 70 154 21 70 155 21 70 156 21 70 157 21 70 158 21 70 160 21 70 161 21 70 162 21 70 163 21 70 164 21 70 165 21 70 166 21 70 167 21 70 168 21 70 169 21 70 170 21 70 171 21 70 172 21 70 173 21 70 174 21 70 176 21 70 177 21 70 178 21 70 179 21 70 180 21 70 181 21 70 182 21 70 183 21 70 184 21 70 185 21 70 186 21 70 187 21 70 188 21 70 189 21 70 190 21 70 192 21 70 193 21 70 194 21 70 195 21 70 196 21 70 197 21 70 198 21 70 199 21 70 200 21 70 201 21 70 202 21 70 203 21 70 204 21 70 205 21 70 206 21 70 208 21 70 209 21 70 210 21 70 211 21 70 212 21 70 213 21 70 214 21 70 215 21 70 216 21 70 217 21 70 218 21 70 219 21 70 220 21 70 221 21 70 222 21 70 224 21 70 225 21 70 226 21 70 227 21 70 228 21 70 229 21 70 230 21 70 231 21 70 232 21 70 233 21 70 234 21 70 235 21 70 236 21 70 237 21 70 238 21 70 240 21 70 241 21 70 242 21 70 243 21 70 244 21 70 245 21 70 246 21 70 247 21 70 248 21 70 249 21 70 250 21 70 251 21 70 252 21 70 253 21 70 255 21 70
0 22 70 1 22 70 2 22 70 3 22 70 4 22 70 5 22 70 6 22 70 7 22 70 8 22 70 9 22 70 10 22 70 11 22 70 12 22 70 13 22 70 14 22 70 16 22 70 17 22 70 18 22 70 19 22 70 20 22 70 21 22 70 22 22 70 23 22 70 24 22 70 25 22 70 26 22 70 27 22 70 28 22 70 29 22 70 30 22 70 32 22 70 33 22 70 34 22 70 35 22 70 36 22 70 37 22 70 38 22 70 39 22 70 40 22 70 41 22 70 42 22 70 43 22 70 44 22 70 45 22 70 46 22 70 48 22 70 49 22 70 50 22 70 51 22 70 52 22 70 53 22 70 54 22 70 55 22 70 56 22 70 57 22 70 58 22 70 59 22 70 60 22 70 61 22 70 62 22 70 64 22 70 65 22 70 66 22 70 67 22 70 68 22 70 69 22 70 70 22 70 71 22 70 72 22 70 73 22 70 74 22 70 75 22 70 76 22 70 77 22 70 78 22 70 80 22 70 81 22 70 82 22 70 83 22 70 84 22 70 85 22 70 86 22 70 87 22 70 88 22 70 89 22 70 90 22 70 91 22 70 92 22 70 93 22 70 94 22 70 96 22 70 97 22 70 98 22 70 99 22 70 100 22 70 101 22 70 102 22 70 103 22 70 104 22 70 105 22 70 106 22 70 107 22 70 108 22 70 109 22 70 110 22 70 112 22 70 113 22 70 114 22 70 115 22 70 116 22 70 117 22 70 118 22 70 119 22 70 120 22 70 121 22 70 122 22 70 123 22 70 124 22 70 125 22 70 126 22 70 128 22 70 129 22 70 130 22 70 131 22 70 132 22 70 133 22 70 134 22 70 135 22 70 136 22 70 137 22 70 138 22 70 139 22 70 140 22 70 141 22 70 142 22 70 144 22 70 145 22 70 146 22 70 147 22 70 148 22 70 149 22 70 150 22 70 151 22 70 152 22 70 153 22 70 154 22 70 155 22 70 156 22 70 157 22 70 158 22 70 160 22 70 161 22 70 162 22 70 163 22 70 164 22 70 165 22 70 166 22 70 167 22 70 168 22 70 169 22 70 170 22 70 171 22 70 172 22 70 173 22 70 174 22 70 176 22 70 177 22 70 178 22 70 179 22 70 180 22 70 181 22 70 182 22 70 183 22 70 184 22 70 185 22 70 186 22 70 187 22 70 188 22 70 189 22 70 190 22 70 192 22 70 193 22 70 194 22 70 195 22 70 196 22 70 197 22 70 198 22 70 199 22 70 200 22 70 201 22 70 202 22 70 203 22 70 204 22 70 205 22 70 206 22 70 208 22 70 209 22 70 210 22 70 211 22 70 212 22 70 213 22 70 214 22 70 215 22 70 216 22 70 217 22 70 218 22 70 219 22 70 220 22 70 221 22 70 222 22 70 224 22 70 225 22 70 226 22 70 227 22 70 228 22 70 229 22 70 230 22 70 231 22 70 232 22 70 233 22 70 234 22 70 235 22 70 236 22 70 237 22 70 238 22 70 240 22 70 241 22 70 242 22 70 243 22 70 244 22 70 245 22 70 246 22 70 247 22 70 248 22 70 249 22 70 250 22 70 251 22 70 252 22 70 253 22 70 255 22 70
0 24 70 1 24 70 2 24 70 3 24 70 4 24 70 5 24 70 6 24 70 7 24 70 8 24 70 9 24 70 10 24 70 11 24 70 12 24 70 13 24 70 14 24 70 16 24 70 17 24 70 18 24 70 19 24 70 20 24 70 21 24 70 22 24 70 23 24 70 24 24 70 25 24 70 26 24 70 27 24 70 28 24 70 29 24 70 30 24 70 32 24 70 33 24 70 34 24 70 35 24 70 36 24 70 37 24 70 38 24 70 39 24 70 40 24 70 41 24 70 42 24 70 43 24 70 44 24 70 45 24 70 46 24 70 48 24 70 49 24 70 50 24 70 51 24 70 52 24 70 53 24 70 54 24 70 55 24 70 56 24 70 57 24 70 58 24 70 59 24 70 60 24 70 61 24 70 62 24 70 64 24 70 65 24 70 66 24 70 67 24 70 68 24 70 69 24 70 70 24 70 71 24 70 72 24 70 73 24 70 74 24 70 75 24 70 76 24 70 77 24 70 78 24 70 80 24 70 81 24 70 82 24 70 83 24 70 84 24 70 85 24 70 86 24 70 87 24 70 88 24 70 89 24 70 90 24 70 91 24 70 92 24 70 93 24 70 94 24 70 96 24 70 97 24 70 98 24 70 99 24 70 100 24 70 101 24 70 102 24 70 103 24 70 104 24 70 105 24 70 106 24 70 107 24 70 108 24 70 109 24 70 110 24 70 112 24 70 113 24 70 114 24 70 115 24 70 116 24 70 117 24 70 118 24 70 119 24 70 120 24 70 121 24 70 122 24 70 123 24 70 124 24 70 125 24 70 126 24 70 128 24 70 129 24 70 130 24 70 131 24 70 132 24 70 133 24 70 134 24 70 135 24 70 136 24 70 137 24 70 138 24 70 139 24 70 140 24 70 141 24 70 142 24 70 144 24 70 145 24 70 146 24 70 147 24 70 148 24 70 149 24 70 150 24 70 151 24 70 152 24 70 153 24 70 154 24 70 155 24 70 156 24 70 157 24 70 158 24 70 160 24 70 161 24 70 162 24 70 163 24 70 164 24 70 165 24 70 166 24 70 167 24 70 168 24 70 169 24 70 170 24 70 171 24 70 172 24 70 173 24 70 174 24 70 176 24 70 177 24 70 178 24 70 179 24 70 180 24 70 181 24 70 182 24 70 183 24 70 184 24 70 185 24 70 186 24 70 187 24 70 188 24 70 189 24 70 190 24 70 192 24 70 193 24 70 194 24 70 195 24 70 196 24 70 197 24 70 198 24 70 199 24 70 200 24 70 201 24 70 202 24 70 203 24 70 204 24 70 205 24 70 206 24 70 208 24 70 209 24 70 210 24 70 211 24 70 212 24 70 213 24 70 214 24 70 215 24 70 216 24 70 217 24 70 218 24 70 219 24 70 220 24 70 221 24 70 222 24 70 224 24 70 225 24 70 226 24 70 227 24 70 228 24 70 229 24 70 230 24 70 231 24 70 232 24 70 233 24 70 234 24 70 235 24 70 236 24 70 237 24 70 238 24 70 240 24 70 241 24 70 242 24 70 243 24 70 244 24 70 245 24 70 246 24 70 247 24 70 248 24 70 249 24 70 250 24 70 251 24 70 252 24 70 253 24 70 255 24 70
0 25 70 1 25 70 2 25 70 3 25 70 4 25 70 5 25 70 6 25 70 7 25 70 8 25 70 9 25 70 10 25 70 11 25 70 12 25 70 13 25 70 14 25 70 16 25 70 17 25 70 18 25 70 19 25 70 20 25 70 21 25 70 22 25 70 23 25 70 24 25 70 25 25 70 26 25 70 27 25 70 28 25 70 29 25 70 30 25 70 32 25 70 33 25 70 34 25 70 35 25 70 36 25 70 37 25 70 38 25 70 39 25 70 40 25 70 41 25 70 42 25 70 43 25 70 44 25 70 45 25 70 46 25 70 48 25 70 49 25 70 50 25 70 51 25 70 52 25 70 53 25 70 54 25 70 55 25 70 56 25 70 57 25 70 58 25 70 59 25 70 60 25 70 61 25 70 62 25 70 64 25 70 65 25 70 66 25 70 67 25 70 68 25 70 69 25 70 70 25 70 71 25 70 72 25 70 73 25 70 74 25 70 75 25 70 76 25 70 77 25 70 78 25 70 80 25 70 81 25 70 82 25 70 83 25 70 84 25 70 85 25 70 86 25 70 87 25 70 88 25 70 89 25 70 90 25 70 91 25 70 92 25 70 93 25 70 94 25 70 96 25 70 97 25 70 98 25 70 99 25 70 100 25 70 101 25 70 102 25 70 103 25 70 104 25 70 105 25 70 106 25 70 107 25 70 108 25 70 109 25 70 110 25 70 112 25 70 113 25 70 114 25 70 115 25 70 116 25 70 117 25 70 118 25 70 119 25 70 120 25 70 121 25 70 122 25 70 123 25 70 124 25 70 125 25 70 126 25 70 128 25 70 129 25 70 130 25 70 131 25 70 132 25 70 133 25 70 134 25 70 135 25 70 136 25 70 137 25 70 138 25 70 139 25 70 140 25 70 141 25 70 142 25 70 144 25 70 145 25 70 146 25 70 147 25 70 148 25 70 149 25 70 150 25 70 151 25 70 152 25 70 153 25 70 154 25 70 155 25 70 156 25 70 157 25 70 158 25 70 160 25 70 161 25 70 162 25 70 163 25 70 164 25 70 165 25 70 166 25 70 167 25 70 168 25 70 169 25 70 170 25 70 171 25 70 172 25 70 173 25 70 174 25 70 176 25 70 177 25 70 178 25 70 179 25 70 180 25 70 181 25 70 182 25 70 183 25 70 184 25 70 185 25 70 186 25 70 187 25 70 188 25 70 189 25 70 190 25 70 192 25 70 193 25 70 194 25 70 195 25 70 196 25 70 197 25 70 198 25 70 199 25 70 200 25 70 201 25 70 202 25 70 203 25 70 204 25 70 205 25 70 206 25 70 208 25 70 209 25 70 210 25 70 211 25 70 212 25 70 213 25 70 214 25 70 215 25 70 216 25 70 217 25 70 218 25 70 219 25 70 220 25 70 221 25 70 222 25 70 224 25 70 225 25 70 226 25 70 227 25 70 228 25 70 229 25 70 230 25 70 231 25 70 232 25 70 233 25 70 234 25 70 235 25 70 236 25 70 237 25 70 238 25 70 240 25 70 241 25 70 242 25 70 243 25 70 244 25 70 245 25 70 246 25 70 247 25 70 248 25 70 249 25 70 250 25 70 251 25 70 252 25 70 253 25 70 255 25 70
0 27 70 1 27 70 2 27 70 3 27 70 4 27 70 5 27 70 6 27 70 7 27 70 8 27 70 9 27 70 10 27 70 11 27 70 12 27 70 13 27 70 14 27 70 16 27 70 17 27 70 18 27 70 19 27 70 20 27 70 21 27 70 22 27 70 23 27 70 24 27 70 25 27 70 26 27 70 27 27 70 28 27 70 29 27 70 30 27 70 32 27 70 33 27 70 34 27 70 35 27 70 36 27 70 37 27 70 38 27 70 39 27 70 40 27 70 41 27 70 42 27 70 43 27 70 44 27 70 45 27 70 46 27 70 48 27 70 49 27 70 50 27 70 51 27 70 52 27 70 53 27 70 54 27 70 55 27 70 56 27 70 57 27 70 58 27 70 59 27 70 60 27 70 61 27 70 62 27 70 64 27 70 65 27 70 66 27 70 67 27 70 68 27 70 69 27 70 70 27 70 71 27 70 72 27 70 73 27 70 74 27 70 75 27 70 76 27 70 77 27 70 78 27 70 80 27 70 81 27 70 82 27 70 83 27 70 84 27 70 85 27 70 86 27 70 87 27 70 88 27 70 89 27 70 90 27 70 91 27 70 92 27 70 93 27 70 94 27 70 96 27 70 97 27 70 98 27 70 99 27 70 100 27 70 101 27 70 102 27 70 103 27 70 104 27 70 105 27 70 106 27 70 107 27 70 108 27 70 109 27 70 110 27 70 112 27 70 113 27 70 114 27 70 115 27 70 116 27 70 117 27 70 118 27 70 119 27 70 120 27 70 121 27 70 122 27 70 123 27 70 124 27 70 125 27 70 126 27 70 128 27 70 129 27 70 130 27 70 131 27 70 132 27 70 133 27 70 134 27 70 135 27 70 136 27 70 137 27 70 138 27 70 139 27 70 140 27 70 141 27 70 142 27 70 144 27 70 145 27 70 146 27 70 147 27 70 148 27 70 149 27 70 150 27 70 151 27 70 152 27 70 153 27 70 154 27 70 155 27 70 156 27 70 157 27 70 158 27 70 160 27 70 161 27 70 162 27 70 163 27 70 164 27 70 165 27 70 166 27 70 167 27 70 168 27 70 169 27 70 170 27 70 171 27 70 172 27 70 173 27 70 174 27 70 176 27 70 177 27 70 178 27 70 179 27 70 180 27 70 181 27 70 182 27 70 183 27 70 184 27 70 185 27 70 186 27 70 187 27 70 188 27 70 189 27 70 190 27 70 192 27 70 193 27 70 194 27 70 195 27 70 196 27 70 197 27 70 198 27 70 199 27 70 200 27 70 201 27 70 202 27 70 203 27 70 204 27 70 205 27 70 206 27 70 208 27 70 209 27 70 210 27 70 211 27 70 212 27 70 213 27 70 214 27 70 215 27 70 216 27 70 217 27 70 218 27 70 219 27 70 220 27 70 221 27 70 222 27 70 224 27 70 225 27 70 226 27 70 227 27 70 228 27 70 229 27 70 230 27 70 231 27 70 232 27 70 233 27 70 234 27 70 235 27 70 236 27 70 237 27 70 238 27 70 240 27 70 241 27 70 242 27 70 243 27 70 244 27 70 245 27 70 246 27 70 247 27 70 248 27 70 249 27 70 250 27 70 251 27 70 252 27 70 253 27 70 255 27 70
0 28 70 1 28 70 2 28 70 3 28 70 4 28 70 5 28 70 6 28 70 7 28 70 8 28 70 9 28 70 10 28 70 11 28 70 12 28 70 13 28 70 14 28 70 16 28 70 17 28 70 18 28 70 19 28 70 20 28 70 21 28 70 22 28 70 23 28 70 24 28 70 25 28 70 26 28 70 27 28 70 28 28 70 29 28 70 30 28 70 32 28 70 33 28 70 34 28 70 35 28 70 36 28 70 37 28 70 38 28 70 39 28 70 40 28 70 41 28 70 42 28 70 43 28 70 44 28 70 45 28 70 46 28 70 48 28 70 49 28 70 50 28 70 51 28 70 52 28 70 53 28 70 54 28 70 55 28 70 56 28 70 57 28 70 58 28 70 59 28 70 60 28 70 61 28 70 62 28 70 64 28 70 65 28 70 66 28 70 67 28 70 68 28 70 69 28 70 70 28 70 71 28 70 72 28 70 73 28 70 74 28 70 75 28 70 76 28 70 77 28 70 78 28 70 80 28 70 81 28 70 82 28 70 83 28 70 84 28 70 85 28 70 86 28 70 87 28 70 88 28 70 89 28 70 90 28 70 91 28 70 92 28 70 93 28 70 94 28 70 96 28 70 97 28 70 98 28 70 99 28 70 100 28 70 101 28 70 102 28 70 103 28 70 104 28 70 105 28 70 106 28 70 107 28 70 108 28 70 109 28 70 110 28 70 112 28 70 113 28 70 114 28 70 115 28 70 116 28 70 117 28 70 118 28 70 119 28 70 120 28 70 121 28 70 122 28 70 123 28 70 124 28 70 125 28 70 126 28 70 128 28 70 129 28 70 130 28 70 131 28 70 132 28 70 133 28 70 134 28 70 135 28 70 136 28 70 137 28 70 138 28 70 139 28 70 140 28 70 141 28 70 142 28 70 144 28 70 145 28 70 146 28 70 147 28 70 148 28 70 149 28 70 150 28 70 151 28 70 152 28 70 153 28 70 154 28 70 155 28 70 156 28 70 157 28 70 158 28 70 160 28 70 161 28 70 162 28 70 163 28 70 164 28 70 165 28 70 166 28 70 167 28 70 168 28 70 169 28 70 170 28 70 171 28 70 172 28 70 173 28 70 174 28 70 176 28 70 177 28 70 178 28 70 179 28 70 180 28 70 181 28 70 182 28 70 183 28 70 184 28 70 185 28 70 186 28 70 187 28 70 188 28 70 189 28 70 190 28 70 192 28 70 193 28 70 194 28 70 195 28 70 196 28 70 197 28 70 198 28 70 199 28 70 200 28 70 201 28 70 202 28 70 203 28 70 204 28 70 205 28 70 206 28 70 208 28 70 209 28 70 210 28 70 211 28 70 212 28 70 213 28 70 214 28 70 215 28 70 216 28 70 217 28 70 218 28 70 219 28 70 220 28 70 221 28 70 222 28 70 224 28 70 225 28 70 226 28 70 227 28 70 228 28 70 229 28 70 230 28 70 231 28 70 232 28 70 233 28 70 234 28 70 235 28 70 236 28 70 237 28 70 238 28 70 240 28 70 241 28 70 242 28 70 243 28 70 244 28 70 245 28 70 246 28 70 247 28 70 248 28 70 249 28 70 250 28 70 251 28 70 252 28 70 253 28 70 255 28 70
0 29 70 1 29 70 2 29 70 3 29 70 4 29 70 5 29 70 6 29 70 7 29 70 8 29 70 9 29 70 10 29 70 11 29 70 12 29 70 13 29 70 14 29 70 16 29 70 17 29 70 18 29 70 19 29 70 20 29 70 21 29 70 22 29 70 23 29 70 24 29 70 25 29 70 26 29 70 27 29 70 28 29 70 29 29 70 30 29 70 32 29 70 33 29 70 34 29 70 35 29 70 36 29 70 37 29 70 38 29 70 39 29 70 40 29 70 41 29 70 42 29 70 43 29 70 44 29 70 45 29 70 46 29 70 48 29 70 49 29 70 50 29 70 51 29 70 52 29 70 53 29 70 54 29 70 55 29 70 56 29 70 57 29 70 58 29 70 59 29 70 60 29 70 61 29 70 62 29 70 64 29 70 65 29 70 66 29 70 67 29 70 68 29 70 69 29 70 70 29 70 71 29 70 72 29 70 73 29 70 74 29 70 75 29 70 76 29 70 77 29 70 78 29 70 80 29 70 81 29 70 82 29 70 83 29 70 84 29 70 85 29 70 86 29 70 87 29 70 88 29 70 89 29 70 90 29 70 91 29 70 92 29 70 93 29 70 94 29 70 96 29 70 97 29 70 98 29 70 99 29 70 100 29 70 101 29 70 102 29 70 103 29 70 104 29 70 105 29 70 106 29 70 107 29 70 108 29 70 109 29 70 110 29 70 112 29 70 113 29 70 114 29 70 115 29 70 116 29 70 117 29 70 118 29 70 119 29 70 120 29 70 121 29 70 122 29 70 123 29 70 124 29 70 125 29 70 126 29 70 128 29 70 129 29 70 130 29 70 131 29 70 132 29 70 133 29 70 134 29 70 135 29 70 136 29 70 137 29 70 138 29 70 139 29 70 140 29 70 141 29 70 142 29 70 144 29 70 145 29 70 146 29 70 147 29 70 148 29 70 149 29 70 150 29 70 151 29 70 152 29 70 153 29 70 154 29 70 155 29 70 156 29 70 157 29 70 158 29 70 160 29 70 161 29 70 162 29 70 163 29 70 164 29 70 165 29 70 166 29 70 167 29 70 168 29 70 169 29 70 170 29 70 171 29 70 172 29 70 173 29 70 174 29 70 176 29 70 177 29 70 178 29 70 179 29 70 180 29 70 181 29 70 182 29 70 183 29 70 184 29 70 185 29 70 186 29 70 187 29 70 188 29 70 189 29 70 190 29 70 192 29 70 193 29 70 194 29 70 195 29 70 196 29 70 197 29 70 198 29 70 199 29 70 200 29 70 201 29 70 202 29 70 203 29 70 204 29 70 205 29 70 206 29 70 208 29 70 209 29 70 210 29 70 211 29 70 212 29 70 213 29 70 214 29 70 215 29 70 216 29 70 217 29 70 218 29 70 219 29 70 220 29 70 221 29 70 222 29 70 224 29 70 225 29 70 226 29 70 227 29 70 228 29 70 229 29 70 230 29 70 231 29 70 232 29 70 233 29 70 234 29 70 235 29 70 236 29 70 237 29 70 238 29 70 240 29 70 241 29 70 242 29 70 243 29 70 244 29 70 245 29 70 246 29 70 247 29 70 248 29 70 249 29 70 250 29 70 251 29 70 252 29 70 253 29 70 255 29 70
0 31 70 1 31 70 2 31 70 3 31 70 4 31 70 5 31 70 6 31 70 7 31 70 8 31 70 9 31 70 10 31 70 11 31 70 12 31 70 13 31 70 14 31 70 16 31 70 17 31 70 18 31 70 19 31 70 20 31 70 21 31 70 22 31 70 23 31 70 24 31 70 25 31 70 26 31 70 27 31 70 28 31 70 29 31 70 30 31 70 32 31 70 33 31 70 34 31 70 35 31 70 36 31 70 37 31 70 38 31 70 39 31 70 40 31 70 41 31 70 42 31 70 43 31 70 44 31 70 45 31 70 46 31 70 48 31 70 49 31 70 50 31 70 51 31 70 52 31 70 53 31 70 54 31 70 55 31 70 56 31 70 57 31 70 58 31 70 59 31 70 60 31 70 61 31 70 62 31 70 64 31 70 65 31 70 66 31 70 67 31 70 68 31 70 69 31 70 70 31 70 71 31 70 72 31 70 73 31 70 74 31 70 75 31 70 76 31 70 77 31 70 78 31 70 80 31 70 81 31 70 82 31 70 83 31 70 84 31 70 85 31 70 86 31 70 87 31 70 88 31 70 89 31 70 90 31 70 91 31 70 92 31 70 93 31 70 94 31 70 96 31 70 97 31 70 98 31 70 99 31 70 100 31 70 101 31 70 102 31 70 103 31 70 104 31 70 105 31 70 106 31 70 107 31 70 108 31 70 109 31 70 110 31 70 112 31 70 113 31 70 114 31 70 115 31 70 116 31 70 117 31 70 118 31 70 119 31 70 120 31 70 121 31 70 122 31 70 123 31 70 124 31 70 125 31 70 126 31 70 128 31 70 129 31 70 130 31 70 131 31 70 132 31 70 133 31 70 134 31 70 135 31 70 136 31 70 137 31 70 138 31 70 139 31 70 140 31 70 141 31 70 142 31 70 144 31 70 145 31 70 146 31 70 147 31 70 148 31 70 149 31 70 150 31 70 151 31 70 152 31 70 153 31 70 154 31 70 155 31 70 156 31 70 157 31 70 158 31 70 160 31 70 161 31 70 162 31 70 163 31 70 164 31 70 165 31 70 166 31 70 167 31 70 168 31 70 169 31 70 170 31 70 171 31 70 172 31 70 173 31 70 174 31 70 176 31 70 177 31 70 178 31 70 179 31 70 180 31 70 181 31 70 182 31 70 183 31 70 184 31 70 185 31 70 186 31 70 187 31 70 188 31 70 189 31 70 190 31 70 192 31 70 193 31 70 194 31 70 195 31 70 196 31 70 197 31 70 198 31 70 199 31 70 200 31 70 201 31 70 202 31 70 203 31 70 204 31 70 205 31 70 206 31 70 208 31 70 209 31 70 210 31 70 211 31 70 212 31 70 213 31 70 214 31 70 215 31 70 216 31 70 217 31 70 218 31 70 219 31 70 220 31 70 221 31 70 222 31 70 224 31 70 225 31 70 226 31 70 227 31 70 228 31 70 229 31 70 230 31 70 231 31 70 232 31 70 233 31 70 234 31 70 235 31 70 236 31 70 237 31 70 238 31 70 240 31 70 241 31 70 242 31 70 243 31 70 244 31 70 245 31 70 246 31 70 247 31 70 248 31 70 249 31 70 250 31 70 251 31 70 252 31 70 253 31 70 255 31 70
0 32 70 1 32 70 2 32 70 3 32 70 4 32 70 5 32 70 6 32 70 7 32 70 8 32 70 9 32 70 10 32 70 11 32 70 12 32 70 13 32 70 14 32 70 16 32 70 17 32 70 18 32 70 19 32 70 20 32 70 21 32 70 22 32 70 23 32 70 24 32 70 25 32 70 26 32 70 27 32 70 28 32 70 29 32 70 30 32 70 32 32 70 33 32 70 34 32 70 35 32 70 36 32 70 37 32 70 38 32 70 39 32 70 40 32 70 41 32 70 42 32 70 43 32 70 44 32 70 45 32 70 46 32 70 48 32 70 49 32 70 50 32 70 51 32 70 52 32 70 53 32 70 54 32 70 55 32 70 56 32 70 57 32 70 58 32 70 59 32 70 60 32 70 61 32 70 62 32 70 64 32 70 65 32 70 66 32 70 67 32 70 68 32 70 69 32 70 70 32 70 71 32 70 72 32 70 73 32 70 74 32 70 75 32 70 76 32 70 77 32 70 78 32 70 80 32 70 81 32 70 82 32 70 83 32 70 84 32 70 85 32 70 86 32 70 87 32 70 88 32 70 89 32 70 90 32 70 91 32 70 92 32 70 93 32 70 94 32 70 96 32 70 97 32 70 98 32 70 99 32 70 100 32 70 101 32 70 102 32 70 103 32 70 104 32 70 105 32 70 106 32 70 107 32 70 108 32 70 109 32 70 110 32 70 112 32 70 113 32 70 114 32 70 115 32 70 116 32 70 117 32 70 118 32 70 119 32 70 120 32 70 121 32 70 122 32 70 123 32 70 124 32 70 125 32 70 126 32 70 128 32 70 129 32 70 130 32 70 131 32 70 132 32 70 133 32 70 134 32 70 135 32 70 136 32 70 137 32 70 138 32 70 139 32 70 140 32 70 141 32 70 142 32 70 144 32 70 145 32 70 146 32 70 147 32 70 148 32 70 149 32 70 150 32 70 151 32 70 152 32 70 153 32 70 154 32 70 155 32 70 156 32 70 157 32 70 158 32 70 160 32 70 161 32 70 162 32 70 163 32 70 164 32 70 165 32 70 166 32 70 167 32 70 168 32 70 169 32 70 170 32 70 171 32 70 172 32 70 173 32 70 174 32 70 176 32 70 177 32 70 178 32 70 179 32 70 180 32 70 181 32 70 182 32 70 183 32 70 184 32 70 185 32 70 186 32 70 187 32 70 188 32 70 189 32 70 190 32 70 192 32 70 193 32 70 194 32 70 195 32 70 196 32 70 197 32 70 198 32 70 199 32 70 200 32 70 201 32 70 202 32 70 203 32 70 204 32 70 205 32 70 206 32 70 208 32 70 209 32 70 210 32 70 211 32 70 212 32 70 213 32 70 214 32 70 215 32 70 216 32 70 217 32 70 218 32 70 219 32 70 220 32 70 221 32 70 222 32 70 224 32 70 225 32 70 226 32 70 227 32 70 228 32 70 229 32 70 230 32 70 231 32 70 232 32 70 233 32 70 234 32 70 235 32 70 236 32 70 237 32 70 238 32 70 240 32 70 241 32 70 242 32 70 243 32 70 244 32 70 245 32 70 246 32 70 247 32 70 248 32 70 249 32 70 250 32 70 251 32 70 252 32 70 253 32 70 255 32 70
0 34 70 1 34 70 2 34 70 3 34 70 4 34 70 5 34 70 6 34 70 7 34 70 8 34 70 9 34 70 10 34 70 11 34 70 12 34 70 13 34 70 14 34 70 16 34 70 17 34 70 18 34 70 19 34 70 20 34 70 21 34 70 22 34 70 23 34 70 24 34 70 25 34 70 26 34 70 27 34 70 28 34 70 29 34 70 30 34 70 32 34 70 33 34 70 34 34 70 35 34 70 36 34 70 37 34 70 38 34 70 39 34 70 40 34 70 41 34 70 42 34 70 43 34 70 44 34 70 45 34 70 46 34 70 48 34 70 49 34 70 50 34 70 51 34 70 52 34 70 53 34 70 54 34 70 55 34 70 56 34 70 57 34 70 58 34 70 59 34 70 60 34 70 61 34 70 62 34 70 64 34 70 65 34 70 66 34 70 67 34 70 68 34 70 69 34 70 70 34 70 71 34 70 72 34 70 73 34 70 74 34 70 75 34 70 76 34 70 77 34 70 78 34 70 80 34 70 81 34 70 82 34 70 83 34 70 84 34 70 85 34 70 86 34 70 87 34 70 88 34 70 89 34 70 90 34 70 91 34 70 92 34 70 93 34 70 94 34 70 96 34 70 97 34 70 98 34 70 99 34 70 100 34 70 101 34 70 102 34 70 103 34 70 104 34 70 105 34 70 106 34 70 107 34 70 108 34 70 109 34 70 110 34 70 112 34 70 113 34 70 114 34 70 115 34 70 116 34 70 117 34 70 118 34 70 119 34 70 120 34 70 121 34 70 122 34 70 123 34 70 124 34 70 125 34 70 126 34 70 128 34 70 129 34 70 130 34 70 131 34 70 132 34 70 133 34 70 134 34 70 135 34 70 136 34 70 137 34 70 138 34 70 139 34 70 140 34 70 141 34 70 142 34 70 144 34 70 145 34 70 146 34 70 147 34 70 148 34 70 149 34 70 150 34 70 151 34 70 152 34 70 153 34 70 154 34 70 155 34 70 156 34 70 157 34 70 158 34 70 160 34 70 161 34 70 162 34 70 163 34 70 164 34 70 165 34 70 166 34 70 167 34 70 168 34 70 169 34 70 170 34 70 171 34 70 172 34 70 173 34 70 174 34 70 176 34 70 177 34 70 178 34 70 179 34 70 180 34 70 181 34 70 182 34 70 183 34 70 184 34 70 185 34 70 186 34 70 187 34 70 188 34 70 189 34 70 190 34 70 192 34 70 193 34 70 194 34 70 195 34 70 196 34 70 197 34 70 198 34 70 199 34 70 200 34 70 201 34 70 202 34 70 203 34 70 204 34 70 205 34 70 206 34 70 208 34 70 209 34 70 210 34 70 211 34 70 212 34 70 213 34 70 214 34 70 215 34 70 216 34 70 217 34 70 218 34 70 219 34 70 220 34 70 221 34 70 222 34 70 224 34 70 225 34 70 226 34 70 227 34 70 228 34 70 229 34 70 230 34 70 231 34 70 232 34 70 233 34 70 234 34 70 235 34 70 236 34 70 237 34 70 238 34 70 240 34 70 241 34 70 242 34 70 243 34 70 244 34 70 245 34 70 246 34 70 247 34 70 248 34 70 249 34 70 250 34 70 251 34 70 252 34 70 253 34 70 255 34 70
0 35 70 1 35 70 2 35 70 3 35 70 4 35 70 5 35 70 6 35 70 7 35 70 8 35 70 9 35 70 10 35 70 11 35 70 12 35 70 13 35 70 14 35 70 16 35 70 17 35 70 18 35 70 19 35 70 20 35 70 21 35 70 22 35 70 23 35 70 24 35 70 25 35 70 26 35 70 27 35 70 28 35 70 29 35 70 30 35 70 32 35 70 33 35 70 34 35 70 35 35 70 36 35 70 37 35 70 38 35 70 39 35 70 40 35 70 41 35 70 42 35 70 43 35 70 44 35 70 45 35 70 46 35 70 48 35 70 49 35 70 50 35 70 51 35 70 52 35 70 53 35 70 54 35 70 55 35 70 56 35 70 57 35 70 58 35 70 59 35 70 60 35 70 61 35 70 62 35 70 64 35 70 65 35 70 66 35 70 67 35 70 68 35 70 69 35 70 70 35 70 71 35 70 72 35 70 73 35 70 74 35 70 75 35 70 76 35 70 77 35 70 78 35 70 80 35 70 81 35 70 82 35 70 83 35 70 84 35 70 85 35 70 86 35 70 87 35 70 88 35 70 89 35 70 90 35 70 91 35 70 92 35 70 93 35 70 94 35 70 96 35 70 97 35 70 98 35 70 99 35 70 100 35 70 101 35 70 102 35 70 103 35 70 104 35 70 105 35 70 106 35 70 107 35 70 108 35 70 109 35 70 110 35 70 112 35 70 113 35 70 114 35 70 115 35 70 116 35 70 117 35 70 118 35 70 119 35 70 120 35 70 121 35 70 122 35 70 123 35 70 124 35 70 125 35 70 126 35 70 128 35 70 129 35 70 130 35 70 131 35 70 132 35 70 133 35 70 134 35 70 135 35 70 136 35 70 137 35 70 138 35 70 139 35 70 140 35 70 141 35 70 142 35 70 144 35 70 145 35 70 146 35 70 147 35 70 148 35 70 149 35 70 150 35 70 151 35 70 152 35 70 153 35 70 154 35 70 155 35 70 156 35 70 157 35 70 158 35 70 160 35 70 161 35 70 162 35 70 163 35 70 164 35 70 165 35 70 166 35 70 167 35 70 168 35 70 169 35 70 170 35 70 171 35 70 172 35 70 173 35 70 174 35 70 176 35 70 177 35 70 178 35 70 179 35 70 180 35 70 181 35 70 182 35 70 183 35 70 184 35 70 185 35 70 186 35 70 187 35 70 188 35 70 189 35 70 190 35 70 192 35 70 193 35 70 194 35 70 195 35 70 196 35 70 197 35 70 198 35 70 199 35 70 200 35 70 201 35 70 202 35 70 203 35 70 204 35 70 205 35 70 206 35 70 208 35 70 209 35 70 210 35 70 211 35 70 212 35 70 213 35 70 214 35 70 215 35 70 216 35 70 217 35 70 218 35 70 219 35 70 220 35 70 221 35 70 222 35 70 224 35 70 225 35 70 226 35 70 227 35 70 228 35 70 229 35 70 230 35 70 231 35 70 232 35 70 233 35 70 234 35 70 235 35 70 236 35 70 237 35 70 238 35 70 240 35 70 241 35 70 242 35 70 243 35 70 244 35 70 245 35 70 246 35 70 247 35 70 248 35 70 249 35 70 250 35 70 251 35 70 252 35 70 253 35 70 255 35 70
0 37 70 1 37 70 2 37 70 3 37 70 4 37 70 5 37 70 6 37 70 7 37 70 8 37 70 9 37 70 10 37 70 11 37 70 12 37 70 13 37 70 14 37 70 16 37 70 17 37 70 18 37 70 19 37 70 20 37 70 21 37 70 22 37 70 23 37 70 24 37 70 25 37 70 26 37 70 27 37 70 28 37 70 29 37 70 30 37 70 32 37 70 33 37 70 34 37 70 35 37 70 36 37 70 37 37 70 38 37 70 39 37 70 40 37 70 41 37 70 42 37 70 43 37 70 44 37 70 45 37 70 46 37 70 48 37 70 49 37 70 50 37 70 51 37 70 52 37 70 53 37 70 54 37 70 55 37 70 56 37 70 57 37 70 58 37 70 59 37 70 60 37 70 61 37 70 62 37 70 64 37 70 65 37 70 66 37 70 67 37 70 68 37 70 69 37 70 70 37 70 71 37 70 72 37 70 73 37 70 74 37 70 75 37 70 76 37 70 77 37 70 78 37 70 80 37 70 81 37 70 82 37 70 83 37 70 84 37 70 85 37 70 86 37 70 87 37 70 88 37 70 89 37 70 90 37 70 91 37 70 92 37 70 93 37 70 94 37 70 96 37 70 97 37 70 98 37 70 99 37 70 100 37 70 101 37 70 102 37 70 103 37 70 104 37 70 105 37 70 106 37 70 107 37 70 108 37 70 109 37 70 110 37 70 112 37 70 113 37 70 114 37 70 115 37 70 116 37 70 117 37 70 118 37 70 119 37 70 120 37 70 121 37 70 122 37 70 123 37 70 124 37 70 125 37 70 126 37 70 128 37 70 129 37 70 130 37 70 131 37 70 132 37 70 133 37 70 134 37 70 135 37 70 136 37 70 137 37 70 138 37 70 139 37 70 140 37 70 141 37 70 142 37 70 144 37 70 145 37 70 146 37 70 147 37 70 148 37 70 149 37 70 150 37 70 151 37 70 152 37 70 153 37 70 154 37 70 155 37 70 156 37 70 157 37 70 158 37 70 160 37 70 161 37 70 162 37 70 163 37 70 164 37 70 165 37 70 166 37 70 167 37 70 168 37 70 169 37 70 170 37 70 171 37 70 172 37 70 173 37 70 174 37 70 176 37 70 177 37 70 178 37 70 179 37 70 180 37 70 181 37 70 182 37 70 183 37 70 184 37 70 185 37 70 186 37 70 187 37 70 188 37 70 189 37 70 190 37 70 192 37 70 193 37 70 194 37 70 195 37 70 196 37 70 197 37 70 198 37 70 199 37 70 200 37 70 201 37 70 202 37 70 203 37 70 204 37 70 205 37 70 206 37 70 208 37 70 209 37 70 210 37 70 211 37 70 212 37 70 213 37 70 214 37 70 215 37 70 216 37 70 217 37 70 218 37 70 219 37 70 220 37 70 221 37 70 222 37 70 224 37 70 225 37 70 226 37 70 227 37 70 228 37 70 229 37 70 230 37 70 231 37 70 232 37 70 233 37 70 234 37 70 235 37 70 236 37 70 237 37 70 238 37 70 240 37 70 241 37 70 242 37 70 243 37 70 244 37 70 245 37 70 246 37 70 247 37 70 248 37 70 249 37 70 250 37 70 251 37 70 252 37 70 253 37 70 255 37 70
0 38 70 1 38 70 2 38 70 3 38 70 4 38 70 5 38 70 6 38 70 7 38 70 8 38 70 9 38 70 10 38 70 11 38 70 12 38 70 13 38 70 14 38 70 16 38 70 17 38 70 18 38 70 19 38 70 20 38 70 21 38 70 22 38 70 23 38 70 24 38 70 25 38 70 26 38 70 27 38 70 28 38 70 29 38 70 30 38 70 32 38 70 33 38 70 34 38 70 35 38 70 36 38 70 37 38 70 38 38 70 39 38 70 40 38 70 41 38 70 42 38 70 43 38 70 44 38 70 45 38 70 46 38 70 48 38 70 49 38 70 50 38 70 51 38 70 52 38 70 53 38 70 54 38 70 55 38 70 56 38 70 57 38 70 58 38 70 59 38 70 60 38 70 61 38 70 62 38 70 64 38 70 65 38 70 66 38 70 67 38 70 68 38 70 69 38 70 70 38 70 71 38 70 72 38 70 73 38 70 74 38 70 75 38 70 76 38 70 77 38 70 78 38 70 80 38 70 81 38 70 82 38 70 83 38 70 84 38 70 85 38 70 86 38 70 87 38 70 88 38 70 89 38 70 90 38 70 91 38 70 92 38 70 93 38 70 94 38 70 96 38 70 97 38 70 98 38 70 99 38 70 100 38 70 101 38 70 102 38 70 103 38 70 104 38 70 105 38 70 106 38 70 107 38 70 108 38 70 109 38 70 110 38 70 112 38 70 113 38 70 114 38 70 115 38 70 116 38 70 117 38 70 118 38 70 119 38 70 120 38 70 121 38 70 122 38 70 123 38 70 124 38 70 125 38 70 126 38 70 128 38 70 129 38 70 130 38 70 131 38 70 132 38 70 133 38 70 134 38 70 135 38 70 136 38 70 137 38 70 138 38 70 139 38 70 140 38 70 141 38 70 142 38 70 144 38 70 145 38 70 146 38 70 147 38 70 148 38 70 149 38 70 150 38 70 151 38 70 152 38 70 153 38 70 154 38 70 155 38 70 156 38 70 157 38 70 158 38 70 160 38 70 161 38 70 162 38 70 163 38 70 164 38 70 165 38 70 166 38 70 167 38 70 168 38 70 169 38 70 170 38 70 171 38 70 172 38 70 173 38 70 174 38 70 176 38 70 177 38 70 178 38 70 179 38 70 180 38 70 181 38 70 182 38 70 183 38 70 184 38 70 185 38 70 186 38 70 187 38 70 188 38 70 189 38 70 190 38 70 192 38 70 193 38 70 194 38 70 195 38 70 196 38 70 197 38 70 198 38 70 199 38 70 200 38 70 201 38 70 202 38 70 203 38 70 204 38 70 205 38 70 206 38 70 208 38 70 209 38 70 210 38 70 211 38 70 212 38 70 213 38 70 214 38 70 215 38 70 216 38 70 217 38 70 218 38 70 219 38 70 220 38 70 221 38 70 222 38 70 224 38 70 225 38 70 226 38 70 227 38 70 228 38 70 229 38 70 230 38 70 231 38 70 232 38 70 233 38 70 234 38 70 235 38 70 236 38 70 237 38 70 238 38 70 240 38 70 241 38 70 242 38 70 243 38 70 244 38 70 245 38 70 246 38 70 247 38 70 248 38 70 249 38 70 250 38 70 251 38 70 252 38 70 253 38 70 255 38 70
0 39 70 1 39 70 2 39 70 3 39 70 4 39 70 5 39 70 6 39 70 7 39 70 8 39 70 9 39 70 10 39 70 11 39 70 12 39 70 13 39 70 14 39 70 16 39 70 17 39 70 18 39 70 19 39 70 20 39 70 21 39 70 22 39 70 23 39 70 24 39 70 25 39 70 26 39 70 27 39 70 28 39 70 29 39 70 30 39 70 32 39 70 33 39 70 34 39 70 35 39 70 36 39 70 37 39 70 38 39 70 39 39 70 40 39 70 41 39 70 42 39 70 43 39 70 44 39 70 45 39 70 46 39 70 48 39 70 49 39 70 50 39 70 51 39 70 52 39 70 53 39 70 54 39 70 55 39 70 56 39 70 57 39 70 58 39 70 59 39 70 60 39 70 61 39 70 62 39 70 64 39 70 65 39 70 66 39 70 67 39 70 68 39 70 69 39 70 70 39 70 71 39 70 72 39 70 73 39 70 74 39 70 75 39 70 76 39 70 77 39 70 78 39 70 80 39 70 81 39 70 82 39 70 83 39 70 84 39 70 85 39 70 86 39 70 87 39 70 88 39 70 89 39 70 90 39 70 91 39 70 92 39 70 93 39 70 94 39 70 96 39 70 97 39 70 98 39 70 99 39 70 100 39 70 101 39 70 102 39 70 103 39 70 104 39 70 105 39 70 106 39 70 107 39 70 108 39 70 109 39 70 110 39 70 112 39 70 113 39 70 114 39 70 115 39 70 116 39 70 117 39 70 118 39 70 119 39 70 120 39 70 121 39 70 122 39 70 123 39 70 124 39 70 125 39 70 126 39 70 128 39 70 129 39 70 130 39 70 131 39 70 132 39 70 133 39 70 134 39 70 135 39 70 136 39 70 137 39 70 138 39 70 139 39 70 140 39 70 141 39 70 142 39 70 144 39 70 145 39 70 146 39 70 147 39 70 148 39 70 149 39 70 150 39 70 151 39 70 152 39 70 153 39 70 154 39 70 155 39 70 156 39 70 157 39 70 158 39 70 160 39 70 161 39 70 162 39 70 163 39 70 164 39 70 165 39 70 166 39 70 167 39 70 168 39 70 169 39 70 170 39 70 171 39 70 172 39 70 173 39 70 174 39 70 176 39 70 177 39 70 178 39 70 179 39 70 180 39 70 181 39 70 182 39 70 183 39 70 184 39 70 185 39 70 186 39 70 187 39 70 188 39 70 189 39 70 190 39 70 192 39 70 193 39 70 194 39 70 195 39 70 196 39 70 197 39 70 198 39 70 199 39 70 200 39 70 201 39 70 202 39 70 203 39 70 204 39 70 205 39 70 206 39 70 208 39 70 209 39 70 210 39 70 211 39 70 212 39 70 213 39 70 214 39 70 215 39 70 216 39 70 217 39 70 218 39 70 219 39 70 220 39 70 221 39 70 222 39 70 224 39 70 225 39 70 226 39 70 227 39 70 228 39 70 229 39 70 230 39 70 231 39 70 232 39 70 233 39 70 234 39 70 235 39 70 236 39 70 237 39 70 238 39 70 240 39 70 241 39 70 242 39 70 243 39 70 244 39 70 245 39 70 246 39 70 247 39 70 248 39 70 249 39 70 250 39 70 251 39 70 252 39 70 253 39 70 255 39 70
0 41 70 1 41 70 2 41 70 3 41 70 4 41 70 5 41 70 6 41 70 7 41 70 8 41 70 9 41 70 10 41 70 11 41 70 12 41 70 13 41 70 14 41 70 16 41 70 17 41 70 18 41 70 19 41 70 20 41 70 21 41 70 22 41 70 23 41 70 24 41 70 25 41 70 26 41 70 27 41 70 28 41 70 29 41 70 30 41 70 32 41 70 33 41 70 34 41 70 35 41 70 36 41 70 37 41 70 38 41 70 39 41 70 40 41 70 41 41 70 42 41 70 43 41 70 44 41 70 45 41 70 46 41 70 48 41 70 49 41 70 50 41 70 51 41 70 52 41 70 53 41 70 54 41 70 55 41 70 56 41 70 57 41 70 58 41 70 59 41 70 60 41 70 61 41 70 62 41 70 64 41 70 65 41 70 66 41 70 67 41 70 68 41 70 69 41 70 70 41 70 71 41 70 72 41 70 73 41 70 74 41 70 75 41 70 76 41 70 77 41 70 78 41 70 80 41 70 81 41 70 82 41 70 83 41 70 84 41 70 85 41 70 86 41 70 87 41 70 88 41 70 89 41 70 90 41 70 91 41 70 92 41 70 93 41 70 94 41 70 96 41 70 97 41 70 98 41 70 99 41 70 100 41 70 101 41 70 102 41 70 103 41 70 104 41 70 105 41 70 106 41 70 107 41 70 108 41 70 109 41 70 110 41 70 112 41 70 113 41 70 114 41 70 115 41 70 116 41 70 117 41 70 118 41 70 119 41 70 120 41 70 121 41 70 122 41 70 123 41 70 124 41 70 125 41 70 126 41 70 128 41 70 129 41 70 130 41 70 131 41 70 132 41 70 133 41 70 134 41 70 135 41 70 136 41 70 137 41 70 138 41 70 139 41 70 140 41 70 141 41 70 142 41 70 144 41 70 145 41 70 146 41 70 147 41 70 148 41 70 149 41 70 150 41 70 151 41 70 152 41 70 153 41 70 154 41 70 155 41 70 156 41 70 157 41 70 158 41 70 160 41 70 161 41 70 162 41 70 163 41 70 164 41 70 165 41 70 166 41 70 167 41 70 168 41 70 169 41 70 170 41 70 171 41 70 172 41 70 173 41 70 174 41 70 176 41 70 177 41 70 178 41 70 179 41 70 180 41 70 181 41 70 182 41 70 183 41 70 184 41 70 185 41 70 186 41 70 187 41 70 188 41 70 189 41 70 190 41 70 192 41 70 193 41 70 194 41 70 195 41 70 196 41 70 197 41 70 198 41 70 199 41 70 200 41 70 201 41 70 202 41 70 203 41 70 204 41 70 205 41 70 206 41 70 208 41 70 209 41 70 210 41 70 211 41 70 212 41 70 213 41 70 214 41 70 215 41 70 216 41 70 217 41 70 218 41 70 219 41 70 220 41 70 221 41 70 222 41 70 224 41 70 225 41 70 226 41 70 227 41 70 228 41 70 229 41 70 230 41 70 231 41 70 232 41 70 233 41 70 234 41 70 235 41 70 236 41 70 237 41 70 238 41 70 240 41 70 241 41 70 242 41 70 243 41 70 244 41 70 245 41 70 246 41 70 247 41 70 248 41 70 249 41 70 250 41 70 251 41 70 252 41 70 253 41 70 255 41 70
0 42 70 1 42 70 2 42 70 3 42 70 4 42 70 5 42 70 6 42 70 7 42 70 8 42 70 9 42 70 10 42 70 11 42 70 12 42 70 13 42 70 14 42 70 16 42 70 17 42 70 18 42 70 19 42 70 20 42 70 21 42 70 22 42 70 23 42 70 24 42 70 25 42 70 26 42 70 27 42 70 28 42 70 29 42 70 30 42 70 32 42 70 33 42 70 34 42 70 35 42 70 36 42 70 37 42 70 38 42 70 39 42 70 40 42 70 41 42 70 42 42 70 43 42 70 44 42 70 45 42 70 46 42 70 48 42 70 49 42 70 50 42 70 51 42 70 52 42 70 53 42 70 54 42 70 55 42 70 56 42 70 57 42 70 58 42 70 59 42 70 60 42 70 61 42 70 62 42 70 64 42 70 65 42 70 66 42 70 67 42 70 68 42 70 69 42 70 70 42 70 71 42 70 72 42 70 73 42 70 74 42 70 75 42 70 76 42 70 77 42 70 78 42 70 80 42 70 81 42 70 82 42 70 83 42 70 84 42 70 85 42 70 86 42 70 87 42 70 88 42 70 89 42 70 90 42 70 91 42 70 92 42 70 93 42 70 94 42 70 96 42 70 97 42 70 98 42 70 99 42 70 100 42 70 101 42 70 102 42 70 103 42 70 104 42 70 105 42 70 106 42 70 107 42 70 108 42 70 109 42 70 110 42 70 112 42 70 113 42 70 114 42 70 115 42 70 116 42 70 117 42 70 118 42 70 119 42 70 120 42 70 121 42 70 122 42 70 123 42 70 124 42 70 125 42 70 126 42 70 128 42 70 129 42 70 130 42 70 131 42 70 132 42 70 133 42 70 134 42 70 135 42 70 136 42 70 137 42 70 138 42 70 139 42 70 140 42 70 141 42 70 142 42 70 144 42 70 145 42 70 146 42 70 147 42 70 148 42 70 149 42 70 150 42 70 151 42 70 152 42 70 153 42 70 154 42 70 155 42 70 156 42 70 157 42 70 158 42 70 160 42 70 161 42 70 162 42 70 163 42 70 164 42 70 165 42 70 166 42 70 167 42 70 168 42 70 169 42 70 170 42 70 171 42 70 172 42 70 173 42 70 174 42 70 176 42 70 177 42 70 178 42 70 179 42 70 180 42 70 181 42 70 182 42 70 183 42 70 184 42 70 185 42 70 186 42 70 187 42 70 188 42 70 189 42 70 190 42 70 192 42 70 193 42 70 194 42 70 195 42 70 196 42 70 197 42 70 198 42 70 199 42 70 200 42 70 201 42 70 202 42 70 203 42 70 204 42 70 205 42 70 206 42 70 208 42 70 209 42 70 210 42 70 211 42 70 212 42 70 213 42 70 214 42 70 215 42 70 216 42 70 217 42 70 218 42 70 219 42 70 220 42 70 221 42 70 222 42 70 224 42 70 225 42 70 226 42 70 227 42 70 228 42 70 229 42 70 230 42 70 231 42 70 232 42 70 233 42 70 234 42 70 235 42 70 236 42 70 237 42 70 238 42 70 240 42 70 241 42 70 242 42 70 243 42 70 244 42 70 245 42 70 246 42 70 247 42 70 248 42 70 249 42 70 250 42 70 251 42 70 252 42 70 253 42 70 255 42 70
0 44 70 1 44 70 2 44 70 3 44 70 4 44 70 5 44 70 6 44 70 7 44 70 8 44 70 9 44 70 10 44 70 11 44 70 12 44 70 13 44 70 14 44 70 16 44 70 17 44 70 18 44 70 19 44 70 20 44 70 21 44 70 22 44 70 23 44 70 24 44 70 25 44 70 26 44 70 27 44 70 28 44 70 29 44 70 30 44 70 32 44 70 33 44 70 34 44 70 35 44 70 36 44 70 37 44 70 38 44 70 39 44 70 40 44 70 41 44 70 42 44 70 43 44 70 44 44 70 45 44 70 46 44 70 48 44 70 49 44 70 50 44 70 51 44 70 52 44 70 53 44 70 54 44 70 55 44 70 56 44 70 57 44 70 58 44 70 59 44 70 60 44 70 61 44 70 62 44 70 64 44 70 65 44 70 66 44 70 67 44 70 68 44 70 69 44 70 70 44 70 71 44 70 72 44 70 73 44 70 74 44 70 75 44 70 76 44 70 77 44 70 78 44 70 80 44 70 81 44 70 82 44 70 83 44 70 84 44 70 85 44 70 86 44 70 87 44 70 88 44 70 89 44 70 90 44 70 91 44 70 92 44 70 93 44 70 94 44 70 96 44 70 97 44 70 98 44 70 99 44 70 100 44 70 101 44 70 102 44 70 103 44 70 104 44 70 105 44 70 106 44 70 107 44 70 108 44 70 109 44 70 110 44 70 112 44 70 113 44 70 114 44 70 115 44 70 116 44 70 117 44 70 118 44 70 119 44 70 120 44 70 121 44 70 122 44 70 123 44 70 124 44 70 125 44 70 126 44 70 128 44 70 129 44 70 130 44 70 131 44 70 132 44 70 133 44 70 134 44 70 135 44 70 136 44 70 137 44 70 138 44 70 139 44 70 140 44 70 141 44 70 142 44 70 144 44 70 145 44 70 146 44 70 147 44 70 148 44 70 149 44 70 150 44 70 151 44 70 152 44 70 153 44 70 154 44 70 155 44 70 156 44 70 157 44 70 158 44 70 160 44 70 161 44 70 162 44 70 163 44 70 164 44 70 165 44 70 166 44 70 167 44 70 168 44 70 169 44 70 170 44 70 171 44 70 172 44 70 173 44 70 174 44 70 176 44 70 177 44 70 178 44 70 179 44 70 180 44 70 181 44 70 182 44 70 183 44 70 184 44 70 185 44 70 186 44 70 187 44 70 188 44 70 189 44 70 190 44 70 192 44 70 193 44 70 194 44 70 195 44 70 196 44 70 197 44 70 198 44 70 199 44 70 200 44 70 201 44 70 202 44 70 203 44 70 204 44 70 205 44 70 206 44 70 208 44 70 209 44 70 210 44 70 211 44 70 212 44 70 213 44 70 214 44 70 215 44 70 216 44 70 217 44 70 218 44 70 219 44 70 220 44 70 221 44 70 222 44 70 224 44 70 225 44 70 226 44 70 227 44 70 228 44 70 229 44 70 230 44 70 231 44 70 232 44 70 233 44 70 234 44 70 235 44 70 236 44 70 237 44 70 238 44 70 240 44 70 241 44 70 242 44 70 243 44 70 244 44 70 245 44 70 246 44 70 247 44 70 248 44 70 249 44 70 250 44 70 251 44 70 252 44 70 253 44 70 255 44 70
0 45 70 1 45 70 2 45 70 3 45 70 4 45 70 5 45 70 6 45 70 7 45 70 8 45 70 9 45 70 10 45 70 11 45 70 12 45 70 13 45 70 14 45 70 16 45 70 17 45 70 18 45 70 19 45 70 20 45 70 21 45 70 22 45 70 23 45 70 24 45 70 25 45 70 26 45 70 27 45 70 28 45 70 29 45 70 30 45 70 32 45 70 33 45 70 34 45 70 35 45 70 36 45 70 37 45 70 38 45 70 39 45 70 40 45 70 41 45 70 42 45 70 43 45 70 44 45 70 45 45 70 46 45 70 48 45 70 49 45 70 50 45 70 51 45 70 52 45 70 53 45 70 54 45 70 55 45 70 56 45 70 57 45 70 58 45 70 59 45 70 60 45 70 61 45 70 62 45 70 64 45 70 65 45 70 66 45 70 67 45 70 68 45 70 69 45 70 70 45 70 71 45 70 72 45 70 73 45 70 74 45 70 75 45 70 76 45 70 77 45 70 78 45 70 80 45 70 81 45 70 82 45 70 83 45 70 84 45 70 85 45 70 86 45 70 87 45 70 88 45 70 89 45 70 90 45 70 91 45 70 92 45 70 93 45 70 94 45 70 96 45 70 97 45 70 98 45 70 99 45 70 100 45 70 101 45 70 102 45 70 103 45 70 104 45 70 105 45 70 106 45 70 107 45 70 108 45 70 109 45 70 110 45 70 112 45 70 113 45 70 114 45 70 115 45 70 116 45 70 117 45 70 118 45 70 119 45 70 120 45 70 121 45 70 122 45 70 123 45 70 124 45 70 125 45 70 126 45 70 128 45 70 129 45 70 130 45 70 131 45 70 132 45 70 133 45 70 134 45 70 135 45 70 136 45 70 137 45 70 138 45 70 139 45 70 140 45 70 141 45 70 142 45 70 144 45 70 145 45 70 146 45 70 147 45 70 148 45 70 149 45 70 150 45 70 151 45 70 152 45 70 153 45 70 154 45 70 155 45 70 156 45 70 157 45 70 158 45 70 160 45 70 161 45 70 162 45 70 163 45 70 164 45 70 165 45 70 166 45 70 167 45 70 168 45 70 169 45 70 170 45 70 171 45 70 172 45 70 173 45 70 174 45 70 176 45 70 177 45 70 178 45 70 179 45 70 180 45 70 181 45 70 182 45 70 183 45 70 184 45 70 185 45 70 186 45 70 187 45 70 188 45 70 189 45 70 190 45 70 192 45 70 193 45 70 194 45 70 195 45 70 196 45 70 197 45 70 198 45 70 199 45 70 200 45 70 201 45 70 202 45 70 203 45 70 204 45 70 205 45 70 206 45 70 208 45 70 209 45 70 210 45 70 211 45 70 212 45 70 213 45 70 214 45 70 215 45 70 216 45 70 217 45 70 218 45 70 219 45 70 220 45 70 221 45 70 222 45 70 224 45 70 225 45 70 226 45 70 227 45 70 228 45 70 229 45 70 230 45 70 231 45 70 232 45 70 233 45 70 234 45 70 235 45 70 236 45 70 237 45 70 238 45 70 240 45 70 241 45 70 242 45 70 243 45 70 244 45 70 245 45 70 246 45 70 247 45 70 248 45 70 249 45 70 250 45 70 251 45 70 252 45 70 253 45 70 255 45 70
0 47 70 1 47 70 2 47 70 3 47 70 4 47 70 5 47 70 6 47 70 7 47 70 8 47 70 9 47 70 10 47 70 11 47 70 12 47 70 13 47 70 14 47 70 16 47 70 17 47 70 18 47 70 19 47 70 20 47 70 21 47 70 22 47 70 23 47 70 24 47 70 25 47 70 26 47 70 27 47 70 28 47 70 29 47 70 30 47 70 32 47 70 33 47 70 34 47 70 35 47 70 36 47 70 37 47 70 38 47 70 39 47 70 40 47 70 41 47 70 42 47 70 43 47 70 44 47 70 45 47 70 46 47 70 48 47 70 49 47 70 50 47 70 51 47 70 52 47 70 53 47 70 54 47 70 55 47 70 56 47 70 57 47 70 58 47 70 59 47 70 60 47 70 61 47 70 62 47 70 64 47 70 65 47 70 66 47 70 67 47 70 68 47 70 69 47 70 70 47 70 71 47 70 72 47 70 73 47 70 74 47 70 75 47 70 76 47 70 77 47 70 78 47 70 80 47 70 81 47 70 82 47 70 83 47 70 84 47 70 85 47 70 86 47 70 87 47 70 88 47 70 89 47 70 90 47 70 91 47 70 92 47 70 93 47 70 94 47 70 96 47 70 97 47 70 98 47 70 99 47 70 100 47 70 101 47 70 102 47 70 103 47 70 104 47 70 105 47 70 106 47 70 107 47 70 108 47 70 109 47 70 110 47 70 112 47 70 113 47 70 114 47 70 115 47 70 116 47 70 117 47 70 118 47 70 119 47 70 120 47 70 121 47 70 122 47 70 123 47 70 124 47 70 125 47 70 126 47 70 128 47 70 129 47 70 130 47 70 131 47 70 132 47 70 133 47 70 134 47 70 135 47 70 136 47 70 137 47 70 138 47 70 139 47 70 140 47 70 141 47 70 142 47 70 144 47 70 145 47 70 146 47 70 147 47 70 148 47 70 149 47 70 150 47 70 151 47 70 152 47 70 153 47 70 154 47 70 155 47 70 156 47 70 157 47 70 158 47 70 160 47 70 161 47 70 162 47 70 163 47 70 164 47 70 165 47 70 166 47 70 167 47 70 168 47 70 169 47 70 170 47 70 171 47 70 172 47 70 173 47 70 174 47 70 176 47 70 177 47 70 178 47 70 179 47 70 180 47 70 181 47 70 182 47 70 183 47 70 184 47 70 185 47 70 186 47 70 187 47 70 188 47 70 189 47 70 190 47 70 192 47 70 193 47 70 194 47 70 195 47 70 196 47 70 197 47 70 198 47 70 199 47 70 200 47 70 201 47 70 202 47 70 203 47 70 204 47 70 205 47 70 206 47 70 208 47 70 209 47 70 210 47 70 211 47 70 212 47 70 213 47 70 214 47 70 215 47 70 216 47 70 217 47 70 218 47 70 219 47 70 220 47 70 221 47 70 222 47 70 224 47 70 225 47 70 226 47 70 227 47 70 228 47 70 229 47 70 230 47 70 231 47 70 232 47 70 233 47 70 234 47 70 235 47 70 236 47 70 237 47 70 238 47 70 240 47 70 241 47 70 242 47 70 243 47 70 244 47 70 245 47 70 246 47 70 247 47 70 248 47 70 249 47 70 250 47 70 251 47 70 252 47 70 253 47 70 255 47 70
0 48 70 1 48 70 2 48 70 3 48 70 4 48 70 5 48 70 6 48 70 7 48 70 8 48 70 9 48 70 10 48 70 11 48 70 12 48 70 13 48 70 14 48 70 16 48 70 17 48 70 18 48 70 19 48 70 20 48 70 21 48 70 22 48 70 23 48 70 24 48 70 25 48 70 26 48 70 27 48 70 28 48 70 29 48 70 30 48 70 32 48 70 33 48 70 34 48 70 35 48 70 36 48 70 37 48 70 38 48 70 39 48 70 40 48 70 41 48 70 42 48 70 43 48 70 44 48 70 45 48 70 46 48 70 48 48 70 49 48 70 50 48 70 51 48 70 52 48 70 53 48 70 54 48 70 55 48 70 56 48 70 57 48 70 58 48 70 59 48 70 60 48 70 61 48 70 62 48 70 64 48 70 65 48 70 66 48 70 67 48 70 68 48 70 69 48 70 70 48 70 71 48 70 72 48 70 73 48 70 74 48 70 75 48 70 76 48 70 77 48 70 78 48 70 80 48 70 81 48 70 82 48 70 83 48 70 84 48 70 85 48 70 86 48 70 87 48 70 88 48 70 89 48 70 90 48 70 91 48 70 92 48 70 93 48 70 94 48 70 96 48 70 97 48 70 98 48 70 99 48 70 100 48 70 101 48 70 102 48 70 103 48 70 104 48 70 105 48 70 106 48 70 107 48 70 108 48 70 109 48 70 110 48 70 112 48 70 113 48 70 114 48 70 115 48 70 116 48 70 117 48 70 118 48 70 119 48 70 120 48 70 121 48 70 122 48 70 123 48 70 124 48 70 125 48 70 126 48 70 128 48 70 129 48 70 130 48 70 131 48 70 132 48 70 133 48 70 134 48 70 135 48 70 136 48 70 137 48 70 138 48 70 139 48 70 140 48 70 141 48 70 142 48 70 144 48 70 145 48 70 146 48 70 147 48 70 148 48 70 149 48 70 150 48 70 151 48 70 152 48 70 153 48 70 154 48 70 155 48 70 156 48 70 157 48 70 158 48 70 160 48 70 161 48 70 162 48 70 163 48 70 164 48 70 165 48 70 166 48 70 167 48 70 168 48 70 169 48 70 170 48 70 171 48 70 172 48 70 173 48 70 174 48 70 176 48 70 177 48 70 178 48 70 179 48 70 180 48 70 181 48 70 182 48 70 183 48 70 184 48 70 185 48 70 186 48 70 187 48 70 188 48 70 189 48 70 190 48 70 192 48 70 193 48 70 194 48 70 195 48 70 196 48 70 197 48 70 198 48 70 199 48 70 200 48 70 201 48 70 202 48 70 203 48 70 204 48 70 205 48 70 206 48 70 208 48 70 209 48 70 210 48 70 211 48 70 212 48 70 213 48 70 214 48 70 215 48 70 216 48 70 217 48 70 218 48 70 219 48 70 220 48 70 221 48 70 222 48 70 224 48 70 225 48 70 226 48 70 227 48 70 228 48 70 229 48 70 230 48 70 231 48 70 232 48 70 233 48 70 234 48 70 235 48 70 236 48 70 237 48 70 238 48 70 240 48 70 241 48 70 242 48 70 243 48 70 244 48 70 245 48 70 246 48 70 247 48 70 248 48 70 249 48 70 250 48 70 251 48 70 252 48 70 253 48 70 255 48 70
0 49 70 1 49 70 2 49 70 3 49 70 4 49 70 5 49 70 6 49 70 7 49 70 8 49 70 9 49 70 10 49 70 11 49 70 12 49 70 13 49 70 14 49 70 16 49 70 17 49 70 18 49 70 19 49 70 20 49 70 21 49 70 22 49 70 23 49 70 24 49 70 25 49 70 26 49 70 27 49 70 28 49 70 29 49 70 30 49 70 32 49 70 33 49 70 34 49 70 35 49 70 36 49 70 37 49 70 38 49 70 39 49 70 40 49 70 41 49 70 42 49 70 43 49 70 44 49 70 45 49 70 46 49 70 48 49 70 49 49 70 50 49 70 51 49 70 52 49 70 53 49 70 54 49 70 55 49 70 56 49 70 57 49 70 58 49 70 59 49 70 60 49 70 61 49 70 62 49 70 64 49 70 65 49 70 66 49 70 67 49 70 68 49 70 69 49 70 70 49 70 71 49 70 72 49 70 73 49 70 74 49 70 75 49 70 76 49 70 77 49 70 78 49 70 80 49 70 81 49 70 82 49 70 83 49 70 84 49 70 85 49 70 86 49 70 87 49 70 88 49 70 89 49 70 90 49 70 91 49 70 92 49 70 93 49 70 94 49 70 96 49 70 97 49 70 98 49 70 99 49 70 100 49 70 101 49 70 102 49 70 103 49 70 104 49 70 105 49 70 106 49 70 107 49 70 108 49 70 109 49 70 110 49 70 112 49 70 113 49 70 114 49 70 115 49 70 116 49 70 117 49 70 118 49 70 119 49 70 120 49 70 121 49 70 122 49 70 123 49 70 124 49 70 125 49 70 126 49 70 128 49 70 129 49 70 130 49 70 131 49 70 132 49 70 133 49 70 134 49 70 135 49 70 136 49 70 137 49 70 138 49 70 139 49 70 140 49 70 141 49 70 142 49 70 144 49 70 145 49 70 146 49 70 147 49 70 148 49 70 149 49 70 150 49 70 151 49 70 152 49 70 153 49 70 154 49 70 155 49 70 156 49 70 157 49 70 158 49 70 160 49 70 161 49 70 162 49 70 163 49 70 164 49 70 165 49 70 166 49 70 167 49 70 168 49 70 169 49 70 170 49 70 171 49 70 172 49 70 173 49 70 174 49 70 176 49 70 177 49 70 178 49 70 179 49 70 180 49 70 181 49 70 182 49 70 183 49 70 184 49 70 185 49 70 186 49 70 187 49 70 188 49 70 189 49 70 190 49 70 192 49 70 193 49 70 194 49 70 195 49 70 196 49 70 197 49 70 198 49 70 199 49 70 200 49 70 201 49 70 202 49 70 203 49 70 204 49 70 205 49 70 206 49 70 208 49 70 209 49 70 210 49 70 211 49 70 212 49 70 213 49 70 214 49 70 215 49 70 216 49 70 217 49 70 218 49 70 219 49 70 220 49 70 221 49 70 222 49 70 224 49 70 225 49 70 226 49 70 227 49 70 228 49 70 229 49 70 230 49 70 231 49 70 232 49 70 233 49 70 234 49 70 235 49 70 236 49 70 237 49 70 238 49 70 240 49 70 241 49 70 242 49 70 243 49 70 244 49 70 245 49 70 246 49 70 247 49 70 248 49 70 249 49 70 250 49 70 251 49 70 252 49 70 253 49 70 255 49 70
0 51 70 1 51 70 2 51 70 3 51 70 4 51 70 5 51 70 6 51 70 7 51 70 8 51 70 9 51 70 10 51 70 11 51 70 12 51 70 13 51 70 14 51 70 16 51 70 17 51 70 18 51 70 19 51 70 20 51 70 21 51 70 22 51 70 23 51 70 24 51 70 25 51 70 26 51 70 27 51 70 28 51 70 29 51 70 30 51 70 32 51 70 33 51 70 34 51 70 35 51 70 36 51 70 37 51 70 38 51 70 39 51 70 40 51 70 41 51 70 42 51 70 43 51 70 44 51 70 45 51 70 46 51 70 48 51 70 49 51 70 50 51 70 51 51 70 52 51 70 53 51 70 54 51 70 55 51 70 56 51 70 57 51 70 58 51 70 59 51 70 60 51 70 61 51 70 62 51 70 64 51 70 65 51 70 66 51 70 67 51 70 68 51 70 69 51 70 70 51 70 71 51 70 72 51 70 73 51 70 74 51 70 75 51 70 76 51 70 77 51 70 78 51 70 80 51 70 81 51 70 82 51 70 83 51 70 84 51 70 85 51 70 86 51 70 87 51 70 88 51 70 89 51 70 90 51 70 91 51 70 92 51 70 93 51 70 94 51 70 96 51 70 97 51 70 98 51 70 99 51 70 100 51 70 101 51 70 102 51 70 103 51 70 104 51 70 105 51 70 106 51 70 107 51 70 108 51 70 109 51 70 110 51 70 112 51 70 113 51 70 114 51 70 115 51 70 116 51 70 117 51 70 118 51 70 119 51 70 120 51 70 121 51 70 122 51 70 123 51 70 124 51 70 125 51 70 126 51 70 128 51 70 129 51 70 130 51 70 131 51 70 132 51 70 133 51 70 134 51 70 135 51 70 136 51 70 137 51 70 138 51 70 139 51 70 140 51 70 141 51 70 142 51 70 144 51 70 145 51 70 146 51 70 147 51 70 148 51 70 149 51 70 150 51 70 151 51 70 152 51 70 153 51 70 154 51 70 155 51 70 156 51 70 157 51 70 158 51 70 160 51 70 161 51 70 162 51 70 163 51 70 164 51 70 165 51 70 166 51 70 167 51 70 168 51 70 169 51 70 170 51 70 171 51 70 172 51 70 173 51 70 174 51 70 176 51 70 177 51 70 178 51 70 179 51 70 180 51 70 181 51 70 182 51 70 183 51 70 184 51 70 185 51 70 186 51 70 187 51 70 188 51 70 189 51 70 190 51 70 192 51 70 193 51 70 194 51 70 195 51 70 196 51 70 197 51 70 198 51 70 199 51 70 200 51 70 201 51 70 202 51 70 203 51 70 204 51 70 205 51 70 206 51 70 208 51 70 209 51 70 210 51 70 211 51 70 212 51 70 213 51 70 214 51 70 215 51 70 216 51 70 217 51 70 218 51 70 219 51 70 220 51 70 221 51 70 222 51 70 224 51 70 225 51 70 226 51 70 227 51 70 228 51 70 229 51 70 230 51 70 231 51 70 232 51 70 233 51 70 234 51 70 235 51 70 236 51 70 237 51 70 238 51 70 240 51 70 241 51 70 242 51 70 243 51 70 244 51 70 245 51 70 246 51 70 247 51 70 248 51 70 249 51 70 250 51 70 251 51 70 252 51 70 253 51 70 255 51 70
0 52 70 1 52 70 2 52 70 3 52 70 4 52 70 5 52 70 6 52 70 7 52 70 8 52 70 9 52 70 10 52 70 11 52 70 12 52 70 13 52 70 14 52 70 16 52 70 17 52 70 18 52 70 19 52 70 20 52 70 21 52 70 22 52 70 23 52 70 24 52 70 25 52 70 26 52 70 27 52 70 28 52 70 29 52 70 30 52 70 32 52 70 33 52 70 34 52 70 35 52 70 36 52 70 37 52 70 38 52 70 39 52 70 40 52 70 41 52 70 42 52 70 43 52 70 44 52 70 45 52 70 46 52 70 48 52 70 49 52 70 50 52 70 51 52 70 52 52 70 53 52 70 54 52 70 55 52 70 56 52 70 57 52 70 58 52 70 59 52 70 60 52 70 61 52 70 62 52 70 64 52 70 65 52 70 66 52 70 67 52 70 68 52 70 69 52 70 70 52 70 71 52 70 72 52 70 73 52 70 74 52 70 75 52 70 76 52 70 77 52 70 78 52 70 80 52 70 81 52 70 82 52 70 83 52 70 84 52 70 85 52 70 86 52 70 87 52 70 88 52 70 89 52 70 90 52 70 91 52 70 92 52 70 93 52 70 94 52 70 96 52 70 97 52 70 98 52 70 99 52 70 100 52 70 101 52 70 102 52 70 103 52 70 104 52 70 105 52 70 106 52 70 107 52 70 108 52 70 109 52 70 110 52 70 112 52 70 113 52 70 114 52 70 115 52 70 116 52 70 117 52 70 118 52 70 119 52 70 120 52 70 121 52 70 122 52 70 123 52 70 124 52 70 125 52 70 126 52 70 128 52 70 129 52 70 130 52 70 131 52 70 132 52 70 133 52 70 134 52 70 135 52 70 136 52 70 137 52 70 138 52 70 139 52 70 140 52 70 141 52 70 142 52 70 144 52 70 145 52 70 146 52 70 147 52 70 148 52 70 149 52 70 150 52 70 151 52 70 152 52 70 153 52 70 154 52 70 155 52 70 156 52 70 157 52 70 158 52 70 160 52 70 161 52 70 162 52 70 163 52 70 164 52 70 165 52 70 166 52 70 167 52 70 168 52 70 169 52 70 170 52 70 171 52 70 172 52 70 173 52 70 174 52 70 176 52 70 177 52 70 178 52 70 179 52 70 180 52 70 181 52 70 182 52 70 183 52 70 184 52 70 185 52 70 186 52 70 187 52 70 188 52 70 189 52 70 190 52 70 192 52 70 193 52 70 194 52 70 195 52 70 196 52 70 197 52 70 198 52 70 199 52 70 200 52 70 201 52 70 202 52 70 203 52 70 204 52 70 205 52 70 206 52 70 208 52 70 209 52 70 210 52 70 211 52 70 212 52 70 213 52 70 214 52 70 215 52 70 216 52 70 217 52 70 218 52 70 219 52 70 220 52 70 221 52 70 222 52 70 224 52 70 225 52 70 226 52 70 227 52 70 228 52 70 229 52 70 230 52 70 231 52 70 232 52 70 233 52 70 234 52 70 235 52 70 236 52 70 237 52 70 238 52 70 240 52 70 241 52 70 242 52 70 243 52 70 244 52 70 245 52 70 246 52 70 247 52 70 248 52 70 249 52 70 250 52 70 251 52 70 252 52 70 253 52 70 255 52 70
0 54 70 1 54 70 2 54 70 3 54 70 4 54 70 5 54 70 6 54 70 7 54 70 8 54 70 9 54 70 10 54 70 11 54 70 12 54 70 13 54 70 14 54 70 16 54 70 17 54 70 18 54 70 19 54 70 20 54 70 21 54 70 22 54 70 23 54 70 24 54 70 25 54 70 26 54 70 27 54 70 28 54 70 29 54 70 30 54 70 32 54 70 33 54 70 34 54 70 35 54 70 36 54 70 37 54 70 38 54 70 39 54 70 40 54 70 41 54 70 42 54 70 43 54 70 44 54 70 45 54 70 46 54 70 48 54 70 49 54 70 50 54 70 51 54 70 52 54 70 53 54 70 54 54 70 55 54 70 56 54 70 57 54 70 58 54 70 59 54 70 60 54 70 61 54 70 62 54 70 64 54 70 65 54 70 66 54 70 67 54 70 68 54 70 69 54 70 70 54 70 71 54 70 72 54 70 73 54 70 74 54 70 75 54 70 76 54 70 77 54 70 78 54 70 80 54 70 81 54 70 82 54 70 83 54 70 84 54 70 85 54 70 86 54 70 87 54 70 88 54 70 89 54 70 90 54 70 91 54 70 92 54 70 93 54 70 94 54 70 96 54 70 97 54 70 98 54 70 99 54 70 100 54 70 101 54 70 102 54 70 103 54 70 104 54 70 105 54 70 106 54 70 107 54 70 108 54 70 109 54 70 110 54 70 112 54 70 113 54 70 114 54 70 115 54 70 116 54 70 117 54 70 118 54 70 119 54 70 120 54 70 121 54 70 122 54 70 123 54 70 124 54 70 125 54 70 126 54 70 128 54 70 129 54 70 130 54 70 131 54 70 132 54 70 133 54 70 134 54 70 135 54 70 136 54 70 137 54 70 138 54 70 139 54 70 140 54 70 141 54 70 142 54 70 144 54 70 145 54 70 146 54 70 147 54 70 148 54 70 149 54 70 150 54 70 151 54 70 152 54 70 153 54 70 154 54 70 155 54 70 156 54 70 157 54 70 158 54 70 160 54 70 161 54 70 162 54 70 163 54 70 164 54 70 165 54 70 166 54 70 167 54 70 168 54 70 169 54 70 170 54 70 171 54 70 172 54 70 173 54 70 174 54 70 176 54 70 177 54 70 178 54 70 179 54 70 180 54 70 181 54 70 182 54 70 183 54 70 184 54 70 185 54 70 186 54 70 187 54 70 188 54 70 189 54 70 190 54 70 192 54 70 193 54 70 194 54 70 195 54 70 196 54 70 197 54 70 198 54 70 199 54 70 200 54 70 201 54 70 202 54 70 203 54 70 204 54 70 205 54 70 206 54 70 208 54 70 209 54 70 210 54 70 211 54 70 212 54 70 213 54 70 214 54 70 215 54 70 216 54 70 217 54 70 218 54 70 219 54 70 220 54 70 221 54 70 222 54 70 224 54 70 225 54 70 226 54 70 227 54 70 228 54 70 229 54 70 230 54 70 231 54 70 232 54 70 233 54 70 234 54 70 235 54 70 236 54 70 237 54 70 238 54 70 240 54 70 241 54 70 242 54 70 243 54 70 244 54 70 245 54 70 246 54 70 247 54 70 248 54 70 249 54 70 250 54 70 251 54 70 252 54 70 253 54 70 255 54 70
0 55 70 1 55 70 2 55 70 3 55 70 4 55 70 5 55 70 6 55 70 7 55 70 8 55 70 9 55 70 10 55 70 11 55 70 12 55 70 13 55 70 14 55 70 16 55 70 17 55 70 18 55 70 19 55 70 20 55 70 21 55 70 22 55 70 23 55 70 24 55 70 25 55 70 26 55 70 27 55 70 28 55 70 29 55 70 30 55 70 32 55 70 33 55 70 34 55 70 35 55 70 36 55 70 37 55 70 38 55 70 39 55 70 40 55 70 41 55 70 42 55 70 43 55 70 44 55 70 45 55 70 46 55 70 48 55 70 49 55 70 50 55 70 51 55 70 52 55 70 53 55 70 54 55 70 55 55 70 56 55 70 57 55 70 58 55 70 59 55 70 60 55 70 61 55 70 62 55 70 64 55 70 65 55 70 66 55 70 67 55 70 68 55 70 69 55 70 70 55 70 71 55 70 72 55 70 73 55 70 74 55 70 75 55 70 76 55 70 77 55 70 78 55 70 80 55 70 81 55 70 82 55 70 83 55 70 84 55 70 85 55 70 86 55 70 87 55 70 88 55 70 89 55 70 90 55 70 91 55 70 92 55 70 93 55 70 94 55 70 96 55 70 97 55 70 98 55 70 99 55 70 100 55 70 101 55 70 102 55 70 103 55 70 104 55 70 105 55 70 106 55 70 107 55 70 108 55 70 109 55 70 110 55 70 112 55 70 113 55 70 114 55 70 115 55 70 116 55 70 117 55 70 118 55 70 119 55 70 120 55 70 121 55 70 122 55 70 123 55 70 124 55 70 125 55 70 126 55 70 128 55 70 129 55 70 130 55 70 131 55 70 132 55 70 133 55 70 134 55 70 135 55 70 136 55 70 137 55 70 138 55 70 139 55 70 140 55 70 141 55 70 142 55 70 144 55 70 145 55 70 146 55 70 147 55 70 148 55 70 149 55 70 150 55 70 151 55 70 152 55 70 153 55 70 154 55 70 155 55 70 156 55 70 157 55 70 158 55 70 160 55 70 161 55 70 162 55 70 163 55 70 164 55 70 165 55 70 166 55 70 167 55 70 168 55 70 169 55 70 170 55 70 171 55 70 172 55 70 173 55 70 174 55 70 176 55 70 177 55 70 178 55 70 179 55 70 180 55 70 181 55 70 182 55 70 183 55 70 184 55 70 185 55 70 186 55 70 187 55 70 188 55 70 189 55 70 190 55 70 192 55 70 193 55 70 194 55 70 195 55 70 196 55 70 197 55 70 198 55 70 199 55 70 200 55 70 201 55 70 202 55 70 203 55 70 204 55 70 205 55 70 206 55 70 208 55 70 209 55 70 210 55 70 211 55 70 212 55 70 213 55 70 214 55 70 215 55 70 216 55 70 217 55 70 218 55 70 219 55 70 220 55 70 221 55 70 222 55 70 224 55 70 225 55 70 226 55 70 227 55 70 228 55 70 229 55 70 230 55 70 231 55 70 232 55 70 233 55 70 234 55 70 235 55 70 236 55 70 237 55 70 238 55 70 240 55 70 241 55 70 242 55 70 243 55 70 244 55 70 245 55 70 246 55 70 247 55 70 248 55 70 249 55 70 250 55 70 251 55 70 252 55 70 253 55 70 255 55 70
0 56 70 1 56 70 2 56 70 3 56 70 4 56 70 5 56 70 6 56 70 7 56 70 8 56 70 9 56 70 10 56 70 11 56 70 12 56 70 13 56 70 14 56 70 16 56 70 17 56 70 18 56 70 19 56 70 20 56 70 21 56 70 22 56 70 23 56 70 24 56 70 25 56 70 26 56 70 27 56 70 28 56 70 29 56 70 30 56 70 32 56 70 33 56 70 34 56 70 35 56 70 36 56 70 37 56 70 38 56 70 39 56 70 40 56 70 41 56 70 42 56 70 43 56 70 44 56 70 45 56 70 46 56 70 48 56 70 49 56 70 50 56 70 51 56 70 52 56 70 53 56 70 54 56 70 55 56 70 56 56 70 57 56 70 58 56 70 59 56 70 60 56 70 61 56 70 62 56 70 64 56 70 65 56 70 66 56 70 67 56 70 68 56 70 69 56 70 70 56 70 71 56 70 72 56 70 73 56 70 74 56 70 75 56 70 76 56 70 77 56 70 78 56 70 80 56 70 81 56 70 82 56 70 83 56 70 84 56 70 85 56 70 86 56 70 87 56 70 88 56 70 89 56 70 90 56 70 91 56 70 92 56 70 93 56 70 94 56 70 96 56 70 97 56 70 98 56 70 99 56 70 100 56 70 101 56 70 102 56 70 103 56 70 104 56 70 105 56 70 106 56 70 107 56 70 108 56 70 109 56 70 110 56 70 112 56 70 113 56 70 114 56 70 115 56 70 116 56 70 117 56 70 118 56 70 119 56 70 120 56 70 121 56 70 122 56 70 123 56 70 124 56 70 125 56 70 126 56 70 128 56 70 129 56 70 130 56 70 131 56 70 132 56 70 133 56 70 134 56 70 135 56 70 136 56 70 137 56 70 138 56 70 139 56 70 140 56 70 141 56 70 142 56 70 144 56 70 145 56 70 146 56 70 147 56 70 148 56 70 149 56 70 150 56 70 151 56 70 152 56 70 153 56 70 154 56 70 155 56 70 156 56 70 157 56 70 158 56 70 160 56 70 161 56 70 162 56 70 163 56 70 164 56 70 165 56 70 166 56 70 167 56 70 168 56 70 169 56 70 170 56 70 171 56 70 172 56 70 173 56 70 174 56 70 176 56 70 177 56 70 178 56 70 179 56 70 180 56 70 181 56 70 182 56 70 183 56 70 184 56 70 185 56 70 186 56 70 187 56 70 188 56 70 189 56 70 190 56 70 192 56 70 193 56 70 194 56 70 195 56 70 196 56 70 197 56 70 198 56 70 199 56 70 200 56 70 201 56 70 202 56 70 203 56 70 204 56 70 205 56 70 206 56 70 208 56 70 209 56 70 210 56 70 211 56 70 212 56 70 213 56 70 214 56 70 215 56 70 216 56 70 217 56 70 218 56 70 219 56 70 220 56 70 221 56 70 222 56 70 224 56 70 225 56 70 226 56 70 227 56 70 228 56 70 229 56 70 230 56 70 231 56 70 232 56 70 233 56 70 234 56 70 235 56 70 236 56 70 237 56 70 238 56 70 240 56 70 241 56 70 242 56 70 243 56 70 244 56 70 245 56 70 246 56 70 247 56 70 248 56 70 249 56 70 250 56 70 251 56 70 252 56 70 253 56 70 255 56 70
0 58 70 1 58 70 2 58 70 3 58 70 4 58 70 5 58 70 6 58 70 7 58 70 8 58 70 9 58 70 10 58 70 11 58 70 12 58 70 13 58 70 14 58 70 16 58 70 17 58 70 18 58 70 19 58 70 20 58 70 21 58 70 22 58 70 23 58 70 24 58 70 25 58 70 26 58 70 27 58 70 28 58 70 29 58 70 30 58 70 32 58 70 33 58 70 34 58 70 35 58 70 36 58 70 37 58 70 38 58 70 39 58 70 40 58 70 41 58 70 42 58 70 43 58 70 44 58 70 45 58 70 46 58 70 48 58 70 49 58 70 50 58 70 51 58 70 52 58 70 53 58 70 54 58 70 55 58 70 56 58 70 57 58 70 58 58 70 59 58 70 60 58 70 61 58 70 62 58 70 64 58 70 65 58 70 66 58 70 67 58 70 68 58 70 69 58 70 70 58 70 71 58 70 72 58 70 73 58 70 74 58 70 75 58 70 76 58 70 77 58 70 78 58 70 80 58 70 81 58 70 82 58 70 83 58 70 84 58 70 85 58 70 86 58 70 87 58 70 88 58 70 89 58 70 90 58 70 91 58 70 92 58 70 93 58 70 94 58 70 96 58 70 97 58 70 98 58 70 99 58 70 100 58 70 101 58 70 102 58 70 103 58 70 104 58 70 105 58 70 106 58 70 107 58 70 108 58 70 109 58 70 110 58 70 112 58 70 113 58 70 114 58 70 115 58 70 116 58 70 117 58 70 118 58 70 119 58 70 120 58 70 121 58 70 122 58 70 123 58 70 124 58 70 125 58 70 126 58 70 128 58 70 129 58 70 130 58 70 131 58 70 132 58 70 133 58 70 134 58 70 135 58 70 136 58 70 137 58 70 138 58 70 139 58 70 140 58 70 141 58 70 142 58 70 144 58 70 145 58 70 146 58 70 147 58 70 148 58 70 149 58 70 150 58 70 151 58 70 152 58 70 153 58 70 154 58 70 155 58 70 156 58 70 157 58 70 158 58 70 160 58 70 161 58 70 162 58 70 163 58 70 164 58 70 165 58 70 166 58 70 167 58 70 168 58 70 169 58 70 170 58 70 171 58 70 172 58 70 173 58 70 174 58 70 176 58 70 177 58 70 178 58 70 179 58 70 180 58 70 181 58 70 182 58 70 183 58 70 184 58 70 185 58 70 186 58 70 187 58 70 188 58 70 189 58 70 190 58 70 192 58 70 193 58 70 194 58 70 195 58 70 196 58 70 197 58 70 198 58 70 199 58 70 200 58 70 201 58 70 202 58 70 203 58 70 204 58 70 205 58 70 206 58 70 208 58 70 209 58 70 210 58 70 211 58 70 212 58 70 213 58 70 214 58 70 215 58 70 216 58 70 217 58 70 218 58 70 219 58 70 220 58 70 221 58 70 222 58 70 224 58 70 225 58 70 226 58 70 227 58 70 228 58 70 229 58 70 230 58 70 231 58 70 232 58 70 233 58 70 234 58 70 235 58 70 236 58 70 237 58 70 238 58 70 240 58 70 241 58 70 242 58 70 243 58 70 244 58 70 245 58 70 246 58 70 247 58 70 248 58 70 249 58 70 250 58 70 251 58 70 252 58 70 253 58 70 255 58 70
0 59 70 1 59 70 2 59 70 3 59 70 4 59 70 5 59 70 6 59 70 7 59 70 8 59 70 9 59 70 10 59 70 11 59 70 12 59 70 13 59 70 14 59 70 16 59 70 17 59 70 18 59 70 19 59 70 20 59 70 21 59 70 22 59 70 23 59 70 24 59 70 25 59 70 26 59 70 27 59 70 28 59 70 29 59 70 30 59 70 32 59 70 33 59 70 34 59 70 35 59 70 36 59 70 37 59 70 38 59 70 39 59 70 40 59 70 41 59 70 42 59 70 43 59 70 44 59 70 45 59 70 46 59 70 48 59 70 49 59 70 50 59 70 51 59 70 52 59 70 53 59 70 54 59 70 55 59 70 56 59 70 57 59 70 58 59 70 59 59 70 60 59 70 61 59 70 62 59 70 64 59 70 65 59 70 66 59 70 67 59 70 68 59 70 69 59 70 70 59 70 71 59 70 72 59 70 73 59 70 74 59 70 75 59 70 76 59 70 77 59 70 78 59 70 80 59 70 81 59 70 82 59 70 83 59 70 84 59 70 85 59 70 86 59 70 87 59 70 88 59 70 89 59 70 90 59 70 91 59 70 92 59 70 93 59 70 94 59 70 96 59 70 97 59 70 98 59 70 99 59 70 100 59 70 101 59 70 102 59 70 103 59 70 104 59 70 105 59 70 106 59 70 107 59 70 108 59 70 109 59 70 110 59 70 112 59 70 113 59 70 114 59 70 115 59 70 116 59 70 117 59 70 118 59 70 119 59 70 120 59 70 121 59 70 122 59 70 123 59 70 124 59 70 125 59 70 126 59 70 128 59 70 129 59 70 130 59 70 131 59 70 132 59 70 133 59 70 134 59 70 135 59 70 136 59 70 137 59 70 138 59 70 139 59 70 140 59 70 141 59 70 142 59 70 144 59 70 145 59 70 146 59 70 147 59 70 148 59 70 149 59 70 150 59 70 151 59 70 152 59 70 153 59 70 154 59 70 155 59 70 156 59 70 157 59 70 158 59 70 160 59 70 161 59 70 162 59 70 163 59 70 164 59 70 165 59 70 166 59 70 167 59 70 168 59 70 169 59 70 170 59 70 171 59 70 172 59 70 173 59 70 174 59 70 176 59 70 177 59 70 178 59 70 179 59 70 180 59 70 181 59 70 182 59 70 183 59 70 184 59 70 185 59 70 186 59 70 187 59 70 188 59 70 189 59 70 190 59 70 192 59 70 193 59 70 194 59 70 195 59 70 196 59 70 197 59 70 198 59 70 199 59 70 200 59 70 201 59 70 202 59 70 203 59 70 204 59 70 205 59 70 206 59 70 208 59 70 209 59 70 210 59 70 211 59 70 212 59 70 213 59 70 214 59 70 215 59 70 216 59 70 217 59 70 218 59 70 219 59 70 220 59 70 221 59 70 222 59 70 224 59 70 225 59 70 226 59 70 227 59 70 228 59 70 229 59 70 230 59 70 231 59 70 232 59 70 233 59 70 234 59 70 235 59 70 236 59 70 237 59 70 238 59 70 240 59 70 241 59 70 242 59 70 243 59 70 244 59 70 245 59 70 246 59 70 247 59 70 248 59 70 249 59 70 250 59 70 251 59 70 252 59 70 253 59 70 255 59 70
0 61 70 1 61 70 2 61 70 3 61 70 4 61 70 5 61 70 6 61 70 7 61 70 8 61 70 9 61 70 10 61 70 11 61 70 12 61 70 13 61 70 14 61 70 16 61 70 17 61 70 18 61 70 19 61 70 20 61 70 21 61 70 22 61 70 23 61 70 24 61 70 25 61 70 26 61 70 27 61 70 28 61 70 29 61 70 30 61 70 32 61 70 33 61 70 34 61 70 35 61 70 36 61 70 37 61 70 38 61 70 39 61 70 40 61 70 41 61 70 42 61 70 43 61 70 44 61 70 45 61 70 46 61 70 48 61 70 49 61 70 50 61 70 51 61 70 52 61 70 53 61 70 54 61 70 55 61 70 56 61 70 57 61 70 58 61 70 59 61 70 60 61 70 61 61 70 62 61 70 64 61 70 65 61 70 66 61 70 67 61 70 68 61 70 69 61 70 70 61 70 71 61 70 72 61 70 73 61 70 74 61 70 75 61 70 76 61 70 77 61 70 78 61 70 80 61 70 81 61 70 82 61 70 83 61 70 84 61 70 85 61 70 86 61 70 87 61 70 88 61 70 89 61 70 90 61 70 91 61 70 92 61 70 93 61 70 94 61 70 96 61 70 97 61 70 98 61 70 99 61 70 100 61 70 101 61 70 102 61 70 103 61 70 104 61 70 105 61 70 106 61 70 107 61 70 108 61 70 109 61 70 110 61 70 112 61 70 113 61 70 114 61 70 115 61 70 116 61 70 117 61 70 118 61 70 119 61 70 120 61 70 121 61 70 122 61 70 123 61 70 124 61 70 125 61 70 126 61 70 128 61 70 129 61 70 130 61 70 131 61 70 132 61 70 133 61 70 134 61 70 135 61 70 136 61 70 137 61 70 138 61 70 139 61 70 140 61 70 141 61 70 142 61 70 144 61 70 145 61 70 146 61 70 147 61 70 148 61 70 149 61 70 150 61 70 151 61 70 152 61 70 153 61 70 154 61 70 155 61 70 156 61 70 157 61 70 158 61 70 160 61 70 161 61 70 162 61 70 163 61 70 164 61 70 165 61 70 166 61 70 167 61 70 168 61 70 169 61 70 170 61 70 171 61 70 172 61 70 173 61 70 174 61 70 176 61 70 177 61 70 178 61 70 179 61 70 180 61 70 181 61 70 182 61 70 183 61 70 184 61 70 185 61 70 186 61 70 187 61 70 188 61 70 189 61 70 190 61 70 192 61 70 193 61 70 194 61 70 195 61 70 196 61 70 197 61 70 198 61 70 199 61 70 200 61 70 201 61 70 202 61 70 203 61 70 204 61 70 205 61 70 206 61 70 208 61 70 209 61 70 210 61 70 211 61 70 212 61 70 213 61 70 214 61 70 215 61 70 216 61 70 217 61 70 218 61 70 219 61 70 220 61 70 221 61 70 222 61 70 224 61 70 225 61 70 226 61 70 227 61 70 228 61 70 229 61 70 230 61 70 231 61 70 232 61 70 233 61 70 234 61 70 235 61 70 236 61 70 237 61 70 238 61 70 240 61 70 241 61 70 242 61 70 243 61 70 244 61 70 245 61 70 246 61 70 247 61 70 248 61 70 249 61 70 250 61 70 251 61 70 252 61 70 253 61 70 255 61 70
0 62 70 1 62 70 2 62 70 3 62 70 4 62 70 5 62 70 6 62 70 7 62 70 8 62 70 9 62 70 10 62 70 11 62 70 12 62 70 13 62 70 14 62 70 16 62 70 17 62 70 18 62 70 19 62 70 20 62 70 21 62 70 22 62 70 23 62 70 24 62 70 25 62 70 26 62 70 27 62 70 28 62 70 29 62 70 30 62 70 32 62 70 33 62 70 34 62 70 35 62 70 36 62 70 37 62 70 38 62 70 39 62 70 40 62 70 41 62 70 42 62 70 43 62 70 44 62 70 45 62 70 46 62 70 48 62 70 49 62 70 50 62 70 51 62 70 52 62 70 53 62 70 54 62 70 55 62 70 56 62 70 57 62 70 58 62 70 59 62 70 60 62 70 61 62 70 62 62 70 64 62 70 65 62 70 66 62 70 67 62 70 68 62 70 69 62 70 70 62 70 71 62 70 72 62 70 73 62 70 74 62 70 75 62 70 76 62 70 77 62 70 78 62 70 80 62 70 81 62 70 82 62 70 83 62 70 84 62 70 85 62 70 86 62 70 87 62 70 88 62 70 89 62 70 90 62 70 91 62 70 92 62 70 93 62 70 94 62 70 96 62 70 97 62 70 98 62 70 99 62 70 100 62 70 101 62 70 102 62 70 103 62 70 104 62 70 105 62 70 106 62 70 107 62 70 108 62 70 109 62 70 110 62 70 112 62 70 113 62 70 114 62 70 115 62 70 116 62 70 117 62 70 118 62 70 119 62 70 120 62 70 121 62 70 122 62 70 123 62 70 124 62 70 125 62 70 126 62 70 128 62 70 129 62 70 130 62 70 131 62 70 132 62 70 133 62 70 134 62 70 135 62 70 136 62 70 137 62 70 138 62 70 139 62 70 140 62 70 141 62 70 142 62 70 144 62 70 145 62 70 146 62 70 147 62 70 148 62 70 149 62 70 150 62 70 151 62 70 152 62 70 153 62 70 154 62 70 155 62 70 156 62 70 157 62 70 158 62 70 160 62 70 161 62 70 162 62 70 163 62 70 164 62 70 165 62 70 166 62 70 167 62 70 168 62 70 169 62 70 170 62 70 171 62 70 172 62 70 173 62 70 174 62 70 176 62 70 177 62 70 178 62 70 179 62 70 180 62 70 181 62 70 182 62 70 183 62 70 184 62 70 185 62 70 186 62 70 187 62 70 188 62 70 189 62 70 190 62 70 192 62 70 193 62 70 194 62 70 195 62 70 196 62 70 197 62 70 198 62 70 199 62 70 200 62 70 201 62 70 202 62 70 203 62 70 204 62 70 205 62 70 206 62 70 208 62 70 209 62 70 210 62 70 211 62 70 212 62 70 213 62 70 214 62 70 215 62 70 216 62 70 217 62 70 218 62 70 219 62 70 220 62 70 221 62 70 222 62 70 224 62 70 225 62 70 226 62 70 227 62 70 228 62 70 229 62 70 230 62 70 231 62 70 232 62 70 233 62 70 234 62 70 235 62 70 236 62 70 237 62 70 238 62 70 240 62 70 241 62 70 242 62 70 243 62 70 244 62 70 245 62 70 246 62 70 247 62 70 248 62 70 249 62 70 250 62 70 251 62 70 252 62 70 253 62 70 255 62 70
0 64 70 1 64 70 2 64 70 3 64 70 4 64 70 5 64 70 6 64 70 7 64 70 8 64 70 9 64 70 10 64 70 11 64 70 12 64 70 13 64 70 14 64 70 16 64 70 17 64 70 18 64 70 19 64 70 20 64 70 21 64 70 22 64 70 23 64 70 24 64 70 25 64 70 26 64 70 27 64 70 28 64 70 29 64 70 30 64 70 32 64 70 33 64 70 34 64 70 35 64 70 36 64 70 37 64 70 38 64 70 39 64 70 40 64 70 41 64 70 42 64 70 43 64 70 44 64 70 45 64 70 46 64 70 48 64 70 49 64 70 50 64 70 51 64 70 52 64 70 53 64 70 54 64 70 55 64 70 56 64 70 57 64 70 58 64 70 59 64 70 60 64 70 61 64 70 62 64 70 64 64 70 65 64 70 66 64 70 67 64 70 68 64 70 69 64 70 70 64 70 71 64 70 72 64 70 73 64 70 74 64 70 75 64 70 76 64 70 77 64 70 78 64 70 80 64 70 81 64 70 82 64 70 83 64 70 84 64 70 85 64 70 86 64 70 87 64 70 88 64 70 89 64 70 90 64 70 91 64 70 92 64 70 93 64 70 94 64 70 96 64 70 97 64 70 98 64 70 99 64 70 100 64 70 101 64 70 102 64 70 103 64 70 104 64 70 105 64 70 106 64 70 107 64 70 108 64 70 109 64 70 110 64 70 112 64 70 113 64 70 114 64 70 115 64 70 116 64 70 117 64 70 118 64 70 119 64 70 120 64 70 121 64 70 122 64 70 123 64 70 124 64 70 125 64 70 126 64 70 128 64 70 129 64 70 130 64 70 131 64 70 132 64 70 133 64 70 134 64 70 135 64 70 136 64 70 137 64 70 138 64 70 139 64 70 140 64 70 141 64 70 142 64 70 144 64 70 145 64 70 146 64 70 147 64 70 148 64 70 149 64 70 150 64 70 151 64 70 152 64 70 153 64 70 154 64 70 155 64 70 156 64 70 157 64 70 158 64 70 160 64 70 161 64 70 162 64 70 163 64 70 164 64 70 165 64 70 166 64 70 167 64 70 168 64 70 169 64 70 170 64 70 171 64 70 172 64 70 173 64 70 174 64 70 176 64 70 177 64 70 178 64 70 179 64 70 180 64 70 181 64 70 182 64 70 183 64 70 184 64 70 185 64 70 186 64 70 187 64 70 188 64 70 189 64 70 190 64 70 192 64 70 193 64 70 194 64 70 195 64 70 196 64 70 197 64 70 198 64 70 199 64 70 200 64 70 201 64 70 202 64 70 203 64 70 204 64 70 205 64 70 206 64 70 208 64 70 209 64 70 210 64 70 211 64 70 212 64 70 213 64 70 214 64 70 215 64 70 216 64 70 217 64 70 218 64 70 219 64 70 220 64 70 221 64 70 222 64 70 224 64 70 225 64 70 226 64 70 227 64 70 228 64 70 229 64 70 230 64 70 231 64 70 232 64 70 233 64 70 234 64 70 235 64 70 236 64 70 237 64 70 238 64 70 240 64 70 241 64 70 242 64 70 243 64 70 244 64 70 245 64 70 246 64 70 247 64 70 248 64 70 249 64 70 250 64 70 251 64 70 252 64 70 253 64 70 255 64 70
0 65 70 1 65 70 2 65 70 3 65 70 4 65 70 5 65 70 6 65 70 7 65 70 8 65 70 9 65 70 10 65 70 11 65 70 12 65 70 13 65 70 14 65 70 16 65 70 17 65 70 18 65 70 19 65 70 20 65 70 21 65 70 22 65 70 23 65 70 24 65 70 25 65 70 26 65 70 27 65 70 28 65 70 29 65 70 30 65 70 32 65 70 33 65 70 34 65 70 35 65 70 36 65 70 37 65 70 38 65 70 39 65 70 40 65 70 41 65 70 42 65 70 43 65 70 44 65 70 45 65 70 46 65 70 48 65 70 49 65 70 50 65 70 51 65 70 52 65 70 53 65 70 54 65 70 55 65 70 56 65 70 57 65 70 58 65 70 59 65 70 60 65 70 61 65 70 62 65 70 64 65 70 65 65 70 66 65 70 67 65 70 68 65 70 69 65 70 70 65 70 71 65 70 72 65 70 73 65 70 74 65 70 75 65 70 76 65 70 77 65 70 78 65 70 80 65 70 81 65 70 82 65 70 83 65 70 84 65 70 85 65 70 86 65 70 87 65 70 88 65 70 89 65 70 90 65 70 91 65 70 92 65 70 93 65 70 94 65 70 96 65 70 97 65 70 98 65 70 99 65 70 100 65 70 101 65 70 102 65 70 103 65 70 104 65 70 105 65 70 106 65 70 107 65 70 108 65 70 109 65 70 110 65 70 112 65 70 113 65 70 114 65 70 115 65 70 116 65 70 117 65 70 118 65 70 119 65 70 120 65 70 121 65 70 122 65 70 123 65 70 124 65 70 125 65 70 126 65 70 128 65 70 129 65 70 130 65 70 131 65 70 132 65 70 133 65 70 134 65 70 135 65 70 136 65 70 137 65 70 138 65 70 139 65 70 140 65 70 141 65 70 142 65 70 144 65 70 145 65 70 146 65 70 147 65 70 148 65 70 149 65 70 150 65 70 151 65 70 152 65 70 153 65 70 154 65 70 155 65 70 156 65 70 157 65 70 158 65 70 160 65 70 161 65 70 162 65 70 163 65 70 164 65 70 165 65 70 166 65 70 167 65 70 168 65 70 169 65 70 170 65 70 171 65 70 172 65 70 173 65 70 174 65 70 176 65 70 177 65 70 178 65 70 179 65 70 180 65 70 181 65 70 182 65 70 183 65 70 184 65 70 185 65 70 186 65 70 187 65 70 188 65 70 189 65 70 190 65 70 192 65 70 193 65 70 194 65 70 195 65 70 196 65 70 197 65 70 198 65 70 199 65 70 200 65 70 201 65 70 202 65 70 203 65 70 204 65 70 205 65 70 206 65 70 208 65 70 209 65 70 210 65 70 211 65 70 212 65 70 213 65 70 214 65 70 215 65 70 216 65 70 217 65 70 218 65 70 219 65 70 220 65 70 221 65 70 222 65 70 224 65 70 225 65 70 226 65 70 227 65 70 228 65 70 229 65 70 230 65 70 231 65 70 232 65 70 233 65 70 234 65 70 235 65 70 236 65 70 237 65 70 238 65 70 240 65 70 241 65 70 242 65 70 243 65 70 244 65 70 245 65 70 246 65 70 247 65 70 248 65 70 249 65 70 250 65 70 251 65 70 252 65 70 253 65 70 255 65 70
0 66 70 1 66 70 2 66 70 3 66 70 4 66 70 5 66 70 6 66 70 7 66 70 8 66 70 9 66 70 10 66 70 11 66 70 12 66 70 13 66 70 14 66 70 16 66 70 17 66 70 18 66 70 19 66 70 20 66 70 21 66 70 22 66 70 23 66 70 24 66 70 25 66 70 26 66 70 27 66 70 28 66 70 29 66 70 30 66 70 32 66 70 33 66 70 34 66 70 35 66 70 36 66 70 37 66 70 38 66 70 39 66 70 40 66 70 41 66 70 42 66 70 43 66 70 44 66 70 45 66 70 46 66 70 48 66 70 49 66 70 50 66 70 51 66 70 52 66 70 53 66 70 54 66 70 55 66 70 56 66 70 57 66 70 58 66 70 59 66 70 60 66 70 61 66 70 62 66 70 64 66 70 65 66 70 66 66 70 67 66 70 68 66 70 69 66 70 70 66 70 71 66 70 72 66 70 73 66 70 74 66 70 75 66 70 76 66 70 77 66 70 78 66 70 80 66 70 81 66 70 82 66 70 83 66 70 84 66 70 85 66 70 86 66 70 87 66 70 88 66 70 89 66 70 90 66 70 91 66 70 92 66 70 93 66 70 94 66 70 96 66 70 97 66 70 98 66 70 99 66 70 100 66 70 101 66 70 102 66 70 103 66 70 104 66 70 105 66 70 106 66 70 107 66 70 108 66 70 109 66 70 110 66 70 112 66 70 113 66 70 114 66 70 115 66 70 116 66 70 117 66 70 118 66 70 119 66 70 120 66 70 121 66 70 122 66 70 123 66 70 124 66 70 125 66 70 126 66 70 128 66 70 129 66 70 130 66 70 131 66 70 132 66 70 133 66 70 134 66 70 135 66 70 136 66 70 137 66 70 138 66 70 139 66 70 140 66 70 141 66 70 142 66 70 144 66 70 145 66 70 146 66 70 147 66 70 148 66 70 149 66 70 150 66 70 151 66 70 152 66 70 153 66 70 154 66 70 155 66 70 156 66 70 157 66 70 158 66 70 160 66 70 161 66 70 162 66 70 163 66 70 164 66 70 165 66 70 166 66 70 167 66 70 168 66 70 169 66 70 170 66 70 171 66 70 172 66 70 173 66 70 174 66 70 176 66 70 177 66 70 178 66 70 179 66 70 180 66 70 181 66 70 182 66 70 183 66 70 184 66 70 185 66 70 186 66 70 187 66 70 188 66 70 189 66 70 190 66 70 192 66 70 193 66 70 194 66 70 195 66 70 196 66 70 197 66 70 198 66 70 199 66 70 200 66 70 201 66 70 202 66 70 203 66 70 204 66 70 205 66 70 206 66 70 208 66 70 209 66 70 210 66 70 211 66 70 212 66 70 213 66 70 214 66 70 215 66 70 216 66 70 217 66 70 218 66 70 219 66 70 220 66 70 221 66 70 222 66 70 224 66 70 225 66 70 226 66 70 227 66 70 228 66 70 229 66 70 230 66 70 231 66 70 232 66 70 233 66 70 234 66 70 235 66 70 236 66 70 237 66 70 238 66 70 240 66 70 241 66 70 242 66 70 243 66 70 244 66 70 245 66 70 246 66 70 247 66 70 248 66 70 249 66 70 250 66 70 251 66 70 252 66 70 253 66 70 255 66 70
0 68 70 1 68 70 2 68 70 3 68 70 4 68 70 5 68 70 6 68 70 7 68 70 8 68 70 9 68 70 10 68 70 11 68 70 12 68 70 13 68 70 14 68 70 16 68 70 17 68 70 18 68 70 19 68 70 20 68 70 21 68 70 22 68 70 23 68 70 24 68 70 25 68 70 26 68 70 27 68 70 28 68 70 29 68 70 30 68 70 32 68 70 33 68 70 34 68 70 35 68 70 36 68 70 37 68 70 38 68 70 39 68 70 40 68 70 41 68 70 42 68 70 43 68 70 44 68 70 45 68 70 46 68 70 48 68 70 49 68 70 50 68 70 51 68 70 52 68 70 53 68 70 54 68 70 55 68 70 56 68 70 57 68 70 58 68 70 59 68 70 60 68 70 61 68 70 62 68 70 64 68 70 65 68 70 66 68 70 67 68 70 68 68 70 69 68 70 70 68 70 71 68 70 72 68 70 73 68 70 74 68 70 75 68 70 76 68 70 77 68 70 78 68 70 80 68 70 81 68 70 82 68 70 83 68 70 84 68 70 85 68 70 86 68 70 87 68 70 88 68 70 89 68 70 90 68 70 91 68 70 92 68 70 93 68 70 94 68 70 96 68 70 97 68 70 98 68 70 99 68 70 100 68 70 101 68 70 102 68 70 103 68 70 104 68 70 105 68 70 106 68 70 107 68 70 108 68 70 109 68 70 110 68 70 112 68 70 113 68 70 114 68 70 115 68 70 116 68 70 117 68 70 118 68 70 119 68 70 120 68 70 121 68 70 122 68 70 123 68 70 124 68 70 125 68 70 126 68 70 128 68 70 129 68 70 130 68 70 131 68 70 132 68 70 133 68 70 134 68 70 135 68 70 136 68 70 137 68 70 138 68 70 139 68 70 140 68 70 141 68 70 142 68 70 144 68 70 145 68 70 146 68 70 147 68 70 148 68 70 149 68 70 150 68 70 151 68 70 152 68 70 153 68 70 154 68 70 155 68 70 156 68 70 157 68 70 158 68 70 160 68 70 161 68 70 162 68 70 163 68 70 164 68 70 165 68 70 166 68 70 167 68 70 168 68 70 169 68 70 170 68 70 171 68 70 172 68 70 173 68 70 174 68 70 176 68 70 177 68 70 178 68 70 179 68 70 180 68 70 181 68 70 182 68 70 183 68 70 184 68 70 185 68 70 186 68 70 187 68 70 188 68 70 189 68 70 190 68 70 192 68 70 193 68 70 194 68 70 195 68 70 196 68 70 197 68 70 198 68 70 199 68 70 200 68 70 201 68 70 202 68 70 203 68 70 204 68 70 205 68 70 206 68 70 208 68 70 209 68 70 210 68 70 211 68 70 212 68 70 213 68 70 214 68 70 215 68 70 216 68 70 217 68 70 218 68 70 219 68 70 220 68 70 221 68 70 222 68 70 224 68 70 225 68 70 226 68 70 227 68 70 228 68 70 229 68 70 230 68 70 231 68 70 232 68 70 233 68 70 234 68 70 235 68 70 236 68 70 237 68 70 238 68 70 240 68 70 241 68 70 242 68 70 243 68 70 244 68 70 245 68 70 246 68 70 247 68 70 248 68 70 249 68 70 250 68 70 251 68 70 252 68 70 253 68 70 255 68 70
0 69 70 1 69 70 2 69 70 3 69 70 4 69 70 5 69 70 6 69 70 7 69 70 8 69 70 9 69 70 10 69 70 11 69 70 12 69 70 13 69 70 14 69 70 16 69 70 17 69 70 18 69 70 19 69 70 20 69 70 21 69 70 22 69 70 23 69 70 24 69 70 25 69 70 26 69 70 27 69 70 28 69 70 29 69 70 30 69 70 32 69 70 33 69 70 34 69 70 35 69 70 36 69 70 37 69 70 38 69 70 39 69 70 40 69 70 41 69 70 42 69 70 43 69 70 44 69 70 45 69 70 46 69 70 48 69 70 49 69 70 50 69 70 51 69 70 52 69 70 53 69 70 54 69 70 55 69 70 56 69 70 57 69 70 58 69 70 59 69 70 60 69 70 61 69 70 62 69 70 64 69 70 65 69 70 66 69 70 67 69 70 68 69 70 69 69 70 70 69 70 71 69 70 72 69 70 73 69 70 74 69 70 75 69 70 76 69 70 77 69 70 78 69 70 80 69 70 81 69 70 82 69 70 83 69 70 84 69 70 85 69 70 86 69 70 87 69 70 88 69 70 89 69 70 90 69 70 91 69 70 92 69 70 93 69 70 94 69 70 96 69 70 97 69 70 98 69 70 99 69 70 100 69 70 101 69 70 102 69 70 103 69 70 104 69 70 105 69 70 106 69 70 107 69 70 108 69 70 109 69 70 110 69 70 112 69 70 113 69 70 114 69 70 115 69 70 116 69 70 117 69 70 30 40 100 30 40 100 30 40 100 30 40 100 30 40 100 30 40 100 30 40 100 30 40 100 30 40 100 30 40 100 30 40 100 30 40 100 30 40 100 30 40 100 30 40 100 30 40 100 30 40 100 30 40 100 30 40 100 138 69 70 139 69 70 140 69 70 141 69 70 142 69 70 144 69 70 145 69 70 146 69 70 147 69 70 148 69 70 149 69 70 150 69 70 151 69 70 152 69 70 153 69 70 154 69 70 155 69 70 156 69 70 157 69 70 158 69 70 160 69 70 161 69 70 162 69 70 163 69 70 164 69 70 165 69 70 166 69 70 167 69 70 168 69 70 169 69 70 170 69 70 171 69 70 172 69 70 173 69 70 174 69 70 176 69 70 177 69 70 178 69 70 179 69 70 180 69 70 181 69 70 182 69 70 183 69 70 184 69 70 185 69 70 186 69 70 187 69 70 188 69 70 189 69 70 190 69 70 192 69 70 193 69 70 194 69 70 195 69 70 196 69 70 197 69 70 198 69 70 199 69 70 200 69 70 201 69 70 202 69 70 203 69 70 204 69 70 205 69 70 206 69 70 208 69 70 209 69 70 210 69 70 211 69 70 212 69 70 213 69 70 214 69 70 215 69 70 216 69 70 217 69 70 218 69 70 219 69 70 220 69 70 221 69 70 222 69 70 224 69 70 225 69 70 226 69 70 227 69 70 228 69 70 229 69 70 230 69 70 231 69 70 232 69 70 233 69 70 234 69 70 235 69 70 236 69 70 237 69 70 238 69 70 240 69 70 241 69 70 242 69 70 243 69 70 244 69 70 245 69 70 246 69 70 247 69 70 248 69 70 249 69 70 250 69 70 251 69 70 252 69 70 253 69 70 255 69 70
0 71 70 1 71 70 2 71 70 3 71 70 4 71 70 5 71 70 6 71 70 7 71 70 8 71 70 9 71 70 10 71 70 11 71 70 12 71 70 13 71 70 14 71 70 16 71 70 17 71 70 18 71 70 19 71 70 20 71 70 21 71 70 22 71 70 23 71 70 24 71 70 25 71 70 26 71 70 27 71 70 28 71 70 29 71 70 30 71 70 32 71 70 33 71 70 34 71 70 35 71 70 36 71 70 37 71 70 38 71 70 39 71 70 40 71 70 41 71 70 42 71 70 43 71 70 44 71 70 45 71 70 46 71 70 48 71 70 49 71 70 50 71 70 51 71 70 52 71 70 53 71 70 54 71 70 55 71 70 56 71 70 57 71 70 58 71 70 59 71 70 60 71 70 61 71 70 62 71 70 64 71 70 65 71 70 66 71 70 67 71 70 68 71 70 69 71 70 70 71 70 71 71 70 72 71 70 73 71 70 74 71 70 75 71 70 76 71 70 77 71 70 78 71 70 80 71 70 81 71 70 82 71 70 83 71 70 84 71 70 85 71 70 86 71 70 87 71 70 88 71 70 89 71 70 90 71 70 91 71 70 92 71 70 93 71 70 94 71 70 96 71 70 97 71 70 98 71 70 99 71 70 100 71 70 101 71 70 102 71 70 103 71 70 104 71 70 105 71 70 106 71 70 107 71 70 108 71 70 109 71 70 110 71 70 112 71 70 113 71 70 114 71 70 30 40 100 30 40 100 30 40 100 30 40 100 30 40 100 30 40 100 30 40 100 30 40 100 30 40 100 30 40 100 30 40 100 30 40 100 30 40 100 30 40 100 30 40 100 30 40 100 30 40 100 30 40 100 30 40 100 30 40 100 30 40 100 30 40 100 30 40 100 30 40 100 30 40 100 141 71 70 142 71 70 144 71 70 145 71 70 146 71 70 147 71 70 148 71 70 149 71 70 150 71 70 151 71 70 152 71 70 153 71 70 154 71 70 155 71 70 156 71 70 157 71 70 158 71 70 160 71 70 161 71 70 162 71 70 163 71 70 164 71 70 165 71 70 166 71 70 167 71 70 168 71 70 169 71 70 170 71 70 171 71 70 172 71 70 173 71 70 174 71 70 176 71 70 177 71 70 178 71 70 179 71 70 180 71 70 181 71 70 182 71 70 183 71 70 184 71 70 185 71 70 186 71 70 187 71 70 188 71 70 189 71 70 190 71 70 192 71 70 193 71 70 194 71 70 195 71 70 196 71 70 197 71 70 198 71 70 199 71 70 200 71 70 201 71 70 202 71 70 203 71 70 204 71 70 205 71 70 206 71 70 208 71 70 209 71 70 210 71 70 211 71 70 212 71 70 213 71 70 214 71 70 215 71 70 216 71 70 217 71 70 218 71 70 219 71 70 220 71 70 221 71 70 222 71 70 224 71 70 225 71 70 226 71 70 227 71 70 228 71 70 229 71 70 230 71 70 231 71 70 232 71 70 233 71 70 234 71 70 235 71 70 236 71 70 237 71 70 238 71 70 240 71 70 241 71 70 242 71 70 243 71 70 244 71 70 245 71 70 246 71 70 247 71 70 248 71 70 249 71 70 250 71 70 251 71 70 252 71 70 253 71 70 255 71 70
0 72 70 1 72 70 2 72 70 3 72 70 4 72 70 5 72 70 6 72 70 7 72 70 8 72 70 9 72 70 10 72 70 11 72 70 12 72 70 13 72 70 14 72 70 16 72 70 17 72 70 18 72 70 19 72 70 20 72 70 21 72 70 22 72 70 23 72 70 24 72 70 25 72 70 26 72 70 27 72 70 28 72 70 29 72 70 30 72 70 32 72 70 33 72 70 34 72 70 35 72 70 36 72 70 37 72 70 38 72 70 39 72 70 40 72 70 41 72 70 42 72 70 43 72 70 44 72 70 45 72 70 46 72 70 48 72 70 49 72 70 50 72 70 51 72 70 52 72 70 53 72 70 54 72 70 55 72 70 56 72 70 57 72 70 58 72 70 59 72 70 60 72 70 61 72 70 62 72 70 64 72 70 65 72 70 66 72 70 67 72 70 68 72 70 69 72 70 70 72 70 71 72 70 72 72 70 73 72 70 74 72 70 75 72 70 76 72 70 77 72 70 78 72 70 80 72 70 81 72 70 82 72 70 83 72 70 84 72 70 85 72 70 86 72 70 87 72 70 88 72 70 89 72 70 90 72 70 91 72 70 92 72 70 93 72 70 94 72 70 96 72 70 97 72 70 98 72 70 99 72 70 100 72 70 101 72 70 102 72 70 103 72 70 104 72 70 105 72 70 106 72 70 107 72 70 108 72 70 109 72 70 110 72 70 30 40 100 30 40 100 30 40 100 30 40 100 30 40 100 30 40 100 30 40 100 30 40 100 30 40 100 30 40 100 30 40 100 30 40 100 30 40 100 30 40 100 30 40 100 30 40 100 30 40 100 30 40 100 30 40 100 30 40 100 30 40 100 30 40 100 30 40 100 30 40 100 30 40 100 30 40 100 30 40 100 30 40 100 30 40 100 30 40 100 30 40 100 145 72 70 146 72 70 147 72 70 148 72 70 149 72 70 150 72 70 151 72 70 152 72 70 153 72 70 154 72 70 155 72 70 156 72 70 157 72 70 158 72 70 160 72 70 161 72 70 162 72 70 163 72 70 164 72 70 165 72 70 166 72 70 167 72 70 168 72 70 169 72 70 170 72 70 171 72 70 172 72 70 173 72 70 174 72 70 176 72 70 177 72 70 178 72 70 179 72 70 180 72 70 181 72 70 182 72 70 183 72 70 184 72 70 185 72 70 186 72 70 187 72 70 188 72 70 189 72 70 190 72 70 192 72 70 193 72 70 194 72 70 195 72 70 196 72 70 197 72 70 198 72 70 199 72 70 200 72 70 201 72 70 202 72 70 203 72 70 204 72 70 205 72 70 206 72 70 208 72 70 209 72 70 210 72 70 211 72 70 212 72 70 213 72 70 214 72 70 215 72 70 216 72 70 217 72 70 218 72 70 219 72 70 220 72 70 221 72 70 222 72 70 224 72 70 225 72 70 226 72 70 227 72 70 228 72 70 229 72 70 230 72 70 231 72 70 232 72 70 233 72 70 234 72 70 235 72 70 236 72 70 237 72 70 238 72 70 240 72 70 241 72 70 242 72 70 243 72 70 244 72 70 245 72 70 246 72 70 247 72 70 248 72 70 249 72 70 250 72 70 251 72 70 252 72 70 253 72 70 255 72 70
0 74 70 1 74 70 2 74 70 3 74 70 4 74 70 5 74 70 6 74 70 7 74 70 8 74 70 9 74 70 10 74 70 11 74 70 12 74 70 13 74 70 14 74 70 16 74 70 17 74 70 18 74 70 19 74 70 20 74 70 21 74 70 22 74 70 23 74 70 24 74 70 25 74 70 26 74 70 27 74 70 28 74 70 29 74 70 30 74 70 32 74 70 33 74 70 34 74 70 35 74 70 36 74 70 37 74 70 38 74 70 39 74 70 40 74 70 41 74 70 42 74 70 43 74 70 44 74 70 45 74 70 46 74 70 48 74 70 49 74 70 50 74 70 51 74 70 52 74 70 53 74 70 54 74 70 55 74 70 56 74 70 57 74 70 58 74 70 59 74 70 60 74 70 61 74 70 62 74 70 64 74 70 65 74 70 66 74 70 67 74 70 68 74 70 69 74 70 70 74 70 71 74 70 72 74 70 73 74 70 74 74 70 75 74 70 76 74 70 77 74 70 78 74 70 80 74 70 81 74 70 82 74 70 83 74 70 84 74 70 85 74 70 86 74 70 87 74 70 88 74 70 89 74 70 90 74 70 91 74 70 92 74 70 93 74 70 94 74 70 96 74 70 97 74 70 98 74 70 99 74 70 100 74 70 101 74 70 102 74 70 103 74 70 104 74 70 105 74 70 106 74 70 107 74 70 108 74 70 30 40 100 30 40 100 30 40 100 30 40 100 30 40 100 30 40 100 30 40 100 30 40 100 30 40 100 30 40 100 30 40 100 30 40 100 30 40 100 30 40 100 30 40 100 30 40 100 30 40 100 30 40 100 30 40 100 30 40 100 30 40 100 30 40 100 30 40 100 30 40 100 30 40 100 30 40 100 30 40 100 30 40 100 30 40 100 30 40 100 30 40 100 30 40 100 30 40 100 30 40 100 30 40 100 147 74 70 148 74 70 149 74 70 150 74 70 151 74 70 152 74 70 153 74 70 154 74 70 155 74 70 156 74 70 157 74 70 158 74 70 160 74 70 161 74 70 162 74 70 163 74 70 164 74 70 165 74 70 166 74 70 167 74 70 168 74 70 169 74 70 170 74 70 171 74 70 172 74 70 173 74 70 174 74 70 176 74 70 177 74 70 178 74 70 179 74 70 180 74 70 181 74 70 182 74 70 183 74 70 184 74 70 185 74 70 186 74 70 187 74 70 188 74 70 189 74 70 190 74 70 192 74 70 193 74 70 194 74 70 195 74 70 196 74 70 197 74 70 198 74 70 199 74 70 200 74 70 201 74 70 202 74 70 203 74 70 204 74 70 205 74 70 206 74 70 208 74 70 209 74 70 210 74 70 211 74 70 212 74 70 213 74 70 214 74 70 215 74 70 216 74 70 217 74 70 218 74 70 219 74 70 220 74 70 221 74 70 222 74 70 224 74 70 225 74 70 226 74 70 227 74 70 228 74 70 229 74 70 230 74 70 231 74 70 232 74 70 233 74 70 234 74 70 235 74 70 236 74 70 237 74 70 238 74 70 240 74 70 241 74 70 242 74 70 243 74 70 244 74 70 245 74 70 246 74 70 247 74 70 248 74 70 249 74 70 250 74 70 251 74 70 252 74 70 253 74 70 255 74 70
0 75 70 1 75 70 2 75 70 3 75 70 4 75 70 5 75 70 6 75 70 7 75 70 8 75 70 9 75 70 10 75 70 11 75 70 12 75 70 13 75 70 14 75 70 16 75 70 17 75 70 18 75 70 19 75 70 20 75 70 21 75 70 22 75 70 23 75 70 24 75 70 25 75 70 26 75 70 27 75 70 28 75 70 29 75 70 30 75 70 32 75 70 33 75 70 34 75 70 35 75 70 36 75 70 37 75 70 38 75 70 39 75 70 40 75 70 41 75 70 42 75 70 43 75 70 44 75 70 45 75 70 46 75 70 48 75 70 49 75 70 50 75 70 51 75 70 52 75 70 53 75 70 54 75 70 55 75 70 56 75 70 57 75 70 58 75 70 59 75 70 60 75 70 61 75 70 62 75 70 64 75 70 65 75 70 66 75 70 67 75 70 68 75 70 69 75 70 70 75 70 71 75 70 72 75 70 73 75 70 74 75 70 75 75 70 76 75 70 77 75 70 78 75 70 80 75 70 81 75 70 82 75 70 83 75 70 84 75 70 85 75 70 86 75 70 87 75 70 88 75 70 89 75 70 90 75 70 91 75 70 92 75 70 93 75 70 94 75 70 96 75 70 97 75 70 98 75 70 99 75 70 100 75 70 101 75 70 102 75 70 103 75 70 104 75 70 105 75 70 106 75 70 30 40 100 30 40 100 30 40 100 30 40 100 30 40 100 30 40 100 30 40 100 30 40 100 30 40 100 30 40 100 30 40 100 30 40 100 30 40 100 30 40 100 30 40 100 30 40 100 30 40 100 30 40 100 30 40 100 30 40 100 30 40 100 30 40 100 30 40 100 30 40 100 30 40 100 30 40 100 30 40 100 30 40 100 30 40 100 30 40 100 30 40 100 30 40 100 30 40 100 30 40 100 30 40 100 30 40 100 30 40 100 30 40 100 30 40 100 149 75 70 150 75 70 151 75 70 152 75 70 153 75 70 154 75 70 155 75 70 156 75 70 157 75 70 158 75 70 160 75 70 161 75 70 162 75 70 163 75 70 164 75 70 165 75 70 166 75 70 167 75 70 168 75 70 169 75 70 170 75 70 171 75 70 172 75 70 173 75 70 174 75 70 176 75 70 177 75 70 178 75 70 179 75 70 180 75 70 181 75 70 182 75 70 183 75 70 184 75 70 185 75 70 186 75 70 187 75 70 188 75 70 189 75 70 190 75 70 192 75 70 193 75 70 194 75 70 195 75 70 196 75 70 197 75 70 198 75 70 199 75 70 200 75 70 201 75 70 202 75 70 203 75 70 204 75 70 205 75 70 206 75 70 208 75 70 209 75 70 210 75 70 211 75 70 212 75 70 213 75 70 214 75 70 215 75 70 216 75 70 217 75 70 218 75 70 219 75 70 220 75 70 221 75 70 222 75 70 224 75 70 225 75 70 226 75 70 227 75 70 228 75 70 229 75 70 230 75 70 231 75 70 232 75 70 233 75 70 234 75 70 235 75 70 236 75 70 237 75 70 238 75 70 240 75 70 241 75 70 242 75 70 243 75 70 244 75 70 245 75 70 246 75 70 247 75 70 248 75 70 249 75 70 250 75 70 251 75 70 252 75 70 253 75 70 255 75 70
0 76 70 1 76 70 2 76 70 3 76 70 4 76 70 5 76 70 6 76 70 7 76 70 8 76 70 9 76 70 10 76 70 11 76 70 12 76 70 13 76 70 14 76 70 16 76 70 17 76 70 18 76 70 19 76 70 20 76 70 21 76 70 22 76 70 23 76 70 24 76 70 25 76 70 26 76 70 27 76 70 28 76 70 29 76 70 30 76 70 32 76 70 33 76 70 34 76 70 35 76 70 36 76 70 37 76 70 38 76 70 39 76 70 40 76 70 41 76 70 42 76 70 43 76 70 44 76 70 45 76 70 46 76 70 48 76 70 49 76 70 50 76 70 51 76 70 52 76 70 53 76 70 54 76 70 55 76 70 56 76 70 57 76 70 58 76 70 59 76 70 60 76 70 61 76 70 62 76 70 64 76 70 65 76 70 66 76 70 67 76 70 68 76 70 69 76 70 70 76 70 71 76 70 72 76 70 73 76 70 74 76 70 75 76 70 76 76 70 77 76 70 78 76 70 80 76 70 81 76 70 82 76 70 83 76 70 84 76 70 85 76 70 86 76 70 87 76 70 88 76 70 89 76 70 90 76 70 91 76 70 92 76 70 93 76 70 94 76 70 96 76 70 97 76 70 98 76 70 99 76 70 100 76 70 101 76 70 102 76 70 103 76 70 104 76 70 30 40 100 30 40 100 30 40 100 30 40 100 30 40 100 30 40 100 30 40 100 30 40 100 30 40 100 30 40 100 30 40 100 30 40 100 30 40 100 30 40 100 30 40 100 30 40 100 30 40 100 30 40 100 30 40 100 30 40 100 30 40 100 30 40 100 30 40 100 30 40 100 30 40 100 30 40 100 30 40 100 30 40 100 30 40 100 30 40 100 30 40 100 30 40 100 30 40 100 30 40 100 30 40 100 30 40 100 30 40 100 30 40 100 30 40 100 30 40 100 30 40 100 30 40 100 30 40 100 151 76 70 152 76 70 153 76 70 154 76 70 155 76 70 156 76 70 157 76 70 158 76 70 160 76 70 161 76 70 162 76 70 163 76 70 164 76 70 165 76 70 166 76 70 167 76 70 168 76 70 169 76 70 170 76 70 171 76 70 172 76 70 173 76 70 174 76 70 176 76 70 177 76 70 178 76 70 179 76 70 180 76 70 181 76 70 182 76 70 183 76 70 184 76 70 185 76 70 186 76 70 187 76 70 188 76 70 189 76 70 190 76 70 192 76 70 193 76 70 194 76 70 195 76 70 196 76 70 197 76 70 198 76 70 199 76 70 200 76 70 201 76 70 202 76 70 203 76 70 204 76 70 205 76 70 206 76 70 208 76 70 209 76 70 210 76 70 211 76 70 212 76 70 213 76 70 214 76 70 215 76 70 216 76 70 217 76 70 218 76 70 219 76 70 220 76 70 221 76 70 222 76 70 224 76 70 225 76 70 226 76 70 227 76 70 228 76 70 229 76 70 230 76 70 231 76 70 232 76 70 233 76 70 234 76 70 235 76 70 236 76 70 237 76 70 238 76 70 240 76 70 241 76 70 242 76 70 243 76 70 244 76 70 245 76 70 246 76 70 247 76 70 248 76 70 249 76 70 250 76 70 251 76 70 252 76 70 253 76 70 255 76 70
0 78 70 1 78 70 2 78 70 3 78 70 4 78 70 5 78 70 6 78 70 7 78 70 8 78 70 9 78 70 10 78 70 11 78 70 12 78 70 13 78 70 14 78 70 16 78 70 17 78 70 18 78 70 19 78 70 20 78 70 21 78 70 22 78 70 23 78 70 24 78 70 25 78 70 26 78 70 27 78 70 28 78 70 29 78 70 30 78 70 32 78 70 33 78 70 34 78 70 35 78 70 36 78 70 37 78 70 38 78 70 39 78 70 40 78 70 41 78 70 42 78 70 43 78 70 44 78 70 45 78 70 46 78 70 48 78 70 49 78 70 50 78 70 51 78 70 52 78 70 53 78 70 54 78 70 55 78 70 56 78 70 57 78 70 58 78 70 59 78 70 60 78 70 61 78 70 62 78 70 64 78 70 65 78 70 66 78 70 67 78 70 68 78 70 69 78 70 70 78 70 71 78 70 72 78 70 73 78 70 74 78 70 75 78 70 76 78 70 77 78 70 78 78 70 80 78 70 81 78 70 82 78 70 83 78 70 84 78 70 85 78 70 86 78 70 87 78 70 88 78 70 89 78 70 90 78 70 91 78 70 92 78 70 93 78 70 94 78 70 96 78 70 97 78 70 98 78 70 99 78 70 100 78 70 101 78 70 102 78 70 30 40 100 30 40 100 30 40 100 30 40 100 30 40 100 30 40 100 30 40 100 30 40 100 30 40 100 30 40 100 30 40 100 30 40 100 30 40 100 30 40 100 30 40 100 30 40 100 30 40 100 30 40 100 30 40 100 30 40 100 30 40 100 30 40 100 30 40 100 30 40 100 30 40 100 30 40 100 30 40 100 30 40 100 30 40 100 30 40 100 30 40 100 30 40 100 30 40 100 30 40 100 30 40 100 30 40 100 30 40 100 30 40 100 30 40 100 30 40 100 30 40 100 30 40 100 30 40 100 30 40 100 30 40 100 30 40 100 30 40 100 153 78 70 154 78 70 155 78 70 156 78 70 157 78 70 158 78 70 160 78 70 161 78 70 162 78 70 163 78 70 164 78 70 165 78 70 166 78 70 167 78 70 168 78 70 169 78 70 170 78 70 171 78 70 172 78 70 173 78 70 174 78 70 176 78 70 177 78 70 178 78 70 179 78 70 180 78 70 181 78 70 182 78 70 183 78 70 184 78 70 185 78 70 186 78 70 187 78 70 188 78 70 189 78 70 190 78 70 192 78 70 193 78 70 194 78 70 195 78 70 196 78 70 197 78 70 198 78 70 199 78 70 200 78 70 201 78 70 202 78 70 203 78 70 204 78 70 205 78 70 206 78 70 208 78 70 209 78 70 210 78 70 211 78 70 212 78 70 213 78 70 214 78 70 215 78 70 216 78 70 217 78 70 218 78 70 219 78 70 220 78 70 221 78 70 222 78 70 224 78 70 225 78 70 226 78 70 227 78 70 228 78 70 229 78 70 230 78 70 231 78 70 232 78 70 233 78 70 234 78 70 235 78 70 236 78 70 237 78 70 238 78 70 240 78 70 241 78 70 242 78 70 243 78 70 244 78 70 245 78 70 246 78 70 247 78 70 248 78 70 249 78 70 250 78 70 251 78 70 252 78 70 253 78 70 255 78 70
0 79 70 1 79 70 2 79 70 3 79 70 4 79 70 5 79 70 6 79 70 7 79 70 8 79 70 9 79 70 10 79 70 11 79 70 12 79 70 13 79 70 14 79 70 16 79 70 17 79 70 18 79 70 19 79 70 20 79 70 21 79 70 22 79 70 23 79 70 24 79 70 25 79 70 26 79 70 27 79 70 28 79 70 29 79 70 30 79 70 32 79 70 33 79 70 34 79 70 35 79 70 36 79 70 37 79 70 38 79 70 39 79 70 40 79 70 41 79 70 42 79 70 43 79 70 44 79 70 45 79 70 46 79 70 48 79 70 49 79 70 50 79 70 51 79 70 52 79 70 53 79 70 54 79 70 55 79 70 56 79 70 57 79 70 58 79 70 59 79 70 60 79 70 61 79 70 62 79 70 64 79 70 65 79 70 66 79 70 67 79 70 68 79 70 69 79 70 70 79 70 71 79 70 72 79 70 73 79 70 74 79 70 75 79 70 76 79 70 77 79 70 78 79 70 80 79 70 81 79 70 82 79 70 83 79 70 84 79 70 85 79 70 86 79 70 87 79 70 88 79 70 89 79 70 90 79 70 91 79 70 92 79 70 93 79 70 94 79 70 96 79 70 97 79 70 98 79 70 99 79 70 100 79 70 101 79 70 30 40 100 30 40 100 30 40 100 30 40 100 30 40 100 30 40 100 30 40 100 30 40 100 30 40 100 30 40 100 30 40 100 30 40 100 30 40 100 30 40 100 30 40 100 30 40 100 30 40 100 30 40 100 30 40 100 30 40 100 30 40 100 30 40 100 30 40 100 30 40 100 30 40 100 30 40 100 30 40 100 30 40 100 30 40 100 30 40 100 30 40 100 30 40 100 30 40 100 30 40 100 30 40 100 30 40 100 30 40 100 30 40 100 30 40 100 30 40 100 30 40 100 30 40 100 30 40 100 30 40 100 30 40 100 30 40 100 30 40 100 30 40 100 30 40 100 154 79 70 155 79 70 156 79 70 157 79 70 158 79 70 160 79 70 161 79 70 162 79 70 163 79 70 164 79 70 165 79 70 166 79 70 167 79 70 168 79 70 169 79 70 170 79 70 171 79 70 172 79 70 173 79 70 174 79 70 176 79 70 177 79 70 178 79 70 179 79 70 180 79 70 181 79 70 182 79 70 183 79 70 184 79 70 185 79 70 186 79 70 187 79 70 188 79 70 189 79 70 190 79 70 192 79 70 193 79 70 194 79 70 195 79 70 196 79 70 197 79 70 198 79 70 199 79 70 200 79 70 201 79 70 202 79 70 203 79 70 204 79 70 205 79 70 206 79 70 208 79 70 209 79 70 210 79 70 211 79 70 212 79 70 213 79 70 214 79 70 215 79 70 216 79 70 217 79 70 218 79 70 219 79 70 220 79 70 221 79 70 222 79 70 224 79 70 225 79 70 226 79 70 227 79 70 228 79 70 229 79 70 230 79 70 231 79 70 232 79 70 233 79 70 234 79 70 235 79 70 236 79 70 237 79 70 238 79 70 240 79 70 241 79 70 242 79 70 243 79 70 244 79 70 245 79 70 246 79 70 247 79 70 248 79 70 249 79 70 250 79 70 251 79 70 252 79 70 253 79 70 255 79 70
0 81 70 1 81 70 2 81 70 3 81 70 4 81 70 5 81 70 6 81 70 7 81 70 8 81 70 9 81 70 10 81 70 11 81 70 12 81 70 13 81 70 14 81 70 16 81 70 17 81 70 18 81 70 19 81 70 20 81 70 21 81 70 22 81 70 23 81 70 24 81 70 25 81 70 26 81 70 27 81 70 28 81 70 29 81 70 30 81 70 32 81 70 33 81 70 34 81 70 35 81 70 36 81 70 37 81 70 38 81 70 39 81 70 40 81 70 41 81 70 42 81 70 43 81 70 44 81 70 45 81 70 46 81 70 48 81 70 49 81 70 50 81 70 51 81 70 52 81 70 53 81 70 54 81 70 55 81 70 56 81 70 57 81 70 58 81 70 59 81 70 60 81 70 61 81 70 62 81 70 64 81 70 65 81 70 66 81 70 67 81 70 68 81 70 69 81 70 70 81 70 71 81 70 72 81 70 73 81 70 74 81 70 75 81 70 76 81 70 77 81 70 78 81 70 80 81 70 81 81 70 82 81 70 83 81 70 84 81 70 85 81 70 86 81 70 87 81 70 88 81 70 89 81 70 90 81 70 91 81 70 92 81 70 93 81 70 94 81 70 96 81 70 97 81 70 98 81 70 99 81 70 100 81 70 30 40 100 30 40 100 30 40 100 30 40 100 30 40 100 30 40 100 30 40 100 30 40 100 30 40 100 30 40 100 30 40 100 30 40 100 30 40 100 30 40 100 30 40 100 30 40 100 30 40 100 30 40 100 30 40 100 30 40 100 30 40 100 30 40 100 30 40 100 30 40 100 30 40 100 30 40 100 30 40 100 30 40 100 30 40 100 30 40 100 30 40 100 30 40 100 30 40 100 30 40 100 30 40 100 30 40 100 30 40 100 30 40 100 30 40 100 30 40 100 30 40 100 30 40 100 30 40 100 30 40 100 30 40 100 30 40 100 30 40 100 30 40 100 30 40 100 30 40 100 30 40 100 155 81 70 156 81 70 157 81 70 158 81 70 160 81 70 161 81 70 162 81 70 163 81 70 164 81 70 165 81 70 166 81 70 167 81 70 168 81 70 169 81 70 170 81 70 171 81 70 172 81 70 173 81 70 174 81 70 176 81 70 177 81 70 178 81 70 179 81 70 180 81 70 181 81 70 182 81 70 183 81 70 184 81 70 185 81 70 186 81 70 187 81 70 188 81 70 189 81 70 190 81 70 192 81 70 193 81 70 194 81 70 195 81 70 196 81 70 197 81 70 198 81 70 199 81 70 200 81 70 201 81 70 202 81 70 203 81 70 204 81 70 205 81 70 206 81 70 208 81 70 209 81 70 210 81 70 211 81 70 212 81 70 213 81 70 214 81 70 215 81 70 216 81 70 217 81 70 218 81 70 219 81 70 220 81 70 221 81 70 222 81 70 224 81 70 225 81 70 226 81 70 227 81 70 228 81 70 229 81 70 230 81 70 231 81 70 232 81 70 233 81 70 234 81 70 235 81 70 236 81 70 237 81 70 238 81 70 240 81 70 241 81 70 242 81 70 243 81 70 244 81 70 245 81 70 246 81 70 247 81 70 248 81 70 249 81 70 250 81 70 251 81 70 252 81 70 253 81 70 255 81 70
0 82 70 1 82 70 2 82 70 3 82 70 4 82 70 5 82 70 6 82 70 7 82 70 8 82 70 9 82 70 10 82 70 11 82 70 12 82 70 13 82 70 14 82 70 16 82 70 17 82 70 18 82 70 19 82 70 20 82 70 21 82 70 22 82 70 23 82 70 24 82 70 25 82 70 26 82 70 27 82 70 28 82 70 29 82 70 30 82 70 32 82 70 33 82 70 34 82 70 35 82 70 36 82 70 37 82 70 38 82 70 39 82 70 40 82 70 41 82 70 42 82 70 43 82 70 44 82 70 45 82 70 46 82 70 48 82 70 49 82 70 50 82 70 51 82 70 52 82 70 53 82 70 54 82 70 55 82 70 56 82 70 57 82 70 58 82 70 59 82 70 60 82 70 61 82 70 62 82 70 64 82 70 65 82 70 66 82 70 67 82 70 68 82 70 69 82 70 70 82 70 71 82 70 72 82 70 73 82 70 74 82 70 75 82 70 76 82 70 77 82 70 78 82 70 80 82 70 81 82 70 82 82 70 83 82 70 84 82 70 85 82 70 86 82 70 87 82 70 88 82 70 89 82 70 90 82 70 91 82 70 92 82 70 93 82 70 94 82 70 96 82 70 97 82 70 98 82 70 30 40 100 30 40 100 30 40 100 30 40 100 30 40 100 30 40 100 30 40 100 30 40 100 30 40 100 30 40 100 30 40 100 30 40 100 30 40 100 30 40 100 30 40 100 30 40 100 30 40 100 30 40 100 30 40 100 30 40 100 30 40 100 30 40 100 30 40 100 30 40 100 30 40 100 30 40 100 30 40 100 30 40 100 30 40 100 30 40 100 30 40 100 30 40 100 30 40 100 30 40 100 30 40 100 30 40 100 30 40 100 30 40 100 30 40 100 30 40 100 30 40 100 30 40 100 30 40 100 30 40 100 30 40 100 30 40 100 30 40 100 30 40 100 30 40 100 30 40 100 30 40 100 30 40 100 30 40 100 30 40 100 30 40 100 157 82 70 158 82 70 160 82 70 161 82 70 162 82 70 163 82 70 164 82 70 165 82 70 166 82 70 167 82 70 168 82 70 169 82 70 170 82 70 171 82 70 172 82 70 173 82 70 174 82 70 176 82 70 177 82 70 178 82 70 179 82 70 180 82 70 181 82 70 182 82 70 183 82 70 184 82 70 185 82 70 186 82 70 187 82 70 188 82 70 189 82 70 190 82 70 192 82 70 193 82 70 194 82 70 195 82 70 196 82 70 197 82 70 198 82 70 199 82 70 200 82 70 201 82 70 202 82 70 203 82 70 204 82 70 205 82 70 206 82 70 208 82 70 209 82 70 210 82 70 211 82 70 212 82 70 213 82 70 214 82 70 215 82 70 216 82 70 217 82 70 218 82 70 219 82 70 220 82 70 221 82 70 222 82 70 224 82 70 225 82 70 226 82 70 227 82 70 228 82 70 229 82 70 230 82 70 231 82 70 232 82 70 233 82 70 234 82 70 235 82 70 236 82 70 237 82 70 238 82 70 240 82 70 241 82 70 242 82 70 243 82 70 244 82 70 245 82 70 246 82 70 247 82 70 248 82 70 249 82 70 250 82 70 251 82 70 252 82 70 253 82 70 255 82 70
0 84 70 1 84 70 2 84 70 3 84 70 4 84 70 5 84 70 6 84 70 7 84 70 8 84 70 9 84 70 10 84 70 11 84 70 12 84 70 13 84 70 14 84 70 16 84 70 17 84 70 18 84 70 19 84 70 20 84 70 21 84 70 22 84 70 23 84 70 24 84 70 25 84 70 26 84 70 27 84 70 28 84 70 29 84 70 30 84 70 32 84 70 33 84 70 34 84 70 35 84 70 36 84 70 37 84 70 38 84 70 39 84 70 40 84 70 41 84 70 42 84 70 43 84 70 44 84 70 45 84 70 46 84 70 48 84 70 49 84 70 50 84 70 51 84 70 52 84 70 53 84 70 54 84 70 55 84 70 56 84 70 57 84 70 58 84 70 59 84 70 60 84 70 61 84 70 62 84 70 64 84 70 65 84 70 66 84 70 67 84 70 68 84 70 69 84 70 70 84 70 71 84 70 72 84 70 73 84 70 74 84 70 75 84 70 76 84 70 77 84 70 78 84 70 80 84 70 81 84 70 82 84 70 83 84 70 84 84 70 85 84 70 86 84 70 87 84 70 88 84 70 89 84 70 90 84 70 91 84 70 92 84 70 93 84 70 94 84 70 96 84 70 97 84 70 30 40 100 30 40 100 30 40 100 30 40 100 30 40 100 30 40 100 30 40 100 30 40 100 30 40 100 30 40 100 30 40 100 30 40 100 30 40 100 30 40 100 30 40 100 30 40 100 30 40 100 30 40 100 30 40 100 30 40 100 30 40 100 30 40 100 30 40 100 30 40 100 30 40 100 30 40 100 30 40 100 30 40 100 30 40 100 30 40 100 30 40 100 30 40 100 30 40 100 30 40 100 30 40 100 30 40 100 30 40 100 30 40 100 30 40 100 30 40 100 30 40 100 30 40 100 30 40 100 30 40 100 30 40 100 30 40 100 30 40 100 30 40 100 30 40 100 30 40 100 30 40 100 30 40 100 30 40 100 30 40 100 30 40 100 30 40 100 30 40 100 158 84 70 160 84 70 161 84 70 162 84 70 163 84 70 164 84 70 165 84 70 166 84 70 167 84 70 168 84 70 169 84 70 170 84 70 171 84 70 172 84 70 173 84 70 174 84 70 176 84 70 177 84 70 178 84 70 179 84 70 180 84 70 181 84 70 182 84 70 183 84 70 184 84 70 185 84 70 186 84 70 187 84 70 188 84 70 189 84 70 190 84 70 192 84 70 193 84 70 194 84 70 195 84 70 196 84 70 197 84 70 198 84 70 199 84 70 200 84 70 201 84 70 202 84 70 203 84 70 204 84 70 205 84 70 206 84 70 208 84 70 209 84 70 210 84 70 211 84 70 212 84 70 213 84 70 214 84 70 215 84 70 216 84 70 217 84 70 218 84 70 219 84 70 220 84 70 221 84 70 222 84 70 224 84 70 225 84 70 226 84 70 227 84 70 228 84 70 229 84 70 230 84 70 231 84 70 232 84 70 233 84 70 234 84 70 235 84 70 236 84 70 237 84 70 238 84 70 240 84 70 241 84 70 242 84 70 243 84 70 244 84 70 245 84 70 246 84 70 247 84 70 248 84 70 249 84 70 250 84 70 251 84 70 252 84 70 253 84 70 255 84 70
0 85 70 1 85 70 2 85 70 3 85 70 4 85 70 5 85 70 6 85 70 7 85 70 8 85 70 9 85 70 10 85 70 11 85 70 12 85 70 13 85 70 14 85 70 16 85 70 17 85 70 18 85 70 19 85 70 20 85 70 21 85 70 22 85 70 23 85 70 24 85 70 25 85 70 26 85 70 27 85 70 28 85 70 29 85 70 30 85 70 32 85 70 33 85 70 34 85 70 35 85 70 36 85 70 37 85 70 38 85 70 39 85 70 40 85 70 41 85 70 42 85 70 43 85 70 44 85 70 45 85 70 46 85 70 48 85 70 49 85 70 50 85 70 51 85 70 52 85 70 53 85 70 54 85 70 55 85 70 56 85 70 57 85 70 58 85 70 59 85 70 60 85 70 61 85 70 62 85 70 64 85 70 65 85 70 66 85 70 67 85 70 68 85 70 69 85 70 70 85 70 71 85 70 72 85 70 73 85 70 74 85 70 75 85 70 76 85 70 77 85 70 78 85 70 80 85 70 81 85 70 82 85 70 83 85 70 84 85 70 85 85 70 86 85 70 87 85 70 88 85 70 89 85 70 90 85 70 91 85 70 92 85 70 93 85 70 94 85 70 96 85 70 30 40 100 30 40 100 30 40 100 30 40 100 30 40 100 30 40 100 30 40 100 30 40 100 30 40 100 30 40 100 30 40 100 30 40 100 30 40 100 30 40 100 30 40 100 30 40 100 30 40 100 30 40 100 30 40 100 30 40 100 30 40 100 30 40 100 30 40 100 30 40 100 30 40 100 30 40 100 30 40 100 30 40 100 30 40 100 30 40 100 30 40 100 30 40 100 30 40 100 30 40 100 30 40 100 30 40 100 30 40 100 30 40 100 30 40 100 30 40 100 30 40 100 30 40 100 30 40 100 30 40 100 30 40 100 30 40 100 30 40 100 30 40 100 30 40 100 30 40 100 30 40 100 30 40 100 30 40 100 30 40 100 30 40 100 30 40 100 30 40 100 30 40 100 30 40 100 160 85 70 161 85 70 162 85 70 163 85 70 164 85 70 165 85 70 166 85 70 167 85 70 168 85 70 169 85 70 170 85 70 171 85 70 172 85 70 173 85 70 174 85 70 176 85 70 177 85 70 178 85 70 179 85 70 180 85 70 181 85 70 182 85 70 183 85 70 184 85 70 185 85 70 186 85 70 187 85 70 188 85 70 189 85 70 190 85 70 192 85 70 193 85 70 194 85 70 195 85 70 196 85 70 197 85 70 198 85 70 199 85 70 200 85 70 201 85 70 202 85 70 203 85 70 204 85 70 205 85 70 206 85 70 208 85 70 209 85 70 210 85 70 211 85 70 212 85 70 213 85 70 214 85 70 215 85 70 216 85 70 217 85 70 218 85 70 219 85 70 220 85 70 221 85 70 222 85 70 224 85 70 225 85 70 226 85 70 227 85 70 228 85 70 229 85 70 230 85 70 231 85 70 232 85 70 233 85 70 234 85 70 235 85 70 236 85 70 237 85 70 238 85 70 240 85 70 241 85 70 242 85 70 243 85 70 244 85 70 245 85 70 246 85 70 247 85 70 248 85 70 249 85 70 250 85 70 251 85 70 252 85 70 253 85 70 255 85 70
0 86 70 1 86 70 2 86 70 3 86 70 4 86 70 5 86 70 6 86 70 7 86 70 8 86 70 9 86 70 10 86 70 11 86 70 12 86 70 13 86 70 14 86 70 16 86 70 17 86 70 18 86 70 19 86 70 20 86 70 21 86 70 22 86 70 23 86 70 24 86 70 25 86 70 26 86 70 27 86 70 28 86 70 29 86 70 30 86 70 32 86 70 33 86 70 34 86 70 35 86 70 36 86 70 37 86 70 38 86 70 39 86 70 40 86 70 41 86 70 42 86 70 43 86 70 44 86 70 45 86 70 46 86 70 48 86 70 49 86 70 50 86 70 51 86 70 52 86 70 53 86 70 54 86 70 55 86 70 56 86 70 57 86 70 58 86 70 59 86 70 60 86 70 61 86 70 62 86 70 64 86 70 65 86 70 66 86 70 67 86 70 68 86 70 69 86 70 70 86 70 71 86 70 72 86 70 73 86 70 74 86 70 75 86 70 76 86 70 77 86 70 78 86 70 80 86 70 81 86 70 82 86 70 83 86 70 84 86 70 85 86 70 86 86 70 87 86 70 88 86 70 89 86 70 90 86 70 91 86 70 92 86 70 93 86 70 94 86 70 30 40 100 30 40 100 30 40 100 30 40 100 30 40 100 30 40 100 30 40 100 30 40 100 30 40 100 30 40 100 30 40 100 30 40 100 30 40 100 30 40 100 30 40 100 30 40 100 30 40 100 30 40 100 30 40 100 30 40 100 30 40 100 30 40 100 30 40 100 30 40 100 30 40 100 30 40 100 30 40 100 30 40 100 30 40 100 30 40 100 30 40 100 30 40 100 30 40 100 30 40 100 30 40 100 30 40 100 30 40 100 30 40 100 30 40 100 30 40 100 30 40 100 30 40 100 30 40 100 30 40 100 30 40 100 30 40 100 30 40 100 30 40 100 30 40 100 30 40 100 30 40 100 30 40 100 30 40 100 30 40 100 30 40 100 30 40 100 30 40 100 30 40 100 30 40 100 30 40 100 30 40 100 161 86 70 162 86 70 163 86 70 164 86 70 165 86 70 166 86 70 167 86 70 168 86 70 169 86 70 170 86 70 171 86 70 172 86 70 173 86 70 174 86 70 176 86 70 177 86 70 178 86 70 179 86 70 180 86 70 181 86 70 182 86 70 183 86 70 184 86 70 185 86 70 186 86 70 187 86 70 188 86 70 189 86 70 190 86 70 192 86 70 193 86 70 194 86 70 195 86 70 196 86 70 197 86 70 198 86 70 199 86 70 200 86 70 201 86 70 202 86 70 203 86 70 204 86 70 205 86 70 206 86 70 208 86 70 209 86 70 210 86 70 211 86 70 212 86 70 213 86 70 214 86 70 215 86 70 216 86 70 217 86 70 218 86 70 219 86 70 220 86 70 221 86 70 222 86 70 224 86 70 225 86 70 226 86 70 227 86 70 228 86 70 229 86 70 230 86 70 231 86 70 232 86 70 233 86 70 234 86 70 235 86 70 236 86 70 237 86 70 238 86 70 240 86 70 241 86 70 242 86 70 243 86 70 244 86 70 245 86 70 246 86 70 247 86 70 248 86 70 249 86 70 250 86 70 251 86 70 252 86 70 253 86 70 255 86 70
0 88 70 1 88 70 2 88 70 3 88 70 4 88 70 5 88 70 6 88 70 7 88 70 8 88 70 9 88 70 10 88 70 11 88 70 12 88 70 13 88 70 14 88 70 16 88 70 17 88 70 18 88 70 19 88 70 20 88 70 21 88 70 22 88 70 23 88 70 24 88 70 25 88 70 26 88 70 27 88 70 28 88 70 29 88 70 30 88 70 32 88 70 33 88 70 34 88 70 35 88 70 36 88 70 37 88 70 38 88 70 39 88 70 40 88 70 41 88 70 42 88 70 43 88 70 44 88 70 45 88 70 46 88 70 48 88 70 49 88 70 50 88 70 51 88 70 52 88 70 53 88 70 54 88 70 55 88 70 56 88 70 57 88 70 58 88 70 59 88 70 60 88 70 61 88 70 62 88 70 64 88 70 65 88 70 66 88 70 67 88 70 68 88 70 69 88 70 70 88 70 71 88 70 72 88 70 73 88 70 74 88 70 75 88 70 76 88 70 77 88 70 78 88 70 80 88 70 81 88 70 82 88 70 83 88 70 84 88 70 85 88 70 86 88 70 87 88 70 88 88 70 89 88 70 90 88 70 91 88 70 92 88 70 93 88 70 30 40 100 30 40 100 30 40 100 30 40 100 30 40 100 30 40 100 30 40 100 30 40 100 30 40 100 30 40 100 30 40 100 30 40 100 30 40 100 30 40 100 30 40 100 30 40 100 30 40 100 30 40 100 30 40 100 30 40 100 30 40 100 30 40 100 30 40 100 30 40 100 30 40 100 30 40 100 30 40 100 30 40 100 30 40 100 30 40 100 30 40 100 30 40 100 30 40 100 30 40 100 30 40 100 30 40 100 30 40 100 30 40 100 30 40 100 30 40 100 30 40 100 30 40 100 30 40 100 30 40 100 30 40 100 30 40 100 30 40 100 30 40 100 30 40 100 30 40 100 30 40 100 30 40 100 30 40 100 30 40 100 30 40 100 30 40 100 30 40 100 30 40 100 30 40 100 30 40 100 30 40 100 30 40 100 30 40 100 162 88 70 163 88 70 164 88 70 165 88 70 166 88 70 167 88 70 168 88 70 169 88 70 170 88 70 171 88 70 172 88 70 173 88 70 174 88 70 176 88 70 177 88 70 178 88 70 179 88 70 180 88 70 181 88 70 182 88 70 183 88 70 184 88 70 185 88 70 186 88 70 187 88 70 188 88 70 189 88 70 190 88 70 192 88 70 193 88 70 194 88 70 195 88 70 196 88 70 197 88 70 198 88 70 199 88 70 200 88 70 201 88 70 202 88 70 203 88 70 204 88 70 205 88 70 206 88 70 208 88 70 209 88 70 210 88 70 211 88 70 212 88 70 213 88 70 214 88 70 215 88 70 216 88 70 217 88 70 218 88 70 219 88 70 220 88 70 221 88 70 222 88 70 224 88 70 225 88 70 226 88 70 227 88 70 228 88 70 229 88 70 230 88 70 231 88 70 232 88 70 233 88 70 234 88 70 235 88 70 236 88 70 237 88 70 238 88 70 240 88 70 241 88 70 242 88 70 243 88 70 244 88 70 245 88 70 246 88 70 247 88 70 248 88 70 249 88 70 250 88 70 251 88 70 252 88 70 253 88 70 255 88 70
0 89 70 1 89 70 2 89 70 3 89 70 4 89 70 5 89 70 6 89 70 7 89 70 8 89 70 9 89 70 10 89 70 11 89 70 12 89 70 13 89 70 14 89 70 16 89 70 17 89 70 18 89 70 19 89 70 20 89 70 21 89 70 22 89 70 23 89 70 24 89 70 25 89 70 26 89 70 27 89 70 28 89 70 29 89 70 30 89 70 32 89 70 33 89 70 34 89 70 35 89 70 36 89 70 37 89 70 38 89 70 39 89 70 40 89 70 41 89 70 42 89 70 43 89 70 44 89 70 45 89 70 46 89 70 48 89 70 49 89 70 50 89 70 51 89 70 52 89 70 53 89 70 54 89 70 55 89 70 56 89 70 57 89 70 58 89 70 59 89 70 60 89 70 61 89 70 62 89 70 64 89 70 65 89 70 66 89 70 67 89 70 68 89 70 69 89 70 70 89 70 71 89 70 72 89 70 73 89 70 74 89 70 75 89 70 76 89 70 77 89 70 78 89 70 80 89 70 81 89 70 82 89 70 83 89 70 84 89 70 85 89 70 86 89 70 87 89 70 88 89 70 89 89 70 90 89 70 91 89 70 92 89 70 30 40 100 30 40 100 30 40 100 30 40 100 30 40 100 30 40 100 30 40 100 30 40 100 30 40 100 30 40 100 30 40 100 30 40 100 30 40 100 30 40 100 30 40 100 30 40 100 30 40 100 30 40 100 30 40 100 30 40 100 30 40 100 30 40 100 30 40 100 30 40 100 30 40 100 30 40 100 30 40 100 30 40 100 30 40 100 30 40 100 30 40 100 30 40 100 30 40 100 30 40 100 30 40 100 30 40 100 30 40 100 30 40 100 30 40 100 30 40 100 30 40 100 30 40 100 30 40 100 30 40 100 30 40 100 30 40 100 30 40 100 30 40 100 30 40 100 30 40 100 30 40 100 30 40 100 30 40 100 30 40 100 30 40 100 30 40 100 30 40 100 30 40 100 30 40 100 30 40 100 30 40 100 30 40 100 30 40 100 30 40 100 30 40 100 163 89 70 164 89 70 165 89 70 166 89 70 167 89 70 168 89 70 169 89 70 170 89 70 171 89 70 172 89 70 173 89 70 174 89 70 176 89 70 177 89 70 178 89 70 179 89 70 180 89 70 181 89 70 182 89 70 183 89 70 184 89 70 185 89 70 186 89 70 187 89 70 188 89 70 189 89 70 190 89 70 192 89 70 193 89 70 194 89 70 195 89 70 196 89 70 197 89 70 198 89 70 199 89 70 200 89 70 201 89 70 202 89 70 203 89 70 204 89 70 205 89 70 206 89 70 208 89 70 209 89 70 210 89 70 211 89 70 212 89 70 213 89 70 214 89 70 215 89 70 216 89 70 217 89 70 218 89 70 219 89 70 220 89 70 221 89 70 222 89 70 224 89 70 225 89 70 226 89 70 227 89 70 228 89 70 229 89 70 230 89 70 231 89 70 232 89 70 233 89 70 234 89 70 235 89 70 236 89 70 237 89 70 238 89 70 240 89 70 241 89 70 242 89 70 243 89 70 244 89 70 245 89 70 246 89 70 247 89 70 248 89 70 249 89 70 250 89 70 251 89 70 252 89 70 253 89 70 255 89 70
0 91 70 1 91 70 2 91 70 3 91 70 4 91 70 5 91 70 6 91 70 7 91 70 8 91 70 9 91 70 10 91 70 11 91 70 12 91 70 13 91 70 14 91 70 16 91 70 17 91 70 18 91 70 19 91 70 20 91 70 21 91 70 22 91 70 23 91 70 24 91 70 25 91 70 26 91 70 27 91 70 28 91 70 29 91 70 30 91 70 32 91 70 33 91 70 34 91 70 35 91 70 36 91 70 37 91 70 38 91 70 39 91 70 40 91 70 41 91 70 42 91 70 43 91 70 44 91 70 45 91 70 46 91 70 48 91 70 49 91 70 50 91 70 51 91 70 52 91 70 53 91 70 54 91 70 55 91 70 56 91 70 57 91 70 58 91 70 59 91 70 60 91 70 61 91 70 62 91 70 64 91 70 65 91 70 66 91 70 67 91 70 68 91 70 69 91 70 70 91 70 71 91 70 72 91 70 73 91 70 74 91 70 75 91 70 76 91 70 77 91 70 78 91 70 80 91 70 81 91 70 82 91 70 83 91 70 84 91 70 85 91 70 86 91 70 87 91 70 88 91 70 89 91 70 90 91 70 91 91 70 92 91 70 30 40 100 30 40 100 30 40 100 30 40 100 30 40 100 30 40 100 30 40 100 30 40 100 30 40 100 30 40 100 30 40 100 30 40 100 30 40 100 30 40 100 30 40 100 30 40 100 30 40 100 30 40 100 30 40 100 30 40 100 30 40 100 30 40 100 30 40 100 30 40 100 30 40 100 30 40 100 30 40 100 30 40 100 30 40 100 30 40 100 30 40 100 30 40 100 30 40 100 30 40 100 30 40 100 30 40 100 30 40 100 30 40 100 30 40 100 30 40 100 30 40 100 30 40 100 30 40 100 30 40 100 30 40 100 30 40 100 30 40 100 30 40 100 30 40 100 30 40 100 30 40 100 30 40 100 30 40 100 30 40 100 30 40 100 30 40 100 30 40 100 30 40 100 30 40 100 30 40 100 30 40 100 30 40 100 30 40 100 30 40 100 30 40 100 163 91 70 164 91 70 165 91 70 166 91 70 167 91 70 168 91 70 169 91 70 170 91 70 171 91 70 172 91 70 173 91 70 174 91 70 176 91 70 177 91 70 178 91 70 179 91 70 180 91 70 181 91 70 182 91 70 183 91 70 184 91 70 185 91 70 186 91 70 187 91 70 188 91 70 189 91 70 190 91 70 192 91 70 193 91 70 194 91 70 195 91 70 196 91 70 197 91 70 198 91 70 199 91 70 200 91 70 201 91 70 202 91 70 203 91 70 204 91 70 205 91 70 206 91 70 208 91 70 209 91 70 210 91 70 211 91 70 212 91 70 213 91 70 214 91 70 215 91 70 216 91 70 217 91 70 218 91 70 219 91 70 220 91 70 221 91 70 222 91 70 224 91 70 225 91 70 226 91 70 227 91 70 228 91 70 229 91 70 230 91 70 231 91 70 232 91 70 233 91 70 234 91 70 235 91 70 236 91 70 237 91 70 238 91 70 240 91 70 241 91 70 242 91 70 243 91 70 244 91 70 245 91 70 246 91 70 247 91 70 248 91 70 249 91 70 250 91 70 251 91 70 252 91 70 253 91 70 255 91 70
0 92 70 1 92 70 2 92 70 3 92 70 4 92 70 5 92 70 6 92 70 7 92 70 8 92 70 9 92 70 10 92 70 11 92 70 12 92 70 13 92 70 14 92 70 16 92 70 17 92 70 18 92 70 19 92 70 20 92 70 21 92 70 22 92 70 23 92 70 24 92 70 25 92 70 26 92 70 27 92 70 28 92 70 29 92 70 30 92 70 32 92 70 33 92 70 34 92 70 35 92 70 36 92 70 37 92 70 38 92 70 39 92 70 40 92 70 41 92 70 42 92 70 43 92 70 44 92 70 45 92 70 46 92 70 48 92 70 49 92 70 50 92 70 51 92 70 52 92 70 53 92 70 54 92 70 55 92 70 56 92 70 57 92 70 58 92 70 59 92 70 60 92 70 61 92 70 62 92 70 64 92 70 65 92 70 66 92 70 67 92 70 68 92 70 69 92 70 70 92 70 71 92 70 72 92 70 73 92 70 74 92 70 75 92 70 76 92 70 77 92 70 78 92 70 80 92 70 81 92 70 82 92 70 83 92 70 84 92 70 85 92 70 86 92 70 87 92 70 88 92 70 89 92 70 90 92 70 91 92 70 30 40 100 30 40 100 30 40 100 30 40 100 30 40 100 30 40 100 30 40 100 30 40 100 30 40 100 30 40 100 30 40 100 30 40 100 30 40 100 30 40 100 30 40 100 30 40 100 30 40 100 30 40 100 30 40 100 30 40 100 30 40 100 30 40 100 30 40 100 30 40 100 30 40 100 30 40 100 30 40 100 30 40 100 30 40 100 30 40 100 30 40 100 30 40 100 30 40 100 30 40 100 30 40 100 30 40 100 30 40 100 30 40 100 30 40 100 30 40 100 30 40 100 30 40 100 30 40 100 30 40 100 30 40 100 30 40 100 30 40 100 30 40 100 30 40 100 30 40 100 30 40 100 30 40 100 30 40 100 30 40 100 30 40 100 30 40 100 30 40 100 30 40 100 30 40 100 30 40 100 30 40 100 30 40 100 30 40 100 30 40 100 30 40 100 30 40 100 30 40 100 164 92 70 165 92 70 166 92 70 167 92 70 168 92 70 169 92 70 170 92 70 171 92 70 172 92 70 173 92 70 174 92 70 176 92 70 177 92 70 178 92 70 179 92 70 180 92 70 181 92 70 182 92 70 183 92 70 184 92 70 185 92 70 186 92 70 187 92 70 188 92 70 189 92 70 190 92 70 192 92 70 193 92 70 194 92 70 195 92 70 196 92 70 197 92 70 198 92 70 199 92 70 200 92 70 201 92 70 202 92 70 203 92 70 204 92 70 205 92 70 206 92 70 208 92 70 209 92 70 210 92 70 211 92 70 212 92 70 213 92 70 214 92 70 215 92 70 216 92 70 217 92 70 218 92 70 219 92 70 220 92 70 221 92 70 222 92 70 224 92 70 225 92 70 226 92 70 227 92 70 228 92 70 229 92 70 230 92 70 231 92 70 232 92 70 233 92 70 234 92 70 235 92 70 236 92 70 237 92 70 238 92 70 240 92 70 241 92 70 242 92 70 243 92 70 244 92 70 245 92 70 246 92 70 247 92 70 248 92 70 249 92 70 250 92 70 251 92 70 252 92 70 253 92 70 255 92 70
0 94 70 1 94 70 2 94 70 3 94 70 4 94 70 5 94 70 6 94 70 7 94 70 8 94 70 9 94 70 10 94 70 11 94 70 12 94 70 13 94 70 14 94 70 16 94 70 17 94 70 18 94 70 19 94 70 20 94 70 21 94 70 22 94 70 23 94 70 24 94 70 25 94 70 26 94 70 27 94 70 28 94 70 29 94 70 30 94 70 32 94 70 33 94 70 34 94 70 35 94 70 36 94 70 37 94 70 38 94 70 39 94 70 40 94 70 41 94 70 42 94 70 43 94 70 44 94 70 45 94 70 46 94 70 48 94 70 49 94 70 50 94 70 51 94 70 52 94 70 53 94 70 54 94 70 55 94 70 56 94 70 57 94 70 58 94 70 59 94 70 60 94 70 61 94 70 62 94 70 64 94 70 65 94 70 66 94 70 67 94 70 68 94 70 69 94 70 70 94 70 71 94 70 72 94 70 73 94 70 74 94 70 75 94 70 76 94 70 77 94 70 78 94 70 80 94 70 81 94 70 82 94 70 83 94 70 84 94 70 85 94 70 86 94 70 87 94 70 88 94 70 89 94 70 90 94 70 30 40 100 30 40 100 30 40 100 30 40 100 30 40 100 30 40 100 30 40 100 30 40 100 30 40 100 30 40 100 30 40 100 30 40 100 30 40 100 30 40 100 30 40 100 30 40 100 30 40 100 30 40 100 30 40 100 30 40 100 30 40 100 30 40 100 30 40 100 30 40 100 30 40 100 30 40 100 30 40 100 30 40 100 30 40 100 30 40 100 30 40 100 30 40 100 30 40 100 30 40 100 30 40 100 30 40 100 30 40 100 30 40 100 30 40 100 30 40 100 30 40 100 30 40 100 30 40 100 30 40 100 30 40 100 30 40 100 30 40 100 30 40 100 30 40 100 30 40 100 30 40 100 30 40 100 30 40 100 30 40 100 30 40 100 30 40 100 30 40 100 30 40 100 30 40 100 30 40 100 30 40 100 30 40 100 30 40 100 30 40 100 30 40 100 30 40 100 30 40 100 30 40 100 30 40 100 165 94 70 166 94 70 167 94 70 168 94 70 169 94 70 170 94 70 171 94 70 172 94 70 173 94 70 174 94 70 176 94 70 177 94 70 178 94 70 179 94 70 180 94 70 181 94 70 182 94 70 183 94 70 184 94 70 185 94 70 186 94 70 187 94 70 188 94 70 189 94 70 190 94 70 192 94 70 193 94 70 194 94 70 195 94 70 196 94 70 197 94 70 198 94 70 199 94 70 200 94 70 201 94 70 202 94 70 203 94 70 204 94 70 205 94 70 206 94 70 208 94 70 209 94 70 210 94 70 211 94 70 212 94 70 213 94 70 214 94 70 215 94 70 216 94 70 217 94 70 218 94 70 219 94 70 220 94 70 221 94 70 222 94 70 224 94 70 225 94 70 226 94 70 227 94 70 228 94 70 229 94 70 230 94 70 231 94 70 232 94 70 233 94 70 234 94 70 235 94 70 236 94 70 237 94 70 238 94 70 240 94 70 241 94 70 242 94 70 243 94 70 244 94 70 245 94 70 246 94 70 247 94 70 248 94 70 249 94 70 250 94 70 251 94 70 252 94 70 253 94 70 255 94 70
0 95 70 1 95 70 2 95 70 3 95 70 4 95 70 5 95 70 6 95 70 7 95 70 8 95 70 9 95 70 10 95 70 11 95 70 12 95 70 13 95 70 14 95 70 16 95 70 17 95 70 18 95 70 19 95 70 20 95 70 21 95 70 22 95 70 23 95 70 24 95 70 25 95 70 26 95 70 27 95 70 28 95 70 29 95 70 30 95 70 32 95 70 33 95 70 34 95 70 35 95 70 36 95 70 37 95 70 38 95 70 39 95 70 40 95 70 41 95 70 42 95 70 43 95 70 44 95 70 45 95 70 46 95 70 48 95 70 49 95 70 50 95 70 51 95 70 52 95 70 53 95 70 54 95 70 55 95 70 56 95 70 57 95 70 58 95 70 59 95 70 60 95 70 61 95 70 62 95 70 64 95 70 65 95 70 66 95 70 67 95 70 68 95 70 69 95 70 70 95 70 71 95 70 72 95 70 73 95 70 74 95 70 75 95 70 76 95 70 77 95 70 78 95 70 80 95 70 81 95 70 82 95 70 83 95 70 84 95 70 85 95 70 86 95 70 87 95 70 88 95 70 89 95 70 30 40 100 30 40 100 30 40 100 30 40 100 30 40 100 30 40 100 30 40 100 30 40 100 30 40 100 30 40 100 30 40 100 30 40 100 30 40 100 30 40 100 30 40 100 30 40 100 30 40 100 30 40 100 30 40 100 30 40 100 30 40 100 30 40 100 30 40 100 30 40 100 30 40 100 30 40 100 30 40 100 30 40 100 30 40 100 30 40 100 30 40 100 30 40 100 30 40 100 30 40 100 30 40 100 30 40 100 30 40 100 30 40 100 30 40 100 30 40 100 30 40 100 30 40 100 30 40 100 30 40 100 30 40 100 30 40 100 30 40 100 30 40 100 30 40 100 30 40 100 30 40 100 30 40 100 30 40 100 30 40 100 30 40 100 30 40 100 30 40 100 30 40 100 30 40 100 30 40 100 30 40 100 30 40 100 30 40 100 30 40 100 30 40 100 30 40 100 30 40 100 30 40 100 30 40 100 30 40 100 30 40 100 166 95 70 167 95 70 168 95 70 169 95 70 170 95 70 171 95 70 172 95 70 173 95 70 174 95 70 176 95 70 177 95 70 178 95 70 179 95 70 180 95 70 181 95 70 182 95 70 183 95 70 184 95 70 185 95 70 186 95 70 187 95 70 188 95 70 189 95 70 190 95 70 192 95 70 193 95 70 194 95 70 195 95 70 196 95 70 197 95 70 198 95 70 199 95 70 200 95 70 201 95 70 202 95 70 203 95 70 204 95 70 205 95 70 206 95 70 208 95 70 209 95 70 210 95 70 211 95 70 212 95 70 213 95 70 214 95 70 215 95 70 216 95 70 217 95 70 218 95 70 219 95 70 220 95 70 221 95 70 222 95 70 224 95 70 225 95 70 226 95 70 227 95 70 228 95 70 229 95 70 230 95 70 231 95 70 232 95 70 233 95 70 234 95 70 235 95 70 236 95 70 237 95 70 238 95 70 240 95 70 241 95 70 242 95 70 243 95 70 244 95 70 245 95 70 246 95 70 247 95 70 248 95 70 249 95 70 250 95 70 251 95 70 252 95 70 253 95 70 255 95 70
0 96 70 1 96 70 2 96 70 3 96 70 4 96 70 5 96 70 6 96 70 7 96 70 8 96 70 9 96 70 10 96 70 11 96 70 12 96 70 13 96 70 14 96 70 16 96 70 17 96 70 18 96 70 19 96 70 20 96 70 21 96 70 22 96 70 23 96 70 24 96 70 25 96 70 26 96 70 27 96 70 28 96 70 29 96 70 30 96 70 32 96 70 33 96 70 34 96 70 35 96 70 36 96 70 37 96 70 38 96 70 39 96 70 40 96 70 41 96 70 42 96 70 43 96 70 44 96 70 45 96 70 46 96 70 48 96 70 49 96 70 50 96 70 51 96 70 52 96 70 53 96 70 54 96 70 55 96 70 56 96 70 57 96 70 58 96 70 59 96 70 60 96 70 61 96 70 62 96 70 64 96 70 65 96 70 66 96 70 67 96 70 68 96 70 69 96 70 70 96 70 71 96 70 72 96 70 73 96 70 74 96 70 75 96 70 76 96 70 77 96 70 78 96 70 80 96 70 81 96 70 82 96 70 83 96 70 84 96 70 85 96 70 86 96 70 87 96 70 88 96 70 89 96 70 30 40 100 30 40 100 30 40 100 30 40 100 30 40 100 30 40 100 30 40 100 30 40 100 30 40 100 30 40 100 30 40 100 30 40 100 30 40 100 30 40 100 30 40 100 30 40 100 30 40 100 30 40 100 30 40 100 30 40 100 30 40 100 30 40 100 30 40 100 30 40 100 30 40 100 30 40 100 30 40 100 30 40 100 30 40 100 30 40 100 30 40 100 30 40 100 30 40 100 30 40 100 30 40 100 30 40 100 30 40 100 30 40 100 30 40 100 30 40 100 30 40 100 30 40 100 30 40 100 30 40 100 30 40 100 30 40 100 30 40 100 30 40 100 30 40 100 30 40 100 30 40 100 30 40 100 30 40 100 30 40 100 30 40 100 30 40 100 30 40 100 30 40 100 30 40 100 30 40 100 30 40 100 30 40 100 30 40 100 30 40 100 30 40 100 30 40 100 30 40 100 30 40 100 30 40 100 30 40 100 30 40 100 166 96 70 167 96 70 168 96 70 169 96 70 170 96 70 171 96 70 172 96 70 173 96 70 174 96 70 176 96 70 177 96 70 178 96 70 179 96 70 180 96 70 181 96 70 182 96 70 183 96 70 184 96 70 185 96 70 186 96 70 187 96 70 188 96 70 189 96 70 190 96 70 192 96 70 193 96 70 194 96 70 195 96 70 196 96 70 197 96 70 198 96 70 199 96 70 200 96 70 201 96 70 202 96 70 203 96 70 204 96 70 205 96 70 206 96 70 208 96 70 209 96 70 210 96 70 211 96 70 212 96 70 213 96 70 214 96 70 215 96 70 216 96 70 217 96 70 218 96 70 219 96 70 220 96 70 221 96 70 222 96 70 224 96 70 225 96 70 226 96 70 227 96 70 228 96 70 229 96 70 230 96 70 231 96 70 232 96 70 233 96 70 234 96 70 235 96 70 236 96 70 237 96 70 238 96 70 240 96 70 241 96 70 242 96 70 243 96 70 244 96 70 245 96 70 246 96 70 247 96 70 248 96 70 249 96 70 250 96 70 251 96 70 252 96 70 253 96 70 255 96 70
0 98 70 1 98 70 2 98 70 3 98 70 4 98 70 5 98 70 6 98 70 7 98 70 8 98 70 9 98 70 10 98 70 11 98 70 12 98 70 13 98 70 14 98 70 16 98 70 17 98 70 18 98 70 19 98 70 20 98 70 21 98 70 22 98 70 23 98 70 24 98 70 25 98 70 26 98 70 27 98 70 28 98 70 29 98 70 30 98 70 32 98 70 33 98 70 34 98 70 35 98 70 36 98 70 37 98 70 38 98 70 39 98 70 40 98 70 41 98 70 42 98 70 43 98 70 44 98 70 45 98 70 46 98 70 48 98 70 49 98 70 50 98 70 51 98 70 52 98 70 53 98 70 54 98 70 55 98 70 56 98 70 57 98 70 58 98 70 59 98 70 60 98 70 61 98 70 62 98 70 64 98 70 65 98 70 66 98 70 67 98 70 68 98 70 69 98 70 70 98 70 71 98 70 72 98 70 73 98 70 74 98 70 75 98 70 76 98 70 77 98 70 78 98 70 80 98 70 81 98 70 82 98 70 83 98 70 84 98 70 85 98 70 86 98 70 87 98 70 88 98 70 30 40 100 30 40 100 30 40 100 30 40 100 30 40 100 30 40 100 30 40 100 30 40 100 30 40 100 30 40 100 30 40 100 30 40 100 30 40 100 30 40 100 30 40 100 30 40 100 30 40 100 30 40 100 30 40 100 30 40 100 30 40 100 30 40 100 30 40 100 30 40 100 30 40 100 30 40 100 30 40 100 30 40 100 30 40 100 30 40 100 30 40 100 30 40 100 30 40 100 30 40 100 30 40 100 30 40 100 30 40 100 30 40 100 30 40 100 30 40 100 30 40 100 30 40 100 30 40 100 30 40 100 30 40 100 30 40 100 30 40 100 30 40 100 30 40 100 30 40 100 30 40 100 30 40 100 30 40 100 30 40 100 30 40 100 30 40 100 30 40 100 30 40 100 30 40 100 30 40 100 30 40 100 30 40 100 30 40 100 30 40 100 30 40 100 30 40 100 30 40 100 30 40 100 30 40 100 30 40 100 30 40 100 30 40 100 30 40 100 167 98 70 168 98 70 169 98 70 170 98 70 171 98 70 172 98 70 173 98 70 174 98 70 176 98 70 177 98 70 178 98 70 179 98 70 180 98 70 181 98 70 182 98 70 183 98 70 184 98 70 185 98 70 186 98 70 187 98 70 188 98 70 189 98 70 190 98 70 192 98 70 193 98 70 194 98 70 195 98 70 196 98 70 197 98 70 198 98 70 199 98 70 200 98 70 201 98 70 202 98 70 203 98 70 204 98 70 205 98 70 206 98 70 208 98 70 209 98 70 210 98 70 211 98 70 212 98 70 213 98 70 214 98 70 215 98 70 216 98 70 217 98 70 218 98 70 219 98 70 220 98 70 221 98 70 222 98 70 224 98 70 225 98 70 226 98 70 227 98 70 228 98 70 229 98 70 230 98 70 231 98 70 232 98 70 233 98 70 234 98 70 235 98 70 236 98 70 237 98 70 238 98 70 240 98 70 241 98 70 242 98 70 243 98 70 244 98 70 245 98 70 246 98 70 247 98 70 248 98 70 249 98 70 250 98 70 251 98 70 252 98 70 253 98 70 255 98 70
0 99 70 1 99 70 2 99 70 3 99 70 4 99 70 5 99 70 6 99 70 7 99 70 8 99 70 9 99 70 10 99 70 11 99 70 12 99 70 13 99 70 14 99 70 16 99 70 17 99 70 18 99 70 19 99 70 20 99 70 21 99 70 22 99 70 23 99 70 24 99 70 25 99 70 26 99 70 27 99 70 28 99 70 29 99 70 30 99 70 32 99 70 33 99 70 34 99 70 35 99 70 36 99 70 37 99 70 38 99 70 39 99 70 40 99 70 41 99 70 42 99 70 43 99 70 44 99 70 45 99 70 46 99 70 48 99 70 49 99 70 50 99 70 51 99 70 52 99 70 53 99 70 54 99 70 55 99 70 56 99 70 57 99 70 58 99 70 59 99 70 60 99 70 61 99 70 62 99 70 64 99 70 65 99 70 66 99 70 67 99 70 68 99 70 69 99 70 70 99 70 71 99 70 72 99 70 73 99 70 74 99 70 75 99 70 76 99 70 77 99 70 78 99 70 80 99 70 81 99 70 82 99 70 83 99 70 84 99 70 85 99 70 86 99 70 87 99 70 88 99 70 30 40 100 30 40 100 30 40 100 30 40 100 30 40 100 30 40 100 30 40 100 30 40 100 30 40 100 30 40 100 30 40 100 30 40 100 30 40 100 30 40 100 30 40 100 30 40 100 30 40 100 30 40 100 30 40 100 30 40 100 30 40 100 30 40 100 30 40 100 30 40 100 30 40 100 30 40 100 30 40 100 30 40 100 30 40 100 30 40 100 30 40 100 30 40 100 30 40 100 30 40 100 30 40 100 30 40 100 30 40 100 30 40 100 30 40 100 30 40 100 30 40 100 30 40 100 30 40 100 30 40 100 30 40 100 30 40 100 30 40 100 30 40 100 30 40 100 30 40 100 30 40 100 30 40 100 30 40 100 30 40 100 30 40 100 30 40 100 30 40 100 30 40 100 30 40 100 30 40 100 30 40 100 30 40 100 30 40 100 30 40 100 30 40 100 30 40 100 30 40 100 30 40 100 30 40 100 30 40 100 30 40 100 30 40 100 30 40 100 167 99 70 168 99 70 169 99 70 170 99 70 171 99 70 172 99 70 173 99 70 174 99 70 176 99 70 177 99 70 178 99 70 179 99 70 180 99 70 181 99 70 182 99 70 183 99 70 184 99 70 185 99 70 186 99 70 187 99 70 188 99 70 189 99 70 190 99 70 192 99 70 193 99 70 194 99 70 195 99 70 196 99 70 197 99 70 198 99 70 199 99 70 200 99 70 201 99 70 202 99 70 203 99 70 204 99 70 205 99 70 206 99 70 208 99 70 209 99 70 210 99 70 211 99 70 212 99 70 213 99 70 214 99 70 215 99 70 216 99 70 217 99 70 218 99 70 219 99 70 220 99 70 221 99 70 222 99 70 224 99 70 225 99 70 226 99 70 227 99 70 228 99 70 229 99 70 230 99 70 231 99 70 232 99 70 233 99 70 234 99 70 235 99 70 236 99 70 237 99 70 238 99 70 240 99 70 241 99 70 242 99 70 243 99 70 244 99 70 245 99 70 246 99 70 247 99 70 248 99 70 249 99 70 250 99 70 251 99 70 252 99 70 253 99 70 255 99 70
0 101 70 1 101 70 2 101 70 3 101 70 4 101 70 5 101 70 6 101 70 7 101 70 8 101 70 9 101 70 10 101 70 11 101 70 12 101 70 13 101 70 14 101 70 16 101 70 17 101 70 18 101 70 19 101 70 20 101 70 21 101 70 22 101 70 23 101 70 24 101 70 25 101 70 26 101 70 27 101 70 28 101 70 29 101 70 30 101 70 32 101 70 33 101 70 34 101 70 35 101 70 36 101 70 37 101 70 38 101 70 39 101 70 40 101 70 41 101 70 42 101 70 43 101 70 44 101 70 45 101 70 46 101 70 48 101 70 49 101 70 50 101 70 51 101 70 52 101 70 53 101 70 54 101 70 55 101 70 56 101 70 57 101 70 58 101 70 59 101 70 60 101 70 61 101 70 62 101 70 64 101 70 65 101 70 66 101 70 67 101 70 68 101 70 69 101 70 70 101 70 71 101 70 72 101 70 73 101 70 74 101 70 75 101 70 76 101 70 77 101 70 78 101 70 80 101 70 81 101 70 82 101 70 83 101 70 84 101 70 85 101 70 86 101 70 87 101 70 30 40 100 30 40 100 30 40 100 30 40 100 30 40 100 30 40 100 30 40 100 30 40 100 30 40 100 30 40 100 30 40 100 30 40 100 30 40 100 30 40 100 30 40 100 30 40 100 30 40 100 30 40 100 30 40 100 30 40 100 30 40 100 30 40 100 30 40 100 30 40 100 30 40 100 30 40 100 30 40 100 30 40 100 30 40 100 30 40 100 30 40 100 30 40 100 30 40 100 30 40 100 30 40 100 30 40 100 30 40 100 30 40 100 30 40 100 30 40 100 30 40 100 30 40 100 30 40 100 30 40 100 30 40 100 30 40 100 30 40 100 30 40 100 30 40 100 30 40 100 30 40 100 30 40 100 30 40 100 30 40 100 30 40 100 30 40 100 30 40 100 30 40 100 30 40 100 30 40 100 30 40 100 30 40 100 30 40 100 30 40 100 30 40 100 30 40 100 30 40 100 30 40 100 30 40 100 30 40 100 30 40 100 30 40 100 30 40 100 30 40 100 30 40 100 168 101 70 169 101 70 170 101 70 171 101 70 172 101 70 173 101 70 174 101 70 176 101 70 177 101 70 178 101 70 179 101 70 180 101 70 181 101 70 182 101 70 183 101 70 184 101 70 185 101 70 186 101 70 187 101 70 188 101 70 189 101 70 190 101 70 192 101 70 193 101 70 194 101 70 195 101 70 196 101 70 197 101 70 198 101 70 199 101 70 200 101 70 201 101 70 202 101 70 203 101 70 204 101 70 205 101 70 206 101 70 208 101 70 209 101 70 210 101 70 211 101 70 212 101 70 213 101 70 214 101 70 215 101 70 216 101 70 217 101 70 218 101 70 219 101 70 220 101 70 221 101 70 222 101 70 224 101 70 225 101 70 226 101 70 227 101 70 228 101 70 229 101 70 230 101 70 231 101 70 232 101 70 233 101 70 234 101 70 235 101 70 236 101 70 237 101 70 238 101 70 240 101 70 241 101 70 242 101 70 243 101 70 244 101 70 245 101 70 246 101 70 247 101 70 248 101 70 249 101 70 250 101 70 251 101 70 252 101 70 253 101 70 255 101 70
0 102 70 1 102 70 2 102 70 3 102 70 4 102 70 5 102 70 6 102 70 7 102 70 8 102 70 9 102 70 10 102 70 11 102 70 12 102 70 13 102 70 14 102 70 16 102 70 17 102 70 18 102 70 19 102 70 20 102 70 21 102 70 22 102 70 23 102 70 24 102 70 25 102 70 26 102 70 27 102 70 28 102 70 29 102 70 30 102 70 32 102 70 33 102 70 34 102 70 35 102 70 36 102 70 37 102 70 38 102 70 39 102 70 40 102 70 41 102 70 42 102 70 43 102 70 44 102 70 45 102 70 46 102 70 48 102 70 49 102 70 50 102 70 51 102 70 52 102 70 53 102 70 54 102 70 55 102 70 56 102 70 57 102 70 58 102 70 59 102 70 60 102 70 61 102 70 62 102 70 64 102 70 65 102 70 66 102 70 67 102 70 68 102 70 69 102 70 70 102 70 71 102 70 72 102 70 73 102 70 74 102 70 75 102 70 76 102 70 77 102 70 78 102 70 80 102 70 81 102 70 82 102 70 83 102 70 84 102 70 85 102 70 86 102 70 87 102 70 30 40 100 30 40 100 30 40 100 30 40 100 30 40 100 30 40 100 30 40 100 30 40 100 30 40 100 30 40 100 30 40 100 30 40 100 30 40 100 30 40 100 30 40 100 30 40 100 30 40 100 30 40 100 30 40 100 30 40 100 30 40 100 30 40 100 30 40 100 30 40 100 30 40 100 30 40 100 30 40 100 30 40 100 30 40 100 30 40 100 30 40 100 30 40 100 30 40 100 30 40 100 30 40 100 30 40 100 30 40 100 30 40 100 30 40 100 30 40 100 30 40 100 30 40 100 30 40 100 30 40 100 30 40 100 30 40 100 30 40 100 30 40 100 30 40 100 30 40 100 30 40 100 30 40 100 30 40 100 30 40 100 30 40 100 30 40 100 30 40 100 30 40 100 30 40 100 30 40 100 30 40 100 30 40 100 30 40 100 30 40 100 30 40 100 30 40 100 30 40 100 30 40 100 30 40 100 30 40 100 30 40 100 30 40 100 30 40 100 30 40 100 30 40 100 168 102 70 169 102 70 170 102 70 171 102 70 172 102 70 173 102 70 174 102 70 176 102 70 177 102 70 178 102 70 179 102 70 180 102 70 181 102 70 182 102 70 183 102 70 184 102 70 185 102 70 186 102 70 187 102 70 188 102 70 189 102 70 190 102 70 192 102 70 193 102 70 194 102 70 195 102 70 196 102 70 197 102 70 198 102 70 199 102 70 200 102 70 201 102 70 202 102 70 203 102 70 204 102 70 205 102 70 206 102 70 208 102 70 209 102 70 210 102 70 211 102 70 212 102 70 213 102 70 214 102 70 215 102 70 216 102 70 217 102 70 218 102 70 219 102 70 220 102 70 221 102 70 222 102 70 224 102 70 225 102 70 226 102 70 227 102 70 228 102 70 229 102 70 230 102 70 231 102 70 232 102 70 233 102 70 234 102 70 235 102 70 236 102 70 237 102 70 238 102 70 240 102 70 241 102 70 242 102 70 243 102 70 244 102 70 245 102 70 246 102 70 247 102 70 248 102 70 249 102 70 250 102 70 251 102 70 252 102 70 253 102 70 255 102 70
0 103 70 1 103 70 2 103 70 3 103 70 4 103 70 5 103 70 6 103 70 7 103 70 8 103 70 9 103 70 10 103 70 11 103 70 12 103 70 13 103 70 14 103 70 16 103 70 17 103 70 18 103 70 19 103 70 20 103 70 21 103 70 22 103 70 23 103 70 24 103 70 25 103 70 26 103 70 27 103 70 28 103 70 29 103 70 30 103 70 32 103 70 33 103 70 34 103 70 35 103 70 36 103 70 37 103 70 38 103 70 39 103 70 40 103 70 41 103 70 42 103 70 43 103 70 44 103 70 45 103 70 46 103 70 48 103 70 49 103 70 50 103 70 51 103 70 52 103 70 53 103 70 54 103 70 55 103 70 56 103 70 57 103 70 58 103 70 59 103 70 60 103 70 61 103 70 62 103 70 64 103 70 65 103 70 66 103 70 67 103 70 68 103 70 69 103 70 70 103 70 71 103 70 72 103 70 73 103 70 74 103 70 75 103 70 76 103 70 77 103 70 78 103 70 80 103 70 81 103 70 82 103 70 83 103 70 84 103 70 85 103 70 86 103 70 30 40 100 30 40 100 30 40 100 30 40 100 30 40 100 30 40 100 30 40 100 30 40 100 30 40 100 30 40 100 30 40 100 30 40 100 30 40 100 30 40 100 30 40 100 30 40 100 30 40 100 30 40 100 30 40 100 30 40 100 30 40 100 30 40 100 30 40 100 30 40 100 30 40 100 30 40 100 30 40 100 30 40 100 30 40 100 30 40 100 30 40 100 30 40 100 30 40 100 30 40 100 30 40 100 30 40 100 30 40 100 30 40 100 30 40 100 30 40 100 30 40 100 30 40 100 30 40 100 30 40 100 30 40 100 30 40 100 30 40 100 30 40 100 30 40 100 30 40 100 30 40 100 30 40 100 30 40 100 30 40 100 30 40 100 30 40 100 30 40 100 30 40 100 30 40 100 30 40 100 30 40 100 30 40 100 30 40 100 30 40 100 30 40 100 30 40 100 30 40 100 30 40 100 30 40 100 30 40 100 30 40 100 30 40 100 30 40 100 30 40 100 30 40 100 30 40 100 30 40 100 169 103 70 170 103 70 171 103 70 172 103 70 173 103 70 174 103 70 176 103 70 177 103 70 178 103 70 179 103 70 180 103 70 181 103 70 182 103 70 183 103 70 184 103 70 185 103 70 186 103 70 187 103 70 188 103 70 189 103 70 190 103 70 192 103 70 193 103 70 194 103 70 195 103 70 196 103 70 197 103 70 198 103 70 199 103 70 200 103 70 201 103 70 202 103 70 203 103 70 204 103 70 205 103 70 206 103 70 208 103 70 209 103 70 210 103 70 211 103 70 212 103 70 213 103 70 214 103 70 215 103 70 216 103 70 217 103 70 218 103 70 219 103 70 220 103 70 221 103 70 222 103 70 224 103 70 225 103 70 226 103 70 227 103 70 228 103 70 229 103 70 230 103 70 231 103 70 232 103 70 233 103 70 234 103 70 235 103 70 236 103 70 237 103 70 238 103 70 240 103 70 241 103 70 242 103 70 243 103 70 244 103 70 245 103 70 246 103 70 247 103 70 248 103 70 249 103 70 250 103 70 251 103 70 252 103 70 253 103 70 255 103 70
0 105 70 1 105 70 2 105 70 3 105 70 4 105 70 5 105 70 6 105 70 7 105 70 8 105 70 9 105 70 10 105 70 11 105 70 12 105 70 13 105 70 14 105 70 16 105 70 17 105 70 18 105 70 19 105 70 20 105 70 21 105 70 22 105 70 23 105 70 24 105 70 25 105 70 26 105 70 27 105 70 28 105 70 29 105 70 30 105 70 32 105 70 33 105 70 34 105 70 35 105 70 36 105 70 37 105 70 38 105 70 39 105 70 40 105 70 41 105 70 42 105 70 43 105 70 44 105 70 45 105 70 46 105 70 48 105 70 49 105 70 50 105 70 51 105 70 52 105 70 53 105 70 54 105 70 55 105 70 56 105 70 57 105 70 58 105 70 59 105 70 60 105 70 61 105 70 62 105 70 64 105 70 65 105 70 66 105 70 67 105 70 68 105 70 69 105 70 70 105 70 71 105 70 72 105 70 73 105 70 74 105 70 75 105 70 76 105 70 77 105 70 78 105 70 80 105 70 81 105 70 82 105 70 83 105 70 84 105 70 85 105 70 86 105 70 30 40 100 30 40 100 30 40 100 30 40 100 30 40 100 30 40 100 30 40 100 30 40 100 30 40 100 30 40 100 30 40 100 30 40 100 30 40 100 30 40 100 30 40 100 30 40 100 30 40 100 30 40 100 30 40 100 30 40 100 30 40 100 30 40 100 30 40 100 30 40 100 30 40 100 30 40 100 30 40 100 30 40 100 30 40 100 30 40 100 30 40 100 30 40 100 30 40 100 30 40 100 30 40 100 30 40 100 30 40 100 30 40 100 30 40 100 30 40 100 30 40 100 30 40 100 30 40 100 30 40 100 30 40 100 30 40 100 30 40 100 30 40 100 30 40 100 30 40 100 30 40 100 30 40 100 30 40 100 30 40 100 30 40 100 30 40 100 30 40 100 30 40 100 30 40 100 30 40 100 30 40 100 30 40 100 30 40 100 30 40 100 30 40 100 30 40 100 30 40 100 30 40 100 30 40 100 30 40 100 30 40 100 30 40 100 30 40 100 30 40 100 30 40 100 30 40 100 30 40 100 169 105 70 170 105 70 171 105 70 172 105 70 173 105 70 174 105 70 176 105 70 177 105 70 178 105 70 179 105 70 180 105 70 181 105 70 182 105 70 183 105 70 184 105 70 185 105 70 186 105 70 187 105 70 188 105 70 189 105 70 190 105 70 192 105 70 193 105 70 194 105 70 195 105 70 196 105 70 197 105 70 198 105 70 199 105 70 200 105 70 201 105 70 202 105 70 203 105 70 204 105 70 205 105 70 206 105 70 208 105 70 209 105 70 210 105 70 211 105 70 212 105 70 213 105 70 214 105 70 215 105 70 216 105 70 217 105 70 218 105 70 219 105 70 220 105 70 221 105 70 222 105 70 224 105 70 225 105 70 226 105 70 227 105 70 228 105 70 229 105 70 230 105 70 231 105 70 232 105 70 233 105 70 234 105 70 235 105 70 236 105 70 237 105 70 238 105 70 240 105 70 241 105 70 242 105 70 243 105 70 244 105 70 245 105 70 246 105 70 247 105 70 248 105 70 249 105 70 250 105 70 251 105 70 252 105 70 253 105 70 255 105 70
0 106 70 1 106 70 2 106 70 3 106 70 4 106 70 5 106 70 6 106 70 7 106 70 8 106 70 9 106 70 10 106 70 11 106 70 12 106 70 13 106 70 14 106 70 16 106 70 17 106 70 18 106 70 19 106 70 20 106 70 21 106 70 22 106 70 23 106 70 24 106 70 25 106 70 26 106 70 27 106 70 28 106 70 29 106 70 30 106 70 32 106 70 33 106 70 34 106 70 35 106 70 36 106 70 37 106 70 38 106 70 39 106 70 40 106 70 41 106 70 42 106 70 43 106 70 44 106 70 45 106 70 46 106 70 48 106 70 49 106 70 50 106 70 51 106 70 52 106 70 53 106 70 54 106 70 55 106 70 56 106 70 57 106 70 58 106 70 59 106 70 60 106 70 61 106 70 62 106 70 64 106 70 65 106 70 66 106 70 67 106 70 68 106 70 69 106 70 70 106 70 71 106 70 72 106 70 73 106 70 74 106 70 75 106 70 76 106 70 77 106 70 78 106 70 80 106 70 81 106 70 82 106 70 83 106 70 84 106 70 85 106 70 30 40 100 30 40 100 30 40 100 30 40 100 30 40 100 30 40 100 30 40 100 30 40 100 30 40 100 30 40 100 30 40 100 30 40 100 30 40 100 30 40 100 30 40 100 30 40 100 30 40 100 30 40 100 30 40 100 30 40 100 30 40 100 30 40 100 30 40 100 30 40 100 30 40 100 30 40 100 30 40 100 30 40 100 30 40 100 30 40 100 30 40 100 30 40 100 30 40 100 30 40 100 30 40 100 30 40 100 30 40 100 30 40 100 30 40 100 30 40 100 30 40 100 30 40 100 30 40 100 30 40 100 30 40 100 30 40 100 30 40 100 30 40 100 30 40 100 30 40 100 30 40 100 30 40 100 30 40 100 30 40 100 30 40 100 30 40 100 30 40 100 30 40 100 30 40 100 30 40 100 30 40 100 30 40 100 30 40 100 30 40 100 30 40 100 30 40 100 30 40 100 30 40 100 30 40 100 30 40 100 30 40 100 30 40 100 30 40 100 30 40 100 30 40 100 30 40 100 30 40 100 30 40 100 30 40 100 170 106 70 171 106 70 172 106 70 173 106 70 174 106 70 176 106 70 177 106 70 178 106 70 179 106 70 180 106 70 181 106 70 182 106 70 183 106 70 184 106 70 185 106 70 186 106 70 187 106 70 188 106 70 189 106 70 190 106 70 192 106 70 193 106 70 194 106 70 195 106 70 196 106 70 197 106 70 198 106 70 199 106 70 200 106 70 201 106 70 202 106 70 203 106 70 204 106 70 205 106 70 206 106 70 208 106 70 209 106 70 210 106 70 211 106 70 212 106 70 213 106 70 214 106 70 215 106 70 216 106 70 217 106 70 218 106 70 219 106 70 220 106 70 221 106 70 222 106 70 224 106 70 225 106 70 226 106 70 227 106 70 228 106 70 229 106 70 230 106 70 231 106 70 232 106 70 233 106 70 234 106 70 235 106 70 236 106 70 237 106 70 238 106 70 240 106 70 241 106 70 242 106 70 243 106 70 244 106 70 245 106 70 246 106 70 247 106 70 248 106 70 249 106 70 250 106 70 251 106 70 252 106 70 253 106 70 255 106 70
0 108 70 1 108 70 2 108 70 3 108 70 4 108 70 5 108 70 6 108 70 7 108 70 8 108 70 9 108 70 10 108 70 11 108 70 12 108 70 13 108 70 14 108 70 16 108 70 17 108 70 18 108 70 19 108 70 20 108 70 21 108 70 22 108 70 23 108 70 24 108 70 25 108 70 26 108 70 27 108 70 28 108 70 29 108 70 30 108 70 32 108 70 33 108 70 34 108 70 35 108 70 36 108 70 37 108 70 38 108 70 39 108 70 40 108 70 41 108 70 42 108 70 43 108 70 44 108 70 45 108 70 46 108 70 48 108 70 49 108 70 50 108 70 51 108 70 52 108 70 53 108 70 54 108 70 55 108 70 56 108 70 57 108 70 58 108 70 59 108 70 60 108 70 61 108 70 62 108 70 64 108 70 65 108 70 66 108 70 67 108 70 68 108 70 69 108 70 70 108 70 71 108 70 72 108 70 73 108 70 74 108 70 75 108 70 76 108 70 77 108 70 78 108 70 80 108 70 81 108 70 82 108 70 83 108 70 84 108 70 85 108 70 30 40 100 30 40 100 30 40 100 30 40 100 30 40 100 30 40 100 30 40 100 30 40 100 30 40 100 30 40 100 30 40 100 30 40 100 30 40 100 30 40 100 30 40 100 30 40 100 30 40 100 30 40 100 30 40 100 30 40 100 30 40 100 30 40 100 30 40 100 30 40 100 30 40 100 30 40 100 30 40 100 30 40 100 30 40 100 30 40 100 30 40 100 30 40 100 30 40 100 30 40 100 30 40 100 30 40 100 30 40 100 30 40 100 30 40 100 30 40 100 30 40 100 30 40 100 30 40 100 30 40 100 30 40 100 30 40 100 30 40 100 30 40 100 30 40 100 30 40 100 30 40 100 30 40 100 30 40 100 30 40 100 30 40 100 30 40 100 30 40 100 30 40 100 30 40 100 30 40 100 30 40 100 30 40 100 30 40 100 30 40 100 30 40 100 30 40 100 30 40 100 30 40 100 30 40 100 30 40 100 30 40 100 30 40 100 30 40 100 30 40 100 30 40 100 30 40 100 30 40 100 30 40 100 30 40 100 170 108 70 171 108 70 172 108 70 173 108 70 174 108 70 176 108 70 177 108 70 178 108 70 179 108 70 180 108 70 181 108 70 182 108 70 183 108 70 184 108 70 185 108 70 186 108 70 187 108 70 188 108 70 189 108 70 190 108 70 192 108 70 193 108 70 194 108 70 195 108 70 196 108 70 197 108 70 198 108 70 199 108 70 200 108 70 201 108 70 202 108 70 203 108 70 204 108 70 205 108 70 206 108 70 208 108 70 209 108 70 210 108 70 211 108 70 212 108 70 213 108 70 214 108 70 215 108 70 216 108 70 217 108 70 218 108 70 219 108 70 220 108 70 221 108 70 222 108 70 224 108 70 225 108 70 226 108 70 227 108 70 228 108 70 229 108 70 230 108 70 231 108 70 232 108 70 233 108 70 234 108 70 235 108 70 236 108 70 237 108 70 238 108 70 240 108 70 241 108 70 242 108 70 243 108 70 244 108 70 245 108 70 246 108 70 247 108 70 248 108 70 249 108 70 250 108 70 251 108 70 252 108 70 253 108 70 255 108 70
0 109 70 1 109 70 2 109 70 3 109 70 4 109 70 5 109 70 6 109 70 7 109 70 8 109 70 9 109 70 10 109 70 11 109 70 12 109 70 13 109 70 14 109 70 16 109 70 17 109 70 18 109 70 19 109 70 20 109 70 21 109 70 22 109 70 23 109 70 24 109 70 25 109 70 26 109 70 27 109 70 28 109 70 29 109 70 30 109 70 32 109 70 33 109 70 34 109 70 35 109 70 36 109 70 37 109 70 38 109 70 39 109 70 40 109 70 41 109 70 42 109 70 43 109 70 44 109 70 45 109 70 46 109 70 48 109 70 49 109 70 50 109 70 51 109 70 52 109 70 53 109 70 54 109 70 55 109 70 56 109 70 57 109 70 58 109 70 59 109 70 60 109 70 61 109 70 62 109 70 64 109 70 65 109 70 66 109 70 67 109 70 68 109 70 69 109 70 70 109 70 71 109 70 72 109 70 73 109 70 74 109 70 75 109 70 76 109 70 77 109 70 78 109 70 80 109 70 81 109 70 82 109 70 83 109 70 84 109 70 85 109 70 30 40 100 30 40 100 30 40 100 30 40 100 30 40 100 30 40 100 30 40 100 30 40 100 30 40 100 30 40 100 30 40 100 30 40 100 30 40 100 30 40 100 30 40 100 30 40 100 30 40 100 30 40 100 30 40 100 30 40 100 30 40 100 30 40 100 30 40 100 30 40 100 30 40 100 30 40 100 30 40 100 30 40 100 30 40 100 30 40 100 30 40 100 30 40 100 30 40 100 30 40 100 30 40 100 30 40 100 30 40 100 30 40 100 30 40 100 30 40 100 30 40 100 30 40 100 30 40 100 30 40 100 30 40 100 30 40 100 30 40 100 30 40 100 30 40 100 30 40 100 30 40 100 30 40 100 30 40 100 30 40 100 30 40 100 30 40 100 30 40 100 30 40 100 30 40 100 30 40 100 30 40 100 30 40 100 30 40 100 30 40 100 30 40 100 30 40 100 30 40 100 30 40 100 30 40 100 30 40 100 30 40 100 30 40 100 30 40 100 30 40 100 30 40 100 30 40 100 30 40 100 30 40 100 30 40 100 170 109 70 171 109 70 172 109 70 173 109 70 174 109 70 176 109 70 177 109 70 178 109 70 179 109 70 180 109 70 181 109 70 182 109 70 183 109 70 184 109 70 185 109 70 186 109 70 187 109 70 188 109 70 189 109 70 190 109 70 192 109 70 193 109 70 194 109 70 195 109 70 196 109 70 197 109 70 198 109 70 199 109 70 200 109 70 201 109 70 202 109 70 203 109 70 204 109 70 205 109 70 206 109 70 208 109 70 209 109 70 210 109 70 211 109 70 212 109 70 213 109 70 214 109 70 215 109 70 216 109 70 217 109 70 218 109 70 219 109 70 220 109 70 221 109 70 222 109 70 224 109 70 225 109 70 226 109 70 227 109 70 228 109 70 229 109 70 230 109 70 231 109 70 232 109 70 233 109 70 234 109 70 235 109 70 236 109 70 237 109 70 238 109 70 240 109 70 241 109 70 242 109 70 243 109 70 244 109 70 245 109 70 246 109 70 247 109 70 248 109 70 249 109 70 250 109 70 251 109 70 252 109 70 253 109 70 255 109 70
0 111 70 1 111 70 2 111 70 3 111 70 4 111 70 5 111 70 6 111 70 7 111 70 8 111 70 9 111 70 10 111 70 11 111 70 12 111 70 13 111 70 14 111 70 16 111 70 17 111 70 18 111 70 19 111 70 20 111 70 21 111 70 22 111 70 23 111 70 24 111 70 25 111 70 26 111 70 27 111 70 28 111 70 29 111 70 30 111 70 32 111 70 33 111 70 34 111 70 35 111 70 36 111 70 37 111 70 38 111 70 39 111 70 40 111 70 41 111 70 42 111 70 43 111 70 44 111 70 45 111 70 46 111 70 48 111 70 49 111 70 50 111 70 51 111 70 52 111 70 53 111 70 54 111 70 55 111 70 56 111 70 57 111 70 58 111 70 59 111 70 60 111 70 61 111 70 62 111 70 64 111 70 65 111 70 66 111 70 67 111 70 68 111 70 69 111 70 70 111 70 71 111 70 72 111 70 73 111 70 74 111 70 75 111 70 76 111 70 77 111 70 78 111 70 80 111 70 81 111 70 82 111 70 83 111 70 84 111 70 30 40 100 30 40 100 30 40 100 30 40 100 30 40 100 30 40 100 30 40 100 30 40 100 30 40 100 30 40 100 30 40 100 30 40 100 30 40 100 30 40 100 30 40 100 30 40 100 30 40 100 30 40 100 30 40 100 30 40 100 30 40 100 30 40 100 30 40 100 30 40 100 30 40 100 30 40 100 30 40 100 30 40 100 30 40 100 30 40 100 30 40 100 30 40 100 30 40 100 30 40 100 30 40 100 30 40 100 30 40 100 30 40 100 30 40 100 30 40 100 30 40 100 30 40 100 30 40 100 30 40 100 30 40 100 30 40 100 30 40 100 30 40 100 30 40 100 30 40 100 30 40 100 30 40 100 30 40 100 30 40 100 30 40 100 30 40 100 30 40 100 30 40 100 30 40 100 30 40 100 30 40 100 30 40 100 30 40 100 30 40 100 30 40 100 30 40 100 30 40 100 30 40 100 30 40 100 30 40 100 30 40 100 30 40 100 30 40 100 30 40 100 30 40 100 30 40 100 30 40 100 30 40 100 30 40 100 30 40 100 30 40 100 171 111 70 172 111 70 173 111 70 174 111 70 176 111 70 177 111 70 178 111 70 179 111 70 180 111 70 181 111 70 182 111 70 183 111 70 184 111 70 185 111 70 186 111 70 187 111 70 188 111 70 189 111 70 190 111 70 192 111 70 193 111 70 194 111 70 195 111 70 196 111 70 197 111 70 198 111 70 199 111 70 200 111 70 201 111 70 202 111 70 203 111 70 204 111 70 205 111 70 206 111 70 208 111 70 209 111 70 210 111 70 211 111 70 212 111 70 213 111 70 214 111 70 215 111 70 216 111 70 217 111 70 218 111 70 219 111 70 220 111 70 221 111 70 222 111 70 224 111 70 225 111 70 226 111 70 227 111 70 228 111 70 229 111 70 230 111 70 231 111 70 232 111 70 233 111 70 234 111 70 235 111 70 236 111 70 237 111 70 238 111 70 240 111 70 241 111 70 242 111 70 243 111 70 244 111 70 245 111 70 246 111 70 247 111 70 248 111 70 249 111 70 250 111 70 251 111 70 252 111 70 253 111 70 255 111 70
0 112 70 1 112 70 2 112 70 3 112 70 4 112 70 5 112 70 6 112 70 7 112 70 8 112 70 9 112 70 10 112 70 11 112 70 12 112 70 13 112 70 14 112 70 16 112 70 17 112 70 18 112 70 19 112 70 20 112 70 21 112 70 22 112 70 23 112 70 24 112 70 25 112 70 26 112 70 27 112 70 28 112 70 29 112 70 30 112 70 32 112 70 33 112 70 34 112 70 35 112 70 36 112 70 37 112 70 38 112 70 39 112 70 40 112 70 41 112 70 42 112 70 43 112 70 44 112 70 45 112 70 46 112 70 48 112 70 49 112 70 50 112 70 51 112 70 52 112 70 53 112 70 54 112 70 55 112 70 56 112 70 57 112 70 58 112 70 59 112 70 60 112 70 61 112 70 62 112 70 64 112 70 65 112 70 66 112 70 67 112 70 68 112 70 69 112 70 70 112 70 71 112 70 72 112 70 73 112 70 74 112 70 75 112 70 76 112 70 77 112 70 78 112 70 80 112 70 81 112 70 82 112 70 83 112 70 84 112 70 30 40 100 30 40 100 30 40 100 30 40 100 30 40 100 30 40 100 30 40 100 30 40 100 30 40 100 30 40 100 30 40 100 30 40 100 30 40 100 30 40 100 30 40 100 30 40 100 30 40 100 30 40 100 30 40 100 30 40 100 30 40 100 30 40 100 30 40 100 30 40 100 30 40 100 30 40 100 30 40 100 30 40 100 30 40 100 30 40 100 30 40 100 30 40 100 30 40 100 30 40 100 30 40 100 30 40 100 30 40 100 30 40 100 30 40 100 30 40 100 30 40 100 30 40 100 30 40 100 30 40 100 30 40 100 30 40 100 30 40 100 30 40 100 30 40 100 30 40 100 30 40 100 30 40 100 30 40 100 30 40 100 30 40 100 30 40 100 30 40 100 30 40 100 30 40 100 30 40 100 30 40 100 30 40 100 30 40 100 30 40 100 30 40 100 30 40 100 30 40 100 30 40 100 30 40 100 30 40 100 30 40 100 30 40 100 30 40 100 30 40 100 30 40 100 30 40 100 30 40 100 30 40 100 30 40 100 30 40 100 30 40 100 171 112 70 172 112 70 173 112 70 174 112 70 176 112 70 177 112 70 178 112 70 179 112 70 180 112 70 181 112 70 182 112 70 183 112 70 184 112 70 185 112 70 186 112 70 187 112 70 188 112 70 189 112 70 190 112 70 192 112 70 193 112 70 194 112 70 195 112 70 196 112 70 197 112 70 198 112 70 199 112 70 200 112 70 201 112 70 202 112 70 203 112 70 204 112 70 205 112 70 206 112 70 208 112 70 209 112 70 210 112 70 211 112 70 212 112 70 213 112 70 214 112 70 215 112 70 216 112 70 217 112 70 218 112 70 219 112 70 220 112 70 221 112 70 222 112 70 224 112 70 225 112 70 226 112 70 227 112 70 228 112 70 229 112 70 230 112 70 231 112 70 232 112 70 233 112 70 234 112 70 235 112 70 236 112 70 237 112 70 238 112 70 240 112 70 241 112 70 242 112 70 243 112 70 244 112 70 245 112 70 246 112 70 247 112 70 248 112 70 249 112 70 250 112 70 251 112 70 252 112 70 253 112 70 255 112 70
0 113 70 1 113 70 2 113 70 3 113 70 4 113 70 5 113 70 6 113 70 7 113 70 8 113 70 9 113 70 10 113 70 11 113 70 12 113 70 13 113 70 14 113 70 16 113 70 17 113 70 18 113 70 19 113 70 20 113 70 21 113 70 22 113 70 23 113 70 24 113 70 25 113 70 26 113 70 27 113 70 28 113 70 29 113 70 30 113 70 32 113 70 33 113 70 34 113 70 35 113 70 36 113 70 37 113 70 38 113 70 39 113 70 40 113 70 41 113 70 42 113 70 43 113 70 44 113 70 45 113 70 46 113 70 48 113 70 49 113 70 50 113 70 51 113 70 52 113 70 53 113 70 54 113 70 55 113 70 56 113 70 57 113 70 58 113 70 59 113 70 60 113 70 61 113 70 62 113 70 64 113 70 65 113 70 66 113 70 67 113 70 68 113 70 69 113 70 70 113 70 71 113 70 72 113 70 73 113 70 74 113 70 75 113 70 76 113 70 77 113 70 78 113 70 80 113 70 81 113 70 82 113 70 83 113 70 84 113 70 30 40 100 30 40 100 30 40 100 30 40 100 30 40 100 30 40 100 30 40 100 30 40 100 30 40 100 30 40 100 30 40 100 30 40 100 30 40 100 30 40 100 30 40 100 30 40 100 30 40 100 30 40 100 30 40 100 30 40 100 30 40 100 30 40 100 30 40 100 30 40 100 30 40 100 30 40 100 30 40 100 30 40 100 30 40 100 30 40 100 30 40 100 30 40 100 30 40 100 30 40 100 30 40 100 30 40 100 30 40 100 30 40 100 30 40 100 30 40 100 30 40 100 30 40 100 30 40 100 30 40 100 30 40 100 30 40 100 30 40 100 30 40 100 30 40 100 30 40 100 30 40 100 30 40 100 30 40 100 30 40 100 30 40 100 30 40 100 30 40 100 30 40 100 30 40 100 30 40 100 30 40 100 30 40 100 30 40 100 30 40 100 30 40 100 30 40 100 30 40 100 30 40 100 30 40 100 30 40 100 30 40 100 30 40 100 30 40 100 30 40 100 30 40 100 30 40 100 30 40 100 30 40 100 30 40 100 30 40 100 30 40 100 171 113 70 172 113 70 173 113 70 174 113 70 176 113 70 177 113 70 178 113 70 179 113 70 180 113 70 181 113 70 182 113 70 183 113 70 184 113 70 185 113 70 186 113 70 187 113 70 188 113 70 189 113 70 190 113 70 192 113 70 193 113 70 194 113 70 195 113 70 196 113 70 197 113 70 198 113 70 199 113 70 200 113 70 201 113 70 202 113 70 203 113 70 204 113 70 205 113 70 206 113 70 208 113 70 209 113 70 210 113 70 211 113 70 212 113 70 213 113 70 214 113 70 215 113 70 216 113 70 217 113 70 218 113 70 219 113 70 220 113 70 221 113 70 222 113 70 224 113 70 225 113 70 226 113 70 227 113 70 228 113 70 229 113 70 230 113 70 231 113 70 232 113 70 233 113 70 234 113 70 235 113 70 236 113 70 237 113 70 238 113 70 240 113 70 241 113 70 242 113 70 243 113 70 244 113 70 245 113 70 246 113 70 247 113 70 248 113 70 249 113 70 250 113 70 251 113 70 252 113 70 253 113 70 255 113 70
0 115 70 1 115 70 2 115 70 3 115 70 4 115 70 5 115 70 6 115 70 7 115 70 8 115 70 9 115 70 10 115 70 11 115 70 12 115 70 13 115 70 14 115 70 16 115 70 17 115 70 18 115 70 19 115 70 20 115 70 21 115 70 22 115 70 23 115 70 24 115 70 25 115 70 26 115 70 27 115 70 28 115 70 29 115 70 30 115 70 32 115 70 33 115 70 34 115 70 35 115 70 36 115 70 37 115 70 38 115 70 39 115 70 40 115 70 41 115 70 42 115 70 43 115 70 44 115 70 45 115 70 46 115 70 48 115 70 49 115 70 50 115 70 51 115 70 52 115 70 53 115 70 54 115 70 55 115 70 56 115 70 57 115 70 58 115 70 59 115 70 60 115 70 61 115 70 62 115 70 64 115 70 65 115 70 66 115 70 67 115 70 68 115 70 69 115 70 70 115 70 71 115 70 72 115 70 73 115 70 74 115 70 75 115 70 76 115 70 77 115 70 78 115 70 80 115 70 81 115 70 82 115 70 83 115 70 30 40 100 30 40 100 30 40 100 30 40 100 30 40 100 30 40 100 30 40 100 30 40 100 30 40 100 30 40 100 30 40 100 30 40 100 30 40 100 30 40 100 30 40 100 30 40 100 30 40 100 30 40 100 30 40 100 30 40 100 30 40 100 30 40 100 30 40 100 30 40 100 30 40 100 30 40 100 30 40 100 30 40 100 30 40 100 30 40 100 30 40 100 30 40 100 30 40 100 30 40 100 30 40 100 30 40 100 30 40 100 30 40 100 30 40 100 30 40 100 30 40 100 30 40 100 30 40 100 30 40 100 30 40 100 30 40 100 30 40 100 30 40 100 30 40 100 30 40 100 30 40 100 30 40 100 30 40 100 30 40 100 30 40 100 30 40 100 30 40 100 30 40 100 30 40 100 30 40 100 30 40 100 30 40 100 30 40 100 30 40 100 30 40 100 30 40 100 30 40 100 30 40 100 30 40 100 30 40 100 30 40 100 30 40 100 30 40 100 30 40 100 30 40 100 30 40 100 30 40 100 30 40 100 30 40 100 30 40 100 30 40 100 30 40 100 30 40 100 172 115 70 173 115 70 174 115 70 176 115 70 177 115 70 178 115 70 179 115 70 180 115 70 181 115 70 182 115 70 183 115 70 184 115 70 185 115 70 186 115 70 187 115 70 188 115 70 189 115 70 190 115 70 192 115 70 193 115 70 194 115 70 195 115 70 196 115 70 197 115 70 198 115 70 199 115 70 200 115 70 201 115 70 202 115 70 203 115 70 204 115 70 205 115 70 206 115 70 208 115 70 209 115 70 210 115 70 211 115 70 212 115 70 213 115 70 214 115 70 215 115 70 216 115 70 217 115 70 218 115 70 219 115 70 220 115 70 221 115 70 222 115 70 224 115 70 225 115 70 226 115 70 227 115 70 228 115 70 229 115 70 230 115 70 231 115 70 232 115 70 233 115 70 234 115 70 235 115 70 236 115 70 237 115 70 238 115 70 240 115 70 241 115 70 242 115 70 243 115 70 244 115 70 245 115 70 246 115 70 247 115 70 248 115 70 249 115 70 250 115 70 251 115 70 252 115 70 253 115 70 255 115 70
0 116 70 1 116 70 2 116 70 3 116 70 4 116 70 5 116 70 6 116 70 7 116 70 8 116 70 9 116 70 10 116 70 11 116 70 12 116 70 13 116 70 14 116 70 16 116 70 17 116 70 18 116 70 19 116 70 20 116 70 21 116 70 22 116 70 23 116 70 24 116 70 25 116 70 26 116 70 27 116 70 28 116 70 29 116 70 30 116 70 32 116 70 33 116 70 34 116 70 35 116 70 36 116 70 37 116 70 38 116 70 39 116 70 40 116 70 41 116 70 42 116 70 43 116 70 44 116 70 45 116 70 46 116 70 48 116 70 49 116 70 50 116 70 51 116 70 52 116 70 53 116 70 54 116 70 55 116 70 56 116 70 57 116 70 58 116 70 59 116 70 60 116 70 61 116 70 62 116 70 64 116 70 65 116 70 66 116 70 67 116 70 68 116 70 69 116 70 70 116 70 71 116 70 72 116 70 73 116 70 74 116 70 75 116 70 76 116 70 77 116 70 78 116 70 80 116 70 81 116 70 82 116 70 83 116 70 30 40 100 30 40 100 30 40 100 30 40 100 30 40 100 30 40 100 30 40 100 30 40 100 30 40 100 30 40 100 30 40 100 30 40 100 30 40 100 30 40 100 30 40 100 30 40 100 30 40 100 30 40 100 30 40 100 30 40 100 30 40 100 30 40 100 30 40 100 30 40 100 30 40 100 30 40 100 30 40 100 30 40 100 30 40 100 30 40 100 30 40 100 30 40 100 30 40 100 30 40 100 30 40 100 30 40 100 30 40 100 30 40 100 30 40 100 30 40 100 30 40 100 30 40 100 30 40 100 30 40 100 30 40 100 30 40 100 30 40 100 30 40 100 30 40 100 30 40 100 30 40 100 30 40 100 30 40 100 30 40 100 30 40 100 30 40 100 30 40 100 30 40 100 30 40 100 30 40 100 30 40 100 30 40 100 30 40 100 30 40 100 30 40 100 30 40 100 30 40 100 30 40 100 30 40 100 30 40 100 30 40 100 30 40 100 30 40 100 30 40 100 30 40 100 30 40 100 30 40 100 30 40 100 30 40 100 30 40 100 30 40 100 30 40 100 30 40 100 172 116 70 173 116 70 174 116 70 176 116 70 177 116 70 178 116 70 179 116 70 180 116 70 181 116 70 182 116 70 183 116 70 184 116 70 185 116 70 186 116 70 187 116 70 188 116 70 189 116 70 190 116 70 192 116 70 193 116 70 194 116 70 195 116 70 196 116 70 197 116 70 198 116 70 199 116 70 200 116 70 201 116 70 202 116 70 203 116 70 204 116 70 205 116 70 206 116 70 208 116 70 209 116 70 210 116 70 211 116 70 212 116 70 213 116 70 214 116 70 215 116 70 216 116 70 217 116 70 218 116 70 219 116 70 220 116 70 221 116 70 222 116 70 224 116 70 225 116 70 226 116 70 227 116 70 228 116 70 229 116 70 230 116 70 231 116 70 232 116 70 233 116 70 234 116 70 235 116 70 236 116 70 237 116 70 238 116 70 240 116 70 241 116 70 242 116 70 243 116 70 244 116 70 245 116 70 246 116 70 247 116 70 248 116 70 249 116 70 250 116 70 251 116 70 252 116 70 253 116 70 255 116 70
0 118 70 1 118 70 2 118 70 3 118 70 4 118 70 5 118 70 6 118 70 7 118 70 8 118 70 9 118 70 10 118 70 11 118 70 12 118 70 13 118 70 14 118 70 16 118 70 17 118 70 18 118 70 19 118 70 20 118 70 21 118 70 22 118 70 23 118 70 24 118 70 25 118 70 26 118 70 27 118 70 28 118 70 29 118 70 30 118 70 32 118 70 33 118 70 34 118 70 35 118 70 36 118 70 37 118 70 38 118 70 39 118 70 40 118 70 41 118 70 42 118 70 43 118 70 44 118 70 45 118 70 46 118 70 48 118 70 49 118 70 50 118 70 51 118 70 52 118 70 53 118 70 54 118 70 55 118 70 56 118 70 57 118 70 58 118 70 59 118 70 60 118 70 61 118 70 62 118 70 64 118 70 65 118 70 66 118 70 67 118 70 68 118 70 69 118 70 70 118 70 71 118 70 72 118 70 73 118 70 74 118 70 75 118 70 76 118 70 77 118 70 78 118 70 80 118 70 81 118 70 82 118 70 83 118 70 30 40 100 30 40 100 30 40 100 30 40 100 30 40 100 30 40 100 30 40 100 30 40 100 30 40 100 30 40 100 30 40 100 30 40 100 30 40 100 30 40 100 30 40 100 30 40 100 30 40 100 30 40 100 30 40 100 30 40 100 30 40 100 30 40 100 30 40 100 30 40 100 30 40 100 30 40 100 30 40 100 30 40 100 30 40 100 30 40 100 30 40 100 30 40 100 30 40 100 30 40 100 30 40 100 30 40 100 30 40 100 30 40 100 30 40 100 30 40 100 30 40 100 30 40 100 30 40 100 30 40 100 30 40 100 30 40 100 30 40 100 30 40 100 30 40 100 30 40 100 30 40 100 30 40 100 30 40 100 30 40 100 30 40 100 30 40 100 30 40 100 30 40 100 30 40 100 30 40 100 30 40 100 30 40 100 30 40 100 30 40 100 30 40 100 30 40 100 30 40 100 30 40 100 30 40 100 30 40 100 30 40 100 30 40 100 30 40 100 30 40 100 30 40 100 30 40 100 30 40 100 30 40 100 30 40 100 30 40 100 30 40 100 30 40 100 30 40 100 172 118 70 173 118 70 174 118 70 176 118 70 177 118 70 178 118 70 179 118 70 180 118 70 181 118 70 182 118 70 183 118 70 184 118 70 185 118 70 186 118 70 187 118 70 188 118 70 189 118 70 190 118 70 192 118 70 193 118 70 194 118 70 195 118 70 196 118 70 197 118 70 198 118 70 199 118 70 200 118 70 201 118 70 202 118 70 203 118 70 204 118 70 205 118 70 206 118 70 208 118 70 209 118 70 210 118 70 211 118 70 212 118 70 213 118 70 214 118 70 215 118 70 216 118 70 217 118 70 218 118 70 219 118 70 220 118 70 221 118 70 222 118 70 224 118 70 225 118 70 226 118 70 227 118 70 228 118 70 229 118 70 230 118 70 231 118 70 232 118 70 233 118 70 234 118 70 235 118 70 236 118 70 237 118 70 238 118 70 240 118 70 241 118 70 242 118 70 243 118 70 244 118 70 245 118 70 246 118 70 247 118 70 248 118 70 249 118 70 250 118 70 251 118 70 252 118 70 253 118 70 255 118 70
0 119 70 1 119 70 2 119 70 3 119 70 4 119 70 5 119 70 6 119 70 7 119 70 8 119 70 9 119 70 10 119 70 11 119 70 12 119 70 13 119 70 14 119 70 16 119 70 17 119 70 18 119 70 19 119 70 20 119 70 21 119 70 22 119 70 23 119 70 24 119 70 25 119 70 26 119 70 27 119 70 28 119 70 29 119 70 30 119 70 32 119 70 33 119 70 34 119 70 35 119 70 36 119 70 37 119 70 38 119 70 39 119 70 40 119 70 41 119 70 42 119 70 43 119 70 44 119 70 45 119 70 46 119 70 48 119 70 49 119 70 50 119 70 51 119 70 52 119 70 53 119 70 54 119 70 55 119 70 56 119 70 57 119 70 58 119 70 59 119 70 60 119 70 61 119 70 62 119 70 64 119 70 65 119 70 66 119 70 67 119 70 68 119 70 69 119 70 70 119 70 71 119 70 72 119 70 73 119 70 74 119 70 75 119 70 76 119 70 77 119 70 78 119 70 80 119 70 81 119 70 82 119 70 83 119 70 30 40 100 30 40 100 30 40 100 30 40 100 30 40 100 30 40 100 30 40 100 30 40 100 30 40 100 30 40 100 30 40 100 30 40 100 30 40 100 30 40 100 30 40 100 30 40 100 30 40 100 30 40 100 30 40 100 30 40 100 30 40 100 30 40 100 30 40 100 30 40 100 30 40 100 30 40 100 30 40 100 30 40 100 30 40 100 30 40 100 30 40 100 30 40 100 30 40 100 30 40 100 30 40 100 30 40 100 30 40 100 30 40 100 30 40 100 30 40 100 30 40 100 30 40 100 30 40 100 30 40 100 30 40 100 30 40 100 30 40 100 30 40 100 30 40 100 30 40 100 30 40 100 30 40 100 30 40 100 30 40 100 30 40 100 30 40 100 30 40 100 30 40 100 30 40 100 30 40 100 30 40 100 30 40 100 30 40 100 30 40 100 30 40 100 30 40 100 30 40 100 30 40 100 30 40 100 30 40 100 30 40 100 30 40 100 30 40 100 30 40 100 30 40 100 30 40 100 30 40 100 30 40 100 30 40 100 30 40 100 30 40 100 30 40 100 30 40 100 172 119 70 173 119 70 174 119 70 176 119 70 177 119 70 178 119 70 179 119 70 180 119 70 181 119 70 182 119 70 183 119 70 184 119 70 185 119 70 186 119 70 187 119 70 188 119 70 189 119 70 190 119 70 192 119 70 193 119 70 194 119 70 195 119 70 196 119 70 197 119 70 198 119 70 199 119 70 200 119 70 201 119 70 202 119 70 203 119 70 204 119 70 205 119 70 206 119 70 208 119 70 209 119 70 210 119 70 211 119 70 212 119 70 213 119 70 214 119 70 215 119 70 216 119 70 217 119 70 218 119 70 219 119 70 220 119 70 221 119 70 222 119 70 224 119 70 225 119 70 226 119 70 227 119 70 228 119 70 229 119 70 230 119 70 231 119 70 232 119 70 233 119 70 234 119 70 235 119 70 236 119 70 237 119 70 238 119 70 240 119 70 241 119 70 242 119 70 243 119 70 244 119 70 245 119 70 246 119 70 247 119 70 248 119 70 249 119 70 250 119 70 251 119 70 252 119 70 253 119 70 255 119 70
0 121 70 1 121 70 2 121 70 3 121 70 4 121 70 5 121 70 6 121 70 7 121 70 8 121 70 9 121 70 10 121 70 11 121 70 12 121 70 13 121 70 14 121 70 16 121 70 17 121 70 18 121 70 19 121 70 20 121 70 21 121 70 22 121 70 23 121 70 24 121 70 25 121 70 26 121 70 27 121 70 28 121 70 29 121 70 30 121 70 32 121 70 33 121 70 34 121 70 35 121 70 36 121 70 37 121 70 38 121 70 39 121 70 40 121 70 41 121 70 42 121 70 43 121 70 44 121 70 45 121 70 46 121 70 48 121 70 49 121 70 50 121 70 51 121 70 52 121 70 53 121 70 54 121 70 55 121 70 56 121 70 57 121 70 58 121 70 59 121 70 60 121 70 61 121 70 62 121 70 64 121 70 65 121 70 66 121 70 67 121 70 68 121 70 69 121 70 70 121 70 71 121 70 72 121 70 73 121 70 74 121 70 75 121 70 76 121 70 77 121 70 78 121 70 80 121 70 81 121 70 82 121 70 83 121 70 30 40 100 30 40 100 30 40 100 30 40 100 30 40 100 30 40 100 30 40 100 30 40 100 30 40 100 30 40 100 30 40 100 30 40 100 30 40 100 30 40 100 30 40 100 30 40 100 30 40 100 30 40 100 30 40 100 30 40 100 30 40 100 30 40 100 30 40 100 30 40 100 30 40 100 30 40 100 30 40 100 30 40 100 30 40 100 30 40 100 30 40 100 30 40 100 30 40 100 30 40 100 30 40 100 30 40 100 30 40 100 30 40 100 30 40 100 30 40 100 30 40 100 30 40 100 30 40 100 30 40 100 30 40 100 30 40 100 30 40 100 30 40 100 30 40 100 30 40 100 30 40 100 30 40 100 30 40 100 30 40 100 30 40 100 30 40 100 30 40 100 30 40 100 30 40 100 30 40 100 30 40 100 30 40 100 30 40 100 30 40 100 30 40 100 30 40 100 30 40 100 30 40 100 30 40 100 30 40 100 30 40 100 30 40 100 30 40 100 30 40 100 30 40 100 30 40 100 30 40 100 30 40 100 30 40 100 30 40 100 30 40 100 30 40 100 30 40 100 172 121 70 173 121 70 174 121 70 176 121 70 177 121 70 178 121 70 179 121 70 180 121 70 181 121 70 182 121 70 183 121 70 184 121 70 185 121 70 186 121 70 187 121 70 188 121 70 189 121 70 190 121 70 192 121 70 193 121 70 194 121 70 195 121 70 196 121 70 197 121 70 198 121 70 199 121 70 200 121 70 201 121 70 202 121 70 203 121 70 204 121 70 205 121 70 206 121 70 208 121 70 209 121 70 210 121 70 211 121 70 212 121 70 213 121 70 214 121 70 215 121 70 216 121 70 217 121 70 218 121 70 219 121 70 220 121 70 221 121 70 222 121 70 224 121 70 225 121 70 226 121 70 227 121 70 228 121 70 229 121 70 230 121 70 231 121 70 232 121 70 233 121 70 234 121 70 235 121 70 236 121 70 237 121 70 238 121 70 240 121 70 241 121 70 242 121 70 243 121 70 244 121 70 245 121 70 246 121 70 247 121 70 248 121 70 249 121 70 250 121 70 251 121 70 252 121 70 253 121 70 255 121 70
0 122 70 1 122 70 2 122 70 3 122 70 4 122 70 5 122 70 6 122 70 7 122 70 8 122 70 9 122 70 10 122 70 11 122 70 12 122 70 13 122 70 14 122 70 16 122 70 17 122 70 18 122 70 19 122 70 20 122 70 21 122 70 22 122 70 23 122 70 24 122 70 25 122 70 26 122 70 27 122 70 28 122 70 29 122 70 30 122 70 32 122 70 33 122 70 34 122 70 35 122 70 36 122 70 37 122 70 38 122 70 39 122 70 40 122 70 41 122 70 42 122 70 43 122 70 44 122 70 45 122 70 46 122 70 48 122 70 49 122 70 50 122 70 51 122 70 52 122 70 53 122 70 54 122 70 55 122 70 56 122 70 57 122 70 58 122 70 59 122 70 60 122 70 61 122 70 62 122 70 64 122 70 65 122 70 66 122 70 67 122 70 68 122 70 69 122 70 70 122 70 71 122 70 72 122 70 73 122 70 74 122 70 75 122 70 76 122 70 77 122 70 78 122 70 80 122 70 81 122 70 82 122 70 83 122 70 30 40 100 30 40 100 30 40 100 30 40 100 30 40 100 30 40 100 30 40 100 30 40 100 30 40 100 30 40 100 30 40 100 30 40 100 30 40 100 30 40 100 30 40 100 30 40 100 30 40 100 30 40 100 30 40 100 30 40 100 30 40 100 30 40 100 30 40 100 30 40 100 30 40 100 30 40 100 30 40 100 30 40 100 30 40 100 30 40 100 30 40 100 30 40 100 30 40 100 30 40 100 30 40 100 30 40 100 30 40 100 30 40 100 30 40 100 30 40 100 30 40 100 30 40 100 30 40 100 30 40 100 30 40 100 30 40 100 30 40 100 30 40 100 30 40 100 30 40 100 30 40 100 30 40 100 30 40 100 30 40 100 30 40 100 30 40 100 30 40 100 30 40 100 30 40 100 30 40 100 30 40 100 30 40 100 30 40 100 30 40 100 30 40 100 30 40 100 30 40 100 30 40 100 30 40 100 30 40 100 30 40 100 30 40 100 30 40 100 30 40 100 30 40 100 30 40 100 30 40 100 30 40 100 30 40 100 30 40 100 30 40 100 30 40 100 30 40 100 172 122 70 173 122 70 174 122 70 176 122 70 177 122 70 178 122 70 179 122 70 180 122 70 181 122 70 182 122 70 183 122 70 184 122 70 185 122 70 186 122 70 187 122 70 188 122 70 189 122 70 190 122 70 192 122 70 193 122 70 194 122 70 195 122 70 196 122 70 197 122 70 198 122 70 199 122 70 200 122 70 201 122 70 202 122 70 203 122 70 204 122 70 205 122 70 206 122 70 208 122 70 209 122 70 210 122 70 211 122 70 212 122 70 213 122 70 214 122 70 215 122 70 216 122 70 217 122 70 218 122 70 219 122 70 220 122 70 221 122 70 222 122 70 224 122 70 225 122 70 226 122 70 227 122 70 228 122 70 229 122 70 230 122 70 231 122 70 232 122 70 233 122 70 234 122 70 235 122 70 236 122 70 237 122 70 238 122 70 240 122 70 241 122 70 242 122 70 243 122 70 244 122 70 245 122 70 246 122 70 247 122 70 248 122 70 249 122 70 250 122 70 251 122 70 252 122 70 253 122 70 255 122 70
0 123 70 1 123 70 2 123 70 3 123 70 4 123 70 5 123 70 6 123 70 7 123 70 8 123 70 9 123 70 10 123 70 11 123 70 12 123 70 13 123 70 14 123 70 16 123 70 17 123 70 18 123 70 19 123 70 20 123 70 21 123 70 22 123 70 23 123 70 24 123 70 25 123 70 26 123 70 27 123 70 28 123 70 29 123 70 30 123 70 32 123 70 33 123 70 34 123 70 35 123 70 36 123 70 37 123 70 38 123 70 39 123 70 40 123 70 41 123 70 42 123 70 43 123 70 44 123 70 45 123 70 46 123 70 48 123 70 49 123 70 50 123 70 51 123 70 52 123 70 53 123 70 54 123 70 55 123 70 56 123 70 57 123 70 58 123 70 59 123 70 60 123 70 61 123 70 62 123 70 64 123 70 65 123 70 66 123 70 67 123 70 68 123 70 69 123 70 70 123 70 71 123 70 72 123 70 73 123 70 74 123 70 75 123 70 76 123 70 77 123 70 78 123 70 80 123 70 81 123 70 82 123 70 83 123 70 30 40 100 30 40 100 30 40 100 30 40 100 30 40 100 30 40 100 30 40 100 30 40 100 30 40 100 30 40 100 30 40 100 30 40 100 30 40 100 30 40 100 30 40 100 30 40 100 30 40 100 30 40 100 30 40 100 30 40 100 30 40 100 30 40 100 30 40 100 30 40 100 30 40 100 30 40 100 30 40 100 30 40 100 30 40 100 30 40 100 30 40 100 30 40 100 30 40 100 30 40 100 30 40 100 30 40 100 30 40 100 30 40 100 30 40 100 30 40 100 30 40 100 30 40 100 30 40 100 30 40 100 30 40 100 30 40 100 30 40 100 30 40 100 30 40 100 30 40 100 30 40 100 30 40 100 30 40 100 30 40 100 30 40 100 30 40 100 30 40 100 30 40 100 30 40 100 30 40 100 30 40 100 30 40 100 30 40 100 30 40 100 30 40 100 30 40 100 30 40 100 30 40 100 30 40 100 30 40 100 30 40 100 30 40 100 30 40 100 30 40 100 30 40 100 30 40 100 30 40 100 30 40 100 30 40 100 30 40 100 30 40 100 30 40 100 30 40 100 172 123 70 173 123 70 174 123 70 176 123 70 177 123 70 178 123 70 179 123 70 180 123 70 181 123 70 182 123 70 183 123 70 184 123 70 185 123 70 186 123 70 187 123 70 188 123 70 189 123 70 190 123 70 192 123 70 193 123 70 194 123 70 195 123 70 196 123 70 197 123 70 198 123 70 199 123 70 200 123 70 201 123 70 202 123 70 203 123 70 204 123 70 205 123 70 206 123 70 208 123 70 209 123 70 210 123 70 211 123 70 212 123 70 213 123 70 214 123 70 215 123 70 216 123 70 217 123 70 218 123 70 219 123 70 220 123 70 221 123 70 222 123 70 224 123 70 225 123 70 226 123 70 227 123 70 228 123 70 229 123 70 230 123 70 231 123 70 232 123 70 233 123 70 234 123 70 235 123 70 236 123 70 237 123 70 238 123 70 240 123 70 241 123 70 242 123 70 243 123 70 244 123 70 245 123 70 246 123 70 247 123 70 248 123 70 249 123 70 250 123 70 251 123 70 252 123 70 253 123 70 255 123 70
0 125 70 1 125 70 2 125 70 3 125 70 4 125 70 5 125 70 6 125 70 7 125 70 8 125 70 9 125 70 10 125 70 11 125 70 12 125 70 13 125 70 14 125 70 16 125 70 17 125 70 18 125 70 19 125 70 20 125 70 21 125 70 22 125 70 23 125 70 24 125 70 25 125 70 26 125 70 27 125 70 28 125 70 29 125 70 30 125 70 32 125 70 33 125 70 34 125 70 35 125 70 36 125 70 37 125 70 38 125 70 39 125 70 40 125 70 41 125 70 42 125 70 43 125 70 44 125 70 45 125 70 46 125 70 48 125 70 49 125 70 50 125 70 51 125 70 52 125 70 53 125 70 54 125 70 55 125 70 56 125 70 57 125 70 58 125 70 59 125 70 60 125 70 61 125 70 62 125 70 64 125 70 65 125 70 66 125 70 67 125 70 68 125 70 69 125 70 70 125 70 71 125 70 72 125 70 73 125 70 74 125 70 75 125 70 76 125 70 77 125 70 78 125 70 80 125 70 81 125 70 82 125 70 83 125 70 30 40 100 30 40 100 30 40 100 30 40 100 30 40 100 30 40 100 30 40 100 30 40 100 30 40 100 30 40 100 30 40 100 30 40 100 30 40 100 30 40 100 30 40 100 30 40 100 30 40 100 30 40 100 30 40 100 30 40 100 30 40 100 30 40 100 30 40 100 30 40 100 30 40 100 30 40 100 30 40 100 30 40 100 30 40 100 30 40 100 30 40 100 30 40 100 30 40 100 30 40 100 30 40 100 30 40 100 30 40 100 30 40 100 30 40 100 30 40 100 30 40 100 30 40 100 30 40 100 30 40 100 30 40 100 30 40 100 30 40 100 30 40 100 30 40 100 30 40 100 30 40 100 30 40 100 30 40 100 30 40 100 30 40 100 30 40 100 30 40 100 30 40 100 30 40 100 30 40 100 30 40 100 30 40 100 30 40 100 30 40 100 30 40 100 30 40 100 30 40 100 30 40 100 30 40 100 30 40 100 30 40 100 30 40 100 30 40 100 30 40 100 30 40 100 30 40 100 30 40 100 30 40 100 30 40 100 30 40 100 30 40 100 30 40 100 30 40 100 172 125 70 173 125 70 174 125 70 176 125 70 177 125 70 178 125 70 179 125 70 180 125 70 181 125 70 182 125 70 183 125 70 184 125 70 185 125 70 186 125 70 187 125 70 188 125 70 189 125 70 190 125 70 192 125 70 193 125 70 194 125 70 195 125 70 196 125 70 197 125 70 198 125 70 199 125 70 200 125 70 201 125 70 202 125 70 203 125 70 204 125 70 205 125 70 206 125 70 208 125 70 209 125 70 210 125 70 211 125 70 212 125 70 213 125 70 214 125 70 215 125 70 216 125 70 217 125 70 218 125 70 219 125 70 220 125 70 221 125 70 222 125 70 224 125 70 225 125 70 226 125 70 227 125 70 228 125 70 229 125 70 230 125 70 231 125 70 232 125 70 233 125 70 234 125 70 235 125 70 236 125 70 237 125 70 238 125 70 240 125 70 241 125 70 242 125 70 243 125 70 244 125 70 245 125 70 246 125 70 247 125 70 248 125 70 249 125 70 250 125 70 251 125 70 252 125 70 253 125 70 255 125 70
0 126 70 1 126 70 2 126 70 3 126 70 4 126 70 5 126 70 6 126 70 7 126 70 8 126 70 9 126 70 10 126 70 11 126 70 12 126 70 13 126 70 14 126 70 16 126 70 17 126 70 18 126 70 19 126 70 20 126 70 21 126 70 22 126 70 23 126 70 24 126 70 25 126 70 26 126 70 27 126 70 28 126 70 29 126 70 30 126 70 32 126 70 33 126 70 34 126 70 35 126 70 36 126 70 37 126 70 38 126 70 39 126 70 40 126 70 41 126 70 42 126 70 43 126 70 44 126 70 45 126 70 46 126 70 48 126 70 49 126 70 50 126 70 51 126 70 52 126 70 53 126 70 54 126 70 55 126 70 56 126 70 57 126 70 58 126 70 59 126 70 60 126 70 61 126 70 62 126 70 64 126 70 65 126 70 66 126 70 67 126 70 68 126 70 69 126 70 70 126 70 71 126 70 72 126 70 73 126 70 74 126 70 75 126 70 76 126 70 77 126 70 78 126 70 80 126 70 81 126 70 82 126 70 83 126 70 30 40 100 30 40 100 30 40 100 30 40 100 30 40 100 30 40 100 30 40 100 30 40 100 30 40 100 30 40 100 30 40 100 30 40 100 30 40 100 30 40 100 30 40 100 30 40 100 30 40 100 30 40 100 30 40 100 30 40 100 30 40 100 30 40 100 30 40 100 30 40 100 30 40 100 30 40 100 30 40 100 30 40 100 30 40 100 30 40 100 30 40 100 30 40 100 30 40 100 30 40 100 30 40 100 30 40 100 30 40 100 30 40 100 30 40 100 30 40 100 30 40 100 30 40 100 30 40 100 30 40 100 30 40 100 30 40 100 30 40 100 30 40 100 30 40 100 30 40 100 30 40 100 30 40 100 30 40 100 30 40 100 30 40 100 30 40 100 30 40 100 30 40 100 30 40 100 30 40 100 30 40 100 30 40 100 30 40 100 30 40 100 30 40 100 30 40 100 30 40 100 30 40 100 30 40 100 30 40 100 30 40 100 30 40 100 30 40 100 30 40 100 30 40 100 30 40 100 30 40 100 30 40 100 30 40 100 30 40 100 30 40 100 30 40 100 30 40 100 172 126 70 173 126 70 174 126 70 176 126 70 177 126 70 178 126 70 179 126 70 180 126 70 181 126 70 182 126 70 183 126 70 184 126 70 185 126 70 186 126 70 187 126 70 188 126 70 189 126 70 190 126 70 192 126 70 193 126 70 194 126 70 195 126 70 196 126 70 197 126 70 198 126 70 199 126 70 200 126 70 201 126 70 202 126 70 203 126 70 204 126 70 205 126 70 206 126 70 208 126 70 209 126 70 210 126 70 211 126 70 212 126 70 213 126 70 214 126 70 215 126 70 216 126 70 217 126 70 218 126 70 219 126 70 220 126 70 221 126 70 222 126 70 224 126 70 225 126 70 226 126 70 227 126 70 228 126 70 229 126 70 230 126 70 231 126 70 232 126 70 233 126 70 234 126 70 235 126 70 236 126 70 237 126 70 238 126 70 240 126 70 241 126 70 242 126 70 243 126 70 244 126 70 245 126 70 246 126 70 247 126 70 248 126 70 249 126 70 250 126 70 251 126 70 252 126 70 253 126 70 255 126 70
0 128 70 1 128 70 2 128 70 3 128 70 4 128 70 5 128 70 6 128 70 7 128 70 8 128 70 9 128 70 10 128 70 11 128 70 12 128 70 13 128 70 14 128 70 16 128 70 17 128 70 18 128 70 19 128 70 20 128 70 21 128 70 22 128 70 23 128 70 24 128 70 25 128 70 26 128 70 27 128 70 28 128 70 29 128 70 30 128 70 32 128 70 33 128 70 34 128 70 35 128 70 36 128 70 37 128 70 38 128 70 39 128 70 40 128 70 41 128 70 42 128 70 43 128 70 44 128 70 45 128 70 46 128 70 48 128 70 49 128 70 50 128 70 51 128 70 52 128 70 53 128 70 54 128 70 55 128 70 56 128 70 57 128 70 58 128 70 59 128 70 60 128 70 61 128 70 62 128 70 64 128 70 65 128 70 66 128 70 67 128 70 68 128 70 69 128 70 70 128 70 71 128 70 72 128 70 73 128 70 74 128 70 75 128 70 76 128 70 77 128 70 78 128 70 80 128 70 81 128 70 82 128 70 83 128 70 30 40 100 30 40 100 30 40 100 30 40 100 30 40 100 30 40 100 30 40 100 30 40 100 30 40 100 30 40 100 30 40 100 30 40 100 30 40 100 30 40 100 30 40 100 30 40 100 30 40 100 30 40 100 30 40 100 30 40 100 30 40 100 30 40 100 30 40 100 30 40 100 30 40 100 30 40 100 30 40 100 30 40 100 30 40 100 30 40 100 30 40 100 30 40 100 30 40 100 30 40 100 30 40 100 30 40 100 30 40 100 30 40 100 30 40 100 30 40 100 30 40 100 30 40 100 30 40 100 30 40 100 30 40 100 30 40 100 30 40 100 30 40 100 30 40 100 30 40 100 30 40 100 30 40 100 30 40 100 30 40 100 30 40 100 30 40 100 30 40 100 30 40 100 30 40 100 30 40 100 30 40 100 30 40 100 30 40 100 30 40 100 30 40 100 30 40 100 30 40 100 30 40 100 30 40 100 30 40 100 30 40 100 30 40 100 30 40 100 30 40 100 30 40 100 30 40 100 30 40 100 30 40 100 30 40 100 30 40 100 30 40 100 30 40 100 30 40 100 172 128 70 173 128 70 174 128 70 176 128 70 177 128 70 178 128 70 179 128 70 180 128 70 181 128 70 182 128 70 183 128 70 184 128 70 185 128 70 186 128 70 187 128 70 188 128 70 189 128 70 190 128 70 192 128 70 193 128 70 194 128 70 195 128 70 196 128 70 197 128 70 198 128 70 199 128 70 200 128 70 201 128 70 202 128 70 203 128 70 204 128 70 205 128 70 206 128 70 208 128 70 209 128 70 210 128 70 211 128 70 212 128 70 213 128 70 214 128 70 215 128 70 216 128 70 217 128 70 218 128 70 219 128 70 220 128 70 221 128 70 222 128 70 224 128 70 225 128 70 226 128 70 227 128 70 228 128 70 229 128 70 230 128 70 231 128 70 232 128 70 233 128 70 234 128 70 235 128 70 236 128 70 237 128 70 238 128 70 240 128 70 241 128 70 242 128 70 243 128 70 244 128 70 245 128 70 246 128 70 247 128 70 248 128 70 249 128 70 250 128 70 251 128 70 252 128 70 253 128 70 255 128 70
0 129 70 1 129 70 2 129 70 3 129 70 4 129 70 5 129 70 6 129 70 7 129 70 8 129 70 9 129 70 10 129 70 11 129 70 12 129 70 13 129 70 14 129 70 16 129 70 17 129 70 18 129 70 19 129 70 20 129 70 21 129 70 22 129 70 23 129 70 24 129 70 25 129 70 26 129 70 27 129 70 28 129 70 29 129 70 30 129 70 32 129 70 33 129 70 34 129 70 35 129 70 36 129 70 37 129 70 38 129 70 39 129 70 40 129 70 41 129 70 42 129 70 43 129 70 44 129 70 45 129 70 46 129 70 48 129 70 49 129 70 50 129 70 51 129 70 52 129 70 53 129 70 54 129 70 55 129 70 56 129 70 57 129 70 58 129 70 59 129 70 60 129 70 61 129 70 62 129 70 64 129 70 65 129 70 66 129 70 67 129 70 68 129 70 69 129 70 70 129 70 71 129 70 72 129 70 73 129 70 74 129 70 75 129 70 76 129 70 77 129 70 78 129 70 80 129 70 81 129 70 82 129 70 83 129 70 30 40 100 30 40 100 30 40 100 30 40 100 30 40 100 30 40 100 30 40 100 30 40 100 30 40 100 30 40 100 30 40 100 30 40 100 30 40 100 30 40 100 30 40 100 30 40 100 30 40 100 30 40 100 30 40 100 30 40 100 30 40 100 30 40 100 30 40 100 30 40 100 30 40 100 30 40 100 30 40 100 30 40 100 30 40 100 30 40 100 30 40 100 30 40 100 30 40 100 30 40 100 30 40 100 30 40 100 30 40 100 30 40 100 30 40 100 30 40 100 30 40 100 30 40 100 30 40 100 30 40 100 30 40 100 30 40 100 30 40 100 30 40 100 30 40 100 30 40 100 30 40 100 30 40 100 30 40 100 30 40 100 30 40 100 30 40 100 30 40 100 30 40 100 30 40 100 30 40 100 30 40 100 30 40 100 30 40 100 30 40 100 30 40 100 30 40 100 30 40 100 30 40 100 30 40 100 30 40 100 30 40 100 30 40 100 30 40 100 30 40 100 30 40 100 30 40 100 30 40 100 30 40 100 30 40 100 30 40 100 30 40 100 30 40 100 30 40 100 172 129 70 173 129 70 174 129 70 176 129 70 177 129 70 178 129 70 179 129 70 180 129 70 181 129 70 182 129 70 183 129 70 184 129 70 185 129 70 186 129 70 187 129 70 188 129 70 189 129 70 190 129 70 192 129 70 193 129 70 194 129 70 195 129 70 196 129 70 197 129 70 198 129 70 199 129 70 200 129 70 201 129 70 202 129 70 203 129 70 204 129 70 205 129 70 206 129 70 208 129 70 209 129 70 210 129 70 211 129 70 212 129 70 213 129 70 214 129 70 215 129 70 216 129 70 217 129 70 218 129 70 219 129 70 220 129 70 221 129 70 222 129 70 224 129 70 225 129 70 226 129 70 227 129 70 228 129 70 229 129 70 230 129 70 231 129 70 232 129 70 233 129 70 234 129 70 235 129 70 236 129 70 237 129 70 238 129 70 240 129 70 241 129 70 242 129 70 243 129 70 244 129 70 245 129 70 246 129 70 247 129 70 248 129 70 249 129 70 250 129 70 251 129 70 252 129 70 253 129 70 255 129 70
0 131 70 1 131 70 2 131 70 3 131 70 4 131 70 5 131 70 6 131 70 7 131 70 8 131 70 9 131 70 10 131 70 11 131 70 12 131 70 13 131 70 14 131 70 16 131 70 17 131 70 18 131 70 19 131 70 20 131 70 21 131 70 22 131 70 23 131 70 24 131 70 25 131 70 26 131 70 27 131 70 28 131 70 29 131 70 30 131 70 32 131 70 33 131 70 34 131 70 35 131 70 36 131 70 37 131 70 38 131 70 39 131 70 40 131 70 41 131 70 42 131 70 43 131 70 44 131 70 45 131 70 46 131 70 48 131 70 49 131 70 50 131 70 51 131 70 52 131 70 53 131 70 54 131 70 55 131 70 56 131 70 57 131 70 58 131 70 59 131 70 60 131 70 61 131 70 62 131 70 64 131 70 65 131 70 66 131 70 67 131 70 68 131 70 69 131 70 70 131 70 71 131 70 72 131 70 73 131 70 74 131 70 75 131 70 76 131 70 77 131 70 78 131 70 80 131 70 81 131 70 82 131 70 83 131 70 30 40 100 30 40 100 30 40 100 30 40 100 30 40 100 30 40 100 30 40 100 30 40 100 30 40 100 30 40 100 30 40 100 30 40 100 30 40 100 30 40 100 30 40 100 30 40 100 30 40 100 30 40 100 30 40 100 30 40 100 30 40 100 30 40 100 30 40 100 30 40 100 30 40 100 30 40 100 30 40 100 30 40 100 30 40 100 30 40 100 30 40 100 30 40 100 30 40 100 30 40 100 30 40 100 30 40 100 30 40 100 30 40 100 30 40 100 30 40 100 30 40 100 30 40 100 30 40 100 30 40 100 30 40 100 30 40 100 30 40 100 30 40 100 30 40 100 30 40 100 30 40 100 30 40 100 30 40 100 30 40 100 30 40 100 30 40 100 30 40 100 30 40 100 30 40 100 30 40 100 30 40 100 30 40 100 30 40 100 30 40 100 30 40 100 30 40 100 30 40 100 30 40 100 30 40 100 30 40 100 30 40 100 30 40 100 30 40 100 30 40 100 30 40 100 30 40 100 30 40 100 30 40 100 30 40 100 30 40 100 30 40 100 30 40 100 30 40 100 172 131 70 173 131 70 174 131 70 176 131 70 177 131 70 178 131 70 179 131 70 180 131 70 181 131 70 182 131 70 183 131 70 184 131 70 185 131 70 186 131 70 187 131 70 188 131 70 189 131 70 190 131 70 192 131 70 193 131 70 194 131 70 195 131 70 196 131 70 197 131 70 198 131 70 199 131 70 200 131 70 201 131 70 202 131 70 203 131 70 204 131 70 205 131 70 206 131 70 208 131 70 209 131 70 210 131 70 211 131 70 212 131 70 213 131 70 214 131 70 215 131 70 216 131 70 217 131 70 218 131 70 219 131 70 220 131 70 221 131 70 222 131 70 224 131 70 225 131 70 226 131 70 227 131 70 228 131 70 229 131 70 230 131 70 231 131 70 232 131 70 233 131 70 234 131 70 235 131 70 236 131 70 237 131 70 238 131 70 240 131 70 241 131 70 242 131 70 243 131 70 244 131 70 245 131 70 246 131 70 247 131 70 248 131 70 249 131 70 250 131 70 251 131 70 252 131 70 253 131 70 255 131 70
0 132 70 1 132 70 2 132 70 3 132 70 4 132 70 5 132 70 6 132 70 7 132 70 8 132 70 9 132 70 10 132 70 11 132 70 12 132 70 13 132 70 14 132 70 16 132 70 17 132 70 18 132 70 19 132 70 20 132 70 21 132 70 22 132 70 23 132 70 24 132 70 25 132 70 26 132 70 27 132 70 28 132 70 29 132 70 30 132 70 32 132 70 33 132 70 34 132 70 35 132 70 36 132 70 37 132 70 38 132 70 39 132 70 40 132 70 41 132 70 42 132 70 43 132 70 44 132 70 45 132 70 46 132 70 48 132 70 49 132 70 50 132 70 51 132 70 52 132 70 53 132 70 54 132 70 55 132 70 56 132 70 57 132 70 58 132 70 59 132 70 60 132 70 61 132 70 62 132 70 64 132 70 65 132 70 66 132 70 67 132 70 68 132 70 69 132 70 70 132 70 71 132 70 72 132 70 73 132 70 74 132 70 75 132 70 76 132 70 77 132 70 78 132 70 80 132 70 81 132 70 82 132 70 83 132 70 30 40 100 30 40 100 30 40 100 30 40 100 30 40 100 30 40 100 30 40 100 30 40 100 30 40 100 30 40 100 30 40 100 30 40 100 30 40 100 30 40 100 30 40 100 30 40 100 30 40 100 30 40 100 30 40 100 30 40 100 30 40 100 30 40 100 30 40 100 30 40 100 30 40 100 30 40 100 30 40 100 30 40 100 30 40 100 30 40 100 30 40 100 30 40 100 30 40 100 30 40 100 30 40 100 30 40 100 30 40 100 30 40 100 30 40 100 30 40 100 30 40 100 30 40 100 30 40 100 30 40 100 30 40 100 30 40 100 30 40 100 30 40 100 30 40 100 30 40 100 30 40 100 30 40 100 30 40 100 30 40 100 30 40 100 30 40 100 30 40 100 30 40 100 30 40 100 30 40 100 30 40 100 30 40 100 30 40 100 30 40 100 30 40 100 30 40 100 30 40 100 30 40 100 30 40 100 30 40 100 30 40 100 30 40 100 30 40 100 30 40 100 30 40 100 30 40 100 30 40 100 30 40 100 30 40 100 30 40 100 30 40 100 30 40 100 30 40 100 172 132 70 173 132 70 174 132 70 176 132 70 177 132 70 178 132 70 179 132 70 180 132 70 181 132 70 182 132 70 183 132 70 184 132 70 185 132 70 186 132 70 187 132 70 188 132 70 189 132 70 190 132 70 192 132 70 193 132 70 194 132 70 195 132 70 196 132 70 197 132 70 198 132 70 199 132 70 200 132 70 201 132 70 202 132 70 203 132 70 204 132 70 205 132 70 206 132 70 208 132 70 209 132 70 210 132 70 211 132 70 212 132 70 213 132 70 214 132 70 215 132 70 216 132 70 217 132 70 218 132 70 219 132 70 220 132 70 221 132 70 222 132 70 224 132 70 225 132 70 226 132 70 227 132 70 228 132 70 229 132 70 230 132 70 231 132 70 232 132 70 233 132 70 234 132 70 235 132 70 236 132 70 237 132 70 238 132 70 240 132 70 241 132 70 242 132 70 243 132 70 244 132 70 245 132 70 246 132 70 247 132 70 248 132 70 249 132 70 250 132 70 251 132 70 252 132 70 253 132 70 255 132 70
0 133 70 1 133 70 2 133 70 3 133 70 4 133 70 5 133 70 6 133 70 7 133 70 8 133 70 9 133 70 10 133 70 11 133 70 12 133 70 13 133 70 14 133 70 16 133 70 17 133 70 18 133 70 19 133 70 20 133 70 21 133 70 22 133 70 23 133 70 24 133 70 25 133 70 26 133 70 27 133 70 28 133 70 29 133 70 30 133 70 32 133 70 33 133 70 34 133 70 35 133 70 36 133 70 37 133 70 38 133 70 39 133 70 40 133 70 41 133 70 42 133 70 43 133 70 44 133 70 45 133 70 46 133 70 48 133 70 49 133 70 50 133 70 51 133 70 52 133 70 53 133 70 54 133 70 55 133 70 56 133 70 57 133 70 58 133 70 59 133 70 60 133 70 61 133 70 62 133 70 64 133 70 65 133 70 66 133 70 67 133 70 68 133 70 69 133 70 70 133 70 71 133 70 72 133 70 73 133 70 74 133 70 75 133 70 76 133 70 77 133 70 78 133 70 80 133 70 81 133 70 82 133 70 83 133 70 30 40 100 30 40 100 30 40 100 30 40 100 30 40 100 30 40 100 30 40 100 30 40 100 30 40 100 30 40 100 30 40 100 30 40 100 30 40 100 30 40 100 30 40 100 30 40 100 30 40 100 30 40 100 30 40 100 30 40 100 30 40 100 30 40 100 30 40 100 30 40 100 30 40 100 30 40 100 30 40 100 30 40 100 30 40 100 30 40 100 30 40 100 30 40 100 30 40 100 30 40 100 30 40 100 30 40 100 30 40 100 30 40 100 30 40 100 30 40 100 30 40 100 30 40 100 30 40 100 30 40 100 30 40 100 30 40 100 30 40 100 30 40 100 30 40 100 30 40 100 30 40 100 30 40 100 30 40 100 30 40 100 30 40 100 30 40 100 30 40 100 30 40 100 30 40 100 30 40 100 30 40 100 30 40 100 30 40 100 30 40 100 30 40 100 30 40 100 30 40 100 30 40 100 30 40 100 30 40 100 30 40 100 30 40 100 30 40 100 30 40 100 30 40 100 30 40 100 30 40 100 30 40 100 30 40 100 30 40 100 30 40 100 30 40 100 30 40 100 172 133 70 173 133 70 174 133 70 176 133 70 177 133 70 178 133 70 179 133 70 180 133 70 181 133 70 182 133 70 183 133 70 184 133 70 185 133 70 186 133 70 187 133 70 188 133 70 189 133 70 190 133 70 192 133 70 193 133 70 194 133 70 195 133 70 196 133 70 197 133 70 198 133 70 199 133 70 200 133 70 201 133 70 202 133 70 203 133 70 204 133 70 205 133 70 206 133 70 208 133 70 209 133 70 210 133 70 211 133 70 212 133 70 213 133 70 214 133 70 215 133 70 216 133 70 217 133 70 218 133 70 219 133 70 220 133 70 221 133 70 222 133 70 224 133 70 225 133 70 226 133 70 227 133 70 228 133 70 229 133 70 230 133 70 231 133 70 232 133 70 233 133 70 234 133 70 235 133 70 236 133 70 237 133 70 238 133 70 240 133 70 241 133 70 242 133 70 243 133 70 244 133 70 245 133 70 246 133 70 247 133 70 248 133 70 249 133 70 250 133 70 251 133 70 252 133 70 253 133 70 255 133 70
0 135 70 1 135 70 2 135 70 3 135 70 4 135 70 5 135 70 6 135 70 7 135 70 8 135 70 9 135 70 10 135 70 11 135 70 12 135 70 13 135 70 14 135 70 16 135 70 17 135 70 18 135 70 19 135 70 20 135 70 21 135 70 22 135 70 23 135 70 24 135 70 25 135 70 26 135 70 27 135 70 28 135 70 29 135 70 30 135 70 32 135 70 33 135 70 34 135 70 35 135 70 36 135 70 37 135 70 38 135 70 39 135 70 40 135 70 41 135 70 42 135 70 43 135 70 44 135 70 45 135 70 46 135 70 48 135 70 49 135 70 50 135 70 51 135 70 52 135 70 53 135 70 54 135 70 55 135 70 56 135 70 57 135 70 58 135 70 59 135 70 60 135 70 61 135 70 62 135 70 64 135 70 65 135 70 66 135 70 67 135 70 68 135 70 69 135 70 70 135 70 71 135 70 72 135 70 73 135 70 74 135 70 75 135 70 76 135 70 77 135 70 78 135 70 80 135 70 81 135 70 82 135 70 83 135 70 30 40 100 30 40 100 30 40 100 30 40 100 30 40 100 30 40 100 30 40 100 30 40 100 30 40 100 30 40 100 30 40 100 30 40 100 30 40 100 30 40 100 30 40 100 30 40 100 30 40 100 30 40 100 30 40 100 30 40 100 30 40 100 30 40 100 30 40 100 30 40 100 30 40 100 30 40 100 30 40 100 30 40 100 30 40 100 30 40 100 30 40 100 30 40 100 30 40 100 30 40 100 30 40 100 30 40 100 30 40 100 30 40 100 30 40 100 30 40 100 30 40 100 30 40 100 30 40 100 30 40 100 30 40 100 30 40 100 30 40 100 30 40 100 30 40 100 30 40 100 30 40 100 30 40 100 30 40 100 30 40 100 30 40 100 30 40 100 30 40 100 30 40 100 30 40 100 30 40 100 30 40 100 30 40 100 30 40 100 30 40 100 30 40 100 30 40 100 30 40 100 30 40 100 30 40 100 30 40 100 30 40 100 30 40 100 30 40 100 30 40 100 30 40 100 30 40 100 30 40 100 30 40 100 30 40 100 30 40 100 30 40 100 30 40 100 30 40 100 172 135 70 173 135 70 174 135 70 176 135 70 177 135 70 178 135 70 179 135 70 180 135 70 181 135 70 182 135 70 183 135 70 184 135 70 185 135 70 186 135 70 187 135 70 188 135 70 189 135 70 190 135 70 192 135 70 193 135 70 194 135 70 195 135 70 196 135 70 197 135 70 198 135 70 199 135 70 200 135 70 201 135 70 202 135 70 203 135 70 204 135 70 205 135 70 206 135 70 208 135 70 209 135 70 210 135 70 211 135 70 212 135 70 213 135 70 214 135 70 215 135 70 216 135 70 217 135 70 218 135 70 219 135 70 220 135 70 221 135 70 222 135 70 224 135 70 225 135 70 226 135 70 227 135 70 228 135 70 229 135 70 230 135 70 231 135 70 232 135 70 233 135 70 234 135 70 235 135 70 236 135 70 237 135 70 238 135 70 240 135 70 241 135 70 242 135 70 243 135 70 244 135 70 245 135 70 246 135 70 247 135 70 248 135 70 249 135 70 250 135 70 251 135 70 252 135 70 253 135 70 255 135 70
0 136 70 1 136 70 2 136 70 3 136 70 4 136 70 5 136 70 6 136 70 7 136 70 8 136 70 9 136 70 10 136 70 11 136 70 12 136 70 13 136 70 14 136 70 16 136 70 17 136 70 18 136 70 19 136 70 20 136 70 21 136 70 22 136 70 23 136 70 24 136 70 25 136 70 26 136 70 27 136 70 28 136 70 29 136 70 30 136 70 32 136 70 33 136 70 34 136 70 35 136 70 36 136 70 37 136 70 38 136 70 39 136 70 40 136 70 41 136 70 42 136 70 43 136 70 44 136 70 45 136 70 46 136 70 48 136 70 49 136 70 50 136 70 51 136 70 52 136 70 53 136 70 54 136 70 55 136 70 56 136 70 57 136 70 58 136 70 59 136 70 60 136 70 61 136 70 62 136 70 64 136 70 65 136 70 66 136 70 67 136 70 68 136 70 69 136 70 70 136 70 71 136 70 72 136 70 73 136 70 74 136 70 75 136 70 76 136 70 77 136 70 78 136 70 80 136 70 81 136 70 82 136 70 83 136 70 30 40 100 30 40 100 30 40 100 30 40 100 30 40 100 30 40 100 30 40 100 30 40 100 30 40 100 30 40 100 30 40 100 30 40 100 30 40 100 30 40 100 30 40 100 30 40 100 30 40 100 30 40 100 30 40 100 30 40 100 30 40 100 30 40 100 30 40 100 30 40 100 30 40 100 30 40 100 30 40 100 30 40 100 30 40 100 30 40 100 30 40 100 30 40 100 30 40 100 30 40 100 30 40 100 30 40 100 30 40 100 30 40 100 30 40 100 30 40 100 30 40 100 30 40 100 30 40 100 30 40 100 30 40 100 30 40 100 30 40 100 30 40 100 30 40 100 30 40 100 30 40 100 30 40 100 30 40 100 30 40 100 30 40 100 30 40 100 30 40 100 30 40 100 30 40 100 30 40 100 30 40 100 30 40 100 30 40 100 30 40 100 30 40 100 30 40 100 30 40 100 30 40 100 30 40 100 30 40 100 30 40 100 30 40 100 30 40 100 30 40 100 30 40 100 30 40 100 30 40 100 30 40 100 30 40 100 30 40 100 30 40 100 30 40 100 30 40 100 172 136 70 173 136 70 174 136 70 176 136 70 177 136 70 178 136 70 179 136 70 180 136 70 181 136 70 182 136 70 183 136 70 184 136 70 185 136 70 186 136 70 187 136 70 188 136 70 189 136 70 190 136 70 192 136 70 193 136 70 194 136 70 195 136 70 196 136 70 197 136 70 198 136 70 199 136 70 200 136 70 201 136 70 202 136 70 203 136 70 204 136 70 205 136 70 206 136 70 208 136 70 209 136 70 210 136 70 211 136 70 212 136 70 213 136 70 214 136 70 215 136 70 216 136 70 217 136 70 218 136 70 219 136 70 220 136 70 221 136 70 222 136 70 224 136 70 225 136 70 226 136 70 227 136 70 228 136 70 229 136 70 230 136 70 231 136 70 232 136 70 233 136 70 234 136 70 235 136 70 236 136 70 237 136 70 238 136 70 240 136 70 241 136 70 242 136 70 243 136 70 244 136 70 245 136 70 246 136 70 247 136 70 248 136 70 249 136 70 250 136 70 251 136 70 252 136 70 253 136 70 255 136 70
0 138 70 1 138 70 2 138 70 3 138 70 4 138 70 5 138 70 6 138 70 7 138 70 8 138 70 9 138 70 10 138 70 11 138 70 12 138 70 13 138 70 14 138 70 16 138 70 17 138 70 18 138 70 19 138 70 20 138 70 21 138 70 22 138 70 23 138 70 24 138 70 25 138 70 26 138 70 27 138 70 28 138 70 29 138 70 30 138 70 32 138 70 33 138 70 34 138 70 35 138 70 36 138 70 37 138 70 38 138 70 39 138 70 40 138 70 41 138 70 42 138 70 43 138 70 44 138 70 45 138 70 46 138 70 48 138 70 49 138 70 50 138 70 51 138 70 52 138 70 53 138 70 54 138 70 55 138 70 56 138 70 57 138 70 58 138 70 59 138 70 60 138 70 61 138 70 62 138 70 64 138 70 65 138 70 66 138 70 67 138 70 68 138 70 69 138 70 70 138 70 71 138 70 72 138 70 73 138 70 74 138 70 75 138 70 76 138 70 77 138 70 78 138 70 80 138 70 81 138 70 82 138 70 83 138 70 30 40 100 30 40 100 30 40 100 30 40 100 30 40 100 30 40 100 30 40 100 30 40 100 30 40 100 30 40 100 30 40 100 30 40 100 30 40 100 30 40 100 30 40 100 30 40 100 30 40 100 30 40 100 30 40 100 30 40 100 30 40 100 30 40 100 30 40 100 30 40 100 30 40 100 30 40 100 30 40 100 30 40 100 30 40 100 30 40 100 30 40 100 30 40 100 30 40 100 30 40 100 30 40 100 30 40 100 30 40 100 30 40 100 30 40 100 30 40 100 30 40 100 30 40 100 30 40 100 30 40 100 30 40 100 30 40 100 30 40 100 30 40 100 30 40 100 30 40 100 30 40 100 30 40 100 30 40 100 30 40 100 30 40 100 30 40 100 30 40 100 30 40 100 30 40 100 30 40 100 30 40 100 30 40 100 30 40 100 30 40 100 30 40 100 30 40 100 30 40 100 30 40 100 30 40 100 30 40 100 30 40 100 30 40 100 30 40 100 30 40 100 30 40 100 30 40 100 30 40 100 30 40 100 30 40 100 30 40 100 30 40 100 30 40 100 30 40 100 172 138 70 173 138 70 174 138 70 176 138 70 177 138 70 178 138 70 179 138 70 180 138 70 181 138 70 182 138 70 183 138 70 184 138 70 185 138 70 186 138 70 187 138 70 188 138 70 189 138 70 190 138 70 192 138 70 193 138 70 194 138 70 195 138 70 196 138 70 197 138 70 198 138 70 199 138 70 200 138 70 201 138 70 202 138 70 203 138 70 204 138 70 205 138 70 206 138 70 208 138 70 209 138 70 210 138 70 211 138 70 212 138 70 213 138 70 214 138 70 215 138 70 216 138 70 217 138 70 218 138 70 219 138 70 220 138 70 221 138 70 222 138 70 224 138 70 225 138 70 226 138 70 227 138 70 228 138 70 229 138 70 230 138 70 231 138 70 232 138 70 233 138 70 234 138 70 235 138 70 236 138 70 237 138 70 238 138 70 240 138 70 241 138 70 242 138 70 243 138 70 244 138 70 245 138 70 246 138 70 247 138 70 248 138 70 249 138 70 250 138 70 251 138 70 252 138 70 253 138 70 255 138 70
0 139 70 1 139 70 2 139 70 3 139 70 4 139 70 5 139 70 6 139 70 7 139 70 8 139 70 9 139 70 10 139 70 11 139 70 12 139 70 13 139 70 14 139 70 16 139 70 17 139 70 18 139 70 19 139 70 20 139 70 21 139 70 22 139 70 23 139 70 24 139 70 25 139 70 26 139 70 27 139 70 28 139 70 29 139 70 30 139 70 32 139 70 33 139 70 34 139 70 35 139 70 36 139 70 37 139 70 38 139 70 39 139 70 40 139 70 41 139 70 42 139 70 43 139 70 44 139 70 45 139 70 46 139 70 48 139 70 49 139 70 50 139 70 51 139 70 52 139 70 53 139 70 54 139 70 55 139 70 56 139 70 57 139 70 58 139 70 59 139 70 60 139 70 61 139 70 62 139 70 64 139 70 65 139 70 66 139 70 67 139 70 68 139 70 69 139 70 70 139 70 71 139 70 72 139 70 73 139 70 74 139 70 75 139 70 76 139 70 77 139 70 78 139 70 80 139 70 81 139 70 82 139 70 83 139 70 30 40 100 30 40 100 30 40 100 30 40 100 30 40 100 30 40 100 30 40 100 30 40 100 30 40 100 30 40 100 30 40 100 30 40 100 30 40 100 30 40 100 30 40 100 30 40 100 30 40 100 30 40 100 30 40 100 30 40 100 30 40 100 30 40 100 30 40 100 30 40 100 30 40 100 30 40 100 30 40 100 30 40 100 30 40 100 30 40 100 30 40 100 30 40 100 30 40 100 30 40 100 30 40 100 30 40 100 30 40 100 30 40 100 30 40 100 30 40 100 30 40 100 30 40 100 30 40 100 30 40 100 30 40 100 30 40 100 30 40 100 30 40 100 30 40 100 30 40 100 30 40 100 30 40 100 30 40 100 30 40 100 30 40 100 30 40 100 30 40 100 30 40 100 30 40 100 30 40 100 30 40 100 30 40 100 30 40 100 30 40 100 30 40 100 30 40 100 30 40 100 30 40 100 30 40 100 30 40 100 30 40 100 30 40 100 30 40 100 30 40 100 30 40 100 30 40 100 30 40 100 30 40 100 30 40 100 30 40 100 30 40 100 30 40 100 30 40 100 172 139 70 173 139 70 174 139 70 176 139 70 177 139 70 178 139 70 179 139 70 180 139 70 181 139 70 182 139 70 183 139 70 184 139 70 185 139 70 186 139 70 187 139 70 188 139 70 189 139 70 190 139 70 192 139 70 193 139 70 194 139 70 195 139 70 196 139 70 197 139 70 198 139 70 199 139 70 200 139 70 201 139 70 202 139 70 203 139 70 204 139 70 205 139 70 206 139 70 208 139 70 209 139 70 210 139 70 211 139 70 212 139 70 213 139 70 214 139 70 215 139 70 216 139 70 217 139 70 218 139 70 219 139 70 220 139 70 221 139 70 222 139 70 224 139 70 225 139 70 226 139 70 227 139 70 228 139 70 229 139 70 230 139 70 231 139 70 232 139 70 233 139 70 234 139 70 235 139 70 236 139 70 237 139 70 238 139 70 240 139 70 241 139 70 242 139 70 243 139 70 244 139 70 245 139 70 246 139 70 247 139 70 248 139 70 249 139 70 250 139 70 251 139 70 252 139 70 253 139 70 255 139 70
0 141 70 1 141 70 2 141 70 3 141 70 4 141 70 5 141 70 6 141 70 7 141 70 8 141 70 9 141 70 10 141 70 11 141 70 12 141 70 13 141 70 14 141 70 16 141 70 17 141 70 18 141 70 19 141 70 20 141 70 21 141 70 22 141 70 23 141 70 24 141 70 25 141 70 26 141 70 27 141 70 28 141 70 29 141 70 30 141 70 32 141 70 33 141 70 34 141 70 35 141 70 36 141 70 37 141 70 38 141 70 39 141 70 40 141 70 41 141 70 42 141 70 43 141 70 44 141 70 45 141 70 46 141 70 48 141 70 49 141 70 50 141 70 51 141 70 52 141 70 53 141 70 54 141 70 55 141 70 56 141 70 57 141 70 58 141 70 59 141 70 60 141 70 61 141 70 62 141 70 64 141 70 65 141 70 66 141 70 67 141 70 68 141 70 69 141 70 70 141 70 71 141 70 72 141 70 73 141 70 74 141 70 75 141 70 76 141 70 77 141 70 78 141 70 80 141 70 81 141 70 82 141 70 83 141 70 30 40 100 30 40 100 30 40 100 30 40 100 30 40 100 30 40 100 30 40 100 30 40 100 30 40 100 30 40 100 30 40 100 30 40 100 30 40 100 30 40 100 30 40 100 30 40 100 30 40 100 30 40 100 30 40 100 30 40 100 30 40 100 30 40 100 30 40 100 30 40 100 30 40 100 30 40 100 30 40 100 30 40 100 30 40 100 30 40 100 30 40 100 30 40 100 30 40 100 30 40 100 30 40 100 30 40 100 30 40 100 30 40 100 30 40 100 30 40 100 30 40 100 30 40 100 30 40 100 30 40 100 30 40 100 30 40 100 30 40 100 30 40 100 30 40 100 30 40 100 30 40 100 30 40 100 30 40 100 30 40 100 30 40 100 30 40 100 30 40 100 30 40 100 30 40 100 30 40 100 30 40 100 30 40 100 30 40 100 30 40 100 30 40 100 30 40 100 30 40 100 30 40 100 30 40 100 30 40 100 30 40 100 30 40 100 30 40 100 30 40 100 30 40 100 30 40 100 30 40 100 30 40 100 30 40 100 30 40 100 30 40 100 30 40 100 30 40 100 172 141 70 173 141 70 174 141 70 176 141 70 177 141 70 178 141 70 179 141 70 180 141 70 181 141 70 182 141 70 183 141 70 184 141 70 185 141 70 186 141 70 187 141 70 188 141 70 189 141 70 190 141 70 192 141 70 193 141 70 194 141 70 195 141 70 196 141 70 197 141 70 198 141 70 199 141 70 200 141 70 201 141 70 202 141 70 203 141 70 204 141 70 205 141 70 206 141 70 208 141 70 209 141 70 210 141 70 211 141 70 212 141 70 213 141 70 214 141 70 215 141 70 216 141 70 217 141 70 218 141 70 219 141 70 220 141 70 221 141 70 222 141 70 224 141 70 225 141 70 226 141 70 227 141 70 228 141 70 229 141 70 230 141 70 231 141 70 232 141 70 233 141 70 234 141 70 235 141 70 236 141 70 237 141 70 238 141 70 240 141 70 241 141 70 242 141 70 243 141 70 244 141 70 245 141 70 246 141 70 247 141 70 248 141 70 249 141 70 250 141 70 251 141 70 252 141 70 253 141 70 255 141 70
0 142 70 1 142 70 2 142 70 3 142 70 4 142 70 5 142 70 6 142 70 7 142 70 8 142 70 9 142 70 10 142 70 11 142 70 12 142 70 13 142 70 14 142 70 16 142 70 17 142 70 18 142 70 19 142 70 20 142 70 21 142 70 22 142 70 23 142 70 24 142 70 25 142 70 26 142 70 27 142 70 28 142 70 29 142 70 30 142 70 32 142 70 33 142 70 34 142 70 35 142 70 36 142 70 37 142 70 38 142 70 39 142 70 40 142 70 41 142 70 42 142 70 43 142 70 44 142 70 45 142 70 46 142 70 48 142 70 49 142 70 50 142 70 51 142 70 52 142 70 53 142 70 54 142 70 55 142 70 56 142 70 57 142 70 58 142 70 59 142 70 60 142 70 61 142 70 62 142 70 64 142 70 65 142 70 66 142 70 67 142 70 68 142 70 69 142 70 70 142 70 71 142 70 72 142 70 73 142 70 74 142 70 75 142 70 76 142 70 77 142 70 78 142 70 80 142 70 81 142 70 82 142 70 83 142 70 84 142 70 30 40 100 30 40 100 30 40 100 30 40 100 30 40 100 30 40 100 30 40 100 30 40 100 30 40 100 30 40 100 30 40 100 30 40 100 30 40 100 30 40 100 30 40 100 30 40 100 30 40 100 30 40 100 30 40 100 30 40 100 30 40 100 30 40 100 30 40 100 30 40 100 30 40 100 30 40 100 30 40 100 30 40 100 30 40 100 30 40 100 30 40 100 30 40 100 30 40 100 30 40 100 30 40 100 30 40 100 30 40 100 30 40 100 30 40 100 30 40 100 30 40 100 30 40 100 30 40 100 30 40 100 30 40 100 30 40 100 30 40 100 30 40 100 30 40 100 30 40 100 30 40 100 30 40 100 30 40 100 30 40 100 30 40 100 30 40 100 30 40 100 30 40 100 30 40 100 30 40 100 30 40 100 30 40 100 30 40 100 30 40 100 30 40 100 30 40 100 30 40 100 30 40 100 30 40 100 30 40 100 30 40 100 30 40 100 30 40 100 30 40 100 30 40 100 30 40 100 30 40 100 30 40 100 30 40 100 30 40 100 30 40 100 171 142 70 172 142 70 173 142 70 174 142 70 176 142 70 177 142 70 178 142 70 179 142 70 180 142 70 181 142 70 182 142 70 183 142 70 184 142 70 185 142 70 186 142 70 187 142 70 188 142 70 189 142 70 190 142 70 192 142 70 193 142 70 194 142 70 195 142 70 196 142 70 197 142 70 198 142 70 199 142 70 200 142 70 201 142 70 202 142 70 203 142 70 204 142 70 205 142 70 206 142 70 208 142 70 209 142 70 210 142 70 211 142 70 212 142 70 213 142 70 214 142 70 215 142 70 216 142 70 217 142 70 218 142 70 219 142 70 220 142 70 221 142 70 222 142 70 224 142 70 225 142 70 226 142 70 227 142 70 228 142 70 229 142 70 230 142 70 231 142 70 232 142 70 233 142 70 234 142 70 235 142 70 236 142 70 237 142 70 238 142 70 240 142 70 241 142 70 242 142 70 243 142 70 244 142 70 245 142 70 246 142 70 247 142 70 248 142 70 249 142 70 250 142 70 251 142 70 252 142 70 253 142 70 255 142 70
0 143 70 1 143 70 2 143 70 3 143 70 4 143 70 5 143 70 6 143 70 7 143 70 8 143 70 9 143 70 10 143 70 11 143 70 12 143 70 13 143 70 14 143 70 16 143 70 17 143 70 18 143 70 19 143 70 20 143 70 21 143 70 22 143 70 23 143 70 24 143 70 25 143 70 26 143 70 27 143 70 28 143 70 29 143 70 30 143 70 32 143 70 33 143 70 34 143 70 35 143 70 36 143 70 37 143 70 38 143 70 39 143 70 40 143 70 41 143 70 42 143 70 43 143 70 44 143 70 45 143 70 46 143 70 48 143 70 49 143 70 50 143 70 51 143 70 52 143 70 53 143 70 54 143 70 55 143 70 56 143 70 57 143 70 58 143 70 59 143 70 60 143 70 61 143 70 62 143 70 64 143 70 65 143 70 66 143 70 67 143 70 68 143 70 69 143 70 70 143 70 71 143 70 72 143 70 73 143 70 74 143 70 75 143 70 76 143 70 77 143 70 78 143 70 80 143 70 81 143 70 82 143 70 83 143 70 84 143 70 30 40 100 30 40 100 30 40 100 30 40 100 30 40 100 30 40 100 30 40 100 30 40 100 30 40 100 30 40 100 30 40 100 30 40 100 30 40 100 30 40 100 30 40 100 30 40 100 30 40 100 30 40 100 30 40 100 30 40 100 30 40 100 30 40 100 30 40 100 30 40 100 30 40 100 30 40 100 30 40 100 30 40 100 30 40 100 30 40 100 30 40 100 30 40 100 30 40 100 30 40 100 30 40 100 30 40 100 30 40 100 30 40 100 30 40 100 30 40 100 30 40 100 30 40 100 30 40 100 30 40 100 30 40 100 30 40 100 30 40 100 30 40 100 30 40 100 30 40 100 30 40 100 30 40 100 30 40 100 30 40 100 30 40 100 30 40 100 30 40 100 30 40 100 30 40 100 30 40 100 30 40 100 30 40 100 30 40 100 30 40 100 30 40 100 30 40 100 30 40 100 30 40 100 30 40 100 30 40 100 30 40 100 30 40 100 30 40 100 30 40 100 30 40 100 30 40 100 30 40 100 30 40 100 30 40 100 30 40 100 30 40 100 171 143 70 172 143 70 173 143 70 174 143 70 176 143 70 177 143 70 178 143 70 179 143 70 180 143 70 181 143 70 182 143 70 183 143 70 184 143 70 185 143 70 186 143 70 187 143 70 188 143 70 189 143 70 190 143 70 192 143 70 193 143 70 194 143 70 195 143 70 196 143 70 197 143 70 198 143 70 199 143 70 200 143 70 201 143 70 202 143 70 203 143 70 204 143 70 205 143 70 206 143 70 208 143 70 209 143 70 210 143 70 211 143 70 212 143 70 213 143 70 214 143 70 215 143 70 216 143 70 217 143 70 218 143 70 219 143 70 220 143 70 221 143 70 222 143 70 224 143 70 225 143 70 226 143 70 227 143 70 228 143 70 229 143 70 230 143 70 231 143 70 232 143 70 233 143 70 234 143 70 235 143 70 236 143 70 237 143 70 238 143 70 240 143 70 241 143 70 242 143 70 243 143 70 244 143 70 245 143 70 246 143 70 247 143 70 248 143 70 249 143 70 250 143 70 251 143 70 252 143 70 253 143 70 255 143 70
0 145 70 1 145 70 2 145 70 3 145 70 4 145 70 5 145 70 6 145 70 7 145 70 8 145 70 9 145 70 10 145 70 11 145 70 12 145 70 13 145 70 14 145 70 16 145 70 17 145 70 18 145 70 19 145 70 20 145 70 21 145 70 22 145 70 23 145 70 24 145 70 25 145 70 26 145 70 27 145 70 28 145 70 29 145 70 30 145 70 32 145 70 33 145 70 34 145 70 35 145 70 36 145 70 37 145 70 38 145 70 39 145 70 40 145 70 41 145 70 42 145 70 43 145 70 44 145 70 45 145 70 46 145 70 48 145 70 49 145 70 50 145 70 51 145 70 52 145 70 53 145 70 54 145 70 55 145 70 56 145 70 57 145 70 58 145 70 59 145 70 60 145 70 61 145 70 62 145 70 64 145 70 65 145 70 66 145 70 67 145 70 68 145 70 69 145 70 70 145 70 71 145 70 72 145 70 73 145 70 74 145 70 75 145 70 76 145 70 77 145 70 78 145 70 80 145 70 81 145 70 82 145 70 83 145 70 84 145 70 30 40 100 30 40 100 30 40 100 30 40 100 30 40 100 30 40 100 30 40 100 30 40 100 30 40 100 30 40 100 30 40 100 30 40 100 30 40 100 30 40 100 30 40 100 30 40 100 30 40 100 30 40 100 30 40 100 30 40 100 30 40 100 30 40 100 30 40 100 30 40 100 30 40 100 30 40 100 30 40 100 30 40 100 30 40 100 30 40 100 30 40 100 30 40 100 30 40 100 30 40 100 30 40 100 30 40 100 30 40 100 30 40 100 30 40 100 30 40 100 30 40 100 30 40 100 30 40 100 30 40 100 30 40 100 30 40 100 30 40 100 30 40 100 30 40 100 30 40 100 30 40 100 30 40 100 30 40 100 30 40 100 30 40 100 30 40 100 30 40 100 30 40 100 30 40 100 30 40 100 30 40 100 30 40 100 30 40 100 30 40 100 30 40 100 30 40 100 30 40 100 30 40 100 30 40 100 30 40 100 30 40 100 30 40 100 30 40 100 30 40 100 30 40 100 30 40 100 30 40 100 30 40 100 30 40 100 30 40 100 30 40 100 171 145 70 172 145 70 173 145 70 174 145 70 176 145 70 177 145 70 178 145 70 179 145 70 180 145 70 181 145 70 182 145 70 183 145 70 184 145 70 185 145 70 186 145 70 187 145 70 188 145 70 189 145 70 190 145 70 192 145 70 193 145 70 194 145 70 195 145 70 196 145 70 197 145 70 198 145 70 199 145 70 200 145 70 201 145 70 202 145 70 203 145 70 204 145 70 205 145 70 206 145 70 208 145 70 209 145 70 210 145 70 211 145 70 212 145 70 213 145 70 214 145 70 215 145 70 216 145 70 217 145 70 218 145 70 219 145 70 220 145 70 221 145 70 222 145 70 224 145 70 225 145 70 226 145 70 227 145 70 228 145 70 229 145 70 230 145 70 231 145 70 232 145 70 233 145 70 234 145 70 235 145 70 236 145 70 237 145 70 238 145 70 240 145 70 241 145 70 242 145 70 243 145 70 244 145 70 245 145 70 246 145 70 247 145 70 248 145 70 249 145 70 250 145 70 251 145 70 252 145 70 253 145 70 255 145 70
0 146 70 1 146 70 2 146 70 3 146 70 4 146 70 5 146 70 6 146 70 7 146 70 8 146 70 9 146 70 10 146 70 11 146 70 12 146 70 13 146 70 14 146 70 16 146 70 17 146 70 18 146 70 19 146 70 20 146 70 21 146 70 22 146 70 23 146 70 24 146 70 25 146 70 26 146 70 27 146 70 28 146 70 29 146 70 30 146 70 32 146 70 33 146 70 34 146 70 35 146 70 36 146 70 37 146 70 38 146 70 39 146 70 40 146 70 41 146 70 42 146 70 43 146 70 44 146 70 45 146 70 46 146 70 48 146 70 49 146 70 50 146 70 51 146 70 52 146 70 53 146 70 54 146 70 55 146 70 56 146 70 57 146 70 58 146 70 59 146 70 60 146 70 61 146 70 62 146 70 64 146 70 65 146 70 66 146 70 67 146 70 68 146 70 69 146 70 70 146 70 71 146 70 72 146 70 73 146 70 74 146 70 75 146 70 76 146 70 77 146 70 78 146 70 80 146 70 81 146 70 82 146 70 83 146 70 84 146 70 85 146 70 30 40 100 30 40 100 30 40 100 30 40 100 30 40 100 30 40 100 30 40 100 30 40 100 30 40 100 30 40 100 30 40 100 30 40 100 30 40 100 30 40 100 30 40 100 30 40 100 30 40 100 30 40 100 30 40 100 30 40 100 30 40 100 30 40 100 30 40 100 30 40 100 30 40 100 30 40 100 30 40 100 30 40 100 30 40 100 30 40 100 30 40 100 30 40 100 30 40 100 30 40 100 30 40 100 30 40 100 30 40 100 30 40 100 30 40 100 30 40 100 30 40 100 30 40 100 30 40 100 30 40 100 30 40 100 30 40 100 30 40 100 30 40 100 30 40 100 30 40 100 30 40 100 30 40 100 30 40 100 30 40 100 30 40 100 30 40 100 30 40 100 30 40 100 30 40 100 30 40 100 30 40 100 30 40 100 30 40 100 30 40 100 30 40 100 30 40 100 30 40 100 30 40 100 30 40 100 30 40 100 30 40 100 30 40 100 30 40 100 30 40 100 30 40 100 30 40 100 30 40 100 30 40 100 30 40 100 170 146 70 171 146 70 172 146 70 173 146 70 174 146 70 176 146 70 177 146 70 178 146 70 179 146 70 180 146 70 181 146 70 182 146 70 183 146 70 184 146 70 185 146 70 186 146 70 187 146 70 188 146 70 189 146 70 190 146 70 192 146 70 193 146 70 194 146 70 195 146 70 196 146 70 197 146 70 198 146 70 199 146 70 200 146 70 201 146 70 202 146 70 203 146 70 204 146 70 205 146 70 206 146 70 208 146 70 209 146 70 210 146 70 211 146 70 212 146 70 213 146 70 214 146 70 215 146 70 216 146 70 217 146 70 218 146 70 219 146 70 220 146 70 221 146 70 222 146 70 224 146 70 225 146 70 226 146 70 227 146 70 228 146 70 229 146 70 230 146 70 231 146 70 232 146 70 233 146 70 234 146 70 235 146 70 236 146 70 237 146 70 238 146 70 240 146 70 241 146 70 242 146 70 243 146 70 244 146 70 245 146 70 246 146 70 247 146 70 248 146 70 249 146 70 250 146 70 251 146 70 252 146 70 253 146 70 255 146 70
0 148 70 1 148 70 2 148 70 3 148 70 4 148 70 5 148 70 6 148 70 7 148 70 8 148 70 9 148 70 10 148 70 11 148 70 12 148 70 13 148 70 14 148 70 16 148 70 17 148 70 18 148 70 19 148 70 20 148 70 21 148 70 22 148 70 23 148 70 24 148 70 25 148 70 26 148 70 27 148 70 28 148 70 29 148 70 30 148 70 32 148 70 33 148 70 34 148 70 35 148 70 36 148 70 37 148 70 38 148 70 39 148 70 40 148 70 41 148 70 42 148 70 43 148 70 44 148 70 45 148 70 46 148 70 48 148 70 49 148 70 50 148 70 51 148 70 52 148 70 53 148 70 54 148 70 55 148 70 56 148 70 57 148 70 58 148 70 59 148 70 60 148 70 61 148 70 62 148 70 64 148 70 65 148 70 66 148 70 67 148 70 68 148 70 69 148 70 70 148 70 71 148 70 72 148 70 73 148 70 74 148 70 75 148 70 76 148 70 77 148 70 78 148 70 80 148 70 81 148 70 82 148 70 83 148 70 84 148 70 85 148 70 30 40 100 30 40 100 30 40 100 30 40 100 30 40 100 30 40 100 30 40 100 30 40 100 30 40 100 30 40 100 30 40 100 30 40 100 30 40 100 30 40 100 30 40 100 30 40 100 30 40 100 30 40 100 30 40 100 30 40 100 30 40 100 30 40 100 30 40 100 30 40 100 30 40 100 30 40 100 30 40 100 30 40 100 30 40 100 30 40 100 30 40 100 30 40 100 30 40 100 30 40 100 30 40 100 30 40 100 30 40 100 30 40 100 30 40 100 30 40 100 30 40 100 30 40 100 30 40 100 30 40 100 30 40 100 30 40 100 30 40 100 30 40 100 30 40 100 30 40 100 30 40 100 30 40 100 30 40 100 30 40 100 30 40 100 30 40 100 30 40 100 30 40 100 30 40 100 30 40 100 30 40 100 30 40 100 30 40 100 30 40 100 30 40 100 30 40 100 30 40 100 30 40 100 30 40 100 30 40 100 30 40 100 30 40 100 30 40 100 30 40 100 30 40 100 30 40 100 30 40 100 30 40 100 30 40 100 170 148 70 171 148 70 172 148 70 173 148 70 174 148 70 176 148 70 177 148 70 178 148 70 179 148 70 180 148 70 181 148 70 182 148 70 183 148 70 184 148 70 185 148 70 186 148 70 187 148 70 188 148 70 189 148 70 190 148 70 192 148 70 193 148 70 194 148 70 195 148 70 196 148 70 197 148 70 198 148 70 199 148 70 200 148 70 201 148 70 202 148 70 203 148 70 204 148 70 205 148 70 206 148 70 208 148 70 209 148 70 210 148 70 211 148 70 212 148 70 213 148 70 214 148 70 215 148 70 216 148 70 217 148 70 218 148 70 219 148 70 220 148 70 221 148 70 222 148 70 224 148 70 225 148 70 226 148 70 227 148 70 228 148 70 229 148 70 230 148 70 231 148 70 232 148 70 233 148 70 234 148 70 235 148 70 236 148 70 237 148 70 238 148 70 240 148 70 241 148 70 242 148 70 243 148 70 244 148 70 245 148 70 246 148 70 247 148 70 248 148 70 249 148 70 250 148 70 251 148 70 252 148 70 253 148 70 255 148 70
0 149 70 1 149 70 2 149 70 3 149 70 4 149 70 5 149 70 6 149 70 7 149 70 8 149 70 9 149 70 10 149 70 11 149 70 12 149 70 13 149 70 14 149 70 16 149 70 17 149 70 18 149 70 19 149 70 20 149 70 21 149 70 22 149 70 23 149 70 24 149 70 25 149 70 26 149 70 27 149 70 28 149 70 29 149 70 30 149 70 32 149 70 33 149 70 34 149 70 35 149 70 36 149 70 37 149 70 38 149 70 39 149 70 40 149 70 41 149 70 42 149 70 43 149 70 44 149 70 45 149 70 46 149 70 48 149 70 49 149 70 50 149 70 51 149 70 52 149 70 53 149 70 54 149 70 55 149 70 56 149 70 57 149 70 58 149 70 59 149 70 60 149 70 61 149 70 62 149 70 64 149 70 65 149 70 66 149 70 67 149 70 68 149 70 69 149 70 70 149 70 71 149 70 72 149 70 73 149 70 74 149 70 75 149 70 76 149 70 77 149 70 78 149 70 80 149 70 81 149 70 82 149 70 83 149 70 84 149 70 85 149 70 30 40 100 30 40 100 30 40 100 30 40 100 30 40 100 30 40 100 30 40 100 30 40 100 30 40 100 30 40 100 30 40 100 30 40 100 30 40 100 30 40 100 30 40 100 30 40 100 30 40 100 30 40 100 30 40 100 30 40 100 30 40 100 30 40 100 30 40 100 30 40 100 30 40 100 30 40 100 30 40 100 30 40 100 30 40 100 30 40 100 30 40 100 30 40 100 30 40 100 30 40 100 30 40 100 30 40 100 30 40 100 30 40 100 30 40 100 30 40 100 30 40 100 30 40 100 30 40 100 30 40 100 30 40 100 30 40 100 30 40 100 30 40 100 30 40 100 30 40 100 30 40 100 30 40 100 30 40 100 30 40 100 30 40 100 30 40 100 30 40 100 30 40 100 30 40 100 30 40 100 30 40 100 30 40 100 30 40 100 30 40 100 30 40 100 30 40 100 30 40 100 30 40 100 30 40 100 30 40 100 30 40 100 30 40 100 30 40 100 30 40 100 30 40 100 30 40 100 30 40 100 30 40 100 30 40 100 170 149 70 171 149 70 172 149 70 173 149 70 174 149 70 176 149 70 177 149 70 178 149 70 179 149 70 180 149 70 181 149 70 182 149 70 183 149 70 184 149 70 185 149 70 186 149 70 187 149 70 188 149 70 189 149 70 190 149 70 192 149 70 193 149 70 194 149 70 195 149 70 196 149 70 197 149 70 198 149 70 199 149 70 200 149 70 201 149 70 202 149 70 203 149 70 204 149 70 205 149 70 206 149 70 208 149 70 209 149 70 210 149 70 211 149 70 212 149 70 213 149 70 214 149 70 215 149 70 216 149 70 217 149 70 218 149 70 219 149 70 220 149 70 221 149 70 222 149 70 224 149 70 225 149 70 226 149 70 227 149 70 228 149 70 229 149 70 230 149 70 231 149 70 232 149 70 233 149 70 234 149 70 235 149 70 236 149 70 237 149 70 238 149 70 240 149 70 241 149 70 242 149 70 243 149 70 244 149 70 245 149 70 246 149 70 247 149 70 248 149 70 249 149 70 250 149 70 251 149 70 252 149 70 253 149 70 255 149 70
0 151 70 1 151 70 2 151 70 3 151 70 4 151 70 5 151 70 6 151 70 7 151 70 8 151 70 9 151 70 10 151 70 11 151 70 12 151 70 13 151 70 14 151 70 16 151 70 17 151 70 18 151 70 19 151 70 20 151 70 21 151 70 22 151 70 23 151 70 24 151 70 25 151 70 26 151 70 27 151 70 28 151 70 29 151 70 30 151 70 32 151 70 33 151 70 34 151 70 35 151 70 36 151 70 37 151 70 38 151 70 39 151 70 40 151 70 41 151 70 42 151 70 43 151 70 44 151 70 45 151 70 46 151 70 48 151 70 49 151 70 50 151 70 51 151 70 52 151 70 53 151 70 54 151 70 55 151 70 56 151 70 57 151 70 58 151 70 59 151 70 60 151 70 61 151 70 62 151 70 64 151 70 65 151 70 66 151 70 67 151 70 68 151 70 69 151 70 70 151 70 71 151 70 72 151 70 73 151 70 74 151 70 75 151 70 76 151 70 77 151 70 78 151 70 80 151 70 81 151 70 82 151 70 83 151 70 84 151 70 85 151 70 86 151 70 30 40 100 30 40 100 30 40 100 30 40 100 30 40 100 30 40 100 30 40 100 30 40 100 30 40 100 30 40 100 30 40 100 30 40 100 30 40 100 30 40 100 30 40 100 30 40 100 30 40 100 30 40 100 30 40 100 30 40 100 30 40 100 30 40 100 30 40 100 30 40 100 30 40 100 30 40 100 30 40 100 30 40 100 30 40 100 30 40 100 30 40 100 30 40 100 30 40 100 30 40 100 30 40 100 30 40 100 30 40 100 30 40 100 30 40 100 30 40 100 30 40 100 30 40 100 30 40 100 30 40 100 30 40 100 30 40 100 30 40 100 30 40 100 30 40 100 30 40 100 30 40 100 30 40 100 30 40 100 30 40 100 30 40 100 30 40 100 30 40 100 30 40 100 30 40 100 30 40 100 30 40 100 30 40 100 30 40 100 30 40 100 30 40 100 30 40 100 30 40 100 30 40 100 30 40 100 30 40 100 30 40 100 30 40 100 30 40 100 30 40 100 30 40 100 30 40 100 30 40 100 169 151 70 170 151 70 171 151 70 172 151 70 173 151 70 174 151 70 176 151 70 177 151 70 178 151 70 179 151 70 180 151 70 181 151 70 182 151 70 183 151 70 184 151 70 185 151 70 186 151 70 187 151 70 188 151 70 189 151 70 190 151 70 192 151 70 193 151 70 194 151 70 195 151 70 196 151 70 197 151 70 198 151 70 199 151 70 200 151 70 201 151 70 202 151 70 203 151 70 204 151 70 205 151 70 206 151 70 208 151 70 209 151 70 210 151 70 211 151 70 212 151 70 213 151 70 214 151 70 215 151 70 216 151 70 217 151 70 218 151 70 219 151 70 220 151 70 221 151 70 222 151 70 224 151 70 225 151 70 226 151 70 227 151 70 228 151 70 229 151 70 230 151 70 231 151 70 232 151 70 233 151 70 234 151 70 235 151 70 236 151 70 237 151 70 238 151 70 240 151 70 241 151 70 242 151 70 243 151 70 244 151 70 245 151 70 246 151 70 247 151 70 248 151 70 249 151 70 250 151 70 251 151 70 252 151 70 253 151 70 255 151 70
0 152 70 1 152 70 2 152 70 3 152 70 4 152 70 5 152 70 6 152 70 7 152 70 8 152 70 9 152 70 10 152 70 11 152 70 12 152 70 13 152 70 14 152 70 16 152 70 17 152 70 18 152 70 19 152 70 20 152 70 21 152 70 22 152 70 23 152 70 24 152 70 25 152 70 26 152 70 27 152 70 28 152 70 29 152 70 30 152 70 32 152 70 33 152 70 34 152 70 35 152 70 36 152 70 37 152 70 38 152 70 39 152 70 40 152 70 41 152 70 42 152 70 43 152 70 44 152 70 45 152 70 46 152 70 48 152 70 49 152 70 50 152 70 51 152 70 52 152 70 53 152 70 54 152 70 55 152 70 56 152 70 57 152 70 58 152 70 59 152 70 60 152 70 61 152 70 62 152 70 64 152 70 65 152 70 66 152 70 67 152 70 68 152 70 69 152 70 70 152 70 71 152 70 72 152 70 73 152 70 74 152 70 75 152 70 76 152 70 77 152 70 78 152 70 80 152 70 81 152 70 82 152 70 83 152 70 84 152 70 85 152 70 86 152 70 30 40 100 30 40 100 30 40 100 30 40 100 30 40 100 30 40 100 30 40 100 30 40 100 30 40 100 30 40 100 30 40 100 30 40 100 30 40 100 30 40 100 30 40 100 30 40 100 30 40 100 30 40 100 30 40 100 30 40 100 30 40 100 30 40 100 30 40 100 30 40 100 30 40 100 30 40 100 30 40 100 30 40 100 30 40 100 30 40 100 30 40 100 30 40 100 30 40 100 30 40 100 30 40 100 30 40 100 30 40 100 30 40 100 30 40 100 30 40 100 30 40 100 30 40 100 30 40 100 30 40 100 30 40 100 30 40 100 30 40 100 30 40 100 30 40 100 30 40 100 30 40 100 30 40 100 30 40 100 30 40 100 30 40 100 30 40 100 30 40 100 30 40 100 30 40 100 30 40 100 30 40 100 30 40 100 30 40 100 30 40 100 30 40 100 30 40 100 30 40 100 30 40 100 30 40 100 30 40 100 30 40 100 30 40 100 30 40 100 30 40 100 30 40 100 30 40 100 30 40 100 169 152 70 170 152 70 171 152 70 172 152 70 173 152 70 174 152 70 176 152 70 177 152 70 178 152 70 179 152 70 180 152 70 181 152 70 182 152 70 183 152 70 184 152 70 185 152 70 186 152 70 187 152 70 188 152 70 189 152 70 190 152 70 192 152 70 193 152 70 194 152 70 195 152 70 196 152 70 197 152 70 198 152 70 199 152 70 200 152 70 201 152 70 202 152 70 203 152 70 204 152 70 205 152 70 206 152 70 208 152 70 209 152 70 210 152 70 211 152 70 212 152 70 213 152 70 214 152 70 215 152 70 216 152 70 217 152 70 218 152 70 219 152 70 220 152 70 221 152 70 222 152 70 224 152 70 225 152 70 226 152 70 227 152 70 228 152 70 229 152 70 230 152 70 231 152 70 232 152 70 233 152 70 234 152 70 235 152 70 236 152 70 237 152 70 238 152 70 240 152 70 241 152 70 242 152 70 243 152 70 244 152 70 245 152 70 246 152 70 247 152 70 248 152 70 249 152 70 250 152 70 251 152 70 252 152 70 253 152 70 255 152 70
0 153 70 1 153 70 2 153 70 3 153 70 4 153 70 5 153 70 6 153 70 7 153 70 8 153 70 9 153 70 10 153 70 11 153 70 12 153 70 13 153 70 14 153 70 16 153 70 17 153 70 18 153 70 19 153 70 20 153 70 21 153 70 22 153 70 23 153 70 24 153 70 25 153 70 26 153 70 27 153 70 28 153 70 29 153 70 30 153 70 32 153 70 33 153 70 34 153 70 35 153 70 36 153 70 37 153 70 38 153 70 39 153 70 40 153 70 41 153 70 42 153 70 43 153 70 44 153 70 45 153 70 46 153 70 48 153 70 49 153 70 50 153 70 51 153 70 52 153 70 53 153 70 54 153 70 55 153 70 56 153 70 57 153 70 58 153 70 59 153 70 60 153 70 61 153 70 62 153 70 64 153 70 65 153 70 66 153 70 67 153 70 68 153 70 69 153 70 70 153 70 71 153 70 72 153 70 73 153 70 74 153 70 75 153 70 76 153 70 77 153 70 78 153 70 80 153 70 81 153 70 82 153 70 83 153 70 84 153 70 85 153 70 86 153 70 87 153 70 30 40 100 30 40 100 30 40 100 30 40 100 30 40 100 30 40 100 30 40 100 30 40 100 30 40 100 30 40 100 30 40 100 30 40 100 30 40 100 30 40 100 30 40 100 30 40 100 30 40 100 30 40 100 30 40 100 30 40 100 30 40 100 30 40 100 30 40 100 30 40 100 30 40 100 30 40 100 30 40 100 30 40 100 30 40 100 30 40 100 30 40 100 30 40 100 30 40 100 30 40 100 30 40 100 30 40 100 30 40 100 30 40 100 30 40 100 30 40 100 30 40 100 30 40 100 30 40 100 30 40 100 30 40 100 30 40 100 30 40 100 30 40 100 30 40 100 30 40 100 30 40 100 30 40 100 30 40 100 30 40 100 30 40 100 30 40 100 30 40 100 30 40 100 30 40 100 30 40 100 30 40 100 30 40 100 30 40 100 30 40 100 30 40 100 30 40 100 30 40 100 30 40 100 30 40 100 30 40 100 30 40 100 30 40 100 30 40 100 30 40 100 30 40 100 168 153 70 169 153 70 170 153 70 171 153 70 172 153 70 173 153 70 174 153 70 176 153 70 177 153 70 178 153 70 179 153 70 180 153 70 181 153 70 182 153 70 183 153 70 184 153 70 185 153 70 186 153 70 187 153 70 188 153 70 189 153 70 190 153 70 192 153 70 193 153 70 194 153 70 195 153 70 196 153 70 197 153 70 198 153 70 199 153 70 200 153 70 201 153 70 202 153 70 203 153 70 204 153 70 205 153 70 206 153 70 208 153 70 209 153 70 210 153 70 211 153 70 212 153 70 213 153 70 214 153 70 215 153 70 216 153 70 217 153 70 218 153 70 219 153 70 220 153 70 221 153 70 222 153 70 224 153 70 225 153 70 226 153 70 227 153 70 228 153 70 229 153 70 230 153 70 231 153 70 232 153 70 233 153 70 234 153 70 235 153 70 236 153 70 237 153 70 238 153 70 240 153 70 241 153 70 242 153 70 243 153 70 244 153 70 245 153 70 246 153 70 247 153 70 248 153 70 249 153 70 250 153 70 251 153 70 252 153 70 253 153 70 255 153 70
0 155 70 1 155 70 2 155 70 3 155 70 4 155 70 5 155 70 6 155 70 7 155 70 8 155 70 9 155 70 10 155 70 11 155 70 12 155 70 13 155 70 14 155 70 16 155 70 17 155 70 18 155 70 19 155 70 20 155 70 21 155 70 22 155 70 23 155 70 24 155 70 25 155 70 26 155 70 27 155 70 28 155 70 29 155 70 30 155 70 32 155 70 33 155 70 34 155 70 35 155 70 36 155 70 37 155 70 38 155 70 39 155 70 40 155 70 41 155 70 42 155 70 43 155 70 44 155 70 45 155 70 46 155 70 48 155 70 49 155 70 50 155 70 51 155 70 52 155 70 53 155 70 54 155 70 55 155 70 56 155 70 57 155 70 58 155 70 59 155 70 60 155 70 61 155 70 62 155 70 64 155 70 65 155 70 66 155 70 67 155 70 68 155 70 69 155 70 70 155 70 71 155 70 72 155 70 73 155 70 74 155 70 75 155 70 76 155 70 77 155 70 78 155 70 80 155 70 81 155 70 82 155 70 83 155 70 84 155 70 85 155 70 86 155 70 87 155 70 30 40 100 30 40 100 30 40 100 30 40 100 30 40 100 30 40 100 30 40 100 30 40 100 30 40 100 30 40 100 30 40 100 30 40 100 30 40 100 30 40 100 30 40 100 30 40 100 30 40 100 30 40 100 30 40 100 30 40 100 30 40 100 30 40 100 30 40 100 30 40 100 30 40 100 30 40 100 30 40 100 30 40 100 30 40 100 30 40 100 30 40 100 30 40 100 30 40 100 30 40 100 30 40 100 30 40 100 30 40 100 30 40 100 30 40 100 30 40 100 30 40 100 30 40 100 30 40 100 30 40 100 30 40 100 30 40 100 30 40 100 30 40 100 30 40 100 30 40 100 30 40 100 30 40 100 30 40 100 30 40 100 30 40 100 30 40 100 30 40 100 30 40 100 30 40 100 30 40 100 30 40 100 30 40 100 30 40 100 30 40 100 30 40 100 30 40 100 30 40 100 30 40 100 30 40 100 30 40 100 30 40 100 30 40 100 30 40 100 30 40 100 30 40 100 168 155 70 169 155 70 170 155 70 171 155 70 172 155 70 173 155 70 174 155 70 176 155 70 177 155 70 178 155 70 179 155 70 180 155 70 181 155 70 182 155 70 183 155 70 184 155 70 185 155 70 186 155 70 187 155 70 188 155 70 189 155 70 190 155 70 192 155 70 193 155 70 194 155 70 195 155 70 196 155 70 197 155 70 198 155 70 199 155 70 200 155 70 201 155 70 202 155 70 203 155 70 204 155 70 205 155 70 206 155 70 208 155 70 209 155 70 210 155 70 211 155 70 212 155 70 213 155 70 214 155 70 215 155 70 216 155 70 217 155 70 218 155 70 219 155 70 220 155 70 221 155 70 222 155 70 224 155 70 225 155 70 226 155 70 227 155 70 228 155 70 229 155 70 230 155 70 231 155 70 232 155 70 233 155 70 234 155 70 235 155 70 236 155 70 237 155 70 238 155 70 240 155 70 241 155 70 242 155 70 243 155 70 244 155 70 245 155 70 246 155 70 247 155 70 248 155 70 249 155 70 250 155 70 251 155 70 252 155 70 253 155 70 255 155 70
0 156 70 1 156 70 2 156 70 3 156 70 4 156 70 5 156 70 6 156 70 7 156 70 8 156 70 9 156 70 10 156 70 11 156 70 12 156 70 13 156 70 14 156 70 16 156 70 17 156 70 18 156 70 19 156 70 20 156 70 21 156 70 22 156 70 23 156 70 24 156 70 25 156 70 26 156 70 27 156 70 28 156 70 29 156 70 30 156 70 32 156 70 33 156 70 34 156 70 35 156 70 36 156 70 37 156 70 38 156 70 39 156 70 40 156 70 41 156 70 42 156 70 43 156 70 44 156 70 45 156 70 46 156 70 48 156 70 49 156 70 50 156 70 51 156 70 52 156 70 53 156 70 54 156 70 55 156 70 56 156 70 57 156 70 58 156 70 59 156 70 60 156 70 61 156 70 62 156 70 64 156 70 65 156 70 66 156 70 67 156 70 68 156 70 69 156 70 70 156 70 71 156 70 72 156 70 73 156 70 74 156 70 75 156 70 76 156 70 77 156 70 78 156 70 80 156 70 81 156 70 82 156 70 83 156 70 84 156 70 85 156 70 86 156 70 87 156 70 88 156 70 30 40 100 30 40 100 30 40 100 30 40 100 30 40 100 30 40 100 30 40 100 30 40 100 30 40 100 30 40 100 30 40 100 30 40 100 30 40 100 30 40 100 30 40 100 30 40 100 30 40 100 30 40 100 30 40 100 30 40 100 30 40 100 30 40 100 30 40 100 30 40 100 30 40 100 30 40 100 30 40 100 30 40 100 30 40 100 30 40 100 30 40 100 30 40 100 30 40 100 30 40 100 30 40 100 30 40 100 30 40 100 30 40 100 30 40 100 30 40 100 30 40 100 30 40 100 30 40 100 30 40 100 30 40 100 30 40 100 30 40 100 30 40 100 30 40 100 30 40 100 30 40 100 30 40 100 30 40 100 30 40 100 30 40 100 30 40 100 30 40 100 30 40 100 30 40 100 30 40 100 30 40 100 30 40 100 30 40 100 30 40 100 30 40 100 30 40 100 30 40 100 30 40 100 30 40 100 30 40 100 30 40 100 30 40 100 30 40 100 167 156 70 168 156 70 169 156 70 170 156 70 171 156 70 172 156 70 173 156 70 174 156 70 176 156 70 177 156 70 178 156 70 179 156 70 180 156 70 181 156 70 182 156 70 183 156 70 184 156 70 185 156 70 186 156 70 187 156 70 188 156 70 189 156 70 190 156 70 192 156 70 193 156 70 194 156 70 195 156 70 196 156 70 197 156 70 198 156 70 199 156 70 200 156 70 201 156 70 202 156 70 203 156 70 204 156 70 205 156 70 206 156 70 208 156 70 209 156 70 210 156 70 211 156 70 212 156 70 213 156 70 214 156 70 215 156 70 216 156 70 217 156 70 218 156 70 219 156 70 220 156 70 221 156 70 222 156 70 224 156 70 225 156 70 226 156 70 227 156 70 228 156 70 229 156 70 230 156 70 231 156 70 232 156 70 233 156 70 234 156 70 235 156 70 236 156 70 237 156 70 238 156 70 240 156 70 241 156 70 242 156 70 243 156 70 244 156 70 245 156 70 246 156 70 247 156 70 248 156 70 249 156 70 250 156 70 251 156 70 252 156 70 253 156 70 255 156 70
0 158 70 1 158 70 2 158 70 3 158 70 4 158 70 5 158 70 6 158 70 7 158 70 8 158 70 9 158 70 10 158 70 11 158 70 12 158 70 13 158 70 14 158 70 16 158 70 17 158 70 18 158 70 19 158 70 20 158 70 21 158 70 22 158 70 23 158 70 24 158 70 25 158 70 26 158 70 27 158 70 28 158 70 29 158 70 30 158 70 32 158 70 33 158 70 34 158 70 35 158 70 36 158 70 37 158 70 38 158 70 39 158 70 40 158 70 41 158 70 42 158 70 43 158 70 44 158 70 45 158 70 46 158 70 48 158 70 49 158 70 50 158 70 51 158 70 52 158 70 53 158 70 54 158 70 55 158 70 56 158 70 57 158 70 58 158 70 59 158 70 60 158 70 61 158 70 62 158 70 64 158 70 65 158 70 66 158 70 67 158 70 68 158 70 69 158 70 70 158 70 71 158 70 72 158 70 73 158 70 74 158 70 75 158 70 76 158 70 77 158 70 78 158 70 80 158 70 81 158 70 82 158 70 83 158 70 84 158 70 85 158 70 86 158 70 87 158 70 88 158 70 30 40 100 30 40 100 30 40 100 30 40 100 30 40 100 30 40 100 30 40 100 30 40 100 30 40 100 30 40 100 30 40 100 30 40 100 30 40 100 30 40 100 30 40 100 30 40 100 30 40 100 30 40 100 30 40 100 30 40 100 30 40 100 30 40 100 30 40 100 30 40 100 30 40 100 30 40 100 30 40 100 30 40 100 30 40 100 30 40 100 30 40 100 30 40 100 30 40 100 30 40 100 30 40 100 30 40 100 30 40 100 30 40 100 30 40 100 30 40 100 30 40 100 30 40 100 30 40 100 30 40 100 30 40 100 30 40 100 30 40 100 30 40 100 30 40 100 30 40 100 30 40 100 30 40 100 30 40 100 30 40 100 30 40 100 30 40 100 30 40 100 30 40 100 30 40 100 30 40 100 30 40 100 30 40 100 30 40 100 30 40 100 30 40 100 30 40 100 30 40 100 30 40 100 30 40 100 30 40 100 30 40 100 30 40 100 30 40 100 167 158 70 168 158 70 169 158 70 170 158 70 171 158 70 172 158 70 173 158 70 174 158 70 176 158 70 177 158 70 178 158 70 179 158 70 180 158 70 181 158 70 182 158 70 183 158 70 184 158 70 185 158 70 186 158 70 187 158 70 188 158 70 189 158 70 190 158 70 192 158 70 193 158 70 194 158 70 195 158 70 196 158 70 197 158 70 198 158 70 199 158 70 200 158 70 201 158 70 202 158 70 203 158 70 204 158 70 205 158 70 206 158 70 208 158 70 209 158 70 210 158 70 211 158 70 212 158 70 213 158 70 214 158 70 215 158 70 216 158 70 217 158 70 218 158 70 219 158 70 220 158 70 221 158 70 222 158 70 224 158 70 225 158 70 226 158 70 227 158 70 228 158 70 229 158 70 230 158 70 231 158 70 232 158 70 233 158 70 234 158 70 235 158 70 236 158 70 237 158 70 238 158 70 240 158 70 241 158 70 242 158 70 243 158 70 244 158 70 245 158 70 246 158 70 247 158 70 248 158 70 249 158 70 250 158 70 251 158 70 252 158 70 253 158 70 255 158 70
0 159 70 1 159 70 2 159 70 3 159 70 4 159 70 5 159 70 6 159 70 7 159 70 8 159 70 9 159 70 10 159 70 11 159 70 12 159 70 13 159 70 14 159 70 16 159 70 17 159 70 18 159 70 19 159 70 20 159 70 21 159 70 22 159 70 23 159 70 24 159 70 25 159 70 26 159 70 27 159 70 28 159 70 29 159 70 30 159 70 32 159 70 33 159 70 34 159 70 35 159 70 36 159 70 37 159 70 38 159 70 39 159 70 40 159 70 41 159 70 42 159 70 43 159 70 44 159 70 45 159 70 46 159 70 48 159 70 49 159 70 50 159 70 51 159 70 52 159 70 53 159 70 54 159 70 55 159 70 56 159 70 57 159 70 58 159 70 59 159 70 60 159 70 61 159 70 62 159 70 64 159 70 65 159 70 66 159 70 67 159 70 68 159 70 69 159 70 70 159 70 71 159 70 72 159 70 73 159 70 74 159 70 75 159 70 76 159 70 77 159 70 78 159 70 80 159 70 81 159 70 82 159 70 83 159 70 84 159 70 85 159 70 86 159 70 87 159 70 88 159 70 89 159 70 30 40 100 30 40 100 30 40 100 30 40 100 30 40 100 30 40 100 30 40 100 30 40 100 30 40 100 30 40 100 30 40 100 30 40 100 30 40 100 30 40 100 30 40 100 30 40 100 30 40 100 30 40 100 30 40 100 30 40 100 30 40 100 30 40 100 30 40 100 30 40 100 30 40 100 30 40 100 30 40 100 30 40 100 30 40 100 30 40 100 30 40 100 30 40 100 30 40 100 30 40 100 30 40 100 30 40 100 30 40 100 30 40 100 30 40 100 30 40 100 30 40 100 30 40 100 30 40 100 30 40 100 30 40 100 30 40 100 30 40 100 30 40 100 30 40 100 30 40 100 30 40 100 30 40 100 30 40 100 30 40 100 30 40 100 30 40 100 30 40 100 30 40 100 30 40 100 30 40 100 30 40 100 30 40 100 30 40 100 30 40 100 30 40 100 30 40 100 30 40 100 30 40 100 30 40 100 30 40 100 30 40 100 166 159 70 167 159 70 168 159 70 169 159 70 170 159 70 171 159 70 172 159 70 173 159 70 174 159 70 176 159 70 177 159 70 178 159 70 179 159 70 180 159 70 181 159 70 182 159 70 183 159 70 184 159 70 185 159 70 186 159 70 187 159 70 188 159 70 189 159 70 190 159 70 192 159 70 193 159 70 194 159 70 195 159 70 196 159 70 197 159 70 198 159 70 199 159 70 200 159 70 201 159 70 202 159 70 203 159 70 204 159 70 205 159 70 206 159 70 208 159 70 209 159 70 210 159 70 211 159 70 212 159 70 213 159 70 214 159 70 215 159 70 216 159 70 217 159 70 218 159 70 219 159 70 220 159 70 221 159 70 222 159 70 224 159 70 225 159 70 226 159 70 227 159 70 228 159 70 229 159 70 230 159 70 231 159 70 232 159 70 233 159 70 234 159 70 235 159 70 236 159 70 237 159 70 238 159 70 240 159 70 241 159 70 242 159 70 243 159 70 244 159 70 245 159 70 246 159 70 247 159 70 248 159 70 249 159 70 250 159 70 251 159 70 252 159 70 253 159 70 255 159 70
0 160 70 1 160 70 2 160 70 3 160 70 4 160 70 5 160 70 6 160 70 7 160 70 8 160 70 9 160 70 10 160 70 11 160 70 12 160 70 13 160 70 14 160 70 16 160 70 17 160 70 18 160 70 19 160 70 20 160 70 21 160 70 22 160 70 23 160 70 24 160 70 25 160 70 26 160 70 27 160 70 28 160 70 29 160 70 30 160 70 32 160 70 33 160 70 34 160 70 35 160 70 36 160 70 37 160 70 38 160 70 39 160 70 40 160 70 41 160 70 42 160 70 43 160 70 44 160 70 45 160 70 46 160 70 48 160 70 49 160 70 50 160 70 51 160 70 52 160 70 53 160 70 54 160 70 55 160 70 56 160 70 57 160 70 58 160 70 59 160 70 60 160 70 61 160 70 62 160 70 64 160 70 65 160 70 66 160 70 67 160 70 68 160 70 69 160 70 70 160 70 71 160 70 72 160 70 73 160 70 74 160 70 75 160 70 76 160 70 77 160 70 78 160 70 80 160 70 81 160 70 82 160 70 83 160 70 84 160 70 85 160 70 86 160 70 87 160 70 88 160 70 89 160 70 30 40 100 30 40 100 30 40 100 30 40 100 30 40 100 30 40 100 30 40 100 30 40 100 30 40 100 30 40 100 30 40 100 30 40 100 30 40 100 30 40 100 30 40 100 30 40 100 30 40 100 30 40 100 30 40 100 30 40 100 30 40 100 30 40 100 30 40 100 30 40 100 30 40 100 30 40 100 30 40 100 30 40 100 30 40 100 30 40 100 30 40 100 30 40 100 30 40 100 30 40 100 30 40 100 30 40 100 30 40 100 30 40 100 30 40 100 30 40 100 30 40 100 30 40 100 30 40 100 30 40 100 30 40 100 30 40 100 30 40 100 30 40 100 30 40 100 30 40 100 30 40 100 30 40 100 30 40 100 30 40 100 30 40 100 30 40 100 30 40 100 30 40 100 30 40 100 30 40 100 30 40 100 30 40 100 30 40 100 30 40 100 30 40 100 30 40 100 30 40 100 30 40 100 30 40 100 30 40 100 30 40 100 166 160 70 167 160 70 168 160 70 169 160 70 170 160 70 171 160 70 172 160 70 173 160 70 174 160 70 176 160 70 177 160 70 178 160 70 179 160 70 180 160 70 181 160 70 182 160 70 183 160 70 184 160 70 185 160 70 186 160 70 187 160 70 188 160 70 189 160 70 190 160 70 192 160 70 193 160 70 194 160 70 195 160 70 196 160 70 197 160 70 198 160 70 199 160 70 200 160 70 201 160 70 202 160 70 203 160 70 204 160 70 205 160 70 206 160 70 208 160 70 209 160 70 210 160 70 211 160 70 212 160 70 213 160 70 214 160 70 215 160 70 216 160 70 217 160 70 218 160 70 219 160 70 220 160 70 221 160 70 222 160 70 224 160 70 225 160 70 226 160 70 227 160 70 228 160 70 229 160 70 230 160 70 231 160 70 232 160 70 233 160 70 234 160 70 235 160 70 236 160 70 237 160 70 238 160 70 240 160 70 241 160 70 242 160 70 243 160 70 244 160 70 245 160 70 246 160 70 247 160 70 248 160 70 249 160 70 250 160 70 251 160 70 252 160 70 253 160 70 255 160 70
0 162 70 1 162 70 2 162 70 3 162 70 4 162 70 5 162 70 6 162 70 7 162 70 8 162 70 9 162 70 10 162 70 11 162 70 12 162 70 13 162 70 14 162 70 16 162 70 17 162 70 18 162 70 19 162 70 20 162 70 21 162 70 22 162 70 23 162 70 24 162 70 25 162 70 26 162 70 27 162 70 28 162 70 29 162 70 30 162 70 32 162 70 33 162 70 34 162 70 35 162 70 36 162 70 37 162 70 38 162 70 39 162 70 40 162 70 41 162 70 42 162 70 43 162 70 44 162 70 45 162 70 46 162 70 48 162 70 49 162 70 50 162 70 51 162 70 52 162 70 53 162 70 54 162 70 55 162 70 56 162 70 57 162 70 58 162 70 59 162 70 60 162 70 61 162 70 62 162 70 64 162 70 65 162 70 66 162 70 67 162 70 68 162 70 69 162 70 70 162 70 71 162 70 72 162 70 73 162 70 74 162 70 75 162 70 76 162 70 77 162 70 78 162 70 80 162 70 81 162 70 82 162 70 83 162 70 84 162 70 85 162 70 86 162 70 87 162 70 88 162 70 89 162 70 90 162 70 30 40 100 30 40 100 30 40 100 30 40 100 30 40 100 30 40 100 30 40 100 30 40 100 30 40 100 30 40 100 30 40 100 30 40 100 30 40 100 30 40 100 30 40 100 30 40 100 30 40 100 30 40 100 30 40 100 30 40 100 30 40 100 30 40 100 30 40 100 30 40 100 30 40 100 30 40 100 30 40 100 30 40 100 30 40 100 30 40 100 30 40 100 30 40 100 30 40 100 30 40 100 30 40 100 30 40 100 30 40 100 30 40 100 30 40 100 30 40 100 30 40 100 30 40 100 30 40 100 30 40 100 30 40 100 30 40 100 30 40 100 30 40 100 30 40 100 30 40 100 30 40 100 30 40 100 30 40 100 30 40 100 30 40 100 30 40 100 30 40 100 30 40 100 30 40 100 30 40 100 30 40 100 30 40 100 30 40 100 30 40 100 30 40 100 30 40 100 30 40 100 30 40 100 30 40 100 165 162 70 166 162 70 167 162 70 168 162 70 169 162 70 170 162 70 171 162 70 172 162 70 173 162 70 174 162 70 176 162 70 177 162 70 178 162 70 179 162 70 180 162 70 181 162 70 182 162 70 183 162 70 184 162 70 185 162 70 186 162 70 187 162 70 188 162 70 189 162 70 190 162 70 192 162 70 193 162 70 194 162 70 195 162 70 196 162 70 197 162 70 198 162 70 199 162 70 200 162 70 201 162 70 202 162 70 203 162 70 204 162 70 205 162 70 206 162 70 208 162 70 209 162 70 210 162 70 211 162 70 212 162 70 213 162 70 214 162 70 215 162 70 216 162 70 217 162 70 218 162 70 219 162 70 220 162 70 221 162 70 222 162 70 224 162 70 225 162 70 226 162 70 227 162 70 228 162 70 229 162 70 230 162 70 231 162 70 232 162 70 233 162 70 234 162 70 235 162 70 236 162 70 237 162 70 238 162 70 240 162 70 241 162 70 242 162 70 243 162 70 244 162 70 245 162 70 246 162 70 247 162 70 248 162 70 249 162 70 250 162 70 251 162 70 252 162 70 253 162 70 255 162 70
0 163 70 1 163 70 2 163 70 3 163 70 4 163 70 5 163 70 6 163 70 7 163 70 8 163 70 9 163 70 10 163 70 11 163 70 12 163 70 13 163 70 14 163 70 16 163 70 17 163 70 18 163 70 19 163 70 20 163 70 21 163 70 22 163 70 23 163 70 24 163 70 25 163 70 26 163 70 27 163 70 28 163 70 29 163 70 30 163 70 32 163 70 33 163 70 34 163 70 35 163 70 36 163 70 37 163 70 38 163 70 39 163 70 40 163 70 41 163 70 42 163 70 43 163 70 44 163 70 45 163 70 46 163 70 48 163 70 49 163 70 50 163 70 51 163 70 52 163 70 53 163 70 54 163 70 55 163 70 56 163 70 57 163 70 58 163 70 59 163 70 60 163 70 61 163 70 62 163 70 64 163 70 65 163 70 66 163 70 67 163 70 68 163 70 69 163 70 70 163 70 71 163 70 72 163 70 73 163 70 74 163 70 75 163 70 76 163 70 77 163 70 78 163 70 80 163 70 81 163 70 82 163 70 83 163 70 84 163 70 85 163 70 86 163 70 87 163 70 88 163 70 89 163 70 90 163 70 91 163 70 30 40 100 30 40 100 30 40 100 30 40 100 30 40 100 30 40 100 30 40 100 30 40 100 30 40 100 30 40 100 30 40 100 30 40 100 30 40 100 30 40 100 30 40 100 30 40 100 30 40 100 30 40 100 30 40 100 30 40 100 30 40 100 30 40 100 30 40 100 30 40 100 30 40 100 30 40 100 30 40 100 30 40 100 30 40 100 30 40 100 30 40 100 30 40 100 30 40 100 30 40 100 30 40 100 30 40 100 30 40 100 30 40 100 30 40 100 30 40 100 30 40 100 30 40 100 30 40 100 30 40 100 30 40 100 30 40 100 30 40 100 30 40 100 30 40 100 30 40 100 30 40 100 30 40 100 30 40 100 30 40 100 30 40 100 30 40 100 30 40 100 30 40 100 30 40 100 30 40 100 30 40 100 30 40 100 30 40 100 30 40 100 30 40 100 30 40 100 30 40 100 164 163 70 165 163 70 166 163 70 167 163 70 168 163 70 169 163 70 170 163 70 171 163 70 172 163 70 173 163 70 174 163 70 176 163 70 177 163 70 178 163 70 179 163 70 180 163 70 181 163 70 182 163 70 183 163 70 184 163 70 185 163 70 186 163 70 187 163 70 188 163 70 189 163 70 190 163 70 192 163 70 193 163 70 194 163 70 195 163 70 196 163 70 197 163 70 198 163 70 199 163 70 200 163 70 201 163 70 202 163 70 203 163 70 204 163 70 205 163 70 206 163 70 208 163 70 209 163 70 210 163 70 211 163 70 212 163 70 213 163 70 214 163 70 215 163 70 216 163 70 217 163 70 218 163 70 219 163 70 220 163 70 221 163 70 222 163 70 224 163 70 225 163 70 226 163 70 227 163 70 228 163 70 229 163 70 230 163 70 231 163 70 232 163 70 233 163 70 234 163 70 235 163 70 236 163 70 237 163 70 238 163 70 240 163 70 241 163 70 242 163 70 243 163 70 244 163 70 245 163 70 246 163 70 247 163 70 248 163 70 249 163 70 250 163 70 251 163 70 252 163 70 253 163 70 255 163 70
0 165 70 1 165 70 2 165 70 3 165 70 4 165 70 5 165 70 6 165 70 7 165 70 8 165 70 9 165 70 10 165 70 11 165 70 12 165 70 13 165 70 14 165 70 16 165 70 17 165 70 18 165 70 19 165 70 20 165 70 21 165 70 22 165 70 23 165 70 24 165 70 25 165 70 26 165 70 27 165 70 28 165 70 29 165 70 30 165 70 32 165 70 33 165 70 34 165 70 35 165 70 36 165 70 37 165 70 38 165 70 39 165 70 40 165 70 41 165 70 42 165 70 43 165 70 44 165 70 45 165 70 46 165 70 48 165 70 49 165 70 50 165 70 51 165 70 52 165 70 53 165 70 54 165 70 55 165 70 56 165 70 57 165 70 58 165 70 59 165 70 60 165 70 61 165 70 62 165 70 64 165 70 65 165 70 66 165 70 67 165 70 68 165 70 69 165 70 70 165 70 71 165 70 72 165 70 73 165 70 74 165 70 75 165 70 76 165 70 77 165 70 78 165 70 80 165 70 81 165 70 82 165 70 83 165 70 84 165 70 85 165 70 86 165 70 87 165 70 88 165 70 89 165 70 90 165 70 91 165 70 92 165 70 30 40 100 30 40 100 30 40 100 30 40 100 30 40 100 30 40 100 30 40 100 30 40 100 30 40 100 30 40 100 30 40 100 30 40 100 30 40 100 30 40 100 30 40 100 30 40 100 30 40 100 30 40 100 30 40 100 30 40 100 30 40 100 30 40 100 30 40 100 30 40 100 30 40 100 30 40 100 30 40 100 30 40 100 30 40 100 30 40 100 30 40 100 30 40 100 30 40 100 30 40 100 30 40 100 30 40 100 30 40 100 30 40 100 30 40 100 30 40 100 30 40 100 30 40 100 30 40 100 30 40 100 30 40 100 30 40 100 30 40 100 30 40 100 30 40 100 30 40 100 30 40 100 30 40 100 30 40 100 30 40 100 30 40 100 30 40 100 30 40 100 30 40 100 30 40 100 30 40 100 30 40 100 30 40 100 30 40 100 30 40 100 30 40 100 163 165 70 164 165 70 165 165 70 166 165 70 167 165 70 168 165 70 169 165 70 170 165 70 171 165 70 172 165 70 173 165 70 174 165 70 176 165 70 177 165 70 178 165 70 179 165 70 180 165 70 181 165 70 182 165 70 183 165 70 184 165 70 185 165 70 186 165 70 187 165 70 188 165 70 189 165 70 190 165 70 192 165 70 193 165 70 194 165 70 195 165 70 196 165 70 197 165 70 198 165 70 199 165 70 200 165 70 201 165 70 202 165 70 203 165 70 204 165 70 205 165 70 206 165 70 208 165 70 209 165 70 210 165 70 211 165 70 212 165 70 213 165 70 214 165 70 215 165 70 216 165 70 217 165 70 218 165 70 219 165 70 220 165 70 221 165 70 222 165 70 224 165 70 225 165 70 226 165 70 227 165 70 228 165 70 229 165 70 230 165 70 231 165 70 232 165 70 233 165 70 234 165 70 235 165 70 236 165 70 237 165 70 238 165 70 240 165 70 241 165 70 242 165 70 243 165 70 244 165 70 245 165 70 246 165 70 247 165 70 248 165 70 249 165 70 250 165 70 251 165 70 252 165 70 253 165 70 255 165 70
0 166 70 1 166 70 2 166 70 3 166 70 4 166 70 5 166 70 6 166 70 7 166 70 8 166 70 9 166 70 10 166 70 11 166 70 12 166 70 13 166 70 14 166 70 16 166 70 17 166 70 18 166 70 19 166 70 20 166 70 21 166 70 22 166 70 23 166 70 24 166 70 25 166 70 26 166 70 27 166 70 28 166 70 29 166 70 30 166 70 32 166 70 33 166 70 34 166 70 35 166 70 36 166 70 37 166 70 38 166 70 39 166 70 40 166 70 41 166 70 42 166 70 43 166 70 44 166 70 45 166 70 46 166 70 48 166 70 49 166 70 50 166 70 51 166 70 52 166 70 53 166 70 54 166 70 55 166 70 56 166 70 57 166 70 58 166 70 59 166 70 60 166 70 61 166 70 62 166 70 64 166 70 65 166 70 66 166 70 67 166 70 68 166 70 69 166 70 70 166 70 71 166 70 72 166 70 73 166 70 74 166 70 75 166 70 76 166 70 77 166 70 78 166 70 80 166 70 81 166 70 82 166 70 83 166 70 84 166 70 85 166 70 86 166 70 87 166 70 88 166 70 89 166 70 90 166 70 91 166 70 92 166 70 30 40 100 30 40 100 30 40 100 30 40 100 30 40 100 30 40 100 30 40 100 30 40 100 30 40 100 30 40 100 30 40 100 30 40 100 30 40 100 30 40 100 30 40 100 30 40 100 30 40 100 30 40 100 30 40 100 30 40 100 30 40 100 30 40 100 30 40 100 30 40 100 30 40 100 30 40 100 30 40 100 30 40 100 30 40 100 30 40 100 30 40 100 30 40 100 30 40 100 30 40 100 30 40 100 30 40 100 30 40 100 30 40 100 30 40 100 30 40 100 30 40 100 30 40 100 30 40 100 30 40 100 30 40 100 30 40 100 30 40 100 30 40 100 30 40 100 30 40 100 30 40 100 30 40 100 30 40 100 30 40 100 30 40 100 30 40 100 30 40 100 30 40 100 30 40 100 30 40 100 30 40 100 30 40 100 30 40 100 30 40 100 30 40 100 163 166 70 164 166 70 165 166 70 166 166 70 167 166 70 168 166 70 169 166 70 170 166 70 171 166 70 172 166 70 173 166 70 174 166 70 176 166 70 177 166 70 178 166 70 179 166 70 180 166 70 181 166 70 182 166 70 183 166 70 184 166 70 185 166 70 186 166 70 187 166 70 188 166 70 189 166 70 190 166 70 192 166 70 193 166 70 194 166 70 195 166 70 196 166 70 197 166 70 198 166 70 199 166 70 200 166 70 201 166 70 202 166 70 203 166 70 204 166 70 205 166 70 206 166 70 208 166 70 209 166 70 210 166 70 211 166 70 212 166 70 213 166 70 214 166 70 215 166 70 216 166 70 217 166 70 218 166 70 219 166 70 220 166 70 221 166 70 222 166 70 224 166 70 225 166 70 226 166 70 227 166 70 228 166 70 229 166 70 230 166 70 231 166 70 232 166 70 233 166 70 234 166 70 235 166 70 236 166 70 237 166 70 238 166 70 240 166 70 241 166 70 242 166 70 243 166 70 244 166 70 245 166 70 246 166 70 247 166 70 248 166 70 249 166 70 250 166 70 251 166 70 252 166 70 253 166 70 255 166 70
0 168 70 1 168 70 2 168 70 3 168 70 4 168 70 5 168 70 6 168 70 7 168 70 8 168 70 9 168 70 10 168 70 11 168 70 12 168 70 13 168 70 14 168 70 16 168 70 17 168 70 18 168 70 19 168 70 20 168 70 21 168 70 22 168 70 23 168 70 24 168 70 25 168 70 26 168 70 27 168 70 28 168 70 29 168 70 30 168 70 32 168 70 33 168 70 34 168 70 35 168 70 36 168 70 37 168 70 38 168 70 39 168 70 40 168 70 41 168 70 42 168 70 43 168 70 44 168 70 45 168 70 46 168 70 48 168 70 49 168 70 50 168 70 51 168 70 52 168 70 53 168 70 54 168 70 55 168 70 56 168 70 57 168 70 58 168 70 59 168 70 60 168 70 61 168 70 62 168 70 64 168 70 65 168 70 66 168 70 67 168 70 68 168 70 69 168 70 70 168 70 71 168 70 72 168 70 73 168 70 74 168 70 75 168 70 76 168 70 77 168 70 78 168 70 80 168 70 81 168 70 82 168 70 83 168 70 84 168 70 85 168 70 86 168 70 87 168 70 88 168 70 89 168 70 90 168 70 91 168 70 92 168 70 93 168 70 30 40 100 30 40 100 30 40 100 30 40 100 30 40 100 30 40 100 30 40 100 30 40 100 30 40 100 30 40 100 30 40 100 30 40 100 30 40 100 30 40 100 30 40 100 30 40 100 30 40 100 30 40 100 30 40 100 30 40 100 30 40 100 30 40 100 30 40 100 30 40 100 30 40 100 30 40 100 30 40 100 30 40 100 30 40 100 30 40 100 30 40 100 30 40 100 30 40 100 30 40 100 30 40 100 30 40 100 30 40 100 30 40 100 30 40 100 30 40 100 30 40 100 30 40 100 30 40 100 30 40 100 30 40 100 30 40 100 30 40 100 30 40 100 30 40 100 30 40 100 30 40 100 30 40 100 30 40 100 30 40 100 30 40 100 30 40 100 30 40 100 30 40 100 30 40 100 30 40 100 30 40 100 30 40 100 30 40 100 162 168 70 163 168 70 164 168 70 165 168 70 166 168 70 167 168 70 168 168 70 169 168 70 170 168 70 171 168 70 172 168 70 173 168 70 174 168 70 176 168 70 177 168 70 178 168 70 179 168 70 180 168 70 181 168 70 182 168 70 183 168 70 184 168 70 185 168 70 186 168 70 187 168 70 188 168 70 189 168 70 190 168 70 192 168 70 193 168 70 194 168 70 195 168 70 196 168 70 197 168 70 198 168 70 199 168 70 200 168 70 201 168 70 202 168 70 203 168 70 204 168 70 205 168 70 206 168 70 208 168 70 209 168 70 210 168 70 211 168 70 212 168 70 213 168 70 214 168 70 215 168 70 216 168 70 217 168 70 218 168 70 219 168 70 220 168 70 221 168 70 222 168 70 224 168 70 225 168 70 226 168 70 227 168 70 228 168 70 229 168 70 230 168 70 231 168 70 232 168 70 233 168 70 234 168 70 235 168 70 236 168 70 237 168 70 238 168 70 240 168 70 241 168 70 242 168 70 243 168 70 244 168 70 245 168 70 246 168 70 247 168 70 248 168 70 249 168 70 250 168 70 251 168 70 252 168 70 253 168 70 255 168 70
0 169 70 1 169 70 2 169 70 3 169 70 4 169 70 5 169 70 6 169 70 7 169 70 8 169 70 9 169 70 10 169 70 11 169 70 12 169 70 13 169 70 14 169 70 16 169 70 17 169 70 18 169 70 19 169 70 20 169 70 21 169 70 22 169 70 23 169 70 24 169 70 25 169 70 26 169 70 27 169 70 28 169 70 29 169 70 30 169 70 32 169 70 33 169 70 34 169 70 35 169 70 36 169 70 37 169 70 38 169 70 39 169 70 40 169 70 41 169 70 42 169 70 43 169 70 44 169 70 45 169 70 46 169 70 48 169 70 49 169 70 50 169 70 51 169 70 52 169 70 53 169 70 54 169 70 55 169 70 56 169 70 57 169 70 58 169 70 59 169 70 60 169 70 61 169 70 62 169 70 64 169 70 65 169 70 66 169 70 67 169 70 68 169 70 69 169 70 70 169 70 71 169 70 72 169 70 73 169 70 74 169 70 75 169 70 76 169 70 77 169 70 78 169 70 80 169 70 81 169 70 82 169 70 83 169 70 84 169 70 85 169 70 86 169 70 87 169 70 88 169 70 89 169 70 90 169 70 91 169 70 92 169 70 93 169 70 94 169 70 30 40 100 30 40 100 30 40 100 30 40 100 30 40 100 30 40 100 30 40 100 30 40 100 30 40 100 30 40 100 30 40 100 30 40 100 30 40 100 30 40 100 30 40 100 30 40 100 30 40 100 30 40 100 30 40 100 30 40 100 30 40 100 30 40 100 30 40 100 30 40 100 30 40 100 30 40 100 30 40 100 30 40 100 30 40 100 30 40 100 30 40 100 30 40 100 30 40 100 30 40 100 30 40 100 30 40 100 30 40 100 30 40 100 30 40 100 30 40 100 30 40 100 30 40 100 30 40 100 30 40 100 30 40 100 30 40 100 30 40 100 30 40 100 30 40 100 30 40 100 30 40 100 30 40 100 30 40 100 30 40 100 30 40 100 30 40 100 30 40 100 30 40 100 30 40 100 30 40 100 30 40 100 161 169 70 162 169 70 163 169 70 164 169 70 165 169 70 166 169 70 167 169 70 168 169 70 169 169 70 170 169 70 171 169 70 172 169 70 173 169 70 174 169 70 176 169 70 177 169 70 178 169 70 179 169 70 180 169 70 181 169 70 182 169 70 183 169 70 184 169 70 185 169 70 186 169 70 187 169 70 188 169 70 189 169 70 190 169 70 192 169 70 193 169 70 194 169 70 195 169 70 196 169 70 197 169 70 198 169 70 199 169 70 200 169 70 201 169 70 202 169 70 203 169 70 204 169 70 205 169 70 206 169 70 208 169 70 209 169 70 210 169 70 211 169 70 212 169 70 213 169 70 214 169 70 215 169 70 216 169 70 217 169 70 218 169 70 219 169 70 220 169 70 221 169 70 222 169 70 224 169 70 225 169 70 226 169 70 227 169 70 228 169 70 229 169 70 230 169 70 231 169 70 232 169 70 233 169 70 234 169 70 235 169 70 236 169 70 237 169 70 238 169 70 240 169 70 241 169 70 242 169 70 243 169 70 244 169 70 245 169 70 246 169 70 247 169 70 248 169 70 249 169 70 250 169 70 251 169 70 252 169 70 253 169 70 255 169 70
0 170 70 1 170 70 2 170 70 3 170 70 4 170 70 5 170 70 6 170 70 7 170 70 8 170 70 9 170 70 10 170 70 11 170 70 12 170 70 13 170 70 14 170 70 16 170 70 17 170 70 18 170 70 19 170 70 20 170 70 21 170 70 22 170 70 23 170 70 24 170 70 25 170 70 26 170 70 27 170 70 28 170 70 29 170 70 30 170 70 32 170 70 33 170 70 34 170 70 35 170 70 36 170 70 37 170 70 38 170 70 39 170 70 40 170 70 41 170 70 42 170 70 43 170 70 44 170 70 45 170 70 46 170 70 48 170 70 49 170 70 50 170 70 51 170 70 52 170 70 53 170 70 54 170 70 55 170 70 56 170 70 57 170 70 58 170 70 59 170 70 60 170 70 61 170 70 62 170 70 64 170 70 65 170 70 66 170 70 67 170 70 68 170 70 69 170 70 70 170 70 71 170 70 72 170 70 73 170 70 74 170 70 75 170 70 76 170 70 77 170 70 78 170 70 80 170 70 81 170 70 82 170 70 83 170 70 84 170 70 85 170 70 86 170 70 87 170 70 88 170 70 89 170 70 90 170 70 91 170 70 92 170 70 93 170 70 94 170 70 96 170 70 30 40 100 30 40 100 30 40 100 30 40 100 30 40 100 30 40 100 30 40 100 30 40 100 30 40 100 30 40 100 30 40 100 30 40 100 30 40 100 30 40 100 30 40 100 30 40 100 30 40 100 30 40 100 30 40 100 30 40 100 30 40 100 30 40 100 30 40 100 30 40 100 30 40 100 30 40 100 30 40 100 30 40 100 30 40 100 30 40 100 30 40 100 30 40 100 30 40 100 30 40 100 30 40 100 30 40 100 30 40 100 30 40 100 30 40 100 30 40 100 30 40 100 30 40 100 30 40 100 30 40 100 30 40 100 30 40 100 30 40 100 30 40 100 30 40 100 30 40 100 30 40 100 30 40 100 30 40 100 30 40 100 30 40 100 30 40 100 30 40 100 30 40 100 30 40 100 160 170 70 161 170 70 162 170 70 163 170 70 164 170 70 165 170 70 166 170 70 167 170 70 168 170 70 169 170 70 170 170 70 171 170 70 172 170 70 173 170 70 174 170 70 176 170 70 177 170 70 178 170 70 179 170 70 180 170 70 181 170 70 182 170 70 183 170 70 184 170 70 185 170 70 186 170 70 187 170 70 188 170 70 189 170 70 190 170 70 192 170 70 193 170 70 194 170 70 195 170 70 196 170 70 197 170 70 198 170 70 199 170 70 200 170 70 201 170 70 202 170 70 203 170 70 204 170 70 205 170 70 206 170 70 208 170 70 209 170 70 210 170 70 211 170 70 212 170 70 213 170 70 214 170 70 215 170 70 216 170 70 217 170 70 218 170 70 219 170 70 220 170 70 221 170 70 222 170 70 224 170 70 225 170 70 226 170 70 227 170 70 228 170 70 229 170 70 230 170 70 231 170 70 232 170 70 233 170 70 234 170 70 235 170 70 236 170 70 237 170 70 238 170 70 240 170 70 241 170 70 242 170 70 243 170 70 244 170 70 245 170 70 246 170 70 247 170 70 248 170 70 249 170 70 250 170 70 251 170 70 252 170 70 253 170 70 255 170 70
0 172 70 1 172 70 2 172 70 3 172 70 4 172 70 5 172 70 6 172 70 7 172 70 8 172 70 9 172 70 10 172 70 11 172 70 12 172 70 13 172 70 14 172 70 16 172 70 17 172 70 18 172 70 19 172 70 20 172 70 21 172 70 22 172 70 23 172 70 24 172 70 25 172 70 26 172 70 27 172 70 28 172 70 29 172 70 30 172 70 32 172 70 33 172 70 34 172 70 35 172 70 36 172 70 37 172 70 38 172 70 39 172 70 40 172 70 41 172 70 42 172 70 43 172 70 44 172 70 45 172 70 46 172 70 48 172 70 49 172 70 50 172 70 51 172 70 52 172 70 53 172 70 54 172 70 55 172 70 56 172 70 57 172 70 58 172 70 59 172 70 60 172 70 61 172 70 62 172 70 64 172 70 65 172 70 66 172 70 67 172 70 68 172 70 69 172 70 70 172 70 71 172 70 72 172 70 73 172 70 74 172 70 75 172 70 76 172 70 77 172 70 78 172 70 80 172 70 81 172 70 82 172 70 83 172 70 84 172 70 85 172 70 86 172 70 87 172 70 88 172 70 89 172 70 90 172 70 91 172 70 92 172 70 93 172 70 94 172 70 96 172 70 97 172 70 30 40 100 30 40 100 30 40 100 30 40 100 30 40 100 30 40 100 30 40 100 30 40 100 30 40 100 30 40 100 30 40 100 30 40 100 30 40 100 30 40 100 30 40 100 30 40 100 30 40 100 30 40 100 30 40 100 30 40 100 30 40 100 30 40 100 30 40 100 30 40 100 30 40 100 30 40 100 30 40 100 30 40 100 30 40 100 30 40 100 30 40 100 30 40 100 30 40 100 30 40 100 30 40 100 30 40 100 30 40 100 30 40 100 30 40 100 30 40 100 30 40 100 30 40 100 30 40 100 30 40 100 30 40 100 30 40 100 30 40 100 30 40 100 30 40 100 30 40 100 30 40 100 30 40 100 30 40 100 30 40 100 30 40 100 30 40 100 30 40 100 158 172 70 160 172 70 161 172 70 162 172 70 163 172 70 164 172 70 165 172 70 166 172 70 167 172 70 168 172 70 169 172 70 170 172 70 171 172 70 172 172 70 173 172 70 174 172 70 176 172 70 177 172 70 178 172 70 179 172 70 180 172 70 181 172 70 182 172 70 183 172 70 184 172 70 185 172 70 186 172 70 187 172 70 188 172 70 189 172 70 190 172 70 192 172 70 193 172 70 194 172 70 195 172 70 196 172 70 197 172 70 198 172 70 199 172 70 200 172 70 201 172 70 202 172 70 203 172 70 204 172 70 205 172 70 206 172 70 208 172 70 209 172 70 210 172 70 211 172 70 212 172 70 213 172 70 214 172 70 215 172 70 216 172 70 217 172 70 218 172 70 219 172 70 220 172 70 221 172 70 222 172 70 224 172 70 225 172 70 226 172 70 227 172 70 228 172 70 229 172 70 230 172 70 231 172 70 232 172 70 233 172 70 234 172 70 235 172 70 236 172 70 237 172 70 238 172 70 240 172 70 241 172 70 242 172 70 243 172 70 244 172 70 245 172 70 246 172 70 247 172 70 248 172 70 249 172 70 250 172 70 251 172 70 252 172 70 253 172 70 255 172 70
0 173 70 1 173 70 2 173 70 3 173 70 4 173 70 5 173 70 6 173 70 7 173 70 8 173 70 9 173 70 10 173 70 11 173 70 12 173 70 13 173 70 14 173 70 16 173 70 17 173 70 18 173 70 19 173 70 20 173 70 21 173 70 22 173 70 23 173 70 24 173 70 25 173 70 26 173 70 27 173 70 28 173 70 29 173 70 30 173 70 32 173 70 33 173 70 34 173 70 35 173 70 36 173 70 37 173 70 38 173 70 39 173 70 40 173 70 41 173 70 42 173 70 43 173 70 44 173 70 45 173 70 46 173 70 48 173 70 49 173 70 50 173 70 51 173 70 52 173 70 53 173 70 54 173 70 55 173 70 56 173 70 57 173 70 58 173 70 59 173 70 60 173 70 61 173 70 62 173 70 64 173 70 65 173 70 66 173 70 67 173 70 68 173 70 69 173 70 70 173 70 71 173 70 72 173 70 73 173 70 74 173 70 75 173 70 76 173 70 77 173 70 78 173 70 80 173 70 81 173 70 82 173 70 83 173 70 84 173 70 85 173 70 86 173 70 87 173 70 88 173 70 89 173 70 90 173 70 91 173 70 92 173 70 93 173 70 94 173 70 96 173 70 97 173 70 98 173 70 30 40 100 30 40 100 30 40 100 30 40 100 30 40 100 30 40 100 30 40 100 30 40 100 30 40 100 30 40 100 30 40 100 30 40 100 30 40 100 30 40 100 30 40 100 30 40 100 30 40 100 30 40 100 30 40 100 30 40 100 30 40 100 30 40 100 30 40 100 30 40 100 30 40 100 30 40 100 30 40 100 30 40 100 30 40 100 30 40 100 30 40 100 30 40 100 30 40 100 30 40 100 30 40 100 30 40 100 30 40 100 30 40 100 30 40 100 30 40 100 30 40 100 30 40 100 30 40 100 30 40 100 30 40 100 30 40 100 30 40 100 30 40 100 30 40 100 30 40 100 30 40 100 30 40 100 30 40 100 30 40 100 30 40 100 157 173 70 158 173 70 160 173 70 161 173 70 162 173 70 163 173 70 164 173 70 165 173 70 166 173 70 167 173 70 168 173 70 169 173 70 170 173 70 171 173 70 172 173 70 173 173 70 174 173 70 176 173 70 177 173 70 178 173 70 179 173 70 180 173 70 181 173 70 182 173 70 183 173 70 184 173 70 185 173 70 186 173 70 187 173 70 188 173 70 189 173 70 190 173 70 192 173 70 193 173 70 194 173 70 195 173 70 196 173 70 197 173 70 198 173 70 199 173 70 200 173 70 201 173 70 202 173 70 203 173 70 204 173 70 205 173 70 206 173 70 208 173 70 209 173 70 210 173 70 211 173 70 212 173 70 213 173 70 214 173 70 215 173 70 216 173 70 217 173 70 218 173 70 219 173 70 220 173 70 221 173 70 222 173 70 224 173 70 225 173 70 226 173 70 227 173 70 228 173 70 229 173 70 230 173 70 231 173 70 232 173 70 233 173 70 234 173 70 235 173 70 236 173 70 237 173 70 238 173 70 240 173 70 241 173 70 242 173 70 243 173 70 244 173 70 245 173 70 246 173 70 247 173 70 248 173 70 249 173 70 250 173 70 251 173 70 252 173 70 253 173 70 255 173 70
0 175 70 1 175 70 2 175 70 3 175 70 4 175 70 5 175 70 6 175 70 7 175 70 8 175 70 9 175 70 10 175 70 11 175 70 12 175 70 13 175 70 14 175 70 16 175 70 17 175 70 18 175 70 19 175 70 20 175 70 21 175 70 22 175 70 23 175 70 24 175 70 25 175 70 26 175 70 27 175 70 28 175 70 29 175 70 30 175 70 32 175 70 33 175 70 34 175 70 35 175 70 36 175 70 37 175 70 38 175 70 39 175 70 40 175 70 41 175 70 42 175 70 43 175 70 44 175 70 45 175 70 46 175 70 48 175 70 49 175 70 50 175 70 51 175 70 52 175 70 53 175 70 54 175 70 55 175 70 56 175 70 57 175 70 58 175 70 59 175 70 60 175 70 61 175 70 62 175 70 64 175 70 65 175 70 66 175 70 67 175 70 68 175 70 69 175 70 70 175 70 71 175 70 72 175 70 73 175 70 74 175 70 75 175 70 76 175 70 77 175 70 78 175 70 80 175 70 81 175 70 82 175 70 83 175 70 84 175 70 85 175 70 86 175 70 87 175 70 88 175 70 89 175 70 90 175 70 91 175 70 92 175 70 93 175 70 94 175 70 96 175 70 97 175 70 98 175 70 99 175 70 100 175 70 30 40 100 30 40 100 30 40 100 30 40 100 30 40 100 30 40 100 30 40 100 30 40 100 30 40 100 30 40 100 30 40 100 30 40 100 30 40 100 30 40 100 30 40 100 30 40 100 30 40 100 30 40 100 30 40 100 30 40 100 30 40 100 30 40 100 30 40 100 30 40 100 30 40 100 30 40 100 30 40 100 30 40 100 30 40 100 30 40 100 30 40 100 30 40 100 30 40 100 30 40 100 30 40 100 30 40 100 30 40 100 30 40 100 30 40 100 30 40 100 30 40 100 30 40 100 30 40 100 30 40 100 30 40 100 30 40 100 30 40 100 30 40 100 30 40 100 30 40 100 30 40 100 155 175 70 156 175 70 157 175 70 158 175 70 160 175 70 161 175 70 162 175 70 163 175 70 164 175 70 165 175 70 166 175 70 167 175 70 168 175 70 169 175 70 170 175 70 171 175 70 172 175 70 173 175 70 174 175 70 176 175 70 177 175 70 178 175 70 179 175 70 180 175 70 181 175 70 182 175 70 183 175 70 184 175 70 185 175 70 186 175 70 187 175 70 188 175 70 189 175 70 190 175 70 192 175 70 193 175 70 194 175 70 195 175 70 196 175 70 197 175 70 198 175 70 199 175 70 200 175 70 201 175 70 202 175 70 203 175 70 204 175 70 205 175 70 206 175 70 208 175 70 209 175 70 210 175 70 211 175 70 212 175 70 213 175 70 214 175 70 215 175 70 216 175 70 217 175 70 218 175 70 219 175 70 220 175 70 221 175 70 222 175 70 224 175 70 225 175 70 226 175 70 227 175 70 228 175 70 229 175 70 230 175 70 231 175 70 232 175 70 233 175 70 234 175 70 235 175 70 236 175 70 237 175 70 238 175 70 240 175 70 241 175 70 242 175 70 243 175 70 244 175 70 245 175 70 246 175 70 247 175 70 248 175 70 249 175 70 250 175 70 251 175 70 252 175 70 253 175 70 255 175 70
0 176 70 1 176 70 2 176 70 3 176 70 4 176 70 5 176 70 6 176 70 7 176 70 8 176 70 9 176 70 10 176 70 11 176 70 12 176 70 13 176 70 14 176 70 16 176 70 17 176 70 18 176 70 19 176 70 20 176 70 21 176 70 22 176 70 23 176 70 24 176 70 25 176 70 26 176 70 27 176 70 28 176 70 29 176 70 30 176 70 32 176 70 33 176 70 34 176 70 35 176 70 36 176 70 37 176 70 38 176 70 39 176 70 40 176 70 41 176 70 42 176 70 43 176 70 44 176 70 45 176 70 46 176 70 48 176 70 49 176 70 50 176 70 51 176 70 52 176 70 53 176 70 54 176 70 55 176 70 56 176 70 57 176 70 58 176 70 59 176 70 60 176 70 61 176 70 62 176 70 64 176 70 65 176 70 66 176 70 67 176 70 68 176 70 69 176 70 70 176 70 71 176 70 72 176 70 73 176 70 74 176 70 75 176 70 76 176 70 77 176 70 78 176 70 80 176 70 81 176 70 82 176 70 83 176 70 84 176 70 85 176 70 86 176 70 87 176 70 88 176 70 89 176 70 90 176 70 91 176 70 92 176 70 93 176 70 94 176 70 96 176 70 97 176 70 98 176 70 99 176 70 100 176 70 101 176 70 30 40 100 30 40 100 30 40 100 30 40 100 30 40 100 30 40 100 30 40 100 30 40 100 30 40 100 30 40 100 30 40 100 30 40 100 30 40 100 30 40 100 30 40 100 30 40 100 30 40 100 30 40 100 30 40 100 30 40 100 30 40 100 30 40 100 30 40 100 30 40 100 30 40 100 30 40 100 30 40 100 30 40 100 30 40 100 30 40 100 30 40 100 30 40 100 30 40 100 30 40 100 30 40 100 30 40 100 30 40 100 30 40 100 30 40 100 30 40 100 30 40 100 30 40 100 30 40 100 30 40 100 30 40 100 30 40 100 30 40 100 30 40 100 30 40 100 154 176 70 155 176 70 156 176 70 157 176 70 158 176 70 160 176 70 161 176 70 162 176 70 163 176 70 164 176 70 165 176 70 166 176 70 167 176 70 168 176 70 169 176 70 170 176 70 171 176 70 172 176 70 173 176 70 174 176 70 176 176 70 177 176 70 178 176 70 179 176 70 180 176 70 181 176 70 182 176 70 183 176 70 184 176 70 185 176 70 186 176 70 187 176 70 188 176 70 189 176 70 190 176 70 192 176 70 193 176 70 194 176 70 195 176 70 196 176 70 197 176 70 198 176 70 199 176 70 200 176 70 201 176 70 202 176 70 203 176 70 204 176 70 205 176 70 206 176 70 208 176 70 209 176 70 210 176 70 211 176 70 212 176 70 213 176 70 214 176 70 215 176 70 216 176 70 217 176 70 218 176 70 219 176 70 220 176 70 221 176 70 222 176 70 224 176 70 225 176 70 226 176 70 227 176 70 228 176 70 229 176 70 230 176 70 231 176 70 232 176 70 233 176 70 234 176 70 235 176 70 236 176 70 237 176 70 238 176 70 240 176 70 241 176 70 242 176 70 243 176 70 244 176 70 245 176 70 246 176 70 247 176 70 248 176 70 249 176 70 250 176 70 251 176 70 252 176 70 253 176 70 255 176 70
0 178 70 1 178 70 2 178 70 3 178 70 4 178 70 5 178 70 6 178 70 7 178 70 8 178 70 9 178 70 10 178 70 11 178 70 12 178 70 13 178 70 14 178 70 16 178 70 17 178 70 18 178 70 19 178 70 20 178 70 21 178 70 22 178 70 23 178 70 24 178 70 25 178 70 26 178 70 27 178 70 28 178 70 29 178 70 30 178 70 32 178 70 33 178 70 34 178 70 35 178 70 36 178 70 37 178 70 38 178 70 39 178 70 40 178 70 41 178 70 42 178 70 43 178 70 44 178 70 45 178 70 46 178 70 48 178 70 49 178 70 50 178 70 51 178 70 52 178 70 53 178 70 54 178 70 55 178 70 56 178 70 57 178 70 58 178 70 59 178 70 60 178 70 61 178 70 62 178 70 64 178 70 65 178 70 66 178 70 67 178 70 68 178 70 69 178 70 70 178 70 71 178 70 72 178 70 73 178 70 74 178 70 75 178 70 76 178 70 77 178 70 78 178 70 80 178 70 81 178 70 82 178 70 83 178 70 84 178 70 85 178 70 86 178 70 87 178 70 88 178 70 89 178 70 90 178 70 91 178 70 92 178 70 93 178 70 94 178 70 96 178 70 97 178 70 98 178 70 99 178 70 100 178 70 101 178 70 102 178 70 30 40 100 30 40 100 30 40 100 30 40 100 30 40 100 30 40 100 30 40 100 30 40 100 30 40 100 30 40 100 30 40 100 30 40 100 30 40 100 30 40 100 30 40 100 30 40 100 30 40 100 30 40 100 30 40 100 30 40 100 30 40 100 30 40 100 30 40 100 30 40 100 30 40 100 30 40 100 30 40 100 30 40 100 30 40 100 30 40 100 30 40 100 30 40 100 30 40 100 30 40 100 30 40 100 30 40 100 30 40 100 30 40 100 30 40 100 30 40 100 30 40 100 30 40 100 30 40 100 30 40 100 30 40 100 30 40 100 30 40 100 153 178 70 154 178 70 155 178 70 156 178 70 157 178 70 158 178 70 160 178 70 161 178 70 162 178 70 163 178 70 164 178 70 165 178 70 166 178 70 167 178 70 168 178 70 169 178 70 170 178 70 171 178 70 172 178 70 173 178 70 174 178 70 176 178 70 177 178 70 178 178 70 179 178 70 180 178 70 181 178 70 182 178 70 183 178 70 184 178 70 185 178 70 186 178 70 187 178 70 188 178 70 189 178 70 190 178 70 192 178 70 193 178 70 194 178 70 195 178 70 196 178 70 197 178 70 198 178 70 199 178 70 200 178 70 201 178 70 202 178 70 203 178 70 204 178 70 205 178 70 206 178 70 208 178 70 209 178 70 210 178 70 211 178 70 212 178 70 213 178 70 214 178 70 215 178 70 216 178 70 217 178 70 218 178 70 219 178 70 220 178 70 221 178 70 222 178 70 224 178 70 225 178 70 226 178 70 227 178 70 228 178 70 229 178 70 230 178 70 231 178 70 232 178 70 233 178 70 234 178 70 235 178 70 236 178 70 237 178 70 238 178 70 240 178 70 241 178 70 242 178 70 243 178 70 244 178 70 245 178 70 246 178 70 247 178 70 248 178 70 249 178 70 250 178 70 251 178 70 252 178 70 253 178 70 255 178 70
0 179 70 1 179 70 2 179 70 3 179 70 4 179 70 5 179 70 6 179 70 7 179 70 8 179 70 9 179 70 10 179 70 11 179 70 12 179 70 13 179 70 14 179 70 16 179 70 17 179 70 18 179 70 19 179 70 20 179 70 21 179 70 22 179 70 23 179 70 24 179 70 25 179 70 26 179 70 27 179 70 28 179 70 29 179 70 30 179 70 32 179 70 33 179 70 34 179 70 35 179 70 36 179 70 37 179 70 38 179 70 39 179 70 40 179 70 41 179 70 42 179 70 43 179 70 44 179 70 45 179 70 46 179 70 48 179 70 49 179 70 50 179 70 51 179 70 52 179 70 53 179 70 54 179 70 55 179 70 56 179 70 57 179 70 58 179 70 59 179 70 60 179 70 61 179 70 62 179 70 64 179 70 65 179 70 66 179 70 67 179 70 68 179 70 69 179 70 70 179 70 71 179 70 72 179 70 73 179 70 74 179 70 75 179 70 76 179 70 77 179 70 78 179 70 80 179 70 81 179 70 82 179 70 83 179 70 84 179 70 85 179 70 86 179 70 87 179 70 88 179 70 89 179 70 90 179 70 91 179 70 92 179 70 93 179 70 94 179 70 96 179 70 97 179 70 98 179 70 99 179 70 100 179 70 101 179 70 102 179 70 103 179 70 104 179 70 30 40 100 30 40 100 30 40 100 30 40 100 30 40 100 30 40 100 30 40 100 30 40 100 30 40 100 30 40 100 30 40 100 30 40 100 30 40 100 30 40 100 30 40 100 30 40 100 30 40 100 30 40 100 30 40 100 30 40 100 30 40 100 30 40 100 30 40 100 30 40 100 30 40 100 30 40 100 30 40 100 30 40 100 30 40 100 30 40 100 30 40 100 30 40 100 30 40 100 30 40 100 30 40 100 30 40 100 30 40 100 30 40 100 30 40 100 30 40 100 30 40 100 30 40 100 30 40 100 151 179 70 152 179 70 153 179 70 154 179 70 155 179 70 156 179 70 157 179 70 158 179 70 160 179 70 161 179 70 162 179 70 163 179 70 164 179 70 165 179 70 166 179 70 167 179 70 168 179 70 169 179 70 170 179 70 171 179 70 172 179 70 173 179 70 174 179 70 176 179 70 177 179 70 178 179 70 179 179 70 180 179 70 181 179 70 182 179 70 183 179 70 184 179 70 185 179 70 186 179 70 187 179 70 188 179 70 189 179 70 190 179 70 192 179 70 193 179 70 194 179 70 195 179 70 196 179 70 197 179 70 198 179 70 199 179 70 200 179 70 201 179 70 202 179 70 203 179 70 204 179 70 205 179 70 206 179 70 208 179 70 209 179 70 210 179 70 211 179 70 212 179 70 213 179 70 214 179 70 215 179 70 216 179 70 217 179 70 218 179 70 219 179 70 220 179 70 221 179 70 222 179 70 224 179 70 225 179 70 226 179 70 227 179 70 228 179 70 229 179 70 230 179 70 231 179 70 232 179 70 233 179 70 234 179 70 235 179 70 236 179 70 237 179 70 238 179 70 240 179 70 241 179 70 242 179 70 243 179 70 244 179 70 245 179 70 246 179 70 247 179 70 248 179 70 249 179 70 250 179 70 251 179 70 252 179 70 253 179 70 255 179 70
0 180 70 1 180 70 2 180 70 3 180 70 4 180 70 5 180 70 6 180 70 7 180 70 8 180 70 9 180 70 10 180 70 11 180 70 12 180 70 13 180 70 14 180 70 16 180 70 17 180 70 18 180 70 19 180 70 20 180 70 21 180 70 22 180 70 23 180 70 24 180 70 25 180 70 26 180 70 27 180 70 28 180 70 29 180 70 30 180 70 32 180 70 33 180 70 34 180 70 35 180 70 36 180 70 37 180 70 38 180 70 39 180 70 40 180 70 41 180 70 42 180 70 43 180 70 44 180 70 45 180 70 46 180 70 48 180 70 49 180 70 50 180 70 51 180 70 52 180 70 53 180 70 54 180 70 55 180 70 56 180 70 57 180 70 58 180 70 59 180 70 60 180 70 61 180 70 62 180 70 64 180 70 65 180 70 66 180 70 67 180 70 68 180 70 69 180 70 70 180 70 71 180 70 72 180 70 73 180 70 74 180 70 75 180 70 76 180 70 77 180 70 78 180 70 80 180 70 81 180 70 82 180 70 83 180 70 84 180 70 85 180 70 86 180 70 87 180 70 88 180 70 89 180 70 90 180 70 91 180 70 92 180 70 93 180 70 94 180 70 96 180 70 97 180 70 98 180 70 99 180 70 100 180 70 101 180 70 102 180 70 103 180 70 104 180 70 105 180 70 106 180 70 30 40 100 30 40 100 30 40 100 30 40 100 30 40 100 30 40 100 30 40 100 30 40 100 30 40 100 30 40 100 30 40 100 30 40 100 30 40 100 30 40 100 30 40 100 30 40 100 30 40 100 30 40 100 30 40 100 30 40 100 30 40 100 30 40 100 30 40 100 30 40 100 30 40 100 30 40 100 30 40 100 30 40 100 30 40 100 30 40 100 30 40 100 30 40 100 30 40 100 30 40 100 30 40 100 30 40 100 30 40 100 30 40 100 30 40 100 149 180 70 150 180 70 151 180 70 152 180 70 153 180 70 154 180 70 155 180 70 156 180 70 157 180 70 158 180 70 160 180 70 161 180 70 162 180 70 163 180 70 164 180 70 165 180 70 166 180 70 167 180 70 168 180 70 169 180 70 170 180 70 171 180 70 172 180 70 173 180 70 174 180 70 176 180 70 177 180 70 178 180 70 179 180 70 180 180 70 181 180 70 182 180 70 183 180 70 184 180 70 185 180 70 186 180 70 187 180 70 188 180 70 189 180 70 190 180 70 192 180 70 193 180 70 194 180 70 195 180 70 196 180 70 197 180 70 198 180 70 199 180 70 200 180 70 201 180 70 202 180 70 203 180 70 204 180 70 205 180 70 206 180 70 208 180 70 209 180 70 210 180 70 211 180 70 212 180 70 213 180 70 214 180 70 215 180 70 216 180 70 217 180 70 218 180 70 219 180 70 220 180 70 221 180 70 222 180 70 224 180 70 225 180 70 226 180 70 227 180 70 228 180 70 229 180 70 230 180 70 231 180 70 232 180 70 233 180 70 234 180 70 235 180 70 236 180 70 237 180 70 238 180 70 240 180 70 241 180 70 242 180 70 243 180 70 244 180 70 245 180 70 246 180 70 247 180 70 248 180 70 249 180 70 250 180 70 251 180 70 252 180 70 253 180 70 255 180 70
0 182 70 1 182 70 2 182 70 3 182 70 4 182 70 5 182 70 6 182 70 7 182 70 8 182 70 9 182 70 10 182 70 11 182 70 12 182 70 13 182 70 14 182 70 16 182 70 17 182 70 18 182 70 19 182 70 20 182 70 21 182 70 22 182 70 23 182 70 24 182 70 25 182 70 26 182 70 27 182 70 28 182 70 29 182 70 30 182 70 32 182 70 33 182 70 34 182 70 35 182 70 36 182 70 37 182 70 38 182 70 39 182 70 40 182 70 41 182 70 42 182 70 43 182 70 44 182 70 45 182 70 46 182 70 48 182 70 49 182 70 50 182 70 51 182 70 52 182 70 53 182 70 54 182 70 55 182 70 56 182 70 57 182 70 58 182 70 59 182 70 60 182 70 61 182 70 62 182 70 64 182 70 65 182 70 66 182 70 67 182 70 68 182 70 69 182 70 70 182 70 71 182 70 72 182 70 73 182 70 74 182 70 75 182 70 76 182 70 77 182 70 78 182 70 80 182 70 81 182 70 82 182 70 83 182 70 84 182 70 85 182 70 86 182 70 87 182 70 88 182 70 89 182 70 90 182 70 91 182 70 92 182 70 93 182 70 94 182 70 96 182 70 97 182 70 98 182 70 99 182 70 100 182 70 101 182 70 102 182 70 103 182 70 104 182 70 105 182 70 106 182 70 107 182 70 108 182 70 30 40 100 30 40 100 30 40 100 30 40 100 30 40 100 30 40 100 30 40 100 30 40 100 30 40 100 30 40 100 30 40 100 30 40 100 30 40 100 30 40 100 30 40 100 30 40 100 30 40 100 30 40 100 30 40 100 30 40 100 30 40 100 30 40 100 30 40 100 30 40 100 30 40 100 30 40 100 30 40 100 30 40 100 30 40 100 30 40 100 30 40 100 30 40 100 30 40 100 30 40 100 30 40 100 147 182 70 148 182 70 149 182 70 150 182 70 151 182 70 152 182 70 153 182 70 154 182 70 155 182 70 156 182 70 157 182 70 158 182 70 160 182 70 161 182 70 162 182 70 163 182 70 164 182 70 165 182 70 166 182 70 167 182 70 168 182 70 169 182 70 170 182 70 171 182 70 172 182 70 173 182 70 174 182 70 176 182 70 177 182 70 178 182 70 179 182 70 180 182 70 181 182 70 182 182 70 183 182 70 184 182 70 185 182 70 186 182 70 187 182 70 188 182 70 189 182 70 190 182 70 192 182 70 193 182 70 194 182 70 195 182 70 196 182 70 197 182 70 198 182 70 199 182 70 200 182 70 201 182 70 202 182 70 203 182 70 204 182 70 205 182 70 206 182 70 208 182 70 209 182 70 210 182 70 211 182 70 212 182 70 213 182 70 214 182 70 215 182 70 216 182 70 217 182 70 218 182 70 219 182 70 220 182 70 221 182 70 222 182 70 224 182 70 225 182 70 226 182 70 227 182 70 228 182 70 229 182 70 230 182 70 231 182 70 232 182 70 233 182 70 234 182 70 235 182 70 236 182 70 237 182 70 238 182 70 240 182 70 241 182 70 242 182 70 243 182 70 244 182 70 245 182 70 246 182 70 247 182 70 248 182 70 249 182 70 250 182 70 251 182 70 252 182 70 253 182 70 255 182 70
0 183 70 1 183 70 2 183 70 3 183 70 4 183 70 5 183 70 6 183 70 7 183 70 8 183 70 9 183 70 10 183 70 11 183 70 12 183 70 13 183 70 14 183 70 16 183 70 17 183 70 18 183 70 19 183 70 20 183 70 21 183 70 22 183 70 23 183 70 24 183 70 25 183 70 26 183 70 27 183 70 28 183 70 29 183 70 30 183 70 32 183 70 33 183 70 34 183 70 35 183 70 36 183 70 37 183 70 38 183 70 39 183 70 40 183 70 41 183 70 42 183 70 43 183 70 44 183 70 45 183 70 46 183 70 48 183 70 49 183 70 50 183 70 51 183 70 52 183 70 53 183 70 54 183 70 55 183 70 56 183 70 57 183 70 58 183 70 59 183 70 60 183 70 61 183 70 62 183 70 64 183 70 65 183 70 66 183 70 67 183 70 68 183 70 69 183 70 70 183 70 71 183 70 72 183 70 73 183 70 74 183 70 75 183 70 76 183 70 77 183 70 78 183 70 80 183 70 81 183 70 82 183 70 83 183 70 84 183 70 85 183 70 86 183 70 87 183 70 88 183 70 89 183 70 90 183 70 91 183 70 92 183 70 93 183 70 94 183 70 96 183 70 97 183 70 98 183 70 99 183 70 100 183 70 101 183 70 102 183 70 103 183 70 104 183 70 105 183 70 106 183 70 107 183 70 108 183 70 109 183 70 110 183 70 30 40 100 30 40 100 30 40 100 30 40 100 30 40 100 30 40 100 30 40 100 30 40 100 30 40 100 30 40 100 30 40 100 30 40 100 30 40 100 30 40 100 30 40 100 30 40 100 30 40 100 30 40 100 30 40 100 30 40 100 30 40 100 30 40 100 30 40 100 30 40 100 30 40 100 30 40 100 30 40 100 30 40 100 30 40 100 30 40 100 30 40 100 145 183 70 146 183 70 147 183 70 148 183 70 149 183 70 150 183 70 151 183 70 152 183 70 153 183 70 154 183 70 155 183 70 156 183 70 157 183 70 158 183 70 160 183 70 161 183 70 162 183 70 163 183 70 164 183 70 165 183 70 166 183 70 167 183 70 168 183 70 169 183 70 170 183 70 171 183 70 172 183 70 173 183 70 174 183 70 176 183 70 177 183 70 178 183 70 179 183 70 180 183 70 181 183 70 182 183 70 183 183 70 184 183 70 185 183 70 186 183 70 187 183 70 188 183 70 189 183 70 190 183 70 192 183 70 193 183 70 194 183 70 195 183 70 196 183 70 197 183 70 198 183 70 199 183 70 200 183 70 201 183 70 202 183 70 203 183 70 204 183 70 205 183 70 206 183 70 208 183 70 209 183 70 210 183 70 211 183 70 212 183 70 213 183 70 214 183 70 215 183 70 216 183 70 217 183 70 218 183 70 219 183 70 220 183 70 221 183 70 222 183 70 224 183 70 225 183 70 226 183 70 227 183 70 228 183 70 229 183 70 230 183 70 231 183 70 232 183 70 233 183 70 234 183 70 235 183 70 236 183 70 237 183 70 238 183 70 240 183 70 241 183 70 242 183 70 243 183 70 244 183 70 245 183 70 246 183 70 247 183 70 248 183 70 249 183 70 250 183 70 251 183 70 252 183 70 253 183 70 255 183 70
0 185 70 1 185 70 2 185 70 3 185 70 4 185 70 5 185 70 6 185 70 7 185 70 8 185 70 9 185 70 10 185 70 11 185 70 12 185 70 13 185 70 14 185 70 16 185 70 17 185 70 18 185 70 19 185 70 20 185 70 21 185 70 22 185 70 23 185 70 24 185 70 25 185 70 26 185 70 27 185 70 28 185 70 29 185 70 30 185 70 32 185 70 33 185 70 34 185 70 35 185 70 36 185 70 37 185 70 38 185 70 39 185 70 40 185 70 41 185 70 42 185 70 43 185 70 44 185 70 45 185 70 46 185 70 48 185 70 49 185 70 50 185 70 51 185 70 52 185 70 53 185 70 54 185 70 55 185 70 56 185 70 57 185 70 58 185 70 59 185 70 60 185 70 61 185 70 62 185 70 64 185 70 65 185 70 66 185 70 67 185 70 68 185 70 69 185 70 70 185 70 71 185 70 72 185 70 73 185 70 74 185 70 75 185 70 76 185 70 77 185 70 78 185 70 80 185 70 81 185 70 82 185 70 83 185 70 84 185 70 85 185 70 86 185 70 87 185 70 88 185 70 89 185 70 90 185 70 91 185 70 92 185 70 93 185 70 94 185 70 96 185 70 97 185 70 98 185 70 99 185 70 100 185 70 101 185 70 102 185 70 103 185 70 104 185 70 105 185 70 106 185 70 107 185 70 108 185 70 109 185 70 110 185 70 112 185 70 113 185 70 114 185 70 30 40 100 30 40 100 30 40 100 30 40 100 30 40 100 30 40 100 30 40 100 30 40 100 30 40 100 30 40 100 30 40 100 30 40 100 30 40 100 30 40 100 30 40 100 30 40 100 30 40 100 30 40 100 30 40 100 30 40 100 30 40 100 30 40 100 30 40 100 30 40 100 30 40 100 141 185 70 142 185 70 144 185 70 145 185 70 146 185 70 147 185 70 148 185 70 149 185 70 150 185 70 151 185 70 152 185 70 153 185 70 154 185 70 155 185 70 156 185 70 157 185 70 158 185 70 160 185 70 161 185 70 162 185 70 163 185 70 164 185 70 165 185 70 166 185 70 167 185 70 168 185 70 169 185 70 170 185 70 171 185 70 172 185 70 173 185 70 174 185 70 176 185 70 177 185 70 178 185 70 179 185 70 180 185 70 181 185 70 182 185 70 183 185 70 184 185 70 185 185 70 186 185 70 187 185 70 188 185 70 189 185 70 190 185 70 192 185 70 193 185 70 194 185 70 195 185 70 196 185 70 197 185 70 198 185 70 199 185 70 200 185 70 201 185 70 202 185 70 203 185 70 204 185 70 205 185 70 206 185 70 208 185 70 209 185 70 210 185 70 211 185 70 212 185 70 213 185 70 214 185 70 215 185 70 216 185 70 217 185 70 218 185 70 219 185 70 220 185 70 221 185 70 222 185 70 224 185 70 225 185 70 226 185 70 227 185 70 228 185 70 229 185 70 230 185 70 231 185 70 232 185 70 233 185 70 234 185 70 235 185 70 236 185 70 237 185 70 238 185 70 240 185 70 241 185 70 242 185 70 243 185 70 244 185 70 245 185 70 246 185 70 247 185 70 248 185 70 249 185 70 250 185 70 251 185 70 252 185 70 253 185 70 255 185 70
0 186 70 1 186 70 2 186 70 3 186 70 4 186 70 5 186 70 6 186 70 7 186 70 8 186 70 9 186 70 10 186 70 11 186 70 12 186 70 13 186 70 14 186 70 16 186 70 17 186 70 18 186 70 19 186 70 20 186 70 21 186 70 22 186 70 23 186 70 24 186 70 25 186 70 26 186 70 27 186 70 28 186 70 29 186 70 30 186 70 32 186 70 33 186 70 34 186 70 35 186 70 36 186 70 37 186 70 38 186 70 39 186 70 40 186 70 41 186 70 42 186 70 43 186 70 44 186 70 45 186 70 46 186 70 48 186 70 49 186 70 50 186 70 51 186 70 52 186 70 53 186 70 54 186 70 55 186 70 56 186 70 57 186 70 58 186 70 59 186 70 60 186 70 61 186 70 62 186 70 64 186 70 65 186 70 66 186 70 67 186 70 68 186 70 69 186 70 70 186 70 71 186 70 72 186 70 73 186 70 74 186 70 75 186 70 76 186 70 77 186 70 78 186 70 80 186 70 81 186 70 82 186 70 83 186 70 84 186 70 85 186 70 86 186 70 87 186 70 88 186 70 89 186 70 90 186 70 91 186 70 92 186 70 93 186 70 94 186 70 96 186 70 97 186 70 98 186 70 99 186 70 100 186 70 101 186 70 102 186 70 103 186 70 104 186 70 105 186 70 106 186 70 107 186 70 108 186 70 109 186 70 110 186 70 112 186 70 113 186 70 114 186 70 115 186 70 116 186 70 117 186 70 30 40 100 30 40 100 30 40 100 30 40 100 30 40 100 30 40 100 30 40 100 30 40 100 30 40 100 30 40 100 30 40 100 30 40 100 30 40 100 30 40 100 30 40 100 30 40 100 30 40 100 30 40 100 30 40 100 138 186 70 139 186 70 140 186 70 141 186 70 142 186 70 144 186 70 145 186 70 146 186 70 147 186 70 148 186 70 149 186 70 150 186 70 151 186 70 152 186 70 153 186 70 154 186 70 155 186 70 156 186 70 157 186 70 158 186 70 160 186 70 161 186 70 162 186 70 163 186 70 164 186 70 165 186 70 166 186 70 167 186 70 168 186 70 169 186 70 170 186 70 171 186 70 172 186 70 173 186 70 174 186 70 176 186 70 177 186 70 178 186 70 179 186 70 180 186 70 181 186 70 182 186 70 183 186 70 184 186 70 185 186 70 186 186 70 187 186 70 188 186 70 189 186 70 190 186 70 192 186 70 193 186 70 194 186 70 195 186 70 196 186 70 197 186 70 198 186 70 199 186 70 200 186 70 201 186 70 202 186 70 203 186 70 204 186 70 205 186 70 206 186 70 208 186 70 209 186 70 210 186 70 211 186 70 212 186 70 213 186 70 214 186 70 215 186 70 216 186 70 217 186 70 218 186 70 219 186 70 220 186 70 221 186 70 222 186 70 224 186 70 225 186 70 226 186 70 227 186 70 228 186 70 229 186 70 230 186 70 231 186 70 232 186 70 233 186 70 234 186 70 235 186 70 236 186 70 237 186 70 238 186 70 240 186 70 241 186 70 242 186 70 243 186 70 244 186 70 245 186 70 246 186 70 247 186 70 248 186 70 249 186 70 250 186 70 251 186 70 252 186 70 253 186 70 255 186 70
0 188 70 1 188 70 2 188 70 3 188 70 4 188 70 5 188 70 6 188 70 7 188 70 8 188 70 9 188 70 10 188 70 11 188 70 12 188 70 13 188 70 14 188 70 16 188 70 17 188 70 18 188 70 19 188 70 20 188 70 21 188 70 22 188 70 23 188 70 24 188 70 25 188 70 26 188 70 27 188 70 28 188 70 29 188 70 30 188 70 32 188 70 33 188 70 34 188 70 35 188 70 36 188 70 37 188 70 38 188 70 39 188 70 40 188 70 41 188 70 42 188 70 43 188 70 44 188 70 45 188 70 46 188 70 48 188 70 49 188 70 50 188 70 51 188 70 52 188 70 53 188 70 54 188 70 55 188 70 56 188 70 57 188 70 58 188 70 59 188 70 60 188 70 61 188 70 62 188 70 64 188 70 65 188 70 66 188 70 67 188 70 68 188 70 69 188 70 70 188 70 71 188 70 72 188 70 73 188 70 74 188 70 75 188 70 76 188 70 77 188 70 78 188 70 80 188 70 81 188 70 82 188 70 83 188 70 84 188 70 85 188 70 86 188 70 87 188 70 88 188 70 89 188 70 90 188 70 91 188 70 92 188 70 93 188 70 94 188 70 96 188 70 97 188 70 98 188 70 99 188 70 100 188 70 101 188 70 102 188 70 103 188 70 104 188 70 105 188 70 106 188 70 107 188 70 108 188 70 109 188 70 110 188 70 112 188 70 113 188 70 114 188 70 115 188 70 116 188 70 117 188 70 118 188 70 119 188 70 120 188 70 121 188 70 122 188 70 123 188 70 124 188 70 125 188 70 126 188 70 128 188 70 129 188 70 130 188 70 131 188 70 132 188 70 133 188 70 134 188 70 135 188 70 136 188 70 137 188 70 138 188 70 139 188 70 140 188 70 141 188 70 142 188 70 144 188 70 145 188 70 146 188 70 147 188 70 148 188 70 149 188 70 150 188 70 151 188 70 152 188 70 153 188 70 154 188 70 155 188 70 156 188 70 157 188 70 158 188 70 160 188 70 161 188 70 162 188 70 163 188 70 164 188 70 165 188 70 166 188 70 167 188 70 168 188 70 169 188 70 170 188 70 171 188 70 172 188 70 173 188 70 174 188 70 176 188 70 177 188 70 178 188 70 179 188 70 180 188 70 181 188 70 182 188 70 183 188 70 184 188 70 185 188 70 186 188 70 187 188 70 188 188 70 189 188 70 190 188 70 192 188 70 193 188 70 194 188 70 195 188 70 196 188 70 197 188 70 198 188 70 199 188 70 200 188 70 201 188 70 202 188 70 203 188 70 204 188 70 205 188 70 206 188 70 208 188 70 209 188 70 210 188 70 211 188 70 212 188 70 213 188 70 214 188 70 215 188 70 216 188 70 217 188 70 218 188 70 219 188 70 220 188 70 221 188 70 222 188 70 224 188 70 225 188 70 226 188 70 227 188 70 228 188 70 229 188 70 230 188 70 231 188 70 232 188 70 233 188 70 234 188 70 235 188 70 236 188 70 237 188 70 238 188 70 240 188 70 241 188 70 242 188 70 243 188 70 244 188 70 245 188 70 246 188 70 247 188 70 248 188 70 249 188 70 250 188 70 251 188 70 252 188 70 253 188 70 255 188 70
0 189 70 1 189 70 2 189 70 3 189 70 4 189 70 5 189 70 6 189 70 7 189 70 8 189 70 9 189 70 10 189 70 11 189 70 12 189 70 13 189 70 14 189 70 16 189 70 17 189 70 18 189 70 19 189 70 20 189 70 21 189 70 22 189 70 23 189 70 24 189 70 25 189 70 26 189 70 27 189 70 28 189 70 29 189 70 30 189 70 32 189 70 33 189 70 34 189 70 35 189 70 36 189 70 37 189 70 38 189 70 39 189 70 40 189 70 41 189 70 42 189 70 43 189 70 44 189 70 45 189 70 46 189 70 48 189 70 49 189 70 50 189 70 51 189 70 52 189 70 53 189 70 54 189 70 55 189 70 56 189 70 57 189 70 58 189 70 59 189 70 60 189 70 61 189 70 62 189 70 64 189 70 65 189 70 66 189 70 67 189 70 68 189 70 69 189 70 70 189 70 71 189 70 72 189 70 73 189 70 74 189 70 75 189 70 76 189 70 77 189 70 78 189 70 80 189 70 81 189 70 82 189 70 83 189 70 84 189 70 85 189 70 86 189 70 87 189 70 88 189 70 89 189 70 90 189 70 91 189 70 92 189 70 93 189 70 94 189 70 96 189 70 97 189 70 98 189 70 99 189 70 100 189 70 101 189 70 102 189 70 103 189 70 104 189 70 105 189 70 106 189 70 107 189 70 108 189 70 109 189 70 110 189 70 112 189 70 113 189 70 114 189 70 115 189 70 116 189 70 117 189 70 118 189 70 119 189 70 120 189 70 121 189 70 122 189 70 123 189 70 124 189 70 125 189 70 126 189 70 128 189 70 129 189 70 130 189 70 131 189 70 132 189 70 133 189 70 134 189 70 135 189 70 136 189 70 137 189 70 138 189 70 139 189 70 140 189 70 141 189 70 142 189 70 144 189 70 145 189 70 146 189 70 147 189 70 148 189 70 149 189 70 150 189 70 151 189 70 152 189 70 153 189 70 154 189 70 155 189 70 156 189 70 157 189 70 158 189 70 160 189 70 161 189 70 162 189 70 163 189 70 164 189 70 165 189 70 166 189 70 167 189 70 168 189 70 169 189 70 170 189 70 171 189 70 172 189 70 173 189 70 174 189 70 176 189 70 177 189 70 178 189 70 179 189 70 180 189 70 181 189 70 182 189 70 183 189 70 184 189 70 185 189 70 186 189 70 187 189 70 188 189 70 189 189 70 190 189 70 192 189 70 193 189 70 194 189 70 195 189 70 196 189 70 197 189 70 198 189 70 199 189 70 200 189 70 201 189 70 202 189 70 203 189 70 204 189 70 205 189 70 206 189 70 208 189 70 209 189 70 210 189 70 211 189 70 212 189 70 213 189 70 214 189 70 215 189 70 216 189 70 217 189 70 218 189 70 219 189 70 220 189 70 221 189 70 222 189 70 224 189 70 225 189 70 226 189 70 227 189 70 228 189 70 229 189 70 230 189 70 231 189 70 232 189 70 233 189 70 234 189 70 235 189 70 236 189 70 237 189 70 238 189 70 240 189 70 241 189 70 242 189 70 243 189 70 244 189 70 245 189 70 246 189 70 247 189 70 248 189 70 249 189 70 250 189 70 251 189 70 252 189 70 253 189 70 255 189 70
0 190 70 1 190 70 2 190 70 3 190 70 4 190 70 5 190 70 6 190 70 7 190 70 8 190 70 9 190 70 10 190 70 11 190 70 12 190 70 13 190 70 14 190 70 16 190 70 17 190 70 18 190 70 19 190 70 20 190 70 21 190 70 22 190 70 23 190 70 24 190 70 25 190 70 26 190 70 27 190 70 28 190 70 29 190 70 30 190 70 32 190 70 33 190 70 34 190 70 35 190 70 36 190 70 37 190 70 38 190 70 39 190 70 40 190 70 41 190 70 42 190 70 43 190 70 44 190 70 45 190 70 46 190 70 48 190 70 49 190 70 50 190 70 51 190 70 52 190 70 53 190 70 54 190 70 55 190 70 56 190 70 57 190 70 58 190 70 59 190 70 60 190 70 61 190 70 62 190 70 64 190 70 65 190 70 66 190 70 67 190 70 68 190 70 69 190 70 70 190 70 71 190 70 72 190 70 73 190 70 74 190 70 75 190 70 76 190 70 77 190 70 78 190 70 80 190 70 81 190 70 82 190 70 83 190 70 84 190 70 85 190 70 86 190 70 87 190 70 88 190 70 89 190 70 90 190 70 91 190 70 92 190 70 93 190 70 94 190 70 96 190 70 97 190 70 98 190 70 99 190 70 100 190 70 101 190 70 102 190 70 103 190 70 104 190 70 105 190 70 106 190 70 107 190 70 108 190 70 109 190 70 110 190 70 112 190 70 113 190 70 114 190 70 115 190 70 116 190 70 117 190 70 118 190 70 119 190 70 120 190 70 121 190 70 122 190 70 123 190 70 124 190 70 125 190 70 126 190 70 128 190 70 129 190 70 130 190 70 131 190 70 132 190 70 133 190 70 134 190 70 135 190 70 136 190 70 137 190 70 138 190 70 139 190 70 140 190 70 141 190 70 142 190 70 144 190 70 145 190 70 146 190 70 147 190 70 148 190 70 149 190 70 150 190 70 151 190 70 152 190 70 153 190 70 154 190 70 155 190 70 156 190 70 157 190 70 158 190 70 160 190 70 161 190 70 162 190 70 163 190 70 164 190 70 165 190 70 166 190 70 167 190 70 168 190 70 169 190 70 170 190 70 171 190 70 172 190 70 173 190 70 174 190 70 176 190 70 177 190 70 178 190 70 179 190 70 180 190 70 181 190 70 182 190 70 183 190 70 184 190 70 185 190 70 186 190 70 187 190 70 188 190 70 189 190 70 190 190 70 192 190 70 193 190 70 194 190 70 195 190 70 196 190 70 197 190 70 198 190 70 199 190 70 200 190 70 201 190 70 202 190 70 203 190 70 204 190 70 205 190 70 206 190 70 208 190 70 209 190 70 210 190 70 211 190 70 212 190 70 213 190 70 214 190 70 215 190 70 216 190 70 217 190 70 218 190 70 219 190 70 220 190 70 221 190 70 222 190 70 224 190 70 225 190 70 226 190 70 227 190 70 228 190 70 229 190 70 230 190 70 231 190 70 232 190 70 233 190 70 234 190 70 235 190 70 236 190 70 237 190 70 238 190 70 240 190 70 241 190 70 242 190 70 243 190 70 244 190 70 245 190 70 246 190 70 247 190 70 248 190 70 249 190 70 250 190 70 251 190 70 252 190 70 253 190 70 255 190 70
0 192 70 1 192 70 2 192 70 3 192 70 4 192 70 5 192 70 6 192 70 7 192 70 8 192 70 9 192 70 10 192 70 11 192 70 12 192 70 13 192 70 14 192 70 16 192 70 17 192 70 18 192 70 19 192 70 20 192 70 21 192 70 22 192 70 23 192 70 24 192 70 25 192 70 26 192 70 27 192 70 28 192 70 29 192 70 30 192 70 32 192 70 33 192 70 34 192 70 35 192 70 36 192 70 37 192 70 38 192 70 39 192 70 40 192 70 41 192 70 42 192 70 43 192 70 44 192 70 45 192 70 46 192 70 48 192 70 49 192 70 50 192 70 51 192 70 52 192 70 53 192 70 54 192 70 55 192 70 56 192 70 57 192 70 58 192 70 59 192 70 60 192 70 61 192 70 62 192 70 64 192 70 65 192 70 66 192 70 67 192 70 68 192 70 69 192 70 70 192 70 71 192 70 72 192 70 73 192 70 74 192 70 75 192 70 76 192 70 77 192 70 78 192 70 80 192 70 81 192 70 82 192 70 83 192 70 84 192 70 85 192 70 86 192 70 87 192 70 88 192 70 89 192 70 90 192 70 91 192 70 92 192 70 93 192 70 94 192 70 96 192 70 97 192 70 98 192 70 99 192 70 100 192 70 101 192 70 102 192 70 103 192 70 104 192 70 105 192 70 106 192 70 107 192 70 108 192 70 109 192 70 110 192 70 112 192 70 113 192 70 114 192 70 115 192 70 116 192 70 117 192 70 118 192 70 119 192 70 120 192 70 121 192 70 122 192 70 123 192 70 124 192 70 125 192 70 126 192 70 128 192 70 129 192 70 130 192 70 131 192 70 132 192 70 133 192 70 134 192 70 135 192 70 136 192 70 137 192 70 138 192 70 139 192 70 140 192 70 141 192 70 142 192 70 144 192 70 145 192 70 146 192 70 147 192 70 148 192 70 149 192 70 150 192 70 151 192 70 152 192 70 153 192 70 154 192 70 155 192 70 156 192 70 157 192 70 158 192 70 160 192 70 161 192 70 162 192 70 163 192 70 164 192 70 165 192 70 166 192 70 167 192 70 168 192 70 169 192 70 170 192 70 171 192 70 172 192 70 173 192 70 174 192 70 176 192 70 177 192 70 178 192 70 179 192 70 180 192 70 181 192 70 182 192 70 183 192 70 184 192 70 185 192 70 186 192 70 187 192 70 188 192 70 189 192 70 190 192 70 192 192 70 193 192 70 194 192 70 195 192 70 196 192 70 197 192 70 198 192 70 199 192 70 200 192 70 201 192 70 202 192 70 203 192 70 204 192 70 205 192 70 206 192 70 208 192 70 209 192 70 210 192 70 211 192 70 212 192 70 213 192 70 214 192 70 215 192 70 216 192 70 217 192 70 218 192 70 219 192 70 220 192 70 221 192 70 222 192 70 224 192 70 225 192 70 226 192 70 227 192 70 228 192 70 229 192 70 230 192 70 231 192 70 232 192 70 233 192 70 234 192 70 235 192 70 236 192 70 237 192 70 238 192 70 240 192 70 241 192 70 242 192 70 243 192 70 244 192 70 245 192 70 246 192 70 247 192 70 248 192 70 249 192 70 250 192 70 251 192 70 252 192 70 253 192 70 255 192 70
0 193 70 1 193 70 2 193 70 3 193 70 4 193 70 5 193 70 6 193 70 7 193 70 8 193 70 9 193 70 10 193 70 11 193 70 12 193 70 13 193 70 14 193 70 16 193 70 17 193 70 18 193 70 19 193 70 20 193 70 21 193 70 22 193 70 23 193 70 24 193 70 25 193 70 26 193 70 27 193 70 28 193 70 29 193 70 30 193 70 32 193 70 33 193 70 34 193 70 35 193 70 36 193 70 37 193 70 38 193 70 39 193 70 40 193 70 41 193 70 42 193 70 43 193 70 44 193 70 45 193 70 46 193 70 48 193 70 49 193 70 50 193 70 51 193 70 52 193 70 53 193 70 54 193 70 55 193 70 56 193 70 57 193 70 58 193 70 59 193 70 60 193 70 61 193 70 62 193 70 64 193 70 65 193 70 66 193 70 67 193 70 68 193 70 69 193 70 70 193 70 71 193 70 72 193 70 73 193 70 74 193 70 75 193 70 76 193 70 77 193 70 78 193 70 80 193 70 81 193 70 82 193 70 83 193 70 84 193 70 85 193 70 86 193 70 87 193 70 88 193 70 89 193 70 90 193 70 91 193 70 92 193 70 93 193 70 94 193 70 96 193 70 97 193 70 98 193 70 99 193 70 100 193 70 101 193 70 102 193 70 103 193 70 104 193 70 105 193 70 106 193 70 107 193 70 108 193 70 109 193 70 110 193 70 112 193 70 113 193 70 114 193 70 115 193 70 116 193 70 117 193 70 118 193 70 119 193 70 120 193 70 121 193 70 122 193 70 123 193 70 124 193 70 125 193 70 126 193 70 128 193 70 129 193 70 130 193 70 131 193 70 132 193 70 133 193 70 134 193 70 135 193 70 136 193 70 137 193 70 138 193 70 139 193 70 140 193 70 141 193 70 142 193 70 144 193 70 145 193 70 146 193 70 147 193 70 148 193 70 149 193 70 150 193 70 151 193 70 152 193 70 153 193 70 154 193 70 155 193 70 156 193 70 157 193 70 158 193 70 160 193 70 161 193 70 162 193 70 163 193 70 164 193 70 165 193 70 166 193 70 167 193 70 168 193 70 169 193 70 170 193 70 171 193 70 172 193 70 173 193 70 174 193 70 176 193 70 177 193 70 178 193 70 179 193 70 180 193 70 181 193 70 182 193 70 183 193 70 184 193 70 185 193 70 186 193 70 187 193 70 188 193 70 189 193 70 190 193 70 192 193 70 193 193 70 194 193 70 195 193 70 196 193 70 197 193 70 198 193 70 199 193 70 200 193 70 201 193 70 202 193 70 203 193 70 204 193 70 205 193 70 206 193 70 208 193 70 209 193 70 210 193 70 211 193 70 212 193 70 213 193 70 214 193 70 215 193 70 216 193 70 217 193 70 218 193 70 219 193 70 220 193 70 221 193 70 222 193 70 224 193 70 225 193 70 226 193 70 227 193 70 228 193 70 229 193 70 230 193 70 231 193 70 232 193 70 233 193 70 234 193 70 235 193 70 236 193 70 237 193 70 238 193 70 240 193 70 241 193 70 242 193 70 243 193 70 244 193 70 245 193 70 246 193 70 247 193 70 248 193 70 249 193 70 250 193 70 251 193 70 252 193 70 253 193 70 255 193 70
0 195 70 1 195 70 2 195 70 3 195 70 4 195 70 5 195 70 6 195 70 7 195 70 8 195 70 9 195 70 10 195 70 11 195 70 12 195 70 13 195 70 14 195 70 16 195 70 17 195 70 18 195 70 19 195 70 20 195 70 21 195 70 22 195 70 23 195 70 24 195 70 25 195 70 26 195 70 27 195 70 28 195 70 29 195 70 30 195 70 32 195 70 33 195 70 34 195 70 35 195 70 36 195 70 37 195 70 38 195 70 39 195 70 40 195 70 41 195 70 42 195 70 43 195 70 44 195 70 45 195 70 46 195 70 48 195 70 49 195 70 50 195 70 51 195 70 52 195 70 53 195 70 54 195 70 55 195 70 56 195 70 57 195 70 58 195 70 59 195 70 60 195 70 61 195 70 62 195 70 64 195 70 65 195 70 66 195 70 67 195 70 68 195 70 69 195 70 70 195 70 71 195 70 72 195 70 73 195 70 74 195 70 75 195 70 76 195 70 77 195 70 78 195 70 80 195 70 81 195 70 82 195 70 83 195 70 84 195 70 85 195 70 86 195 70 87 195 70 88 195 70 89 195 70 90 195 70 91 195 70 92 195 70 93 195 70 94 195 70 96 195 70 97 195 70 98 195 70 99 195 70 100 195 70 101 195 70 102 195 70 103 195 70 104 195 70 105 195 70 106 195 70 107 195 70 108 195 70 109 195 70 110 195 70 112 195 70 113 195 70 114 195 70 115 195 70 116 195 70 117 195 70 118 195 70 119 195 70 120 195 70 121 195 70 122 195 70 123 195 70 124 195 70 125 195 70 126 195 70 128 195 70 129 195 70 130 195 70 131 195 70 132 195 70 133 195 70 134 195 70 135 195 70 136 195 70 137 195 70 138 195 70 139 195 70 140 195 70 141 195 70 142 195 70 144 195 70 145 195 70 146 195 70 147 195 70 148 195 70 149 195 70 150 195 70 151 195 70 152 195 70 153 195 70 154 195 70 155 195 70 156 195 70 157 195 70 158 195 70 160 195 70 161 195 70 162 195 70 163 195 70 164 195 70 165 195 70 166 195 70 167 195 70 168 195 70 169 195 70 170 195 70 171 195 70 172 195 70 173 195 70 174 195 70 176 195 70 177 195 70 178 195 70 179 195 70 180 195 70 181 195 70 182 195 70 183 195 70 184 195 70 185 195 70 186 195 70 187 195 70 188 195 70 189 195 70 190 195 70 192 195 70 193 195 70 194 195 70 195 195 70 196 195 70 197 195 70 198 195 70 199 195 70 200 195 70 201 195 70 202 195 70 203 195 70 204 195 70 205 195 70 206 195 70 208 195 70 209 195 70 210 195 70 211 195 70 212 195 70 213 195 70 214 195 70 215 195 70 216 195 70 217 195 70 218 195 70 219 195 70 220 195 70 221 195 70 222 195 70 224 195 70 225 195 70 226 195 70 227 195 70 228 195 70 229 195 70 230 195 70 231 195 70 232 195 70 233 195 70 234 195 70 235 195 70 236 195 70 237 195 70 238 195 70 240 195 70 241 195 70 242 195 70 243 195 70 244 195 70 245 195 70 246 195 70 247 195 70 248 195 70 249 195 70 250 195 70 251 195 70 252 195 70 253 195 70 255 195 70
0 196 70 1 196 70 2 196 70 3 196 70 4 196 70 5 196 70 6 196 70 7 196 70 8 196 70 9 196 70 10 196 70 11 196 70 12 196 70 13 196 70 14 196 70 16 196 70 17 196 70 18 196 70 19 196 70 20 196 70 21 196 70 22 196 70 23 196 70 24 196 70 25 196 70 26 196 70 27 196 70 28 196 70 29 196 70 30 196 70 32 196 70 33 196 70 34 196 70 35 196 70 36 196 70 37 196 70 38 196 70 39 196 70 40 196 70 41 196 70 42 196 70 43 196 70 44 196 70 45 196 70 46 196 70 48 196 70 49 196 70 50 196 70 51 196 70 52 196 70 53 196 70 54 196 70 55 196 70 56 196 70 57 196 70 58 196 70 59 196 70 60 196 70 61 196 70 62 196 70 64 196 70 65 196 70 66 196 70 67 196 70 68 196 70 69 196 70 70 196 70 71 196 70 72 196 70 73 196 70 74 196 70 75 196 70 76 196 70 77 196 70 78 196 70 80 196 70 81 196 70 82 196 70 83 196 70 84 196 70 85 196 70 86 196 70 87 196 70 88 196 70 89 196 70 90 196 70 91 196 70 92 196 70 93 196 70 94 196 70 96 196 70 97 196 70 98 196 70 99 196 70 100 196 70 101 196 70 102 196 70 103 196 70 104 196 70 105 196 70 106 196 70 107 196 70 108 196 70 109 196 70 110 196 70 112 196 70 113 196 70 114 196 70 115 196 70 116 196 70 117 196 70 118 196 70 119 196 70 120 196 70 121 196 70 122 196 70 123 196 70 124 196 70 125 196 70 126 196 70 128 196 70 129 196 70 130 196 70 131 196 70 132 196 70 133 196 70 134 196 70 135 196 70 136 196 70 137 196 70 138 196 70 139 196 70 140 196 70 141 196 70 142 196 70 144 196 70 145 196 70 146 196 70 147 196 70 148 196 70 149 196 70 150 196 70 151 196 70 152 196 70 153 196 70 154 196 70 155 196 70 156 196 70 157 196 70 158 196 70 160 196 70 161 196 70 162 196 70 163 196 70 164 196 70 165 196 70 166 196 70 167 196 70 168 196 70 169 196 70 170 196 70 171 196 70 172 196 70 173 196 70 174 196 70 176 196 70 177 196 70 178 196 70 179 196 70 180 196 70 181 196 70 182 196 70 183 196 70 184 196 70 185 196 70 186 196 70 187 196 70 188 196 70 189 196 70 190 196 70 192 196 70 193 196 70 194 196 70 195 196 70 196 196 70 197 196 70 198 196 70 199 196 70 200 196 70 201 196 70 202 196 70 203 196 70 204 196 70 205 196 70 206 196 70 208 196 70 209 196 70 210 196 70 211 196 70 212 196 70 213 196 70 214 196 70 215 196 70 216 196 70 217 196 70 218 196 70 219 196 70 220 196 70 221 196 70 222 196 70 224 196 70 225 196 70 226 196 70 227 196 70 228 196 70 229 196 70 230 196 70 231 196 70 232 196 70 233 196 70 234 196 70 235 196 70 236 196 70 237 196 70 238 196 70 240 196 70 241 196 70 242 196 70 243 196 70 244 196 70 245 196 70 246 196 70 247 196 70 248 196 70 249 196 70 250 196 70 251 196 70 252 196 70 253 196 70 255 196 70
0 198 70 1 198 70 2 198 70 3 198 70 4 198 70 5 198 70 6 198 70 7 198 70 8 198 70 9 198 70 10 198 70 11 198 70 12 198 70 13 198 70 14 198 70 16 198 70 17 198 70 18 198 70 19 198 70 20 198 70 21 198 70 22 198 70 23 198 70 24 198 70 25 198 70 26 198 70 27 198 70 28 198 70 29 198 70 30 198 70 32 198 70 33 198 70 34 198 70 35 198 70 36 198 70 37 198 70 38 198 70 39 198 70 40 198 70 41 198 70 42 198 70 43 198 70 44 198 70 45 198 70 46 198 70 48 198 70 49 198 70 50 198 70 51 198 70 52 198 70 53 198 70 54 198 70 55 198 70 56 198 70 57 198 70 58 198 70 59 198 70 60 198 70 61 198 70 62 198 70 64 198 70 65 198 70 66 198 70 67 198 70 68 198 70 69 198 70 70 198 70 71 198 70 72 198 70 73 198 70 74 198 70 75 198 70 76 198 70 77 198 70 78 198 70 80 198 70 81 198 70 82 198 70 83 198 70 84 198 70 85 198 70 86 198 70 87 198 70 88 198 70 89 198 70 90 198 70 91 198 70 92 198 70 93 198 70 94 198 70 96 198 70 97 198 70 98 198 70 99 198 70 100 198 70 101 198 70 102 198 70 103 198 70 104 198 70 105 198 70 106 198 70 107 198 70 108 198 70 109 198 70 110 198 70 112 198 70 113 198 70 114 198 70 115 198 70 116 198 70 117 198 70 118 198 70 119 198 70 120 198 70 121 198 70 122 198 70 123 198 70 124 198 70 125 198 70 126 198 70 128 198 70 129 198 70 130 198 70 131 198 70 132 198 70 133 198 70 134 198 70 135 198 70 136 198 70 137 198 70 138 198 70 139 198 70 140 198 70 141 198 70 142 198 70 144 198 70 145 198 70 146 198 70 147 198 70 148 198 70 149 198 70 150 198 70 151 198 70 152 198 70 153 198 70 154 198 70 155 198 70 156 198 70 157 198 70 158 198 70 160 198 70 161 198 70 162 198 70 163 198 70 164 198 70 165 198 70 166 198 70 167 198 70 168 198 70 169 198 70 170 198 70 171 198 70 172 198 70 173 198 70 174 198 70 176 198 70 177 198 70 178 198 70 179 198 70 180 198 70 181 198 70 182 198 70 183 198 70 184 198 70 185 198 70 186 198 70 187 198 70 188 198 70 189 198 70 190 198 70 192 198 70 193 198 70 194 198 70 195 198 70 196 198 70 197 198 70 198 198 70 199 198 70 200 198 70 201 198 70 202 198 70 203 198 70 204 198 70 205 198 70 206 198 70 208 198 70 209 198 70 210 198 70 211 198 70 212 198 70 213 198 70 214 198 70 215 198 70 216 198 70 217 198 70 218 198 70 219 198 70 220 198 70 221 198 70 222 198 70 224 198 70 225 198 70 226 198 70 227 198 70 228 198 70 229 198 70 230 198 70 231 198 70 232 198 70 233 198 70 234 198 70 235 198 70 236 198 70 237 198 70 238 198 70 240 198 70 241 198 70 242 198 70 243 198 70 244 198 70 245 198 70 246 198 70 247 198 70 248 198 70 249 198 70 250 198 70 251 198 70 252 198 70 253 198 70 255 198 70
0 199 70 1 199 70 2 199 70 3 199 70 4 199 70 5 199 70 6 199 70 7 199 70 8 199 70 9 199 70 10 199 70 11 199 70 12 199 70 13 199 70 14 199 70 16 199 70 17 199 70 18 199 70 19 199 70 20 199 70 21 199 70 22 199 70 23 199 70 24 199 70 25 199 70 26 199 70 27 199 70 28 199 70 29 199 70 30 199 70 32 199 70 33 199 70 34 199 70 35 199 70 36 199 70 37 199 70 38 199 70 39 199 70 40 199 70 41 199 70 42 199 70 43 199 70 44 199 70 45 199 70 46 199 70 48 199 70 49 199 70 50 199 70 51 199 70 52 199 70 53 199 70 54 199 70 55 199 70 56 199 70 57 199 70 58 199 70 59 199 70 60 199 70 61 199 70 62 199 70 64 199 70 65 199 70 66 199 70 67 199 70 68 199 70 69 199 70 70 199 70 71 199 70 72 199 70 73 199 70 74 199 70 75 199 70 76 199 70 77 199 70 78 199 70 80 199 70 81 199 70 82 199 70 83 199 70 84 199 70 85 199 70 86 199 70 87 199 70 88 199 70 89 199 70 90 199 70 91 199 70 92 199 70 93 199 70 94 199 70 96 199 70 97 199 70 98 199 70 99 199 70 100 199 70 101 199 70 102 199 70 103 199 70 104 199 70 105 199 70 106 199 70 107 199 70 108 199 70 109 199 70 110 199 70 112 199 70 113 199 70 114 199 70 115 199 70 116 199 70 117 199 70 118 199 70 119 199 70 120 199 70 121 199 70 122 199 70 123 199 70 124 199 70 125 199 70 126 199 70 128 199 70 129 199 70 130 199 70 131 199 70 132 199 70 133 199 70 134 199 70 135 199 70 136 199 70 137 199 70 138 199 70 139 199 70 140 199 70 141 199 70 142 199 70 144 199 70 145 199 70 146 199 70 147 199 70 148 199 70 149 199 70 150 199 70 151 199 70 152 199 70 153 199 70 154 199 70 155 199 70 156 199 70 157 199 70 158 199 70 160 199 70 161 199 70 162 199 70 163 199 70 164 199 70 165 199 70 166 199 70 167 199 70 168 199 70 169 199 70 170 199 70 171 199 70 172 199 70 173 199 70 174 199 70 176 199 70 177 199 70 178 199 70 179 199 70 180 199 70 181 199 70 182 199 70 183 199 70 184 199 70 185 199 70 186 199 70 187 199 70 188 199 70 189 199 70 190 199 70 192 199 70 193 199 70 194 199 70 195 199 70 196 199 70 197 199 70 198 199 70 199 199 70 200 199 70 201 199 70 202 199 70 203 199 70 204 199 70 205 199 70 206 199 70 208 199 70 209 199 70 210 199 70 211 199 70 212 199 70 213 199 70 214 199 70 215 199 70 216 199 70 217 199 70 218 199 70 219 199 70 220 199 70 221 199 70 222 199 70 224 199 70 225 199 70 226 199 70 227 199 70 228 199 70 229 199 70 230 199 70 231 199 70 232 199 70 233 199 70 234 199 70 235 199 70 236 199 70 237 199 70 238 199 70 240 199 70 241 199 70 242 199 70 243 199 70 244 199 70 245 199 70 246 199 70 247 199 70 248 199 70 249 199 70 250 199 70 251 199 70 252 199 70 253 199 70 255 199 70
0 200 70 1 200 70 2 200 70 3 200 70 4 200 70 5 200 70 6 200 70 7 200 70 8 200 70 9 200 70 10 200 70 11 200 70 12 200 70 13 200 70 14 200 70 16 200 70 17 200 70 18 200 70 19 200 70 20 200 70 21 200 70 22 200 70 23 200 70 24 200 70 25 200 70 26 200 70 27 200 70 28 200 70 29 200 70 30 200 70 32 200 70 33 200 70 34 200 70 35 200 70 36 200 70 37 200 70 38 200 70 39 200 70 40 200 70 41 200 70 42 200 70 43 200 70 44 200 70 45 200 70 46 200 70 48 200 70 49 200 70 50 200 70 51 200 70 52 200 70 53 200 70 54 200 70 55 200 70 56 200 70 57 200 70 58 200 70 59 200 70 60 200 70 61 200 70 62 200 70 64 200 70 65 200 70 66 200 70 67 200 70 68 200 70 69 200 70 70 200 70 71 200 70 72 200 70 73 200 70 74 200 70 75 200 70 76 200 70 77 200 70 78 200 70 80 200 70 81 200 70 82 200 70 83 200 70 84 200 70 85 200 70 86 200 70 87 200 70 88 200 70 89 200 70 90 200 70 91 200 70 92 200 70 93 200 70 94 200 70 96 200 70 97 200 70 98 200 70 99 200 70 100 200 70 101 200 70 102 200 70 103 200 70 104 200 70 105 200 70 106 200 70 107 200 70 108 200 70 109 200 70 110 200 70 112 200 70 113 200 70 114 200 70 115 200 70 116 200 70 117 200 70 118 200 70 119 200 70 120 200 70 121 200 70 122 200 70 123 200 70 124 200 70 125 200 70 126 200 70 128 200 70 129 200 70 130 200 70 131 200 70 132 200 70 133 200 70 134 200 70 135 200 70 136 200 70 137 200 70 138 200 70 139 200 70 140 200 70 141 200 70 142 200 70 144 200 70 145 200 70 146 200 70 147 200 70 148 200 70 149 200 70 150 200 70 151 200 70 152 200 70 153 200 70 154 200 70 155 200 70 156 200 70 157 200 70 158 200 70 160 200 70 161 200 70 162 200 70 163 200 70 164 200 70 165 200 70 166 200 70 167 200 70 168 200 70 169 200 70 170 200 70 171 200 70 172 200 70 173 200 70 174 200 70 176 200 70 177 200 70 178 200 70 179 200 70 180 200 70 181 200 70 182 200 70 183 200 70 184 200 70 185 200 70 186 200 70 187 200 70 188 200 70 189 200 70 190 200 70 192 200 70 193 200 70 194 200 70 195 200 70 196 200 70 197 200 70 198 200 70 199 200 70 200 200 70 201 200 70 202 200 70 203 200 70 204 200 70 205 200 70 206 200 70 208 200 70 209 200 70 210 200 70 211 200 70 212 200 70 213 200 70 214 200 70 215 200 70 216 200 70 217 200 70 218 200 70 219 200 70 220 200 70 221 200 70 222 200 70 224 200 70 225 200 70 226 200 70 227 200 70 228 200 70 229 200 70 230 200 70 231 200 70 232 200 70 233 200 70 234 200 70 235 200 70 236 200 70 237 200 70 238 200 70 240 200 70 241 200 70 242 200 70 243 200 70 244 200 70 245 200 70 246 200 70 247 200 70 248 200 70 249 200 70 250 200 70 251 200 70 252 200 70 253 200 70 255 200 70
0 202 70 1 202 70 2 202 70 3 202 70 4 202 70 5 202 70 6 202 70 7 202 70 8 202 70 9 202 70 10 202 70 11 202 70 12 202 70 13 202 70 14 202 70 16 202 70 17 202 70 18 202 70 19 202 70 20 202 70 21 202 70 22 202 70 23 202 70 24 202 70 25 202 70 26 202 70 27 202 70 28 202 70 29 202 70 30 202 70 32 202 70 33 202 70 34 202 70 35 202 70 36 202 70 37 202 70 38 202 70 39 202 70 40 202 70 41 202 70 42 202 70 43 202 70 44 202 70 45 202 70 46 202 70 48 202 70 49 202 70 50 202 70 51 202 70 52 202 70 53 202 70 54 202 70 55 202 70 56 202 70 57 202 70 58 202 70 59 202 70 60 202 70 61 202 70 62 202 70 64 202 70 65 202 70 66 202 70 67 202 70 68 202 70 69 202 70 70 202 70 71 202 70 72 202 70 73 202 70 74 202 70 75 202 70 76 202 70 77 202 70 78 202 70 80 202 70 81 202 70 82 202 70 83 202 70 84 202 70 85 202 70 86 202 70 87 202 70 88 202 70 89 202 70 90 202 70 91 202 70 92 202 70 93 202 70 94 202 70 96 202 70 97 202 70 98 202 70 99 202 70 100 202 70 101 202 70 102 202 70 103 202 70 104 202 70 105 202 70 106 202 70 107 202 70 108 202 70 109 202 70 110 202 70 112 202 70 113 202 70 114 202 70 115 202 70 116 202 70 117 202 70 118 202 70 119 202 70 120 202 70 121 202 70 122 202 70 123 202 70 124 202 70 125 202 70 126 202 70 128 202 70 129 202 70 130 202 70 131 202 70 132 202 70 133 202 70 134 202 70 135 202 70 136 202 70 137 202 70 138 202 70 139 202 70 140 202 70 141 202 70 142 202 70 144 202 70 145 202 70 146 202 70 147 202 70 148 202 70 149 202 70 150 202 70 151 202 70 152 202 70 153 202 70 154 202 70 155 202 70 156 202 70 157 202 70 158 202 70 160 202 70 161 202 70 162 202 70 163 202 70 164 202 70 165 202 70 166 202 70 167 202 70 168 202 70 169 202 70 170 202 70 171 202 70 172 202 70 173 202 70 174 202 70 176 202 70 177 202 70 178 202 70 179 202 70 180 202 70 181 202 70 182 202 70 183 202 70 184 202 70 185 202 70 186 202 70 187 202 70 188 202 70 189 202 70 190 202 70 192 202 70 193 202 70 194 202 70 195 202 70 196 202 70 197 202 70 198 202 70 199 202 70 200 202 70 201 202 70 202 202 70 203 202 70 204 202 70 205 202 70 206 202 70 208 202 70 209 202 70 210 202 70 211 202 70 212 202 70 213 202 70 214 202 70 215 202 70 216 202 70 217 202 70 218 202 70 219 202 70 220 202 70 221 202 70 222 202 70 224 202 70 225 202 70 226 202 70 227 202 70 228 202 70 229 202 70 230 202 70 231 202 70 232 202 70 233 202 70 234 202 70 235 202 70 236 202 70 237 202 70 238 202 70 240 202 70 241 202 70 242 202 70 243 202 70 244 202 70 245 202 70 246 202 70 247 202 70 248 202 70 249 202 70 250 202 70 251 202 70 252 202 70 253 202 70 255 202 70
0 203 70 1 203 70 2 203 70 3 203 70 4 203 70 5 203 70 6 203 70 7 203 70 8 203 70 9 203 70 10 203 70 11 203 70 12 203 70 13 203 70 14 203 70 16 203 70 17 203 70 18 203 70 19 203 70 20 203 70 21 203 70 22 203 70 23 203 70 24 203 70 25 203 70 26 203 70 27 203 70 28 203 70 29 203 70 30 203 70 32 203 70 33 203 70 34 203 70 35 203 70 36 203 70 37 203 70 38 203 70 39 203 70 40 203 70 41 203 70 42 203 70 43 203 70 44 203 70 45 203 70 46 203 70 48 203 70 49 203 70 50 203 70 51 203 70 52 203 70 53 203 70 54 203 70 55 203 70 56 203 70 57 203 70 58 203 70 59 203 70 60 203 70 61 203 70 62 203 70 64 203 70 65 203 70 66 203 70 67 203 70 68 203 70 69 203 70 70 203 70 71 203 70 72 203 70 73 203 70 74 203 70 75 203 70 76 203 70 77 203 70 78 203 70 80 203 70 81 203 70 82 203 70 83 203 70 84 203 70 85 203 70 86 203 70 87 203 70 88 203 70 89 203 70 90 203 70 91 203 70 92 203 70 93 203 70 94 203 70 96 203 70 97 203 70 98 203 70 99 203 70 100 203 70 101 203 70 102 203 70 103 203 70 104 203 70 105 203 70 106 203 70 107 203 70 108 203 70 109 203 70 110 203 70 112 203 70 113 203 70 114 203 70 115 203 70 116 203 70 117 203 70 118 203 70 119 203 70 120 203 70 121 203 70 122 203 70 123 203 70 124 203 70 125 203 70 126 203 70 128 203 70 129 203 70 130 203 70 131 203 70 132 203 70 133 203 70 134 203 70 135 203 70 136 203 70 137 203 70 138 203 70 139 203 70 140 203 70 141 203 70 142 203 70 144 203 70 145 203 70 146 203 70 147 203 70 148 203 70 149 203 70 150 203 70 151 203 70 152 203 70 153 203 70 154 203 70 155 203 70 156 203 70 157 203 70 158 203 70 160 203 70 161 203 70 162 203 70 163 203 70 164 203 70 165 203 70 166 203 70 167 203 70 168 203 70 169 203 70 170 203 70 171 203 70 172 203 70 173 203 70 174 203 70 176 203 70 177 203 70 178 203 70 179 203 70 180 203 70 181 203 70 182 203 70 183 203 70 184 203 70 185 203 70 186 203 70 187 203 70 188 203 70 189 203 70 190 203 70 192 203 70 193 203 70 194 203 70 195 203 70 196 203 70 197 203 70 198 203 70 199 203 70 200 203 70 201 203 70 202 203 70 203 203 70 204 203 70 205 203 70 206 203 70 208 203 70 209 203 70 210 203 70 211 203 70 212 203 70 213 203 70 214 203 70 215 203 70 216 203 70 217 203 70 218 203 70 219 203 70 220 203 70 221 203 70 222 203 70 224 203 70 225 203 70 226 203 70 227 203 70 228 203 70 229 203 70 230 203 70 231 203 70 232 203 70 233 203 70 234 203 70 235 203 70 236 203 70 237 203 70 238 203 70 240 203 70 241 203 70 242 203 70 243 203 70 244 203 70 245 203 70 246 203 70 247 203 70 248 203 70 249 203 70 250 203 70 251 203 70 252 203 70 253 203 70 255 203 70
0 205 70 1 205 70 2 205 70 3 205 70 4 205 70 5 205 70 6 205 70 7 205 70 8 205 70 9 205 70 10 205 70 11 205 70 12 205 70 13 205 70 14 205 70 16 205 70 17 205 70 18 205 70 19 205 70 20 205 70 21 205 70 22 205 70 23 205 70 24 205 70 25 205 70 26 205 70 27 205 70 28 205 70 29 205 70 30 205 70 32 205 70 33 205 70 34 205 70 35 205 70 36 205 70 37 205 70 38 205 70 39 205 70 40 205 70 41 205 70 42 205 70 43 205 70 44 205 70 45 205 70 46 205 70 48 205 70 49 205 70 50 205 70 51 205 70 52 205 70 53 205 70 54 205 70 55 205 70 56 205 70 57 205 70 58 205 70 59 205 70 60 205 70 61 205 70 62 205 70 64 205 70 65 205 70 66 205 70 67 205 70 68 205 70 69 205 70 70 205 70 71 205 70 72 205 70 73 205 70 74 205 70 75 205 70 76 205 70 77 205 70 78 205 70 80 205 70 81 205 70 82 205 70 83 205 70 84 205 70 85 205 70 86 205 70 87 205 70 88 205 70 89 205 70 90 205 70 91 205 70 92 205 70 93 205 70 94 205 70 96 205 70 97 205 70 98 205 70 99 205 70 100 205 70 101 205 70 102 205 70 103 205 70 104 205 70 105 205 70 106 205 70 107 205 70 108 205 70 109 205 70 110 205 70 112 205 70 113 205 70 114 205 70 115 205 70 116 205 70 117 205 70 118 205 70 119 205 70 120 205 70 121 205 70 122 205 70 123 205 70 124 205 70 125 205 70 126 205 70 128 205 70 129 205 70 130 205 70 131 205 70 132 205 70 133 205 70 134 205 70 135 205 70 136 205 70 137 205 70 138 205 70 139 205 70 140 205 70 141 205 70 142 205 70 144 205 70 145 205 70 146 205 70 147 205 70 148 205 70 149 205 70 150 205 70 151 205 70 152 205 70 153 205 70 154 205 70 155 205 70 156 205 70 157 205 70 158 205 70 160 205 70 161 205 70 162 205 70 163 205 70 164 205 70 165 205 70 166 205 70 167 205 70 168 205 70 169 205 70 170 205 70 171 205 70 172 205 70 173 205 70 174 205 70 176 205 70 177 205 70 178 205 70 179 205 70 180 205 70 181 205 70 182 205 70 183 205 70 184 205 70 185 205 70 186 205 70 187 205 70 188 205 70 189 205 70 190 205 70 192 205 70 193 205 70 194 205 70 195 205 70 196 205 70 197 205 70 198 205 70 199 205 70 200 205 70 201 205 70 202 205 70 203 205 70 204 205 70 205 205 70 206 205 70 208 205 70 209 205 70 210 205 70 211 205 70 212 205 70 213 205 70 214 205 70 215 205 70 216 205 70 217 205 70 218 205 70 219 205 70 220 205 70 221 205 70 222 205 70 224 205 70 225 205 70 226 205 70 227 205 70 228 205 70 229 205 70 230 205 70 231 205 70 232 205 70 233 205 70 234 205 70 235 205 70 236 205 70 237 205 70 238 205 70 240 205 70 241 205 70 242 205 70 243 205 70 244 205 70 245 205 70 246 205 70 247 205 70 248 205 70 249 205 70 250 205 70 251 205 70 252 205 70 253 205 70 255 205 70
0 206 70 1 206 70 2 206 70 3 206 70 4 206 70 5 206 70 6 206 70 7 206 70 8 206 70 9 206 70 10 206 70 11 206 70 12 206 70 13 206 70 14 206 70 16 206 70 17 206 70 18 206 70 19 206 70 20 206 70 21 206 70 22 206 70 23 206 70 24 206 70 25 206 70 26 206 70 27 206 70 28 206 70 29 206 70 30 206 70 32 206 70 33 206 70 34 206 70 35 206 70 36 206 70 37 206 70 38 206 70 39 206 70 40 206 70 41 206 70 42 206 70 43 206 70 44 206 70 45 206 70 46 206 70 48 206 70 49 206 70 50 206 70 51 206 70 52 206 70 53 206 70 54 206 70 55 206 70 56 206 70 57 206 70 58 206 70 59 206 70 60 206 70 61 206 70 62 206 70 64 206 70 65 206 70 66 206 70 67 206 70 68 206 70 69 206 70 70 206 70 71 206 70 72 206 70 73 206 70 74 206 70 75 206 70 76 206 70 77 206 70 78 206 70 80 206 70 81 206 70 82 206 70 83 206 70 84 206 70 85 206 70 86 206 70 87 206 70 88 206 70 89 206 70 90 206 70 91 206 70 92 206 70 93 206 70 94 206 70 96 206 70 97 206 70 98 206 70 99 206 70 100 206 70 101 206 70 102 206 70 103 206 70 104 206 70 105 206 70 106 206 70 107 206 70 108 206 70 109 206 70 110 206 70 112 206 70 113 206 70 114 206 70 115 206 70 116 206 70 117 206 70 118 206 70 119 206 70 120 206 70 121 206 70 122 206 70 123 206 70 124 206 70 125 206 70 126 206 70 128 206 70 129 206 70 130 206 70 131 206 70 132 206 70 133 206 70 134 206 70 135 206 70 136 206 70 137 206 70 138 206 70 139 206 70 140 206 70 141 206 70 142 206 70 144 206 70 145 206 70 146 206 70 147 206 70 148 206 70 149 206 70 150 206 70 151 206 70 152 206 70 153 206 70 154 206 70 155 206 70 156 206 70 157 206 70 158 206 70 160 206 70 161 206 70 162 206 70 163 206 70 164 206 70 165 206 70 166 206 70 167 206 70 168 206 70 169 206 70 170 206 70 171 206 70 172 206 70 173 206 70 174 206 70 176 206 70 177 206 70 178 206 70 179 206 70 180 206 70 181 206 70 182 206 70 183 206 70 184 206 70 185 206 70 186 206 70 187 206 70 188 206 70 189 206 70 190 206 70 192 206 70 193 206 70 194 206 70 195 206 70 196 206 70 197 206 70 198 206 70 199 206 70 200 206 70 201 206 70 202 206 70 203 206 70 204 206 70 205 206 70 206 206 70 208 206 70 209 206 70 210 206 70 211 206 70 212 206 70 213 206 70 214 206 70 215 206 70 216 206 70 217 206 70 218 206 70 219 206 70 220 206 70 221 206 70 222 206 70 224 206 70 225 206 70 226 206 70 227 206 70 228 206 70 229 206 70 230 206 70 231 206 70 232 206 70 233 206 70 234 206 70 235 206 70 236 206 70 237 206 70 238 206 70 240 206 70 241 206 70 242 206 70 243 206 70 244 206 70 245 206 70 246 206 70 247 206 70 248 206 70 249 206 70 250 206 70 251 206 70 252 206 70 253 206 70 255 206 70
0 207 70 1 207 70 2 207 70 3 207 70 4 207 70 5 207 70 6 207 70 7 207 70 8 207 70 9 207 70 10 207 70 11 207 70 12 207 70 13 207 70 14 207 70 16 207 70 17 207 70 18 207 70 19 207 70 20 207 70 21 207 70 22 207 70 23 207 70 24 207 70 25 207 70 26 207 70 27 207 70 28 207 70 29 207 70 30 207 70 32 207 70 33 207 70 34 207 70 35 207 70 36 207 70 37 207 70 38 207 70 39 207 70 40 207 70 41 207 70 42 207 70 43 207 70 44 207 70 45 207 70 46 207 70 48 207 70 49 207 70 50 207 70 51 207 70 52 207 70 53 207 70 54 207 70 55 207 70 56 207 70 57 207 70 58 207 70 59 207 70 60 207 70 61 207 70 62 207 70 64 207 70 65 207 70 66 207 70 67 207 70 68 207 70 69 207 70 70 207 70 71 207 70 72 207 70 73 207 70 74 207 70 75 207 70 76 207 70 77 207 70 78 207 70 80 207 70 81 207 70 82 207 70 83 207 70 84 207 70 85 207 70 86 207 70 87 207 70 88 207 70 89 207 70 90 207 70 91 207 70 92 207 70 93 207 70 94 207 70 96 207 70 97 207 70 98 207 70 99 207 70 100 207 70 101 207 70 102 207 70 103 207 70 104 207 70 105 207 70 106 207 70 107 207 70 108 207 70 109 207 70 110 207 70 112 207 70 113 207 70 114 207 70 115 207 70 116 207 70 117 207 70 118 207 70 119 207 70 120 207 70 121 207 70 122 207 70 123 207 70 124 207 70 125 207 70 126 207 70 128 207 70 129 207 70 130 207 70 131 207 70 132 207 70 133 207 70 134 207 70 135 207 70 136 207 70 137 207 70 138 207 70 139 207 70 140 207 70 141 207 70 142 207 70 144 207 70 145 207 70 146 207 70 147 207 70 148 207 70 149 207 70 150 207 70 151 207 70 152 207 70 153 207 70 154 207 70 155 207 70 156 207 70 157 207 70 158 207 70 160 207 70 161 207 70 162 207 70 163 207 70 164 207 70 165 207 70 166 207 70 167 207 70 168 207 70 169 207 70 170 207 70 171 207 70 172 207 70 173 207 70 174 207 70 176 207 70 177 207 70 178 207 70 179 207 70 180 207 70 181 207 70 182 207 70 183 207 70 184 207 70 185 207 70 186 207 70 187 207 70 188 207 70 189 207 70 190 207 70 192 207 70 193 207 70 194 207 70 195 207 70 196 207 70 197 207 70 198 207 70 199 207 70 200 207 70 201 207 70 202 207 70 203 207 70 204 207 70 205 207 70 206 207 70 208 207 70 209 207 70 210 207 70 211 207 70 212 207 70 213 207 70 214 207 70 215 207 70 216 207 70 217 207 70 218 207 70 219 207 70 220 207 70 221 207 70 222 207 70 224 207 70 225 207 70 226 207 70 227 207 70 228 207 70 229 207 70 230 207 70 231 207 70 232 207 70 233 207 70 234 207 70 235 207 70 236 207 70 237 207 70 238 207 70 240 207 70 241 207 70 242 207 70 243 207 70 244 207 70 245 207 70 246 207 70 247 207 70 248 207 70 249 207 70 250 207 70 251 207 70 252 207 70 253 207 70 255 207 70
0 209 70 1 209 70 2 209 70 3 209 70 4 209 70 5 209 70 6 209 70 7 209 70 8 209 70 9 209 70 10 209 70 11 209 70 12 209 70 13 209 70 14 209 70 16 209 70 17 209 70 18 209 70 19 209 70 20 209 70 21 209 70 22 209 70 23 209 70 24 209 70 25 209 70 26 209 70 27 209 70 28 209 70 29 209 70 30 209 70 32 209 70 33 209 70 34 209 70 35 209 70 36 209 70 37 209 70 38 209 70 39 209 70 40 209 70 41 209 70 42 209 70 43 209 70 44 209 70 45 209 70 46 209 70 48 209 70 49 209 70 50 209 70 51 209 70 52 209 70 53 209 70 54 209 70 55 209 70 56 209 70 57 209 70 58 209 70 59 209 70 60 209 70 61 209 70 62 209 70 64 209 70 65 209 70 66 209 70 67 209 70 68 209 70 69 209 70 70 209 70 71 209 70 72 209 70 73 209 70 74 209 70 75 209 70 76 209 70 77 209 70 78 209 70 80 209 70 81 209 70 82 209 70 83 209 70 84 209 70 85 209 70 86 209 70 87 209 70 88 209 70 89 209 70 90 209 70 91 209 70 92 209 70 93 209 70 94 209 70 96 209 70 97 209 70 98 209 70 99 209 70 100 209 70 101 209 70 102 209 70 103 209 70 104 209 70 105 209 70 106 209 70 107 209 70 108 209 70 109 209 70 110 209 70 112 209 70 113 209 70 114 209 70 115 209 70 116 209 70 117 209 70 118 209 70 119 209 70 120 209 70 121 209 70 122 209 70 123 209 70 124 209 70 125 209 70 126 209 70 128 209 70 129 209 70 130 209 70 131 209 70 132 209 70 133 209 70 134 209 70 135 209 70 136 209 70 137 209 70 138 209 70 139 209 70 140 209 70 141 209 70 142 209 70 144 209 70 145 209 70 146 209 70 147 209 70 148 209 70 149 209 70 150 209 70 151 209 70 152 209 70 153 209 70 154 209 70 155 209 70 156 209 70 157 209 70 158 209 70 160 209 70 161 209 70 162 209 70 163 209 70 164 209 70 165 209 70 166 209 70 167 209 70 168 209 70 169 209 70 170 209 70 171 209 70 172 209 70 173 209 70 174 209 70 176 209 70 177 209 70 178 209 70 179 209 70 180 209 70 181 209 70 182 209 70 183 209 70 184 209 70 185 209 70 186 209 70 187 209 70 188 209 70 189 209 70 190 209 70 192 209 70 193 209 70 194 209 70 195 209 70 196 209 70 197 209 70 198 209 70 199 209 70 200 209 70 201 209 70 202 209 70 203 209 70 204 209 70 205 209 70 206 209 70 208 209 70 209 209 70 210 209 70 211 209 70 212 209 70 213 209 70 214 209 70 215 209 70 216 209 70 217 209 70 218 209 70 219 209 70 220 209 70 221 209 70 222 209 70 224 209 70 225 209 70 226 209 70 227 209 70 228 209 70 229 209 70 230 209 70 231 209 70 232 209 70 233 209 70 234 209 70 235 209 70 236 209 70 237 209 70 238 209 70 240 209 70 241 209 70 242 209 70 243 209 70 244 209 70 245 209 70 246 209 70 247 209 70 248 209 70 249 209 70 250 209 70 251 209 70 252 209 70 253 209 70 255 209 70
0 210 70 1 210 70 2 210 70 3 210 70 4 210 70 5 210 70 6 210 70 7 210 70 8 210 70 9 210 70 10 210 70 11 210 70 12 210 70 13 210 70 14 210 70 16 210 70 17 210 70 18 210 70 19 210 70 20 210 70 21 210 70 22 210 70 23 210 70 24 210 70 25 210 70 26 210 70 27 210 70 28 210 70 29 210 70 30 210 70 32 210 70 33 210 70 34 210 70 35 210 70 36 210 70 37 210 70 38 210 70 39 210 70 40 210 70 41 210 70 42 210 70 43 210 70 44 210 70 45 210 70 46 210 70 48 210 70 49 210 70 50 210 70 51 210 70 52 210 70 53 210 70 54 210 70 55 210 70 56 210 70 57 210 70 58 210 70 59 210 70 60 210 70 61 210 70 62 210 70 64 210 70 65 210 70 66 210 70 67 210 70 68 210 70 69 210 70 70 210 70 71 210 70 72 210 70 73 210 70 74 210 70 75 210 70 76 210 70 77 210 70 78 210 70 80 210 70 81 210 70 82 210 70 83 210 70 84 210 70 85 210 70 86 210 70 87 210 70 88 210 70 89 210 70 90 210 70 91 210 70 92 210 70 93 210 70 94 210 70 96 210 70 97 210 70 98 210 70 99 210 70 100 210 70 101 210 70 102 210 70 103 210 70 104 210 70 105 210 70 106 210 70 107 210 70 108 210 70 109 210 70 110 210 70 112 210 70 113 210 70 114 210 70 115 210 70 116 210 70 117 210 70 118 210 70 119 210 70 120 210 70 121 210 70 122 210 70 123 210 70 124 210 70 125 210 70 126 210 70 128 210 70 129 210 70 130 210 70 131 210 70 132 210 70 133 210 70 134 210 70 135 210 70 136 210 70 137 210 70 138 210 70 139 210 70 140 210 70 141 210 70 142 210 70 144 210 70 145 210 70 146 210 70 147 210 70 148 210 70 149 210 70 150 210 70 151 210 70 152 210 70 153 210 70 154 210 70 155 210 70 156 210 70 157 210 70 158 210 70 160 210 70 161 210 70 162 210 70 163 210 70 164 210 70 165 210 70 166 210 70 167 210 70 168 210 70 169 210 70 170 210 70 171 210 70 172 210 70 173 210 70 174 210 70 176 210 70 177 210 70 178 210 70 179 210 70 180 210 70 181 210 70 182 210 70 183 210 70 184 210 70 185 210 70 186 210 70 187 210 70 188 210 70 189 210 70 190 210 70 192 210 70 193 210 70 194 210 70 195 210 70 196 210 70 197 210 70 198 210 70 199 210 70 200 210 70 201 210 70 202 210 70 203 210 70 204 210 70 205 210 70 206 210 70 208 210 70 209 210 70 210 210 70 211 210 70 212 210 70 213 210 70 214 210 70 215 210 70 216 210 70 217 210 70 218 210 70 219 210 70 220 210 70 221 210 70 222 210 70 224 210 70 225 210 70 226 210 70 227 210 70 228 210 70 229 210 70 230 210 70 231 210 70 232 210 70 233 210 70 234 210 70 235 210 70 236 210 70 237 210 70 238 210 70 240 210 70 241 210 70 242 210 70 243 210 70 244 210 70 245 210 70 246 210 70 247 210 70 248 210 70 249 210 70 250 210 70 251 210 70 252 210 70 253 210 70 255 210 70
0 212 70 1 212 70 2 212 70 3 212 70 4 212 70 5 212 70 6 212 70 7 212 70 8 212 70 9 212 70 10 212 70 11 212 70 12 212 70 13 212 70 14 212 70 16 212 70 17 212 70 18 212 70 19 212 70 20 212 70 21 212 70 22 212 70 23 212 70 24 212 70 25 212 70 26 212 70 27 212 70 28 212 70 29 212 70 30 212 70 32 212 70 33 212 70 34 212 70 35 212 70 36 212 70 37 212 70 38 212 70 39 212 70 40 212 70 41 212 70 42 212 70 43 212 70 44 212 70 45 212 70 46 212 70 48 212 70 49 212 70 50 212 70 51 212 70 52 212 70 53 212 70 54 212 70 55 212 70 56 212 70 57 212 70 58 212 70 59 212 70 60 212 70 61 212 70 62 212 70 64 212 70 65 212 70 66 212 70 67 212 70 68 212 70 69 212 70 70 212 70 71 212 70 72 212 70 73 212 70 74 212 70 75 212 70 76 212 70 77 212 70 78 212 70 80 212 70 81 212 70 82 212 70 83 212 70 84 212 70 85 212 70 86 212 70 87 212 70 88 212 70 89 212 70 90 212 70 91 212 70 92 212 70 93 212 70 94 212 70 96 212 70 97 212 70 98 212 70 99 212 70 100 212 70 101 212 70 102 212 70 103 212 70 104 212 70 105 212 70 106 212 70 107 212 70 108 212 70 109 212 70 110 212 70 112 212 70 113 212 70 114 212 70 115 212 70 116 212 70 117 212 70 118 212 70 119 212 70 120 212 70 121 212 70 122 212 70 123 212 70 124 212 70 125 212 70 126 212 70 128 212 70 129 212 70 130 212 70 131 212 70 132 212 70 133 212 70 134 212 70 135 212 70 136 212 70 137 212 70 138 212 70 139 212 70 140 212 70 141 212 70 142 212 70 144 212 70 145 212 70 146 212 70 147 212 70 148 212 70 149 212 70 150 212 70 151 212 70 152 212 70 153 212 70 154 212 70 155 212 70 156 212 70 157 212 70 158 212 70 160 212 70 161 212 70 162 212 70 163 212 70 164 212 70 165 212 70 166 212 70 167 212 70 168 212 70 169 212 70 170 212 70 171 212 70 172 212 70 173 212 70 174 212 70 176 212 70 177 212 70 178 212 70 179 212 70 180 212 70 181 212 70 182 212 70 183 212 70 184 212 70 185 212 70 186 212 70 187 212 70 188 212 70 189 212 70 190 212 70 192 212 70 193 212 70 194 212 70 195 212 70 196 212 70 197 212 70 198 212 70 199 212 70 200 212 70 201 212 70 202 212 70 203 212 70 204 212 70 205 212 70 206 212 70 208 212 70 209 212 70 210 212 70 211 212 70 212 212 70 213 212 70 214 212 70 215 212 70 216 212 70 217 212 70 218 212 70 219 212 70 220 212 70 221 212 70 222 212 70 224 212 70 225 212 70 226 212 70 227 212 70 228 212 70 229 212 70 230 212 70 231 212 70 232 212 70 233 212 70 234 212 70 235 212 70 236 212 70 237 212 70 238 212 70 240 212 70 241 212 70 242 212 70 243 212 70 244 212 70 245 212 70 246 212 70 247 212 70 248 212 70 249 212 70 250 212 70 251 212 70 252 212 70 253 212 70 255 212 70
0 213 70 1 213 70 2 213 70 3 213 70 4 213 70 5 213 70 6 213 70 7 213 70 8 213 70 9 213 70 10 213 70 11 213 70 12 213 70 13 213 70 14 213 70 16 213 70 17 213 70 18 213 70 19 213 70 20 213 70 21 213 70 22 213 70 23 213 70 24 213 70 25 213 70 26 213 70 27 213 70 28 213 70 29 213 70 30 213 70 32 213 70 33 213 70 34 213 70 35 213 70 36 213 70 37 213 70 38 213 70 39 213 70 40 213 70 41 213 70 42 213 70 43 213 70 44 213 70 45 213 70 46 213 70 48 213 70 49 213 70 50 213 70 51 213 70 52 213 70 53 213 70 54 213 70 55 213 70 56 213 70 57 213 70 58 213 70 59 213 70 60 213 70 61 213 70 62 213 70 64 213 70 65 213 70 66 213 70 67 213 70 68 213 70 69 213 70 70 213 70 71 213 70 72 213 70 73 213 70 74 213 70 75 213 70 76 213 70 77 213 70 78 213 70 80 213 70 81 213 70 82 213 70 83 213 70 84 213 70 85 213 70 86 213 70 87 213 70 88 213 70 89 213 70 90 213 70 91 213 70 92 213 70 93 213 70 94 213 70 96 213 70 97 213 70 98 213 70 99 213 70 100 213 70 101 213 70 102 213 70 103 213 70 104 213 70 105 213 70 106 213 70 107 213 70 108 213 70 109 213 70 110 213 70 112 213 70 113 213 70 114 213 70 115 213 70 116 213 70 117 213 70 118 213 70 119 213 70 120 213 70 121 213 70 122 213 70 123 213 70 124 213 70 125 213 70 126 213 70 128 213 70 129 213 70 130 213 70 131 213 70 132 213 70 133 213 70 134 213 70 135 213 70 136 213 70 137 213 70 138 213 70 139 213 70 140 213 70 141 213 70 142 213 70 144 213 70 145 213 70 146 213 70 147 213 70 148 213 70 149 213 70 150 213 70 151 213 70 152 213 70 153 213 70 154 213 70 155 213 70 156 213 70 157 213 70 158 213 70 160 213 70 161 213 70 162 213 70 163 213 70 164 213 70 165 213 70 166 213 70 167 213 70 168 213 70 169 213 70 170 213 70 171 213 70 172 213 70 173 213 70 174 213 70 176 213 70 177 213 70 178 213 70 179 213 70 180 213 70 181 213 70 182 213 70 183 213 70 184 213 70 185 213 70 186 213 70 187 213 70 188 213 70 189 213 70 190 213 70 192 213 70 193 213 70 194 213 70 195 213 70 196 213 70 197 213 70 198 213 70 199 213 70 200 213 70 201 213 70 202 213 70 203 213 70 204 213 70 205 213 70 206 213 70 208 213 70 209 213 70 210 213 70 211 213 70 212 213 70 213 213 70 214 213 70 215 213 70 216 213 70 217 213 70 218 213 70 219 213 70 220 213 70 221 213 70 222 213 70 224 213 70 225 213 70 226 213 70 227 213 70 228 213 70 229 213 70 230 213 70 231 213 70 232 213 70 233 213 70 234 213 70 235 213 70 236 213 70 237 213 70 238 213 70 240 213 70 241 213 70 242 213 70 243 213 70 244 213 70 245 213 70 246 213 70 247 213 70 248 213 70 249 213 70 250 213 70 251 213 70 252 213 70 253 213 70 255 213 70
0 215 70 1 215 70 2 215 70 3 215 70 4 215 70 5 215 70 6 215 70 7 215 70 8 215 70 9 215 70 10 215 70 11 215 70 12 215 70 13 215 70 14 215 70 16 215 70 17 215 70 18 215 70 19 215 70 20 215 70 21 215 70 22 215 70 23 215 70 24 215 70 25 215 70 26 215 70 27 215 70 28 215 70 29 215 70 30 215 70 32 215 70 33 215 70 34 215 70 35 215 70 36 215 70 37 215 70 38 215 70 39 215 70 40 215 70 41 215 70 42 215 70 43 215 70 44 215 70 45 215 70 46 215 70 48 215 70 49 215 70 50 215 70 51 215 70 52 215 70 53 215 70 54 215 70 55 215 70 56 215 70 57 215 70 58 215 70 59 215 70 60 215 70 61 215 70 62 215 70 64 215 70 65 215 70 66 215 70 67 215 70 68 215 70 69 215 70 70 215 70 71 215 70 72 215 70 73 215 70 74 215 70 75 215 70 76 215 70 77 215 70 78 215 70 80 215 70 81 215 70 82 215 70 83 215 70 84 215 70 85 215 70 86 215 70 87 215 70 88 215 70 89 215 70 90 215 70 91 215 70 92 215 70 93 215 70 94 215 70 96 215 70 97 215 70 98 215 70 99 215 70 100 215 70 101 215 70 102 215 70 103 215 70 104 215 70 105 215 70 106 215 70 107 215 70 108 215 70 109 215 70 110 215 70 112 215 70 113 215 70 114 215 70 115 215 70 116 215 70 117 215 70 118 215 70 119 215 70 120 215 70 121 215 70 122 215 70 123 215 70 124 215 70 125 215 70 126 215 70 128 215 70 129 215 70 130 215 70 131 215 70 132 215 70 133 215 70 134 215 70 135 215 70 136 215 70 137 215 70 138 215 70 139 215 70 140 215 70 141 215 70 142 215 70 144 215 70 145 215 70 146 215 70 147 215 70 148 215 70 149 215 70 150 215 70 151 215 70 152 215 70 153 215 70 154 215 70 155 215 70 156 215 70 157 215 70 158 215 70 160 215 70 161 215 70 162 215 70 163 215 70 164 215 70 165 215 70 166 215 70 167 215 70 168 215 70 169 215 70 170 215 70 171 215 70 172 215 70 173 215 70 174 215 70 176 215 70 177 215 70 178 215 70 179 215 70 180 215 70 181 215 70 182 215 70 183 215 70 184 215 70 185 215 70 186 215 70 187 215 70 188 215 70 189 215 70 190 215 70 192 215 70 193 215 70 194 215 70 195 215 70 196 215 70 197 215 70 198 215 70 199 215 70 200 215 70 201 215 70 202 215 70 203 215 70 204 215 70 205 215 70 206 215 70 208 215 70 209 215 70 210 215 70 211 215 70 212 215 70 213 215 70 214 215 70 215 215 70 216 215 70 217 215 70 218 215 70 219 215 70 220 215 70 221 215 70 222 215 70 224 215 70 225 215 70 226 215 70 227 215 70 228 215 70 229 215 70 230 215 70 231 215 70 232 215 70 233 215 70 234 215 70 235 215 70 236 215 70 237 215 70 238 215 70 240 215 70 241 215 70 242 215 70 243 215 70 244 215 70 245 215 70 246 215 70 247 215 70 248 215 70 249 215 70 250 215 70 251 215 70 252 215 70 253 215 70 255 215 70
0 216 70 1 216 70 2 216 70 3 216 70 4 216 70 5 216 70 6 216 70 7 216 70 8 216 70 9 216 70 10 216 70 11 216 70 12 216 70 13 216 70 14 216 70 16 216 70 17 216 70 18 216 70 19 216 70 20 216 70 21 216 70 22 216 70 23 216 70 24 216 70 25 216 70 26 216 70 27 216 70 28 216 70 29 216 70 30 216 70 32 216 70 33 216 70 34 216 70 35 216 70 36 216 70 37 216 70 38 216 70 39 216 70 40 216 70 41 216 70 42 216 70 43 216 70 44 216 70 45 216 70 46 216 70 48 216 70 49 216 70 50 216 70 51 216 70 52 216 70 53 216 70 54 216 70 55 216 70 56 216 70 57 216 70 58 216 70 59 216 70 60 216 70 61 216 70 62 216 70 64 216 70 65 216 70 66 216 70 67 216 70 68 216 70 69 216 70 70 216 70 71 216 70 72 216 70 73 216 70 74 216 70 75 216 70 76 216 70 77 216 70 78 216 70 80 216 70 81 216 70 82 216 70 83 216 70 84 216 70 85 216 70 86 216 70 87 216 70 88 216 70 89 216 70 90 216 70 91 216 70 92 216 70 93 216 70 94 216 70 96 216 70 97 216 70 98 216 70 99 216 70 100 216 70 101 216 70 102 216 70 103 216 70 104 216 70 105 216 70 106 216 70 107 216 70 108 216 70 109 216 70 110 216 70 112 216 70 113 216 70 114 216 70 115 216 70 116 216 70 117 216 70 118 216 70 119 216 70 120 216 70 121 216 70 122 216 70 123 216 70 124 216 70 125 216 70 126 216 70 128 216 70 129 216 70 130 216 70 131 216 70 132 216 70 133 216 70 134 216 70 135 216 70 136 216 70 137 216 70 138 216 70 139 216 70 140 216 70 141 216 70 142 216 70 144 216 70 145 216 70 146 216 70 147 216 70 148 216 70 149 216 70 150 216 70 151 216 70 152 216 70 153 216 70 154 216 70 155 216 70 156 216 70 157 216 70 158 216 70 160 216 70 161 216 70 162 216 70 163 216 70 164 216 70 165 216 70 166 216 70 167 216 70 168 216 70 169 216 70 170 216 70 171 216 70 172 216 70 173 216 70 174 216 70 176 216 70 177 216 70 178 216 70 179 216 70 180 216 70 181 216 70 182 216 70 183 216 70 184 216 70 185 216 70 186 216 70 187 216 70 188 216 70 189 216 70 190 216 70 192 216 70 193 216 70 194 216 70 195 216 70 196 216 70 197 216 70 198 216 70 199 216 70 200 216 70 201 216 70 202 216 70 203 216 70 204 216 70 205 216 70 206 216 70 208 216 70 209 216 70 210 216 70 211 216 70 212 216 70 213 216 70 214 216 70 215 216 70 216 216 70 217 216 70 218 216 70 219 216 70 220 216 70 221 216 70 222 216 70 224 216 70 225 216 70 226 216 70 227 216 70 228 216 70 229 216 70 230 216 70 231 216 70 232 216 70 233 216 70 234 216 70 235 216 70 236 216 70 237 216 70 238 216 70 240 216 70 241 216 70 242 216 70 243 216 70 244 216 70 245 216 70 246 216 70 247 216 70 248 216 70 249 216 70 250 216 70 251 216 70 252 216 70 253 216 70 255 216 70
0 217 70 1 217 70 2 217 70 3 217 70 4 217 70 5 217 70 6 217 70 7 217 70 8 217 70 9 217 70 10 217 70 11 217 70 12 217 70 13 217 70 14 217 70 16 217 70 17 217 70 18 217 70 19 217 70 20 217 70 21 217 70 22 217 70 23 217 70 24 217 70 25 217 70 26 217 70 27 217 70 28 217 70 29 217 70 30 217 70 32 217 70 33 217 70 34 217 70 35 217 70 36 217 70 37 217 70 38 217 70 39 217 70 40 217 70 41 217 70 42 217 70 43 217 70 44 217 70 45 217 70 46 217 70 48 217 70 49 217 70 50 217 70 51 217 70 52 217 70 53 217 70 54 217 70 55 217 70 56 217 70 57 217 70 58 217 70 59 217 70 60 217 70 61 217 70 62 217 70 64 217 70 65 217 70 66 217 70 67 217 70 68 217 70 69 217 70 70 217 70 71 217 70 72 217 70 73 217 70 74 217 70 75 217 70 76 217 70 77 217 70 78 217 70 80 217 70 81 217 70 82 217 70 83 217 70 84 217 70 85 217 70 86 217 70 87 217 70 88 217 70 89 217 70 90 217 70 91 217 70 92 217 70 93 217 70 94 217 70 96 217 70 97 217 70 98 217 70 99 217 70 100 217 70 101 217 70 102 217 70 103 217 70 104 217 70 105 217 70 106 217 70 107 217 70 108 217 70 109 217 70 110 217 70 112 217 70 113 217 70 114 217 70 115 217 70 116 217 70 117 217 70 118 217 70 119 217 70 120 217 70 121 217 70 122 217 70 123 217 70 124 217 70 125 217 70 126 217 70 128 217 70 129 217 70 130 217 70 131 217 70 132 217 70 133 217 70 134 217 70 135 217 70 136 217 70 137 217 70 138 217 70 139 217 70 140 217 70 141 217 70 142 217 70 144 217 70 145 217 70 146 217 70 147 217 70 148 217 70 149 217 70 150 217 70 151 217 70 152 217 70 153 217 70 154 217 70 155 217 70 156 217 70 157 217 70 158 217 70 160 217 70 161 217 70 162 217 70 163 217 70 164 217 70 165 217 70 166 217 70 167 217 70 168 217 70 169 217 70 170 217 70 171 217 70 172 217 70 173 217 70 174 217 70 176 217 70 177 217 70 178 217 70 179 217 70 180 217 70 181 217 70 182 217 70 183 217 70 184 217 70 185 217 70 186 217 70 187 217 70 188 217 70 189 217 70 190 217 70 192 217 70 193 217 70 194 217 70 195 217 70 196 217 70 197 217 70 198 217 70 199 217 70 200 217 70 201 217 70 202 217 70 203 217 70 204 217 70 205 217 70 206 217 70 208 217 70 209 217 70 210 217 70 211 217 70 212 217 70 213 217 70 214 217 70 215 217 70 216 217 70 217 217 70 218 217 70 219 217 70 220 217 70 221 217 70 222 217 70 224 217 70 225 217 70 226 217 70 227 217 70 228 217 70 229 217 70 230 217 70 231 217 70 232 217 70 233 217 70 234 217 70 235 217 70 236 217 70 237 217 70 238 217 70 240 217 70 241 217 70 242 217 70 243 217 70 244 217 70 245 217 70 246 217 70 247 217 70 248 217 70 249 217 70 250 217 70 251 217 70 252 217 70 253 217 70 255 217 70
0 219 70 1 219 70 2 219 70 3 219 70 4 219 70 5 219 70 6 219 70 7 219 70 8 219 70 9 219 70 10 219 70 11 219 70 12 219 70 13 219 70 14 219 70 16 219 70 17 219 70 18 219 70 19 219 70 20 219 70 21 219 70 22 219 70 23 219 70 24 219 70 25 219 70 26 219 70 27 219 70 28 219 70 29 219 70 30 219 70 32 219 70 33 219 70 34 219 70 35 219 70 36 219 70 37 219 70 38 219 70 39 219 70 40 219 70 41 219 70 42 219 70 43 219 70 44 219 70 45 219 70 46 219 70 48 219 70 49 219 70 50 219 70 51 219 70 52 219 70 53 219 70 54 219 70 55 219 70 56 219 70 57 219 70 58 219 70 59 219 70 60 219 70 61 219 70 62 219 70 64 219 70 65 219 70 66 219 70 67 219 70 68 219 70 69 219 70 70 219 70 71 219 70 72 219 70 73 219 70 74 219 70 75 219 70 76 219 70 77 219 70 78 219 70 80 219 70 81 219 70 82 219 70 83 219 70 84 219 70 85 219 70 86 219 70 87 219 70 88 219 70 89 219 70 90 219 70 91 219 70 92 219 70 93 219 70 94 219 70 96 219 70 97 219 70 98 219 70 99 219 70 100 219 70 101 219 70 102 219 70 103 219 70 104 219 70 105 219 70 106 219 70 107 219 70 108 219 70 109 219 70 110 219 70 112 219 70 113 219 70 114 219 70 115 219 70 116 219 70 117 219 70 118 219 70 119 219 70 120 219 70 121 219 70 122 219 70 123 219 70 124 219 70 125 219 70 126 219 70 128 219 70 129 219 70 130 219 70 131 219 70 132 219 70 133 219 70 134 219 70 135 219 70 136 219 70 137 219 70 138 219 70 139 219 70 140 219 70 141 219 70 142 219 70 144 219 70 145 219 70 146 219 70 147 219 70 148 219 70 149 219 70 150 219 70 151 219 70 152 219 70 153 219 70 154 219 70 155 219 70 156 219 70 157 219 70 158 219 70 160 219 70 161 219 70 162 219 70 163 219 70 164 219 70 165 219 70 166 219 70 167 219 70 168 219 70 169 219 70 170 219 70 171 219 70 172 219 70 173 219 70 174 219 70 176 219 70 177 219 70 178 219 70 179 219 70 180 219 70 181 219 70 182 219 70 183 219 70 184 219 70 185 219 70 186 219 70 187 219 70 188 219 70 189 219 70 190 219 70 192 219 70 193 219 70 194 219 70 195 219 70 196 219 70 197 219 70 198 219 70 199 219 70 200 219 70 201 219 70 202 219 70 203 219 70 204 219 70 205 219 70 206 219 70 208 219 70 209 219 70 210 219 70 211 219 70 212 219 70 213 219 70 214 219 70 215 219 70 216 219 70 217 219 70 218 219 70 219 219 70 220 219 70 221 219 70 222 219 70 224 219 70 225 219 70 226 219 70 227 219 70 228 219 70 229 219 70 230 219 70 231 219 70 232 219 70 233 219 70 234 219 70 235 219 70 236 219 70 237 219 70 238 219 70 240 219 70 241 219 70 242 219 70 243 219 70 244 219 70 245 219 70 246 219 70 247 219 70 248 219 70 249 219 70 250 219 70 251 219 70 252 219 70 253 219 70 255 219 70
0 220 70 1 220 70 2 220 70 3 220 70 4 220 70 5 220 70 6 220 70 7 220 70 8 220 70 9 220 70 10 220 70 11 220 70 12 220 70 13 220 70 14 220 70 16 220 70 17 220 70 18 220 70 19 220 70 20 220 70 21 220 70 22 220 70 23 220 70 24 220 70 25 220 70 26 220 70 27 220 70 28 220 70 29 220 70 30 220 70 32 220 70 33 220 70 34 220 70 35 220 70 36 220 70 37 220 70 38 220 70 39 220 70 40 220 70 41 220 70 42 220 70 43 220 70 44 220 70 45 220 70 46 220 70 48 220 70 49 220 70 50 220 70 51 220 70 52 220 70 53 220 70 54 220 70 55 220 70 56 220 70 57 220 70 58 220 70 59 220 70 60 220 70 61 220 70 62 220 70 64 220 70 65 220 70 66 220 70 67 220 70 68 220 70 69 220 70 70 220 70 71 220 70 72 220 70 73 220 70 74 220 70 75 220 70 76 220 70 77 220 70 78 220 70 80 220 70 81 220 70 82 220 70 83 220 70 84 220 70 85 220 70 86 220 70 87 220 70 88 220 70 89 220 70 90 220 70 91 220 70 92 220 70 93 220 70 94 220 70 96 220 70 97 220 70 98 220 70 99 220 70 100 220 70 101 220 70 102 220 70 103 220 70 104 220 70 105 220 70 106 220 70 107 220 70 108 220 70 109 220 70 110 220 70 112 220 70 113 220 70 114 220 70 115 220 70 116 220 70 117 220 70 118 220 70 119 220 70 120 220 70 121 220 70 122 220 70 123 220 70 124 220 70 125 220 70 126 220 70 128 220 70 129 220 70 130 220 70 131 220 70 132 220 70 133 220 70 134 220 70 135 220 70 136 220 70 137 220 70 138 220 70 139 220 70 140 220 70 141 220 70 142 220 70 144 220 70 145 220 70 146 220 70 147 220 70 148 220 70 149 220 70 150 220 70 151 220 70 152 220 70 153 220 70 154 220 70 155 220 70 156 220 70 157 220 70 158 220 70 160 220 70 161 220 70 162 220 70 163 220 70 164 220 70 165 220 70 166 220 70 167 220 70 168 220 70 169 220 70 170 220 70 171 220 70 172 220 70 173 220 70 174 220 70 176 220 70 177 220 70 178 220 70 179 220 70 180 220 70 181 220 70 182 220 70 183 220 70 184 220 70 185 220 70 186 220 70 187 220 70 188 220 70 189 220 70 190 220 70 192 220 70 193 220 70 194 220 70 195 220 70 196 220 70 197 220 70 198 220 70 199 220 70 200 220 70 201 220 70 202 220 70 203 220 70 204 220 70 205 220 70 206 220 70 208 220 70 209 220 70 210 220 70 211 220 70 212 220 70 213 220 70 214 220 70 215 220 70 216 220 70 217 220 70 218 220 70 219 220 70 220 220 70 221 220 70 222 220 70 224 220 70 225 220 70 226 220 70 227 220 70 228 220 70 229 220 70 230 220 70 231 220 70 232 220 70 233 220 70 234 220 70 235 220 70 236 220 70 237 220 70 238 220 70 240 220 70 241 220 70 242 220 70 243 220 70 244 220 70 245 220 70 246 220 70 247 220 70 248 220 70 249 220 70 250 220 70 251 220 70 252 220 70 253 220 70 255 220 70
0 222 70 1 222 70 2 222 70 3 222 70 4 222 70 5 222 70 6 222 70 7 222 70 8 222 70 9 222 70 10 222 70 11 222 70 12 222 70 13 222 70 14 222 70 16 222 70 17 222 70 18 222 70 19 222 70 20 222 70 21 222 70 22 222 70 23 222 70 24 222 70 25 222 70 26 222 70 27 222 70 28 222 70 29 222 70 30 222 70 32 222 70 33 222 70 34 222 70 35 222 70 36 222 70 37 222 70 38 222 70 39 222 70 40 222 70 41 222 70 42 222 70 43 222 70 44 222 70 45 222 70 46 222 70 48 222 70 49 222 70 50 222 70 51 222 70 52 222 70 53 222 70 54 222 70 55 222 70 56 222 70 57 222 70 58 222 70 59 222 70 60 222 70 61 222 70 62 222 70 64 222 70 65 222 70 66 222 70 67 222 70 68 222 70 69 222 70 70 222 70 71 222 70 72 222 70 73 222 70 74 222 70 75 222 70 76 222 70 77 222 70 78 222 70 80 222 70 81 222 70 82 222 70 83 222 70 84 222 70 85 222 70 86 222 70 87 222 70 88 222 70 89 222 70 90 222 70 91 222 70 92 222 70 93 222 70 94 222 70 96 222 70 97 222 70 98 222 70 99 222 70 100 222 70 101 222 70 102 222 70 103 222 70 104 222 70 105 222 70 106 222 70 107 222 70 108 222 70 109 222 70 110 222 70 112 222 70 113 222 70 114 222 70 115 222 70 116 222 70 117 222 70 118 222 70 119 222 70 120 222 70 121 222 70 122 222 70 123 222 70 124 222 70 125 222 70 126 222 70 128 222 70 129 222 70 130 222 70 131 222 70 132 222 70 133 222 70 134 222 70 135 222 70 136 222 70 137 222 70 138 222 70 139 222 70 140 222 70 141 222 70 142 222 70 144 222 70 145 222 70 146 222 70 147 222 70 148 222 70 149 222 70 150 222 70 151 222 70 152 222 70 153 222 70 154 222 70 155 222 70 156 222 70 157 222 70 158 222 70 160 222 70 161 222 70 162 222 70 163 222 70 164 222 70 165 222 70 166 222 70 167 222 70 168 222 70 169 222 70 170 222 70 171 222 70 172 222 70 173 222 70 174 222 70 176 222 70 177 222 70 178 222 70 179 222 70 180 222 70 181 222 70 182 222 70 183 222 70 184 222 70 185 222 70 186 222 70 187 222 70 188 222 70 189 222 70 190 222 70 192 222 70 193 222 70 194 222 70 195 222 70 196 222 70 197 222 70 198 222 70 199 222 70 200 222 70 201 222 70 202 222 70 203 222 70 204 222 70 205 222 70 206 222 70 208 222 70 209 222 70 210 222 70 211 222 70 212 222 70 213 222 70 214 222 70 215 222 70 216 222 70 217 222 70 218 222 70 219 222 70 220 222 70 221 222 70 222 222 70 224 222 70 225 222 70 226 222 70 227 222 70 228 222 70 229 222 70 230 222 70 231 222 70 232 222 70 233 222 70 234 222 70 235 222 70 236 222 70 237 222 70 238 222 70 240 222 70 241 222 70 242 222 70 243 222 70 244 222 70 245 222 70 246 222 70 247 222 70 248 222 70 249 222 70 250 222 70 251 222 70 252 222 70 253 222 70 255 222 70
0 223 70 1 223 70 2 223 70 3 223 70 4 223 70 5 223 70 6 223 70 7 223 70 8 223 70 9 223 70 10 223 70 11 223 70 12 223 70 13 223 70 14 223 70 16 223 70 17 223 70 18 223 70 19 223 70 20 223 70 21 223 70 22 223 70 23 223 70 24 223 70 25 223 70 26 223 70 27 223 70 28 223 70 29 223 70 30 223 70 32 223 70 33 223 70 34 223 70 35 223 70 36 223 70 37 223 70 38 223 70 39 223 70 40 223 70 41 223 70 42 223 70 43 223 70 44 223 70 45 223 70 46 223 70 48 223 70 49 223 70 50 223 70 51 223 70 52 223 70 53 223 70 54 223 70 55 223 70 56 223 70 57 223 70 58 223 70 59 223 70 60 223 70 61 223 70 62 223 70 64 223 70 65 223 70 66 223 70 67 223 70 68 223 70 69 223 70 70 223 70 71 223 70 72 223 70 73 223 70 74 223 70 75 223 70 76 223 70 77 223 70 78 223 70 80 223 70 81 223 70 82 223 70 83 223 70 84 223 70 85 223 70 86 223 70 87 223 70 88 223 70 89 223 70 90 223 70 91 223 70 92 223 70 93 223 70 94 223 70 96 223 70 97 223 70 98 223 70 99 223 70 100 223 70 101 223 70 102 223 70 103 223 70 104 223 70 105 223 70 106 223 70 107 223 70 108 223 70 109 223 70 110 223 70 112 223 70 113 223 70 114 223 70 115 223 70 116 223 70 117 223 70 118 223 70 119 223 70 120 223 70 121 223 70 122 223 70 123 223 70 124 223 70 125 223 70 126 223 70 128 223 70 129 223 70 130 223 70 131 223 70 132 223 70 133 223 70 134 223 70 135 223 70 136 223 70 137 223 70 138 223 70 139 223 70 140 223 70 141 223 70 142 223 70 144 223 70 145 223 70 146 223 70 147 223 70 148 223 70 149 223 70 150 223 70 151 223 70 152 223 70 153 223 70 154 223 70 155 223 70 156 223 70 157 223 70 158 223 70 160 223 70 161 223 70 162 223 70 163 223 70 164 223 70 165 223 70 166 223 70 167 223 70 168 223 70 169 223 70 170 223 70 171 223 70 172 223 70 173 223 70 174 223 70 176 223 70 177 223 70 178 223 70 179 223 70 180 223 70 181 223 70 182 223 70 183 223 70 184 223 70 185 223 70 186 223 70 187 223 70 188 223 70 189 223 70 190 223 70 192 223 70 193 223 70 194 223 70 195 223 70 196 223 70 197 223 70 198 223 70 199 223 70 200 223 70 201 223 70 202 223 70 203 223 70 204 223 70 205 223 70 206 223 70 208 223 70 209 223 70 210 223 70 211 223 70 212 223 70 213 223 70 214 223 70 215 223 70 216 223 70 217 223 70 218 223 70 219 223 70 220 223 70 221 223 70 222 223 70 224 223 70 225 223 70 226 223 70 227 223 70 228 223 70 229 223 70 230 223 70 231 223 70 232 223 70 233 223 70 234 223 70 235 223 70 236 223 70 237 223 70 238 223 70 240 223 70 241 223 70 242 223 70 243 223 70 244 223 70 245 223 70 246 223 70 247 223 70 248 223 70 249 223 70 250 223 70 251 223 70 252 223 70 253 223 70 255 223 70
0 225 70 1 225 70 2 225 70 3 225 70 4 225 70 5 225 70 6 225 70 7 225 70 8 225 70 9 225 70 10 225 70 11 225 70 12 225 70 13 225 70 14 225 70 16 225 70 17 225 70 18 225 70 19 225 70 20 225 70 21 225 70 22 225 70 23 225 70 24 225 70 25 225 70 26 225 70 27 225 70 28 225 70 29 225 70 30 225 70 32 225 70 33 225 70 34 225 70 35 225 70 36 225 70 37 225 70 38 225 70 39 225 70 40 225 70 41 225 70 42 225 70 43 225 70 44 225 70 45 225 70 46 225 70 48 225 70 49 225 70 50 225 70 51 225 70 52 225 70 53 225 70 54 225 70 55 225 70 56 225 70 57 225 70 58 225 70 59 225 70 60 225 70 61 225 70 62 225 70 64 225 70 65 225 70 66 225 70 67 225 70 68 225 70 69 225 70 70 225 70 71 225 70 72 225 70 73 225 70 74 225 70 75 225 70 76 225 70 77 225 70 78 225 70 80 225 70 81 225 70 82 225 70 83 225 70 84 225 70 85 225 70 86 225 70 87 225 70 88 225 70 89 225 70 90 225 70 91 225 70 92 225 70 93 225 70 94 225 70 96 225 70 97 225 70 98 225 70 99 225 70 100 225 70 101 225 70 102 225 70 103 225 70 104 225 70 105 225 70 106 225 70 107 225 70 108 225 70 109 225 70 110 225 70 112 225 70 113 225 70 114 225 70 115 225 70 116 225 70 117 225 70 118 225 70 119 225 70 120 225 70 121 225 70 122 225 70 123 225 70 124 225 70 125 225 70 126 225 70 128 225 70 129 225 70 130 225 70 131 225 70 132 225 70 133 225 70 134 225 70 135 225 70 136 225 70 137 225 70 138 225 70 139 225 70 140 225 70 141 225 70 142 225 70 144 225 70 145 225 70 146 225 70 147 225 70 148 225 70 149 225 70 150 225 70 151 225 70 152 225 70 153 225 70 154 225 70 155 225 70 156 225 70 157 225 70 158 225 70 160 225 70 161 225 70 162 225 70 163 225 70 164 225 70 165 225 70 166 225 70 167 225 70 168 225 70 169 225 70 170 225 70 171 225 70 172 225 70 173 225 70 174 225 70 176 225 70 177 225 70 178 225 70 179 225 70 180 225 70 181 225 70 182 225 70 183 225 70 184 225 70 185 225 70 186 225 70 187 225 70 188 225 70 189 225 70 190 225 70 192 225 70 193 225 70 194 225 70 195 225 70 196 225 70 197 225 70 198 225 70 199 225 70 200 225 70 201 225 70 202 225 70 203 225 70 204 225 70 205 225 70 206 225 70 208 225 70 209 225 70 210 225 70 211 225 70 212 225 70 213 225 70 214 225 70 215 225 70 216 225 70 217 225 70 218 225 70 219 225 70 220 225 70 221 225 70 222 225 70 224 225 70 225 225 70 226 225 70 227 225 70 228 225 70 229 225 70 230 225 70 231 225 70 232 225 70 233 225 70 234 225 70 235 225 70 236 225 70 237 225 70 238 225 70 240 225 70 241 225 70 242 225 70 243 225 70 244 225 70 245 225 70 246 225 70 247 225 70 248 225 70 249 225 70 250 225 70 251 225 70 252 225 70 253 225 70 255 225 70
0 226 70 1 226 70 2 226 70 3 226 70 4 226 70 5 226 70 6 226 70 7 226 70 8 226 70 9 226 70 10 226 70 11 226 70 12 226 70 13 226 70 14 226 70 16 226 70 17 226 70 18 226 70 19 226 70 20 226 70 21 226 70 22 226 70 23 226 70 24 226 70 25 226 70 26 226 70 27 226 70 28 226 70 29 226 70 30 226 70 32 226 70 33 226 70 34 226 70 35 226 70 36 226 70 37 226 70 38 226 70 39 226 70 40 226 70 41 226 70 42 226 70 43 226 70 44 226 70 45 226 70 46 226 70 48 226 70 49 226 70 50 226 70 51 226 70 52 226 70 53 226 70 54 226 70 55 226 70 56 226 70 57 226 70 58 226 70 59 226 70 60 226 70 61 226 70 62 226 70 64 226 70 65 226 70 66 226 70 67 226 70 68 226 70 69 226 70 70 226 70 71 226 70 72 226 70 73 226 70 74 226 70 75 226 70 76 226 70 77 226 70 78 226 70 80 226 70 81 226 70 82 226 70 83 226 70 84 226 70 85 226 70 86 226 70 87 226 70 88 226 70 89 226 70 90 226 70 91 226 70 92 226 70 93 226 70 94 226 70 96 226 70 97 226 70 98 226 70 99 226 70 100 226 70 101 226 70 102 226 70 103 226 70 104 226 70 105 226 70 106 226 70 107 226 70 108 226 70 109 226 70 110 226 70 112 226 70 113 226 70 114 226 70 115 226 70 116 226 70 117 226 70 118 226 70 119 226 70 120 226 70 121 226 70 122 226 70 123 226 70 124 226 70 125 226 70 126 226 70 128 226 70 129 226 70 130 226 70 131 226 70 132 226 70 133 226 70 134 226 70 135 226 70 136 226 70 137 226 70 138 226 70 139 226 70 140 226 70 141 226 70 142 226 70 144 226 70 145 226 70 146 226 70 147 226 70 148 226 70 149 226 70 150 226 70 151 226 70 152 226 70 153 226 70 154 226 70 155 226 70 156 226 70 157 226 70 158 226 70 160 226 70 161 226 70 162 226 70 163 226 70 164 226 70 165 226 70 166 226 70 167 226 70 168 226 70 169 226 70 170 226 70 171 226 70 172 226 70 173 226 70 174 226 70 176 226 70 177 226 70 178 226 70 179 226 70 180 226 70 181 226 70 182 226 70 183 226 70 184 226 70 185 226 70 186 226 70 187 226 70 188 226 70 189 226 70 190 226 70 192 226 70 193 226 70 194 226 70 195 226 70 196 226 70 197 226 70 198 226 70 199 226 70 200 226 70 201 226 70 202 226 70 203 226 70 204 226 70 205 226 70 206 226 70 208 226 70 209 226 70 210 226 70 211 226 70 212 226 70 213 226 70 214 226 70 215 226 70 216 226 70 217 226 70 218 226 70 219 226 70 220 226 70 221 226 70 222 226 70 224 226 70 225 226 70 226 226 70 227 226 70 228 226 70 229 226 70 230 226 70 231 226 70 232 226 70 233 226 70 234 226 70 235 226 70 236 226 70 237 226 70 238 226 70 240 226 70 241 226 70 242 226 70 243 226 70 244 226 70 245 226 70 246 226 70 247 226 70 248 226 70 249 226 70 250 226 70 251 226 70 252 226 70 253 226 70 255 226 70
0 227 70 1 227 70 2 227 70 3 227 70 4 227 70 5 227 70 6 227 70 7 227 70 8 227 70 9 227 70 10 227 70 11 227 70 12 227 70 13 227 70 14 227 70 16 227 70 17 227 70 18 227 70 19 227 70 20 227 70 21 227 70 22 227 70 23 227 70 24 227 70 25 227 70 26 227 70 27 227 70 28 227 70 29 227 70 30 227 70 32 227 70 33 227 70 34 227 70 35 227 70 36 227 70 37 227 70 38 227 70 39 227 70 40 227 70 41 227 70 42 227 70 43 227 70 44 227 70 45 227 70 46 227 70 48 227 70 49 227 70 50 227 70 51 227 70 52 227 70 53 227 70 54 227 70 55 227 70 56 227 70 57 227 70 58 227 70 59 227 70 60 227 70 61 227 70 62 227 70 64 227 70 65 227 70 66 227 70 67 227 70 68 227 70 69 227 70 70 227 70 71 227 70 72 227 70 73 227 70 74 227 70 75 227 70 76 227 70 77 227 70 78 227 70 80 227 70 81 227 70 82 227 70 83 227 70 84 227 70 85 227 70 86 227 70 87 227 70 88 227 70 89 227 70 90 227 70 91 227 70 92 227 70 93 227 70 94 227 70 96 227 70 97 227 70 98 227 70 99 227 70 100 227 70 101 227 70 102 227 70 103 227 70 104 227 70 105 227 70 106 227 70 107 227 70 108 227 70 109 227 70 110 227 70 112 227 70 113 227 70 114 227 70 115 227 70 116 227 70 117 227 70 118 227 70 119 227 70 120 227 70 121 227 70 122 227 70 123 227 70 124 227 70 125 227 70 126 227 70 128 227 70 129 227 70 130 227 70 131 227 70 132 227 70 133 227 70 134 227 70 135 227 70 136 227 70 137 227 70 138 227 70 139 227 70 140 227 70 141 227 70 142 227 70 144 227 70 145 227 70 146 227 70 147 227 70 148 227 70 149 227 70 150 227 70 151 227 70 152 227 70 153 227 70 154 227 70 155 227 70 156 227 70 157 227 70 158 227 70 160 227 70 161 227 70 162 227 70 163 227 70 164 227 70 165 227 70 166 227 70 167 227 70 168 227 70 169 227 70 170 227 70 171 227 70 172 227 70 173 227 70 174 227 70 176 227 70 177 227 70 178 227 70 179 227 70 180 227 70 181 227 70 182 227 70 183 227 70 184 227 70 185 227 70 186 227 70 187 227 70 188 227 70 189 227 70 190 227 70 192 227 70 193 227 70 194 227 70 195 227 70 196 227 70 197 227 70 198 227 70 199 227 70 200 227 70 201 227 70 202 227 70 203 227 70 204 227 70 205 227 70 206 227 70 208 227 70 209 227 70 210 227 70 211 227 70 212 227 70 213 227 70 214 227 70 215 227 70 216 227 70 217 227 70 218 227 70 219 227 70 220 227 70 221 227 70 222 227 70 224 227 70 225 227 70 226 227 70 227 227 70 228 227 70 229 227 70 230 227 70 231 227 70 232 227 70 233 227 70 234 227 70 235 227 70 236 227 70 237 227 70 238 227 70 240 227 70 241 227 70 242 227 70 243 227 70 244 227 70 245 227 70 246 227 70 247 227 70 248 227 70 249 227 70 250 227 70 251 227 70 252 227 70 253 227 70 255 227 70
0 229 70 1 229 70 2 229 70 3 229 70 4 229 70 5 229 70 6 229 70 7 229 70 8 229 70 9 229 70 10 229 70 11 229 70 12 229 70 13 229 70 14 229 70 16 229 70 17 229 70 18 229 70 19 229 70 20 229 70 21 229 70 22 229 70 23 229 70 24 229 70 25 229 70 26 229 70 27 229 70 28 229 70 29 229 70 30 229 70 32 229 70 33 229 70 34 229 70 35 229 70 36 229 70 37 229 70 38 229 70 39 229 70 40 229 70 41 229 70 42 229 70 43 229 70 44 229 70 45 229 70 46 229 70 48 229 70 49 229 70 50 229 70 51 229 70 52 229 70 53 229 70 54 229 70 55 229 70 56 229 70 57 229 70 58 229 70 59 229 70 60 229 70 61 229 70 62 229 70 64 229 70 65 229 70 66 229 70 67 229 70 68 229 70 69 229 70 70 229 70 71 229 70 72 229 70 73 229 70 74 229 70 75 229 70 76 229 70 77 229 70 78 229 70 80 229 70 81 229 70 82 229 70 83 229 70 84 229 70 85 229 70 86 229 70 87 229 70 88 229 70 89 229 70 90 229 70 91 229 70 92 229 70 93 229 70 94 229 70 96 229 70 97 229 70 98 229 70 99 229 70 100 229 70 101 229 70 102 229 70 103 229 70 104 229 70 105 229 70 106 229 70 107 229 70 108 229 70 109 229 70 110 229 70 112 229 70 113 229 70 114 229 70 115 229 70 116 229 70 117 229 70 118 229 70 119 229 70 120 229 70 121 229 70 122 229 70 123 229 70 124 229 70 125 229 70 126 229 70 128 229 70 129 229 70 130 229 70 131 229 70 132 229 70 133 229 70 134 229 70 135 229 70 136 229 70 137 229 70 138 229 70 139 229 70 140 229 70 141 229 70 142 229 70 144 229 70 145 229 70 146 229 70 147 229 70 148 229 70 149 229 70 150 229 70 151 229 70 152 229 70 153 229 70 154 229 70 155 229 70 156 229 70 157 229 70 158 229 70 160 229 70 161 229 70 162 229 70 163 229 70 164 229 70 165 229 70 166 229 70 167 229 70 168 229 70 169 229 70 170 229 70 171 229 70 172 229 70 173 229 70 174 229 70 176 229 70 177 229 70 178 229 70 179 229 70 180 229 70 181 229 70 182 229 70 183 229 70 184 229 70 185 229 70 186 229 70 187 229 70 188 229 70 189 229 70 190 229 70 192 229 70 193 229 70 194 229 70 195 229 70 196 229 70 197 229 70 198 229 70 199 229 70 200 229 70 201 229 70 202 229 70 203 229 70 204 229 70 205 229 70 206 229 70 208 229 70 209 229 70 210 229 70 211 229 70 212 229 70 213 229 70 214 229 70 215 229 70 216 229 70 217 229 70 218 229 70 219 229 70 220 229 70 221 229 70 222 229 70 224 229 70 225 229 70 226 229 70 227 229 70 228 229 70 229 229 70 230 229 70 231 229 70 232 229 70 233 229 70 234 229 70 235 229 70 236 229 70 237 229 70 238 229 70 240 229 70 241 229 70 242 229 70 243 229 70 244 229 70 245 229 70 246 229 70 247 229 70 248 229 70 249 229 70 250 229 70 251 229 70 252 229 70 253 229 70 255 229 70
0 230 70 1 230 70 2 230 70 3 230 70 4 230 70 5 230 70 6 230 70 7 230 70 8 230 70 9 230 70 10 230 70 11 230 70 12 230 70 13 230 70 14 230 70 16 230 70 17 230 70 18 230 70 19 230 70 20 230 70 21 230 70 22 230 70 23 230 70 24 230 70 25 230 70 26 230 70 27 230 70 28 230 70 29 230 70 30 230 70 32 230 70 33 230 70 34 230 70 35 230 70 36 230 70 37 230 70 38 230 70 39 230 70 40 230 70 41 230 70 42 230 70 43 230 70 44 230 70 45 230 70 46 230 70 48 230 70 49 230 70 50 230 70 51 230 70 52 230 70 53 230 70 54 230 70 55 230 70 56 230 70 57 230 70 58 230 70 59 230 70 60 230 70 61 230 70 62 230 70 64 230 70 65 230 70 66 230 70 67 230 70 68 230 70 69 230 70 70 230 70 71 230 70 72 230 70 73 230 70 74 230 70 75 230 70 76 230 70 77 230 70 78 230 70 80 230 70 81 230 70 82 230 70 83 230 70 84 230 70 85 230 70 86 230 70 87 230 70 88 230 70 89 230 70 90 230 70 91 230 70 92 230 70 93 230 70 94 230 70 96 230 70 97 230 70 98 230 70 99 230 70 100 230 70 101 230 70 102 230 70 103 230 70 104 230 70 105 230 70 106 230 70 107 230 70 108 230 70 109 230 70 110 230 70 112 230 70 113 230 70 114 230 70 115 230 70 116 230 70 117 230 70 118 230 70 119 230 70 120 230 70 121 230 70 122 230 70 123 230 70 124 230 70 125 230 70 126 230 70 128 230 70 129 230 70 130 230 70 131 230 70 132 230 70 133 230 70 134 230 70 135 230 70 136 230 70 137 230 70 138 230 70 139 230 70 140 230 70 141 230 70 142 230 70 144 230 70 145 230 70 146 230 70 147 230 70 148 230 70 149 230 70 150 230 70 151 230 70 152 230 70 153 230 70 154 230 70 155 230 70 156 230 70 157 230 70 158 230 70 160 230 70 161 230 70 162 230 70 163 230 70 164 230 70 165 230 70 166 230 70 167 230 70 168 230 70 169 230 70 170 230 70 171 230 70 172 230 70 173 230 70 174 230 70 176 230 70 177 230 70 178 230 70 179 230 70 180 230 70 181 230 70 182 230 70 183 230 70 184 230 70 185 230 70 186 230 70 187 230 70 188 230 70 189 230 70 190 230 70 192 230 70 193 230 70 194 230 70 195 230 70 196 230 70 197 230 70 198 230 70 199 230 70 200 230 70 201 230 70 202 230 70 203 230 70 204 230 70 205 230 70 206 230 70 208 230 70 209 230 70 210 230 70 211 230 70 212 230 70 213 230 70 214 230 70 215 230 70 216 230 70 217 230 70 218 230 70 219 230 70 220 230 70 221 230 70 222 230 70 224 230 70 225 230 70 226 230 70 227 230 70 228 230 70 229 230 70 230 230 70 231 230 70 232 230 70 233 230 70 234 230 70 235 230 70 236 230 70 237 230 70 238 230 70 240 230 70 241 230 70 242 230 70 243 230 70 244 230 70 245 230 70 246 230 70 247 230 70 248 230 70 249 230 70 250 230 70 251 230 70 252 230 70 253 230 70 255 230 70
0 232 70 1 232 70 2 232 70 3 232 70 4 232 70 5 232 70 6 232 70 7 232 70 8 232 70 9 232 70 10 232 70 11 232 70 12 232 70 13 232 70 14 232 70 16 232 70 17 232 70 18 232 70 19 232 70 20 232 70 21 232 70 22 232 70 23 232 70 24 232 70 25 232 70 26 232 70 27 232 70 28 232 70 29 232 70 30 232 70 32 232 70 33 232 70 34 232 70 35 232 70 36 232 70 37 232 70 38 232 70 39 232 70 40 232 70 41 232 70 42 232 70 43 232 70 44 232 70 45 232 70 46 232 70 48 232 70 49 232 70 50 232 70 51 232 70 52 232 70 53 232 70 54 232 70 55 232 70 56 232 70 57 232 70 58 232 70 59 232 70 60 232 70 61 232 70 62 232 70 64 232 70 65 232 70 66 232 70 67 232 70 68 232 70 69 232 70 70 232 70 71 232 70 72 232 70 73 232 70 74 232 70 75 232 70 76 232 70 77 232 70 78 232 70 80 232 70 81 232 70 82 232 70 83 232 70 84 232 70 85 232 70 86 232 70 87 232 70 88 232 70 89 232 70 90 232 70 91 232 70 92 232 70 93 232 70 94 232 70 96 232 70 97 232 70 98 232 70 99 232 70 100 232 70 101 232 70 102 232 70 103 232 70 104 232 70 105 232 70 106 232 70 107 232 70 108 232 70 109 232 70 110 232 70 112 232 70 113 232 70 114 232 70 115 232 70 116 232 70 117 232 70 118 232 70 119 232 70 120 232 70 121 232 70 122 232 70 123 232 70 124 232 70 125 232 70 126 232 70 128 232 70 129 232 70 130 232 70 131 232 70 132 232 70 133 232 70 134 232 70 135 232 70 136 232 70 137 232 70 138 232 70 139 232 70 140 232 70 141 232 70 142 232 70 144 232 70 145 232 70 146 232 70 147 232 70 148 232 70 149 232 70 150 232 70 151 232 70 152 232 70 153 232 70 154 232 70 155 232 70 156 232 70 157 232 70 158 232 70 160 232 70 161 232 70 162 232 70 163 232 70 164 232 70 165 232 70 166 232 70 167 232 70 168 232 70 169 232 70 170 232 70 171 232 70 172 232 70 173 232 70 174 232 70 176 232 70 177 232 70 178 232 70 179 232 70 180 232 70 181 232 70 182 232 70 183 232 70 184 232 70 185 232 70 186 232 70 187 232 70 188 232 70 189 232 70 190 232 70 192 232 70 193 232 70 194 232 70 195 232 70 196 232 70 197 232 70 198 232 70 199 232 70 200 232 70 201 232 70 202 232 70 203 232 70 204 232 70 205 232 70 206 232 70 208 232 70 209 232 70 210 232 70 211 232 70 212 232 70 213 232 70 214 232 70 215 232 70 216 232 70 217 232 70 218 232 70 219 232 70 220 232 70 221 232 70 222 232 70 224 232 70 225 232 70 226 232 70 227 232 70 228 232 70 229 232 70 230 232 70 231 232 70 232 232 70 233 232 70 234 232 70 235 232 70 236 232 70 237 232 70 238 232 70 240 232 70 241 232 70 242 232 70 243 232 70 244 232 70 245 232 70 246 232 70 247 232 70 248 232 70 249 232 70 250 232 70 251 232 70 252 232 70 253 232 70 255 232 70
0 233 70 1 233 70 2 233 70 3 233 70 4 233 70 5 233 70 6 233 70 7 233 70 8 233 70 9 233 70 10 233 70 11 233 70 12 233 70 13 233 70 14 233 70 16 233 70 17 233 70 18 233 70 19 233 70 20 233 70 21 233 70 22 233 70 23 233 70 24 233 70 25 233 70 26 233 70 27 233 70 28 233 70 29 233 70 30 233 70 32 233 70 33 233 70 34 233 70 35 233 70 36 233 70 37 233 70 38 233 70 39 233 70 40 233 70 41 233 70 42 233 70 43 233 70 44 233 70 45 233 70 46 233 70 48 233 70 49 233 70 50 233 70 51 233 70 52 233 70 53 233 70 54 233 70 55 233 70 56 233 70 57 233 70 58 233 70 59 233 70 60 233 70 61 233 70 62 233 70 64 233 70 65 233 70 66 233 70 67 233 70 68 233 70 69 233 70 70 233 70 71 233 70 72 233 70 73 233 70 74 233 70 75 233 70 76 233 70 77 233 70 78 233 70 80 233 70 81 233 70 82 233 70 83 233 70 84 233 70 85 233 70 86 233 70 87 233 70 88 233 70 89 233 70 90 233 70 91 233 70 92 233 70 93 233 70 94 233 70 96 233 70 97 233 70 98 233 70 99 233 70 100 233 70 101 233 70 102 233 70 103 233 70 104 233 70 105 233 70 106 233 70 107 233 70 108 233 70 109 233 70 110 233 70 112 233 70 113 233 70 114 233 70 115 233 70 116 233 70 117 233 70 118 233 70 119 233 70 120 233 70 121 233 70 122 233 70 123 233 70 124 233 70 125 233 70 126 233 70 128 233 70 129 233 70 130 233 70 131 233 70 132 233 70 133 233 70 134 233 70 135 233 70 136 233 70 137 233 70 138 233 70 139 233 70 140 233 70 141 233 70 142 233 70 144 233 70 145 233 70 146 233 70 147 233 70 148 233 70 149 233 70 150 233 70 151 233 70 152 233 70 153 233 70 154 233 70 155 233 70 156 233 70 157 233 70 158 233 70 160 233 70 161 233 70 162 233 70 163 233 70 164 233 70 165 233 70 166 233 70 167 233 70 168 233 70 169 233 70 170 233 70 171 233 70 172 233 70 173 233 70 174 233 70 176 233 70 177 233 70 178 233 70 179 233 70 180 233 70 181 233 70 182 233 70 183 233 70 184 233 70 185 233 70 186 233 70 187 233 70 188 233 70 189 233 70 190 233 70 192 233 70 193 233 70 194 233 70 195 233 70 196 233 70 197 233 70 198 233 70 199 233 70 200 233 70 201 233 70 202 233 70 203 233 70 204 233 70 205 233 70 206 233 70 208 233 70 209 233 70 210 233 70 211 233 70 212 233 70 213 233 70 214 233 70 215 233 70 216 233 70 217 233 70 218 233 70 219 233 70 220 233 70 221 233 70 222 233 70 224 233 70 225 233 70 226 233 70 227 233 70 228 233 70 229 233 70 230 233 70 231 233 70 232 233 70 233 233 70 234 233 70 235 233 70 236 233 70 237 233 70 238 233 70 240 233 70 241 233 70 242 233 70 243 233 70 244 233 70 245 233 70 246 233 70 247 233 70 248 233 70 249 233 70 250 233 70 251 233 70 252 233 70 253 233 70 255 233 70
0 235 70 1 235 70 2 235 70 3 235 70 4 235 70 5 235 70 6 235 70 7 235 70 8 235 70 9 235 70 10 235 70 11 235 70 12 235 70 13 235 70 14 235 70 16 235 70 17 235 70 18 235 70 19 235 70 20 235 70 21 235 70 22 235 70 23 235 70 24 235 70 25 235 70 26 235 70 27 235 70 28 235 70 29 235 70 30 235 70 32 235 70 33 235 70 34 235 70 35 235 70 36 235 70 37 235 70 38 235 70 39 235 70 40 235 70 41 235 70 42 235 70 43 235 70 44 235 70 45 235 70 46 235 70 48 235 70 49 235 70 50 235 70 51 235 70 52 235 70 53 235 70 54 235 70 55 235 70 56 235 70 57 235 70 58 235 70 59 235 70 60 235 70 61 235 70 62 235 70 64 235 70 65 235 70 66 235 70 67 235 70 68 235 70 69 235 70 70 235 70 71 235 70 72 235 70 73 235 70 74 235 70 75 235 70 76 235 70 77 235 70 78 235 70 80 235 70 81 235 70 82 235 70 83 235 70 84 235 70 85 235 70 86 235 70 87 235 70 88 235 70 89 235 70 90 235 70 91 235 70 92 235 70 93 235 70 94 235 70 96 235 70 97 235 70 98 235 70 99 235 70 100 235 70 101 235 70 102 235 70 103 235 70 104 235 70 105 235 70 106 235 70 107 235 70 108 235 70 109 235 70 110 235 70 112 235 70 113 235 70 114 235 70 115 235 70 116 235 70 117 235 70 118 235 70 119 235 70 120 235 70 121 235 70 122 235 70 123 235 70 124 235 70 125 235 70 126 235 70 128 235 70 129 235 70 130 235 70 131 235 70 132 235 70 133 235 70 134 235 70 135 235 70 136 235 70 137 235 70 138 235 70 139 235 70 140 235 70 141 235 70 142 235 70 144 235 70 145 235 70 146 235 70 147 235 70 148 235 70 149 235 70 150 235 70 151 235 70 152 235 70 153 235 70 154 235 70 155 235 70 156 235 70 157 235 70 158 235 70 160 235 70 161 235 70 162 235 70 163 235 70 164 235 70 165 235 70 166 235 70 167 235 70 168 235 70 169 235 70 170 235 70 171 235 70 172 235 70 173 235 70 174 235 70 176 235 70 177 235 70 178 235 70 179 235 70 180 235 70 181 235 70 182 235 70 183 235 70 184 235 70 185 235 70 186 235 70 187 235 70 188 235 70 189 235 70 190 235 70 192 235 70 193 235 70 194 235 70 195 235 70 196 235 70 197 235 70 198 235 70 199 235 70 200 235 70 201 235 70 202 235 70 203 235 70 204 235 70 205 235 70 206 235 70 208 235 70 209 235 70 210 235 70 211 235 70 212 235 70 213 235 70 214 235 70 215 235 70 216 235 70 217 235 70 218 235 70 219 235 70 220 235 70 221 235 70 222 235 70 224 235 70 225 235 70 226 235 70 227 235 70 228 235 70 229 235 70 230 235 70 231 235 70 232 235 70 233 235 70 234 235 70 235 235 70 236 235 70 237 235 70 238 235 70 240 235 70 241 235 70 242 235 70 243 235 70 244 235 70 245 235 70 246 235 70 247 235 70 248 235 70 249 235 70 250 235 70 251 235 70 252 235 70 253 235 70 255 235 70
0 236 70 1 236 70 2 236 70 3 236 70 4 236 70 5 236 70 6 236 70 7 236 70 8 236 70 9 236 70 10 236 70 11 236 70 12 236 70 13 236 70 14 236 70 16 236 70 17 236 70 18 236 70 19 236 70 20 236 70 21 236 70 22 236 70 23 236 70 24 236 70 25 236 70 26 236 70 27 236 70 28 236 70 29 236 70 30 236 70 32 236 70 33 236 70 34 236 70 35 236 70 36 236 70 37 236 70 38 236 70 39 236 70 40 236 70 41 236 70 42 236 70 43 236 70 44 236 70 45 236 70 46 236 70 48 236 70 49 236 70 50 236 70 51 236 70 52 236 70 53 236 70 54 236 70 55 236 70 56 236 70 57 236 70 58 236 70 59 236 70 60 236 70 61 236 70 62 236 70 64 236 70 65 236 70 66 236 70 67 236 70 68 236 70 69 236 70 70 236 70 71 236 70 72 236 70 73 236 70 74 236 70 75 236 70 76 236 70 77 236 70 78 236 70 80 236 70 81 236 70 82 236 70 83 236 70 84 236 70 85 236 70 86 236 70 87 236 70 88 236 70 89 236 70 90 236 70 91 236 70 92 236 70 93 236 70 94 236 70 96 236 70 97 236 70 98 236 70 99 236 70 100 236 70 101 236 70 102 236 70 103 236 70 104 236 70 105 236 70 106 236 70 107 236 70 108 236 70 109 236 70 110 236 70 112 236 70 113 236 70 114 236 70 115 236 70 116 236 70 117 236 70 118 236 70 119 236 70 120 236 70 121 236 70 122 236 70 123 236 70 124 236 70 125 236 70 126 236 70 128 236 70 129 236 70 130 236 70 131 236 70 132 236 70 133 236 70 134 236 70 135 236 70 136 236 70 137 236 70 138 236 70 139 236 70 140 236 70 141 236 70 142 236 70 144 236 70 145 236 70 146 236 70 147 236 70 148 236 70 149 236 70 150 236 70 151 236 70 152 236 70 153 236 70 154 236 70 155 236 70 156 236 70 157 236 70 158 236 70 160 236 70 161 236 70 162 236 70 163 236 70 164 236 70 165 236 70 166 236 70 167 236 70 168 236 70 169 236 70 170 236 70 171 236 70 172 236 70 173 236 70 174 236 70 176 236 70 177 236 70 178 236 70 179 236 70 180 236 70 181 236 70 182 236 70 183 236 70 184 236 70 185 236 70 186 236 70 187 236 70 188 236 70 189 236 70 190 236 70 192 236 70 193 236 70 194 236 70 195 236 70 196 236 70 197 236 70 198 236 70 199 236 70 200 236 70 201 236 70 202 236 70 203 236 70 204 236 70 205 236 70 206 236 70 208 236 70 209 236 70 210 236 70 211 236 70 212 236 70 213 236 70 214 236 70 215 236 70 216 236 70 217 236 70 218 236 70 219 236 70 220 236 70 221 236 70 222 236 70 224 236 70 225 236 70 226 236 70 227 236 70 228 236 70 229 236 70 230 236 70 231 236 70 232 236 70 233 236 70 234 236 70 235 236 70 236 236 70 237 236 70 238 236 70 240 236 70 241 236 70 242 236 70 243 236 70 244 236 70 245 236 70 246 236 70 247 236 70 248 236 70 249 236 70 250 236 70 251 236 70 252 236 70 253 236 70 255 236 70
0 237 70 1 237 70 2 237 70 3 237 70 4 237 70 5 237 70 6 237 70 7 237 70 8 237 70 9 237 70 10 237 70 11 237 70 12 237 70 13 237 70 14 237 70 16 237 70 17 237 70 18 237 70 19 237 70 20 237 70 21 237 70 22 237 70 23 237 70 24 237 70 25 237 70 26 237 70 27 237 70 28 237 70 29 237 70 30 237 70 32 237 70 33 237 70 34 237 70 35 237 70 36 237 70 37 237 70 38 237 70 39 237 70 40 237 70 41 237 70 42 237 70 43 237 70 44 237 70 45 237 70 46 237 70 48 237 70 49 237 70 50 237 70 51 237 70 52 237 70 53 237 70 54 237 70 55 237 70 56 237 70 57 237 70 58 237 70 59 237 70 60 237 70 61 237 70 62 237 70 64 237 70 65 237 70 66 237 70 67 237 70 68 237 70 69 237 70 70 237 70 71 237 70 72 237 70 73 237 70 74 237 70 75 237 70 76 237 70 77 237 70 78 237 70 80 237 70 81 237 70 82 237 70 83 237 70 84 237 70 85 237 70 86 237 70 87 237 70 88 237 70 89 237 70 90 237 70 91 237 70 92 237 70 93 237 70 94 237 70 96 237 70 97 237 70 98 237 70 99 237 70 100 237 70 101 237 70 102 237 70 103 237 70 104 237 70 105 237 70 106 237 70 107 237 70 108 237 70 109 237 70 110 237 70 112 237 70 113 237 70 114 237 70 115 237 70 116 237 70 117 237 70 118 237 70 119 237 70 120 237 70 121 237 70 122 237 70 123 237 70 124 237 70 125 237 70 126 237 70 128 237 70 129 237 70 130 237 70 131 237 70 132 237 70 133 237 70 134 237 70 135 237 70 136 237 70 137 237 70 138 237 70 139 237 70 140 237 70 141 237 70 142 237 70 144 237 70 145 237 70 146 237 70 147 237 70 148 237 70 149 237 70 150 237 70 151 237 70 152 237 70 153 237 70 154 237 70 155 237 70 156 237 70 157 237 70 158 237 70 160 237 70 161 237 70 162 237 70 163 237 70 164 237 70 165 237 70 166 237 70 167 237 70 168 237 70 169 237 70 170 237 70 171 237 70 172 237 70 173 237 70 174 237 70 176 237 70 177 237 70 178 237 70 179 237 70 180 237 70 181 237 70 182 237 70 183 237 70 184 237 70 185 237 70 186 237 70 187 237 70 188 237 70 189 237 70 190 237 70 192 237 70 193 237 70 194 237 70 195 237 70 196 237 70 197 237 70 198 237 70 199 237 70 200 237 70 201 237 70 202 237 70 203 237 70 204 237 70 205 237 70 206 237 70 208 237 70 209 237 70 210 237 70 211 237 70 212 237 70 213 237 70 214 237 70 215 237 70 216 237 70 217 237 70 218 237 70 219 237 70 220 237 70 221 237 70 222 237 70 224 237 70 225 237 70 226 237 70 227 237 70 228 237 70 229 237 70 230 237 70 231 237 70 232 237 70 233 237 70 234 237 70 235 237 70 236 237 70 237 237 70 238 237 70 240 237 70 241 237 70 242 237 70 243 237 70 244 237 70 245 237 70 246 237 70 247 237 70 248 237 70 249 237 70 250 237 70 251 237 70 252 237 70 253 237 70 255 237 70
0 239 70 1 239 70 2 239 70 3 239 70 4 239 70 5 239 70 6 239 70 7 239 70 8 239 70 9 239 70 10 239 70 11 239 70 12 239 70 13 239 70 14 239 70 16 239 70 17 239 70 18 239 70 19 239 70 20 239 70 21 239 70 22 239 70 23 239 70 24 239 70 25 239 70 26 239 70 27 239 70 28 239 70 29 239 70 30 239 70 32 239 70 33 239 70 34 239 70 35 239 70 36 239 70 37 239 70 38 239 70 39 239 70 40 239 70 41 239 70 42 239 70 43 239 70 44 239 70 45 239 70 46 239 70 48 239 70 49 239 70 50 239 70 51 239 70 52 239 70 53 239 70 54 239 70 55 239 70 56 239 70 57 239 70 58 239 70 59 239 70 60 239 70 61 239 70 62 239 70 64 239 70 65 239 70 66 239 70 67 239 70 68 239 70 69 239 70 70 239 70 71 239 70 72 239 70 73 239 70 74 239 70 75 239 70 76 239 70 77 239 70 78 239 70 80 239 70 81 239 70 82 239 70 83 239 70 84 239 70 85 239 70 86 239 70 87 239 70 88 239 70 89 239 70 90 239 70 91 239 70 92 239 70 93 239 70 94 239 70 96 239 70 97 239 70 98 239 70 99 239 70 100 239 70 101 239 70 102 239 70 103 239 70 104 239 70 105 239 70 106 239 70 107 239 70 108 239 70 109 239 70 110 239 70 112 239 70 113 239 70 114 239 70 115 239 70 116 239 70 117 239 70 118 239 70 119 239 70 120 239 70 121 239 70 122 239 70 123 239 70 124 239 70 125 239 70 126 239 70 128 239 70 129 239 70 130 239 70 131 239 70 132 239 70 133 239 70 134 239 70 135 239 70 136 239 70 137 239 70 138 239 70 139 239 70 140 239 70 141 239 70 142 239 70 144 239 70 145 239 70 146 239 70 147 239 70 148 239 70 149 239 70 150 239 70 151 239 70 152 239 70 153 239 70 154 239 70 155 239 70 156 239 70 157 239 70 158 239 70 160 239 70 161 239 70 162 239 70 163 239 70 164 239 70 165 239 70 166 239 70 167 239 70 168 239 70 169 239 70 170 239 70 171 239 70 172 239 70 173 239 70 174 239 70 176 239 70 177 239 70 178 239 70 179 239 70 180 239 70 181 239 70 182 239 70 183 239 70 184 239 70 185 239 70 186 239 70 187 239 70 188 239 70 189 239 70 190 239 70 192 239 70 193 239 70 194 239 70 195 239 70 196 239 70 197 239 70 198 239 70 199 239 70 200 239 70 201 239 70 202 239 70 203 239 70 204 239 70 205 239 70 206 239 70 208 239 70 209 239 70 210 239 70 211 239 70 212 239 70 213 239 70 214 239 70 215 239 70 216 239 70 217 239 70 218 239 70 219 239 70 220 239 70 221 239 70 222 239 70 224 239 70 225 239 70 226 239 70 227 239 70 228 239 70 229 239 70 230 239 70 231 239 70 232 239 70 233 239 70 234 239 70 235 239 70 236 239 70 237 239 70 238 239 70 240 239 70 241 239 70 242 239 70 243 239 70 244 239 70 245 239 70 246 239 70 247 239 70 248 239 70 249 239 70 250 239 70 251 239 70 252 239 70 253 239 70 255 239 70
0 240 70 1 240 70 2 240 70 3 240 70 4 240 70 5 240 70 6 240 70 7 240 70 8 240 70 9 240 70 10 240 70 11 240 70 12 240 70 13 240 70 14 240 70 16 240 70 17 240 70 18 240 70 19 240 70 20 240 70 21 240 70 22 240 70 23 240 70 24 240 70 25 240 70 26 240 70 27 240 70 28 240 70 29 240 70 30 240 70 32 240 70 33 240 70 34 240 70 35 240 70 36 240 70 37 240 70 38 240 70 39 240 70 40 240 70 41 240 70 42 240 70 43 240 70 44 240 70 45 240 70 46 240 70 48 240 70 49 240 70 50 240 70 51 240 70 52 240 70 53 240 70 54 240 70 55 240 70 56 240 70 57 240 70 58 240 70 59 240 70 60 240 70 61 240 70 62 240 70 64 240 70 65 240 70 66 240 70 67 240 70 68 240 70 69 240 70 70 240 70 71 240 70 72 240 70 73 240 70 74 240 70 75 240 70 76 240 70 77 240 70 78 240 70 80 240 70 81 240 70 82 240 70 83 240 70 84 240 70 85 240 70 86 240 70 87 240 70 88 240 70 89 240 70 90 240 70 91 240 70 92 240 70 93 240 70 94 240 70 96 240 70 97 240 70 98 240 70 99 240 70 100 240 70 101 240 70 102 240 70 103 240 70 104 240 70 105 240 70 106 240 70 107 240 70 108 240 70 109 240 70 110 240 70 112 240 70 113 240 70 114 240 70 115 240 70 116 240 70 117 240 70 118 240 70 119 240 70 120 240 70 121 240 70 122 240 70 123 240 70 124 240 70 125 240 70 126 240 70 128 240 70 129 240 70 130 240 70 131 240 70 132 240 70 133 240 70 134 240 70 135 240 70 136 240 70 137 240 70 138 240 70 139 240 70 140 240 70 141 240 70 142 240 70 144 240 70 145 240 70 146 240 70 147 240 70 148 240 70 149 240 70 150 240 70 151 240 70 152 240 70 153 240 70 154 240 70 155 240 70 156 240 70 157 240 70 158 240 70 160 240 70 161 240 70 162 240 70 163 240 70 164 240 70 165 240 70 166 240 70 167 240 70 168 240 70 169 240 70 170 240 70 171 240 70 172 240 70 173 240 70 174 240 70 176 240 70 177 240 70 178 240 70 179 240 70 180 240 70 181 240 70 182 240 70 183 240 70 184 240 70 185 240 70 186 240 70 187 240 70 188 240 70 189 240 70 190 240 70 192 240 70 193 240 70 194 240 70 195 240 70 196 240 70 197 240 70 198 240 70 199 240 70 200 240 70 201 240 70 202 240 70 203 240 70 204 240 70 205 240 70 206 240 70 208 240 70 209 240 70 210 240 70 211 240 70 212 240 70 213 240 70 214 240 70 215 240 70 216 240 70 217 240 70 218 240 70 219 240 70 220 240 70 221 240 70 222 240 70 224 240 70 225 240 70 226 240 70 227 240 70 228 240 70 229 240 70 230 240 70 231 240 70 232 240 70 233 240 70 234 240 70 235 240 70 236 240 70 237 240 70 238 240 70 240 240 70 241 240 70 242 240 70 243 240 70 244 240 70 245 240 70 246 240 70 247 240 70 248 240 70 249 240 70 250 240 70 251 240 70 252 240 70 253 240 70 255 240 70
0 242 70 1 242 70 2 242 70 3 242 70 4 242 70 5 242 70 6 242 70 7 242 70 8 242 70 9 242 70 10 242 70 11 242 70 12 242 70 13 242 70 14 242 70 16 242 70 17 242 70 18 242 70 19 242 70 20 242 70 21 242 70 22 242 70 23 242 70 24 242 70 25 242 70 26 242 70 27 242 70 28 242 70 29 242 70 30 242 70 32 242 70 33 242 70 34 242 70 35 242 70 36 242 70 37 242 70 38 242 70 39 242 70 40 242 70 41 242 70 42 242 70 43 242 70 44 242 70 45 242 70 46 242 70 48 242 70 49 242 70 50 242 70 51 242 70 52 242 70 53 242 70 54 242 70 55 242 70 56 242 70 57 242 70 58 242 70 59 242 70 60 242 70 61 242 70 62 242 70 64 242 70 65 242 70 66 242 70 67 242 70 68 242 70 69 242 70 70 242 70 71 242 70 72 242 70 73 242 70 74 242 70 75 242 70 76 242 70 77 242 70 78 242 70 80 242 70 81 242 70 82 242 70 83 242 70 84 242 70 85 242 70 86 242 70 87 242 70 88 242 70 89 242 70 90 242 70 91 242 70 92 242 70 93 242 70 94 242 70 96 242 70 97 242 70 98 242 70 99 242 70 100 242 70 101 242 70 102 242 70 103 242 70 104 242 70 105 242 70 106 242 70 107 242 70 108 242 70 109 242 70 110 242 70 112 242 70 113 242 70 114 242 70 115 242 70 116 242 70 117 242 70 118 242 70 119 242 70 120 242 70 121 242 70 122 242 70 123 242 70 124 242 70 125 242 70 126 242 70 128 242 70 129 242 70 130 242 70 131 242 70 132 242 70 133 242 70 134 242 70 135 242 70 136 242 70 137 242 70 138 242 70 139 242 70 140 242 70 141 242 70 142 242 70 144 242 70 145 242 70 146 242 70 147 242 70 148 242 70 149 242 70 150 242 70 151 242 70 152 242 70 153 242 70 154 242 70 155 242 70 156 242 70 157 242 70 158 242 70 160 242 70 161 242 70 162 242 70 163 242 70 164 242 70 165 242 70 166 242 70 167 242 70 168 242 70 169 242 70 170 242 70 171 242 70 172 242 70 173 242 70 174 242 70 176 242 70 177 242 70 178 242 70 179 242 70 180 242 70 181 242 70 182 242 70 183 242 70 184 242 70 185 242 70 186 242 70 187 242 70 188 242 70 189 242 70 190 242 70 192 242 70 193 242 70 194 242 70 195 242 70 196 242 70 197 242 70 198 242 70 199 242 70 200 242 70 201 242 70 202 242 70 203 242 70 204 242 70 205 242 70 206 242 70 208 242 70 209 242 70 210 242 70 211 242 70 212 242 70 213 242 70 214 242 70 215 242 70 216 242 70 217 242 70 218 242 70 219 242 70 220 242 70 221 242 70 222 242 70 224 242 70 225 242 70 226 242 70 227 242 70 228 242 70 229 242 70 230 242 70 231 242 70 232 242 70 233 242 70 234 242 70 235 242 70 236 242 70 237 242 70 238 242 70 240 242 70 241 242 70 242 242 70 243 242 70 244 242 70 245 242 70 246 242 70 247 242 70 248 242 70 249 242 70 250 242 70 251 242 70 252 242 70 253 242 70 255 242 70
0 243 70 1 243 70 2 243 70 3 243 70 4 243 70 5 243 70 6 243 70 7 243 70 8 243 70 9 243 70 10 243 70 11 243 70 12 243 70 13 243 70 14 243 70 16 243 70 17 243 70 18 243 70 19 243 70 20 243 70 21 243 70 22 243 70 23 243 70 24 243 70 25 243 70 26 243 70 27 243 70 28 243 70 29 243 70 30 243 70 32 243 70 33 243 70 34 243 70 35 243 70 36 243 70 37 243 70 38 243 70 39 243 70 40 243 70 41 243 70 42 243 70 43 243 70 44 243 70 45 243 70 46 243 70 48 243 70 49 243 70 50 243 70 51 243 70 52 243 70 53 243 70 54 243 70 55 243 70 56 243 70 57 243 70 58 243 70 59 243 70 60 243 70 61 243 70 62 243 70 64 243 70 65 243 70 66 243 70 67 243 70 68 243 70 69 243 70 70 243 70 71 243 70 72 243 70 73 243 70 74 243 70 75 243 70 76 243 70 77 243 70 78 243 70 80 243 70 81 243 70 82 243 70 83 243 70 84 243 70 85 243 70 86 243 70 87 243 70 88 243 70 89 243 70 90 243 70 91 243 70 92 243 70 93 243 70 94 243 70 96 243 70 97 243 70 98 243 70 99 243 70 100 243 70 101 243 70 102 243 70 103 243 70 104 243 70 105 243 70 106 243 70 107 243 70 108 243 70 109 243 70 110 243 70 112 243 70 113 243 70 114 243 70 115 243 70 116 243 70 117 243 70 118 243 70 119 243 70 120 243 70 121 243 70 122 243 70 123 243 70 124 243 70 125 243 70 126 243 70 128 243 70 129 243 70 130 243 70 131 243 70 132 243 70 133 243 70 134 243 70 135 243 70 136 243 70 137 243 70 138 243 70 139 243 70 140 243 70 141 243 70 142 243 70 144 243 70 145 243 70 146 243 70 147 243 70 148 243 70 149 243 70 150 243 70 151 243 70 152 243 70 153 243 70 154 243 70 155 243 70 156 243 70 157 243 70 158 243 70 160 243 70 161 243 70 162 243 70 163 243 70 164 243 70 165 243 70 166 243 70 167 243 70 168 243 70 169 243 70 170 243 70 171 243 70 172 243 70 173 243 70 174 243 70 176 243 70 177 243 70 178 243 70 179 243 70 180 243 70 181 243 70 182 243 70 183 243 70 184 243 70 185 243 70 186 243 70 187 243 70 188 243 70 189 243 70 190 243 70 192 243 70 193 243 70 194 243 70 195 243 70 196 243 70 197 243 70 198 243 70 199 243 70 200 243 70 201 243 70 202 243 70 203 243 70 204 243 70 205 243 70 206 243 70 208 243 70 209 243 70 210 243 70 211 243 70 212 243 70 213 243 70 214 243 70 215 243 70 216 243 70 217 243 70 218 243 70 219 243 70 220 243 70 221 243 70 222 243 70 224 243 70 225 243 70 226 243 70 227 243 70 228 243 70 229 243 70 230 243 70 231 243 70 232 243 70 233 243 70 234 243 70 235 243 70 236 243 70 237 243 70 238 243 70 240 243 70 241 243 70 242 243 70 243 243 70 244 243 70 245 243 70 246 243 70 247 243 70 248 243 70 249 243 70 250 243 70 251 243 70 252 243 70 253 243 70 255 243 70
0 245 70 1 245 70 2 245 70 3 245 70 4 245 70 5 245 70 6 245 70 7 245 70 8 245 70 9 245 70 10 245 70 11 245 70 12 245 70 13 245 70 14 245 70 16 245 70 17 245 70 18 245 70 19 245 70 20 245 70 21 245 70 22 245 70 23 245 70 24 245 70 25 245 70 26 245 70 27 245 70 28 245 70 29 245 70 30 245 70 32 245 70 33 245 70 34 245 70 35 245 70 36 245 70 37 245 70 38 245 70 39 245 70 40 245 70 41 245 70 42 245 70 43 245 70 44 245 70 45 245 70 46 245 70 48 245 70 49 245 70 50 245 70 51 245 70 52 245 70 53 245 70 54 245 70 55 245 70 56 245 70 57 245 70 58 245 70 59 245 70 60 245 70 61 245 70 62 245 70 64 245 70 65 245 70 66 245 70 67 245 70 68 245 70 69 245 70 70 245 70 71 245 70 72 245 70 73 245 70 74 245 70 75 245 70 76 245 70 77 245 70 78 245 70 80 245 70 81 245 70 82 245 70 83 245 70 84 245 70 85 245 70 86 245 70 87 245 70 88 245 70 89 245 70 90 245 70 91 245 70 92 245 70 93 245 70 94 245 70 96 245 70 97 245 70 98 245 70 99 245 70 100 245 70 101 245 70 102 245 70 103 245 70 104 245 70 105 245 70 106 245 70 107 245 70 108 245 70 109 245 70 110 245 70 112 245 70 113 245 70 114 245 70 115 245 70 116 245 70 117 245 70 118 245 70 119 245 70 120 245 70 121 245 70 122 245 70 123 245 70 124 245 70 125 245 70 126 245 70 128 245 70 129 245 70 130 245 70 131 245 70 132 245 70 133 245 70 134 245 70 135 245 70 136 245 70 137 245 70 138 245 70 139 245 70 140 245 70 141 245 70 142 245 70 144 245 70 145 245 70 146 245 70 147 245 70 148 245 70 149 245 70 150 245 70 151 245 70 152 245 70 153 245 70 154 245 70 155 245 70 156 245 70 157 245 70 158 245 70 160 245 70 161 245 70 162 245 70 163 245 70 164 245 70 165 245 70 166 245 70 167 245 70 168 245 70 169 245 70 170 245 70 171 245 70 172 245 70 173 245 70 174 245 70 176 245 70 177 245 70 178 245 70 179 245 70 180 245 70 181 245 70 182 245 70 183 245 70 184 245 70 185 245 70 186 245 70 187 245 70 188 245 70 189 245 70 190 245 70 192 245 70 193 245 70 194 245 70 195 245 70 196 245 70 197 245 70 198 245 70 199 245 70 200 245 70 201 245 70 202 245 70 203 245 70 204 245 70 205 245 70 206 245 70 208 245 70 209 245 70 210 245 70 211 245 70 212 245 70 213 245 70 214 245 70 215 245 70 216 245 70 217 245 70 218 245 70 219 245 70 220 245 70 221 245 70 222 245 70 224 245 70 225 245 70 226 245 70 227 245 70 228 245 70 229 245 70 230 245 70 231 245 70 232 245 70 233 245 70 234 245 70 235 245 70 236 245 70 237 245 70 238 245 70 240 245 70 241 245 70 242 245 70 243 245 70 244 245 70 245 245 70 246 245 70 247 245 70 248 245 70 249 245 70 250 245 70 251 245 70 252 245 70 253 245 70 255 245 70
0 246 70 1 246 70 2 246 70 3 246 70 4 246 70 5 246 70 6 246 70 7 246 70 8 246 70 9 246 70 10 246 70 11 246 70 12 246 70 13 246 70 14 246 70 16 246 70 17 246 70 18 246 70 19 246 70 20 246 70 21 246 70 22 246 70 23 246 70 24 246 70 25 246 70 26 246 70 27 246 70 28 246 70 29 246 70 30 246 70 32 246 70 33 246 70 34 246 70 35 246 70 36 246 70 37 246 70 38 246 70 39 246 70 40 246 70 41 246 70 42 246 70 43 246 70 44 246 70 45 246 70 46 246 70 48 246 70 49 246 70 50 246 70 51 246 70 52 246 70 53 246 70 54 246 70 55 246 70 56 246 70 57 246 70 58 246 70 59 246 70 60 246 70 61 246 70 62 246 70 64 246 70 65 246 70 66 246 70 67 246 70 68 246 70 69 246 70 70 246 70 71 246 70 72 246 70 73 246 70 74 246 70 75 246 70 76 246 70 77 246 70 78 246 70 80 246 70 81 246 70 82 246 70 83 246 70 84 246 70 85 246 70 86 246 70 87 246 70 88 246 70 89 246 70 90 246 70 91 246 70 92 246 70 93 246 70 94 246 70 96 246 70 97 246 70 98 246 70 99 246 70 100 246 70 101 246 70 102 246 70 103 246 70 104 246 70 105 246 70 106 246 70 107 246 70 108 246 70 109 246 70 110 246 70 112 246 70 113 246 70 114 246 70 115 246 70 116 246 70 117 246 70 118 246 70 119 246 70 120 246 70 121 246 70 122 246 70 123 246 70 124 246 70 125 246 70 126 246 70 128 246 70 129 246 70 130 246 70 131 246 70 132 246 70 133 246 70 134 246 70 135 246 70 136 246 70 137 246 70 138 246 70 139 246 70 140 246 70 141 246 70 142 246 70 144 246 70 145 246 70 146 246 70 147 246 70 148 246 70 149 246 70 150 246 70 151 246 70 152 246 70 153 246 70 154 246 70 155 246 70 156 246 70 157 246 70 158 246 70 160 246 70 161 246 70 162 246 70 163 246 70 164 246 70 165 246 70 166 246 70 167 246 70 168 246 70 169 246 70 170 246 70 171 246 70 172 246 70 173 246 70 174 246 70 176 246 70 177 246 70 178 246 70 179 246 70 180 246 70 181 246 70 182 246 70 183 246 70 184 246 70 185 246 70 186 246 70 187 246 70 188 246 70 189 246 70 190 246 70 192 246 70 193 246 70 194 246 70 195 246 70 196 246 70 197 246 70 198 246 70 199 246 70 200 246 70 201 246 70 202 246 70 203 246 70 204 246 70 205 246 70 206 246 70 208 246 70 209 246 70 210 246 70 211 246 70 212 246 70 213 246 70 214 246 70 215 246 70 216 246 70 217 246 70 218 246 70 219 246 70 220 246 70 221 246 70 222 246 70 224 246 70 225 246 70 226 246 70 227 246 70 228 246 70 229 246 70 230 246 70 231 246 70 232 246 70 233 246 70 234 246 70 235 246 70 236 246 70 237 246 70 238 246 70 240 246 70 241 246 70 242 246 70 243 246 70 244 246 70 245 246 70 246 246 70 247 246 70 248 246 70 249 246 70 250 246 70 251 246 70 252 246 70 253 246 70 255 246 70
0 247 70 1 247 70 2 247 70 3 247 70 4 247 70 5 247 70 6 247 70 7 247 70 8 247 70 9 247 70 10 247 70 11 247 70 12 247 70 13 247 70 14 247 70 16 247 70 17 247 70 18 247 70 19 247 70 20 247 70 21 247 70 22 247 70 23 247 70 24 247 70 25 247 70 26 247 70 27 247 70 28 247 70 29 247 70 30 247 70 32 247 70 33 247 70 34 247 70 35 247 70 36 247 70 37 247 70 38 247 70 39 247 70 40 247 70 41 247 70 42 247 70 43 247 70 44 247 70 45 247 70 46 247 70 48 247 70 49 247 70 50 247 70 51 247 70 52 247 70 53 247 70 54 247 70 55 247 70 56 247 70 57 247 70 58 247 70 59 247 70 60 247 70 61 247 70 62 247 70 64 247 70 65 247 70 66 247 70 67 247 70 68 247 70 69 247 70 70 247 70 71 247 70 72 247 70 73 247 70 74 247 70 75 247 70 76 247 70 77 247 70 78 247 70 80 247 70 81 247 70 82 247 70 83 247 70 84 247 70 85 247 70 86 247 70 87 247 70 88 247 70 89 247 70 90 247 70 91 247 70 92 247 70 93 247 70 94 247 70 96 247 70 97 247 70 98 247 70 99 247 70 100 247 70 101 247 70 102 247 70 103 247 70 104 247 70 105 247 70 106 247 70 107 247 70 108 247 70 109 247 70 110 247 70 112 247 70 113 247 70 114 247 70 115 247 70 116 247 70 117 247 70 118 247 70 119 247 70 120 247 70 121 247 70 122 247 70 123 247 70 124 247 70 125 247 70 126 247 70 128 247 70 129 247 70 130 247 70 131 247 70 132 247 70 133 247 70 134 247 70 135 247 70 136 247 70 137 247 70 138 247 70 139 247 70 140 247 70 141 247 70 142 247 70 144 247 70 145 247 70 146 247 70 147 247 70 148 247 70 149 247 70 150 247 70 151 247 70 152 247 70 153 247 70 154 247 70 155 247 70 156 247 70 157 247 70 158 247 70 160 247 70 161 247 70 162 247 70 163 247 70 164 247 70 165 247 70 166 247 70 167 247 70 168 247 70 169 247 70 170 247 70 171 247 70 172 247 70 173 247 70 174 247 70 176 247 70 177 247 70 178 247 70 179 247 70 180 247 70 181 247 70 182 247 70 183 247 70 184 247 70 185 247 70 186 247 70 187 247 70 188 247 70 189 247 70 190 247 70 192 247 70 193 247 70 194 247 70 195 247 70 196 247 70 197 247 70 198 247 70 199 247 70 200 247 70 201 247 70 202 247 70 203 247 70 204 247 70 205 247 70 206 247 70 208 247 70 209 247 70 210 247 70 211 247 70 212 247 70 213 247 70 214 247 70 215 247 70 216 247 70 217 247 70 218 247 70 219 247 70 220 247 70 221 247 70 222 247 70 224 247 70 225 247 70 226 247 70 227 247 70 228 247 70 229 247 70 230 247 70 231 247 70 232 247 70 233 247 70 234 247 70 235 247 70 236 247 70 237 247 70 238 247 70 240 247 70 241 247 70 242 247 70 243 247 70 244 247 70 245 247 70 246 247 70 247 247 70 248 247 70 249 247 70 250 247 70 251 247 70 252 247 70 253 247 70 255 247 70
0 249 70 1 249 70 2 249 70 3 249 70 4 249 70 5 249 70 6 249 70 7 249 70 8 249 70 9 249 70 10 249 70 11 249 70 12 249 70 13 249 70 14 249 70 16 249 70 17 249 70 18 249 70 19 249 70 20 249 70 21 249 70 22 249 70 23 249 70 24 249 70 25 249 70 26 249 70 27 249 70 28 249 70 29 249 70 30 249 70 32 249 70 33 249 70 34 249 70 35 249 70 36 249 70 37 249 70 38 249 70 39 249 70 40 249 70 41 249 70 42 249 70 43 249 70 44 249 70 45 249 70 46 249 70 48 249 70 49 249 70 50 249 70 51 249 70 52 249 70 53 249 70 54 249 70 55 249 70 56 249 70 57 249 70 58 249 70 59 249 70 60 249 70 61 249 70 62 249 70 64 249 70 65 249 70 66 249 70 67 249 70 68 249 70 69 249 70 70 249 70 71 249 70 72 249 70 73 249 70 74 249 70 75 249 70 76 249 70 77 249 70 78 249 70 80 249 70 81 249 70 82 249 70 83 249 70 84 249 70 85 249 70 86 249 70 87 249 70 88 249 70 89 249 70 90 249 70 91 249 70 92 249 70 93 249 70 94 249 70 96 249 70 97 249 70 98 249 70 99 249 70 100 249 70 101 249 70 102 249 70 103 249 70 104 249 70 105 249 70 106 249 70 107 249 70 108 249 70 109 249 70 110 249 70 112 249 70 113 249 70 114 249 70 115 249 70 116 249 70 117 249 70 118 249 70 119 249 70 120 249 70 121 249 70 122 249 70 123 249 70 124 249 70 125 249 70 126 249 70 128 249 70 129 249 70 130 249 70 131 249 70 132 249 70 133 249 70 134 249 70 135 249 70 136 249 70 137 249 70 138 249 70 139 249 70 140 249 70 141 249 70 142 249 70 144 249 70 145 249 70 146 249 70 147 249 70 148 249 70 149 249 70 150 249 70 151 249 70 152 249 70 153 249 70 154 249 70 155 249 70 156 249 70 157 249 70 158 249 70 160 249 70 161 249 70 162 249 70 163 249 70 164 249 70 165 249 70 166 249 70 167 249 70 168 249 70 169 249 70 170 249 70 171 249 70 172 249 70 173 249 70 174 249 70 176 249 70 177 249 70 178 249 70 179 249 70 180 249 70 181 249 70 182 249 70 183 249 70 184 249 70 185 249 70 186 249 70 187 249 70 188 249 70 189 249 70 190 249 70 192 249 70 193 249 70 194 249 70 195 249 70 196 249 70 197 249 70 198 249 70 199 249 70 200 249 70 201 249 70 202 249 70 203 249 70 204 249 70 205 249 70 206 249 70 208 249 70 209 249 70 210 249 70 211 249 70 212 249 70 213 249 70 214 249 70 215 249 70 216 249 70 217 249 70 218 249 70 219 249 70 220 249 70 221 249 70 222 249 70 224 249 70 225 249 70 226 249 70 227 249 70 228 249 70 229 249 70 230 249 70 231 249 70 232 249 70 233 249 70 234 249 70 235 249 70 236 249 70 237 249 70 238 249 70 240 249 70 241 249 70 242 249 70 243 249 70 244 249 70 245 249 70 246 249 70 247 249 70 248 249 70 249 249 70 250 249 70 251 249 70 252 249 70 253 249 70 255 249 70
0 250 70 1 250 70 2 250 70 3 250 70 4 250 70 5 250 70 6 250 70 7 250 70 8 250 70 9 250 70 10 250 70 11 250 70 12 250 70 13 250 70 14 250 70 16 250 70 17 250 70 18 250 70 19 250 70 20 250 70 21 250 70 22 250 70 23 250 70 24 250 70 25 250 70 26 250 70 27 250 70 28 250 70 29 250 70 30 250 70 32 250 70 33 250 70 34 250 70 35 250 70 36 250 70 37 250 70 38 250 70 39 250 70 40 250 70 41 250 70 42 250 70 43 250 70 44 250 70 45 250 70 46 250 70 48 250 70 49 250 70 50 250 70 51 250 70 52 250 70 53 250 70 54 250 70 55 250 70 56 250 70 57 250 70 58 250 70 59 250 70 60 250 70 61 250 70 62 250 70 64 250 70 65 250 70 66 250 70 67 250 70 68 250 70 69 250 70 70 250 70 71 250 70 72 250 70 73 250 70 74 250 70 75 250 70 76 250 70 77 250 70 78 250 70 80 250 70 81 250 70 82 250 70 83 250 70 84 250 70 85 250 70 86 250 70 87 250 70 88 250 70 89 250 70 90 250 70 91 250 70 92 250 70 93 250 70 94 250 70 96 250 70 97 250 70 98 250 70 99 250 70 100 250 70 101 250 70 102 250 70 103 250 70 104 250 70 105 250 70 106 250 70 107 250 70 108 250 70 109 250 70 110 250 70 112 250 70 113 250 70 114 250 70 115 250 70 116 250 70 117 250 70 118 250 70 119 250 70 120 250 70 121 250 70 122 250 70 123 250 70 124 250 70 125 250 70 126 250 70 128 250 70 129 250 70 130 250 70 131 250 70 132 250 70 133 250 70 134 250 70 135 250 70 136 250 70 137 250 70 138 250 70 139 250 70 140 250 70 141 250 70 142 250 70 144 250 70 145 250 70 146 250 70 147 250 70 148 250 70 149 250 70 150 250 70 151 250 70 152 250 70 153 250 70 154 250 70 155 250 70 156 250 70 157 250 70 158 250 70 160 250 70 161 250 70 162 250 70 163 250 70 164 250 70 165 250 70 166 250 70 167 250 70 168 250 70 169 250 70 170 250 70 171 250 70 172 250 70 173 250 70 174 250 70 176 250 70 177 250 70 178 250 70 179 250 70 180 250 70 181 250 70 182 250 70 183 250 70 184 250 70 185 250 70 186 250 70 187 250 70 188 250 70 189 250 70 190 250 70 192 250 70 193 250 70 194 250 70 195 250 70 196 250 70 197 250 70 198 250 70 199 250 70 200 250 70 201 250 70 202 250 70 203 250 70 204 250 70 205 250 70 206 250 70 208 250 70 209 250 70 210 250 70 211 250 70 212 250 70 213 250 70 214 250 70 215 250 70 216 250 70 217 250 70 218 250 70 219 250 70 220 250 70 221 250 70 222 250 70 224 250 70 225 250 70 226 250 70 227 250 70 228 250 70 229 250 70 230 250 70 231 250 70 232 250 70 233 250 70 234 250 70 235 250 70 236 250 70 237 250 70 238 250 70 240 250 70 241 250 70 242 250 70 243 250 70 244 250 70 245 250 70 246 250 70 247 250 70 248 250 70 249 250 70 250 250 70 251 250 70 252 250 70 253 250 70 255 250 70
0 252 70 1 252 70 2 252 70 3 252 70 4 252 70 5 252 70 6 252 70 7 252 70 8 252 70 9 252 70 10 252 70 11 252 70 12 252 70 13 252 70 14 252 70 16 252 70 17 252 70 18 252 70 19 252 70 20 252 70 21 252 70 22 252 70 23 252 70 24 252 70 25 252 70 26 252 70 27 252 70 28 252 70 29 252 70 30 252 70 32 252 70 33 252 70 34 252 70 35 252 70 36 252 70 37 252 70 38 252 70 39 252 70 40 252 70 41 252 70 42 252 70 43 252 70 44 252 70 45 252 70 46 252 70 48 252 70 49 252 70 50 252 70 51 252 70 52 252 70 53 252 70 54 252 70 55 252 70 56 252 70 57 252 70 58 252 70 59 252 70 60 252 70 61 252 70 62 252 70 64 252 70 65 252 70 66 252 70 67 252 70 68 252 70 69 252 70 70 252 70 71 252 70 72 252 70 73 252 70 74 252 70 75 252 70 76 252 70 77 252 70 78 252 70 80 252 70 81 252 70 82 252 70 83 252 70 84 252 70 85 252 70 86 252 70 87 252 70 88 252 70 89 252 70 90 252 70 91 252 70 92 252 70 93 252 70 94 252 70 96 252 70 97 252 70 98 252 70 99 252 70 100 252 70 101 252 70 102 252 70 103 252 70 104 252 70 105 252 70 106 252 70 107 252 70 108 252 70 109 252 70 110 252 70 112 252 70 113 252 70 114 252 70 115 252 70 116 252 70 117 252 70 118 252 70 119 252 70 120 252 70 121 252 70 122 252 70 123 252 70 124 252 70 125 252 70 126 252 70 128 252 70 129 252 70 130 252 70 131 252 70 132 252 70 133 252 70 134 252 70 135 252 70 136 252 70 137 252 70 138 252 70 139 252 70 140 252 70 141 252 70 142 252 70 144 252 70 145 252 70 146 252 70 147 252 70 148 252 70 149 252 70 150 252 70 151 252 70 152 252 70 153 252 70 154 252 70 155 252 70 156 252 70 157 252 70 158 252 70 160 252 70 161 252 70 162 252 70 163 252 70 164 252 70 165 252 70 166 252 70 167 252 70 168 252 70 169 252 70 170 252 70 171 252 70 172 252 70 173 252 70 174 252 70 176 252 70 177 252 70 178 252 70 179 252 70 180 252 70 181 252 70 182 252 70 183 252 70 184 252 70 185 252 70 186 252 70 187 252 70 188 252 70 189 252 70 190 252 70 192 252 70 193 252 70 194 252 70 195 252 70 196 252 70 197 252 70 198 252 70 199 252 70 200 252 70 201 252 70 202 252 70 203 252 70 204 252 70 205 252 70 206 252 70 208 252 70 209 252 70 210 252 70 211 252 70 212 252 70 213 252 70 214 252 70 215 252 70 216 252 70 217 252 70 218 252 70 219 252 70 220 252 70 221 252 70 222 252 70 224 252 70 225 252 70 226 252 70 227 252 70 228 252 70 229 252 70 230 252 70 231 252 70 232 252 70 233 252 70 234 252 70 235 252 70 236 252 70 237 252 70 238 252 70 240 252 70 241 252 70 242 252 70 243 252 70 244 252 70 245 252 70 246 252 70 247 252 70 248 252 70 249 252 70 250 252 70 251 252 70 252 252 70 253 252 70 255 252 70
0 253 70 1 253 70 2 253 70 3 253 70 4 253 70 5 253 70 6 253 70 7 253 70 8 253 70 9 253 70 10 253 70 11 253 70 12 253 70 13 253 70 14 253 70 16 253 70 17 253 70 18 253 70 19 253 70 20 253 70 21 253 70 22 253 70 23 253 70 24 253 70 25 253 70 26 253 70 27 253 70 28 253 70 29 253 70 30 253 70 32 253 70 33 253 70 34 253 70 35 253 70 36 253 70 37 253 70 38 253 70 39 253 70 40 253 70 41 253 70 42 253 70 43 253 70 44 253 70 45 253 70 46 253 70 48 253 70 49 253 70 50 253 70 51 253 70 52 253 70 53 253 70 54 253 70 55 253 70 56 253 70 57 253 70 58 253 70 59 253 70 60 253 70 61 253 70 62 253 70 64 253 70 65 253 70 66 253 70 67 253 70 68 253 70 69 253 70 70 253 70 71 253 70 72 253 70 73 253 70 74 253 70 75 253 70 76 253 70 77 253 70 78 253 70 80 253 70 81 253 70 82 253 70 83 253 70 84 253 70 85 253 70 86 253 70 87 253 70 88 253 70 89 253 70 90 253 70 91 253 70 92 253 70 93 253 70 94 253 70 96 253 70 97 253 70 98 253 70 99 253 70 100 253 70 101 253 70 102 253 70 103 253 70 104 253 70 105 253 70 106 253 70 107 253 70 108 253 70 109 253 70 110 253 70 112 253 70 113 253 70 114 253 70 115 253 70 116 253 70 117 253 70 118 253 70 119 253 70 120 253 70 121 253 70 122 253 70 123 253 70 124 253 70 125 253 70 126 253 70 128 253 70 129 253 70 130 253 70 131 253 70 132 253 70 133 253 70 134 253 70 135 253 70 136 253 70 137 253 70 138 253 70 139 253 70 140 253 70 141 253 70 142 253 70 144 253 70 145 253 70 146 253 70 147 253 70 148 253 70 149 253 70 150 253 70 151 253 70 152 253 70 153 253 70 154 253 70 155 253 70 156 253 70 157 253 70 158 253 70 160 253 70 161 253 70 162 253 70 163 253 70 164 253 70 165 253 70 166 253 70 167 253 70 168 253 70 169 253 70 170 253 70 171 253 70 172 253 70 173 253 70 174 253 70 176 253 70 177 253 70 178 253 70 179 253 70 180 253 70 181 253 70 182 253 70 183 253 70 184 253 70 185 253 70 186 253 70 187 253 70 188 253 70 189 253 70 190 253 70 192 253 70 193 253 70 194 253 70 195 253 70 196 253 70 197 253 70 198 253 70 199 253 70 200 253 70 201 253 70 202 253 70 203 253 70 204 253 70 205 253 70 206 253 70 208 253 70 209 253 70 210 253 70 211 253 70 212 253 70 213 253 70 214 253 70 215 253 70 216 253 70 217 253 70 218 253 70 219 253 70 220 253 70 221 253 70 222 253 70 224 253 70 225 253 70 226 253 70 227 253 70 228 253 70 229 253 70 230 253 70 231 253 70 232 253 70 233 253 70 234 253 70 235 253 70 236 253 70 237 253 70 238 253 70 240 253 70 241 253 70 242 253 70 243 253 70 244 253 70 245 253 70 246 253 70 247 253 70 248 253 70 249 253 70 250 253 70 251 253 70 252 253 70 253 253 70 255 253 70
0 255 70 1 255 70 2 255 70 3 255 70 4 255 70 5 255 70 6 255 70 7 255 70 8 255 70 9 255 70 10 255 70 11 255 70 12 255 70 13 255 70 14 255 70 16 255 70 17 255 70 18 255 70 19 255 70 20 255 70 21 255 70 22 255 70 23 255 70 24 255 70 25 255 70 26 255 70 27 255 70 28 255 70 29 255 70 30 255 70 32 255 70 33 255 70 34 255 70 35 255 70 36 255 70 37 255 70 38 255 70 39 255 70 40 255 70 41 255 70 42 255 70 43 255 70 44 255 70 45 255 70 46 255 70 48 255 70 49 255 70 50 255 70 51 255 70 52 255 70 53 255 70 54 255 70 55 255 70 56 255 70 57 255 70 58 255 70 59 255 70 60 255 70 61 255 70 62 255 70 64 255 70 65 255 70 66 255 70 67 255 70 68 255 70 69 255 70 70 255 70 71 255 70 72 255 70 73 255 70 74 255 70 75 255 70 76 255 70 77 255 70 78 255 70 80 255 70 81 255 70 82 255 70 83 255 70 84 255 70 85 255 70 86 255 70 87 255 70 88 255 70 89 255 70 90 255 70 91 255 70 92 255 70 93 255 70 94 255 70 96 255 70 97 255 70 98 255 70 99 255 70 100 255 70 101 255 70 102 255 70 103 255 70 104 255 70 105 255 70 106 255 70 107 255 70 108 255 70 109 255 70 110 255 70 112 255 70 113 255 70 114 255 70 115 255 70 116 255 70 117 255 70 118 255 70 119 255 70 120 255 70 121 255 70 122 255 70 123 255 70 124 255 70 125 255 70 126 255 70 128 255 70 129 255 70 130 255 70 131 255 70 132 255 70 133 255 70 134 255 70 135 255 70 136 255 70 137 255 70 138 255 70 139 255 70 140 255 70 141 255 70 142 255 70 144 255 70 145 255 70 146 255 70 147 255 70 148 255 70 149 255 70 150 255 70 151 255 70 152 255 70 153 255 70 154 255 70 155 255 70 156 255 70 157 255 70 158 255 70 160 255 70 161 255 70 162 255 70 163 255 70 164 255 70 165 255 70 166 255 70 167 255 70 168 255 70 169 255 70 170 255 70 171 255 70 172 255 70 173 255 70 174 255 70 176 255 70 177 255 70 178 255 70 179 255 70 180 255 70 181 255 70 182 255 70 183 255 70 184 255 70 185 255 70 186 255 70 187 255 70 188 255 70 189 255 70 190 255 70 192 255 70 193 255 70 194 255 70 195 255 70 196 255 70 197 255 70 198 255 70 199 255 70 200 255 70 201 255 70 202 255 70 203 255 70 204 255 70 205 255 70 206 255 70 208 255 70 209 255 70 210 255 70 211 255 70 212 255 70 213 255 70 214 255 70 215 255 70 216 255 70 217 255 70 218 255 70 219 255 70 220 255 70 221 255 70 222 255 70 224 255 70 225 255 70 226 255 70 227 255 70 228 255 70 229 255 70 230 255 70 231 255 70 232 255 70 233 255 70 234 255 70 235 255 70 236 255 70 237 255 70 238 255 70 240 255 70 241 255 70 242 255 70 243 255 70 244 255 70 245 255 70 246 255 70 247 255 70 248 255 70 249 255 70 250 255 70 251 255 70 252 255 70 253 255 70 255 255 70
