P3
240 180
255
40 0 255 40 1 255 40 2 255 40 3 255 40 4 255 40 5 255 40 6 255 40 7 255 40 8 255 40 9 255 40 10 255 40 11 255 40 12 255 40 13 255 40 14 255 40 16 255 40 17 255 40 18 255 40 19 255 40 20 255 40 21 255 40 22 255 40 23 255 40 24 255 40 25 255 40 26 255 40 27 255 40 28 255 40 29 255 40 30 255 40 32 255 40 33 255 40 34 255 40 35 255 40 36 255 40 37 255 40 38 255 40 39 255 40 40 255 40 41 255 40 42 255 40 43 255 40 44 255 40 45 255 40 46 255 40 48 255 40 49 255 40 50 255 40 51 255 40 52 255 40 53 255 40 54 255 40 55 255 40 56 255 40 57 255 40 58 255 40 59 255 40 60 255 40 61 255 40 62 255 40 64 255 40 65 255 40 66 255 40 67 255 40 68 255 40 69 255 40 70 255 40 71 255 40 72 255 40 73 255 40 74 255 40 75 255 40 76 255 40 77 255 40 78 255 40 80 255 40 81 255 40 82 255 40 83 255 40 84 255 40 85 255 40 86 255 40 87 255 40 88 255 40 89 255 40 90 255 40 91 255 40 92 255 40 93 255 40 94 255 40 96 255 40 97 255 40 98 255 40 99 255 40 100 255 40 101 255 40 102 255 40 103 255 40 104 255 40 105 255 40 106 255 40 107 255 40 108 255 40 109 255 40 110 255 40 112 255 40 113 255 40 114 255 40 115 255 40 116 255 40 117 255 40 118 255 40 119 255 40 120 255 40 121 255 40 122 255 40 123 255 40 124 255 40 125 255 40 126 255 40 128 255 40 129 255 40 130 255 40 131 255 40 132 255 40 133 255 40 134 255 40 135 255 40 136 255 40 137 255 40 138 255 40 139 255 40 140 255 40 141 255 40 142 255 40 144 255 40 145 255 40 146 255 40 147 255 40 148 255 40 149 255 40 150 255 40 151 255 40 152 255 40 153 255 40 154 255 40 155 255 40 156 255 40 157 255 40 158 255 40 160 255 40 161 255 40 162 255 40 163 255 40 164 255 40 165 255 40 166 255 40 167 255 40 168 255 40 169 255 40 170 255 40 171 255 40 172 255 40 173 255 40 174 255 40 176 255 40 177 255 40 178 255 40 179 255 40 180 255 40 181 255 40 182 255 40 183 255 40 184 255 40 185 255 40 186 255 40 187 255 40 188 255 40 189 255 40 190 255 40 192 255 40 193 255 40 194 255 40 195 255 40 196 255 40 197 255 40 198 255 40 199 255 40 200 255 40 201 255 40 202 255 40 203 255 40 204 255 40 205 255 40 206 255 40 208 255 40 209 255 40 210 255 40 211 255 40 212 255 40 213 255 40 214 255 40 215 255 40 216 255 40 217 255 40 218 255 40 219 255 40 220 255 40 221 255 40 222 255 40 224 255 40 225 255 40 226 255 40 227 255 40 228 255 40 229 255 40 230 255 40 231 255 40 232 255 40 233 255 40 234 255 40 235 255 40 236 255 40 237 255 40 238 255 40 240 255 40 241 255 40 242 255 40 243 255 40 244 255 40 245 255 40 246 255 40 247 255 40 248 255 40 249 255 40 250 255 40 251 255 40 252 255 40 253 255 40 255 255
40 0 253 40 1 253 40 2 253 40 3 253 40 4 253 40 5 253 40 6 253 40 7 253 40 8 253 40 9 253 40 10 253 40 11 253 40 12 253 40 13 253 40 14 253 40 16 253 40 17 253 40 18 253 40 19 253 40 20 253 40 21 253 40 22 253 40 23 253 40 24 253 40 25 253 40 26 253 40 27 253 40 28 253 40 29 253 40 30 253 40 32 253 40 33 253 40 34 253 40 35 253 40 36 253 40 37 253 40 38 253 40 39 253 40 40 253 40 41 253 40 42 253 40 43 253 40 44 253 40 45 253 40 46 253 40 48 253 40 49 253 40 50 253 40 51 253 40 52 253 40 53 253 40 54 253 40 55 253 40 56 253 40 57 253 40 58 253 40 59 253 40 60 253 40 61 253 40 62 253 40 64 253 40 65 253 40 66 253 40 67 253 40 68 253 40 69 253 40 70 253 40 71 253 40 72 253 40 73 253 40 74 253 40 75 253 40 76 253 40 77 253 40 78 253 40 80 253 40 81 253 40 82 253 40 83 253 40 84 253 40 85 253 40 86 253 40 87 253 40 88 253 40 89 253 40 90 253 40 91 253 40 92 253 40 93 253 40 94 253 40 96 253 40 97 253 40 98 253 40 99 253 40 100 253 40 101 253 40 102 253 40 103 253 40 104 253 40 105 253 40 106 253 40 107 253 40 108 253 40 109 253 40 110 253 40 112 253 40 113 253 40 114 253 40 115 253 40 116 253 40 117 253 40 118 253 40 119 253 40 120 253 40 121 253 40 122 253 40 123 253 40 124 253 40 125 253 40 126 253 40 128 253 40 129 253 40 130 253 40 131 253 40 132 253 40 133 253 40 134 253 40 135 253 40 136 253 40 137 253 40 138 253 40 139 253 40 140 253 40 141 253 40 142 253 40 144 253 40 145 253 40 146 253 40 147 253 40 148 253 40 149 253 40 150 253 40 151 253 40 152 253 40 153 253 40 154 253 40 155 253 40 156 253 40 157 253 40 158 253 40 160 253 40 161 253 40 162 253 40 163 253 40 164 253 40 165 253 40 166 253 40 167 253 40 168 253 40 169 253 40 170 253 40 171 253 40 172 253 40 173 253 40 174 253 40 176 253 40 177 253 40 178 253 40 179 253 40 180 253 40 181 253 40 182 253 40 183 253 40 184 253 40 185 253 40 186 253 40 187 253 40 188 253 40 189 253 40 190 253 40 192 253 40 193 253 40 194 253 40 195 253 40 196 253 40 197 253 40 198 253 40 199 253 40 200 253 40 201 253 40 202 253 40 203 253 40 204 253 40 205 253 40 206 253 40 208 253 40 209 253 40 210 253 40 211 253 40 212 253 40 213 253 40 214 253 40 215 253 40 216 253 40 217 253 40 218 253 40 219 253 40 220 253 40 221 253 40 222 253 40 224 253 40 225 253 40 226 253 40 227 253 40 228 253 40 229 253 40 230 253 40 231 253 40 232 253 40 233 253 40 234 253 40 235 253 40 236 253 40 237 253 40 238 253 40 240 253 40 241 253 40 242 253 40 243 253 40 244 253 40 245 253 40 246 253 40 247 253 40 248 253 40 249 253 40 250 253 40 251 253 40 252 253 40 253 253 40 255 253
40 0 252 40 1 252 40 2 252 40 3 252 40 4 252 40 5 252 40 6 252 40 7 252 40 8 252 40 9 252 40 10 252 40 11 252 40 12 252 40 13 252 40 14 252 40 16 252 40 17 252 40 18 252 40 19 252 40 20 252 40 21 252 40 22 252 40 23 252 40 24 252 40 25 252 40 26 252 40 27 252 40 28 252 40 29 252 40 30 252 40 32 252 40 33 252 40 34 252 40 35 252 40 36 252 40 37 252 40 38 252 40 39 252 40 40 252 40 41 252 40 42 252 40 43 252 40 44 252 40 45 252 40 46 252 40 48 252 40 49 252 40 50 252 40 51 252 40 52 252 40 53 252 40 54 252 40 55 252 40 56 252 40 57 252 40 58 252 40 59 252 40 60 252 40 61 252 40 62 252 40 64 252 40 65 252 40 66 252 40 67 252 40 68 252 40 69 252 40 70 252 40 71 252 40 72 252 40 73 252 40 74 252 40 75 252 40 76 252 40 77 252 40 78 252 40 80 252 40 81 252 40 82 252 40 83 252 40 84 252 40 85 252 40 86 252 40 87 252 40 88 252 40 89 252 40 90 252 40 91 252 40 92 252 40 93 252 40 94 252 40 96 252 40 97 252 40 98 252 40 99 252 40 100 252 40 101 252 40 102 252 40 103 252 40 104 252 40 105 252 40 106 252 40 107 252 40 108 252 40 109 252 40 110 252 40 112 252 40 113 252 40 114 252 40 115 252 40 116 252 40 117 252 40 118 252 40 119 252 40 120 252 40 121 252 40 122 252 40 123 252 40 124 252 40 125 252 40 126 252 40 128 252 40 129 252 40 130 252 40 131 252 40 132 252 40 133 252 40 134 252 40 135 252 40 136 252 40 137 252 40 138 252 40 139 252 40 140 252 40 141 252 40 142 252 40 144 252 40 145 252 40 146 252 40 147 252 40 148 252 40 149 252 40 150 252 40 151 252 40 152 252 40 153 252 40 154 252 40 155 252 40 156 252 40 157 252 40 158 252 40 160 252 40 161 252 40 162 252 40 163 252 40 164 252 40 165 252 40 166 252 40 167 252 40 168 252 40 169 252 40 170 252 40 171 252 40 172 252 40 173 252 40 174 252 40 176 252 40 177 252 40 178 252 40 179 252 40 180 252 40 181 252 40 182 252 40 183 252 40 184 252 40 185 252 40 186 252 40 187 252 40 188 252 40 189 252 40 190 252 40 192 252 40 193 252 40 194 252 40 195 252 40 196 252 40 197 252 40 198 252 40 199 252 40 200 252 40 201 252 40 202 252 40 203 252 40 204 252 40 205 252 40 206 252 40 208 252 40 209 252 40 210 252 40 211 252 40 212 252 40 213 252 40 214 252 40 215 252 40 216 252 40 217 252 40 218 252 40 219 252 40 220 252 40 221 252 40 222 252 40 224 252 40 225 252 40 226 252 40 227 252 40 228 252 40 229 252 40 230 252 40 231 252 40 232 252 40 233 252 40 234 252 40 235 252 40 236 252 40 237 252 40 238 252 40 240 252 40 241 252 40 242 252 40 243 252 40 244 252 40 245 252 40 246 252 40 247 252 40 248 252 40 249 252 40 250 252 40 251 252 40 252 252 40 253 252 40 255 252
40 0 250 40 1 250 40 2 250 40 3 250 40 4 250 40 5 250 40 6 250 40 7 250 40 8 250 40 9 250 40 10 250 40 11 250 40 12 250 40 13 250 40 14 250 40 16 250 40 17 250 40 18 250 40 19 250 40 20 250 40 21 250 40 22 250 40 23 250 40 24 250 40 25 250 40 26 250 40 27 250 40 28 250 40 29 250 40 30 250 40 32 250 40 33 250 40 34 250 40 35 250 40 36 250 40 37 250 40 38 250 40 39 250 40 40 250 40 41 250 40 42 250 40 43 250 40 44 250 40 45 250 40 46 250 40 48 250 40 49 250 40 50 250 40 51 250 40 52 250 40 53 250 40 54 250 40 55 250 40 56 250 40 57 250 40 58 250 40 59 250 40 60 250 40 61 250 40 62 250 40 64 250 40 65 250 40 66 250 40 67 250 40 68 250 40 69 250 40 70 250 40 71 250 40 72 250 40 73 250 40 74 250 40 75 250 40 76 250 40 77 250 40 78 250 40 80 250 40 81 250 40 82 250 40 83 250 40 84 250 40 85 250 40 86 250 40 87 250 40 88 250 40 89 250 40 90 250 40 91 250 40 92 250 40 93 250 40 94 250 40 96 250 40 97 250 40 98 250 40 99 250 40 100 250 40 101 250 40 102 250 40 103 250 40 104 250 40 105 250 40 106 250 40 107 250 40 108 250 40 109 250 40 110 250 40 112 250 40 113 250 40 114 250 40 115 250 40 116 250 40 117 250 40 118 250 40 119 250 40 120 250 40 121 250 40 122 250 40 123 250 40 124 250 40 125 250 40 126 250 40 128 250 40 129 250 40 130 250 40 131 250 40 132 250 40 133 250 40 134 250 40 135 250 40 136 250 40 137 250 40 138 250 40 139 250 40 140 250 40 141 250 40 142 250 40 144 250 40 145 250 40 146 250 40 147 250 40 148 250 40 149 250 40 150 250 40 151 250 40 152 250 40 153 250 40 154 250 40 155 250 40 156 250 40 157 250 40 158 250 40 160 250 40 161 250 40 162 250 40 163 250 40 164 250 40 165 250 40 166 250 40 167 250 40 168 250 40 169 250 40 170 250 40 171 250 40 172 250 40 173 250 40 174 250 40 176 250 40 177 250 40 178 250 40 179 250 40 180 250 40 181 250 40 182 250 40 183 250 40 184 250 40 185 250 40 186 250 40 187 250 40 188 250 40 189 250 40 190 250 40 192 250 40 193 250 40 194 250 40 195 250 40 196 250 40 197 250 40 198 250 40 199 250 40 200 250 40 201 250 40 202 250 40 203 250 40 204 250 40 205 250 40 206 250 40 208 250 40 209 250 40 210 250 40 211 250 40 212 250 40 213 250 40 214 250 40 215 250 40 216 250 40 217 250 40 218 250 40 219 250 40 220 250 40 221 250 40 222 250 40 224 250 40 225 250 40 226 250 40 227 250 40 228 250 40 229 250 40 230 250 40 231 250 40 232 250 40 233 250 40 234 250 40 235 250 40 236 250 40 237 250 40 238 250 40 240 250 40 241 250 40 242 250 40 243 250 40 244 250 40 245 250 40 246 250 40 247 250 40 248 250 40 249 250 40 250 250 40 251 250 40 252 250 40 253 250 40 255 250
40 0 249 40 1 249 40 2 249 40 3 249 40 4 249 40 5 249 40 6 249 40 7 249 40 8 249 40 9 249 40 10 249 40 11 249 40 12 249 40 13 249 40 14 249 40 16 249 40 17 249 40 18 249 40 19 249 40 20 249 40 21 249 40 22 249 40 23 249 40 24 249 40 25 249 40 26 249 40 27 249 40 28 249 40 29 249 40 30 249 40 32 249 40 33 249 40 34 249 40 35 249 40 36 249 40 37 249 40 38 249 40 39 249 40 40 249 40 41 249 40 42 249 40 43 249 40 44 249 40 45 249 40 46 249 40 48 249 40 49 249 40 50 249 40 51 249 40 52 249 40 53 249 40 54 249 40 55 249 40 56 249 40 57 249 40 58 249 40 59 249 40 60 249 40 61 249 40 62 249 40 64 249 40 65 249 40 66 249 40 67 249 40 68 249 40 69 249 40 70 249 40 71 249 40 72 249 40 73 249 40 74 249 40 75 249 40 76 249 40 77 249 40 78 249 40 80 249 40 81 249 40 82 249 40 83 249 40 84 249 40 85 249 40 86 249 40 87 249 40 88 249 40 89 249 40 90 249 40 91 249 40 92 249 40 93 249 40 94 249 40 96 249 40 97 249 40 98 249 40 99 249 40 100 249 40 101 249 40 102 249 40 103 249 40 104 249 40 105 249 40 106 249 40 107 249 40 108 249 40 109 249 40 110 249 40 112 249 40 113 249 40 114 249 40 115 249 40 116 249 40 117 249 40 118 249 40 119 249 40 120 249 40 121 249 40 122 249 40 123 249 40 124 249 40 125 249 40 126 249 40 128 249 40 129 249 40 130 249 40 131 249 40 132 249 40 133 249 40 134 249 40 135 249 40 136 249 40 137 249 40 138 249 40 139 249 40 140 249 40 141 249 40 142 249 40 144 249 40 145 249 40 146 249 40 147 249 40 148 249 40 149 249 40 150 249 40 151 249 40 152 249 40 153 249 40 154 249 40 155 249 40 156 249 40 157 249 40 158 249 40 160 249 40 161 249 40 162 249 40 163 249 40 164 249 40 165 249 40 166 249 40 167 249 40 168 249 40 169 249 40 170 249 40 171 249 40 172 249 40 173 249 40 174 249 40 176 249 40 177 249 40 178 249 40 179 249 40 180 249 40 181 249 40 182 249 40 183 249 40 184 249 40 185 249 40 186 249 40 187 249 40 188 249 40 189 249 40 190 249 40 192 249 40 193 249 40 194 249 40 195 249 40 196 249 40 197 249 40 198 249 40 199 249 40 200 249 40 201 249 40 202 249 40 203 249 40 204 249 40 205 249 40 206 249 40 208 249 40 209 249 40 210 249 40 211 249 40 212 249 40 213 249 40 214 249 40 215 249 40 216 249 40 217 249 40 218 249 40 219 249 40 220 249 40 221 249 40 222 249 40 224 249 40 225 249 40 226 249 40 227 249 40 228 249 40 229 249 40 230 249 40 231 249 40 232 249 40 233 249 40 234 249 40 235 249 40 236 249 40 237 249 40 238 249 40 240 249 40 241 249 40 242 249 40 243 249 40 244 249 40 245 249 40 246 249 40 247 249 40 248 249 40 249 249 40 250 249 40 251 249 40 252 249 40 253 249 40 255 249
40 0 247 40 1 247 40 2 247 40 3 247 40 4 247 40 5 247 40 6 247 40 7 247 40 8 247 40 9 247 40 10 247 40 11 247 40 12 247 40 13 247 40 14 247 40 16 247 40 17 247 40 18 247 40 19 247 40 20 247 40 21 247 40 22 247 40 23 247 40 24 247 40 25 247 40 26 247 40 27 247 40 28 247 40 29 247 40 30 247 40 32 247 40 33 247 40 34 247 40 35 247 40 36 247 40 37 247 40 38 247 40 39 247 40 40 247 40 41 247 40 42 247 40 43 247 40 44 247 40 45 247 40 46 247 40 48 247 40 49 247 40 50 247 40 51 247 40 52 247 40 53 247 40 54 247 40 55 247 40 56 247 40 57 247 40 58 247 40 59 247 40 60 247 40 61 247 40 62 247 40 64 247 40 65 247 40 66 247 40 67 247 40 68 247 40 69 247 40 70 247 40 71 247 40 72 247 40 73 247 40 74 247 40 75 247 40 76 247 40 77 247 40 78 247 40 80 247 40 81 247 40 82 247 40 83 247 40 84 247 40 85 247 40 86 247 40 87 247 40 88 247 40 89 247 40 90 247 40 91 247 40 92 247 40 93 247 40 94 247 40 96 247 40 97 247 40 98 247 40 99 247 40 100 247 40 101 247 40 102 247 40 103 247 40 104 247 40 105 247 40 106 247 40 107 247 40 108 247 40 109 247 40 110 247 40 112 247 40 113 247 40 114 247 40 115 247 40 116 247 40 117 247 40 118 247 40 119 247 40 120 247 40 121 247 40 122 247 40 123 247 40 124 247 40 125 247 40 126 247 40 128 247 40 129 247 40 130 247 40 131 247 40 132 247 40 133 247 40 134 247 40 135 247 40 136 247 40 137 247 40 138 247 40 139 247 40 140 247 40 141 247 40 142 247 40 144 247 40 145 247 40 146 247 40 147 247 40 148 247 40 149 247 40 150 247 40 151 247 40 152 247 40 153 247 40 154 247 40 155 247 40 156 247 40 157 247 40 158 247 40 160 247 40 161 247 40 162 247 40 163 247 40 164 247 40 165 247 40 166 247 40 167 247 40 168 247 40 169 247 40 170 247 40 171 247 40 172 247 40 173 247 40 174 247 40 176 247 40 177 247 40 178 247 40 179 247 40 180 247 40 181 247 40 182 247 40 183 247 40 184 247 40 185 247 40 186 247 40 187 247 40 188 247 40 189 247 40 190 247 40 192 247 40 193 247 40 194 247 40 195 247 40 196 247 40 197 247 40 198 247 40 199 247 40 200 247 40 201 247 40 202 247 40 203 247 40 204 247 40 205 247 40 206 247 40 208 247 40 209 247 40 210 247 40 211 247 40 212 247 40 213 247 40 214 247 40 215 247 40 216 247 40 217 247 40 218 247 40 219 247 40 220 247 40 221 247 40 222 247 40 224 247 40 225 247 40 226 247 40 227 247 40 228 247 40 229 247 40 230 247 40 231 247 40 232 247 40 233 247 40 234 247 40 235 247 40 236 247 40 237 247 40 238 247 40 240 247 40 241 247 40 242 247 40 243 247 40 244 247 40 245 247 40 246 247 40 247 247 40 248 247 40 249 247 40 250 247 40 251 247 40 252 247 40 253 247 40 255 247
40 0 246 40 1 246 40 2 246 40 3 246 40 4 246 40 5 246 40 6 246 40 7 246 40 8 246 40 9 246 40 10 246 40 11 246 40 12 246 40 13 246 40 14 246 40 16 246 40 17 246 40 18 246 40 19 246 40 20 246 40 21 246 40 22 246 40 23 246 40 24 246 40 25 246 40 26 246 40 27 246 40 28 246 40 29 246 40 30 246 40 32 246 40 33 246 40 34 246 40 35 246 40 36 246 40 37 246 40 38 246 40 39 246 40 40 246 40 41 246 40 42 246 40 43 246 40 44 246 40 45 246 40 46 246 40 48 246 40 49 246 40 50 246 40 51 246 40 52 246 40 53 246 40 54 246 40 55 246 40 56 246 40 57 246 40 58 246 40 59 246 40 60 246 40 61 246 40 62 246 40 64 246 40 65 246 40 66 246 40 67 246 40 68 246 40 69 246 40 70 246 40 71 246 40 72 246 40 73 246 40 74 246 40 75 246 40 76 246 40 77 246 40 78 246 40 80 246 40 81 246 40 82 246 40 83 246 40 84 246 40 85 246 40 86 246 40 87 246 40 88 246 40 89 246 40 90 246 40 91 246 40 92 246 40 93 246 40 94 246 40 96 246 40 97 246 40 98 246 40 99 246 40 100 246 40 101 246 40 102 246 40 103 246 40 104 246 40 105 246 40 106 246 40 107 246 40 108 246 40 109 246 40 110 246 40 112 246 40 113 246 40 114 246 40 115 246 40 116 246 40 117 246 40 118 246 40 119 246 40 120 246 40 121 246 40 122 246 40 123 246 40 124 246 40 125 246 40 126 246 40 128 246 40 129 246 40 130 246 40 131 246 40 132 246 40 133 246 40 134 246 40 135 246 40 136 246 40 137 246 40 138 246 40 139 246 40 140 246 40 141 246 40 142 246 40 144 246 40 145 246 40 146 246 40 147 246 40 148 246 40 149 246 40 150 246 40 151 246 40 152 246 40 153 246 40 154 246 40 155 246 40 156 246 40 157 246 40 158 246 40 160 246 40 161 246 40 162 246 40 163 246 40 164 246 40 165 246 40 166 246 40 167 246 40 168 246 40 169 246 40 170 246 40 171 246 40 172 246 40 173 246 40 174 246 40 176 246 40 177 246 40 178 246 40 179 246 40 180 246 40 181 246 40 182 246 40 183 246 40 184 246 40 185 246 40 186 246 40 187 246 40 188 246 40 189 246 40 190 246 40 192 246 40 193 246 40 194 246 40 195 246 40 196 246 40 197 246 40 198 246 40 199 246 40 200 246 40 201 246 40 202 246 40 203 246 40 204 246 40 205 246 40 206 246 40 208 246 40 209 246 40 210 246 40 211 246 40 212 246 40 213 246 40 214 246 40 215 246 40 216 246 40 217 246 40 218 246 40 219 246 40 220 246 40 221 246 40 222 246 40 224 246 40 225 246 40 226 246 40 227 246 40 228 246 40 229 246 40 230 246 40 231 246 40 232 246 40 233 246 40 234 246 40 235 246 40 236 246 40 237 246 40 238 246 40 240 246 40 241 246 40 242 246 40 243 246 40 244 246 40 245 246 40 246 246 40 247 246 40 248 246 40 249 246 40 250 246 40 251 246 40 252 246 40 253 246 40 255 246
40 0 245 40 1 245 40 2 245 40 3 245 40 4 245 40 5 245 40 6 245 40 7 245 40 8 245 40 9 245 40 10 245 40 11 245 40 12 245 40 13 245 40 14 245 40 16 245 40 17 245 40 18 245 40 19 245 40 20 245 40 21 245 40 22 245 40 23 245 40 24 245 40 25 245 40 26 245 40 27 245 40 28 245 40 29 245 40 30 245 40 32 245 40 33 245 40 34 245 40 35 245 40 36 245 40 37 245 40 38 245 40 39 245 40 40 245 40 41 245 40 42 245 40 43 245 40 44 245 40 45 245 40 46 245 40 48 245 40 49 245 40 50 245 40 51 245 40 52 245 40 53 245 40 54 245 40 55 245 40 56 245 40 57 245 40 58 245 40 59 245 40 60 245 40 61 245 40 62 245 40 64 245 40 65 245 40 66 245 40 67 245 40 68 245 40 69 245 40 70 245 40 71 245 40 72 245 40 73 245 40 74 245 40 75 245 40 76 245 40 77 245 40 78 245 40 80 245 40 81 245 40 82 245 40 83 245 40 84 245 40 85 245 40 86 245 40 87 245 40 88 245 40 89 245 40 90 245 40 91 245 40 92 245 40 93 245 40 94 245 40 96 245 40 97 245 40 98 245 40 99 245 40 100 245 40 101 245 40 102 245 40 103 245 40 104 245 40 105 245 40 106 245 40 107 245 40 108 245 40 109 245 40 110 245 40 112 245 40 113 245 40 114 245 40 115 245 40 116 245 40 117 245 40 118 245 40 119 245 40 120 245 40 121 245 40 122 245 40 123 245 40 124 245 40 125 245 40 126 245 40 128 245 40 129 245 40 130 245 40 131 245 40 132 245 40 133 245 40 134 245 40 135 245 40 136 245 40 137 245 40 138 245 40 139 245 40 140 245 40 141 245 40 142 245 40 144 245 40 145 245 40 146 245 40 147 245 40 148 245 40 149 245 40 150 245 40 151 245 40 152 245 40 153 245 40 154 245 40 155 245 40 156 245 40 157 245 40 158 245 40 160 245 40 161 245 40 162 245 40 163 245 40 164 245 40 165 245 40 166 245 40 167 245 40 168 245 40 169 245 40 170 245 40 171 245 40 172 245 40 173 245 40 174 245 40 176 245 40 177 245 40 178 245 40 179 245 40 180 245 40 181 245 40 182 245 40 183 245 40 184 245 40 185 245 40 186 245 40 187 245 40 188 245 40 189 245 40 190 245 40 192 245 40 193 245 40 194 245 40 195 245 40 196 245 40 197 245 40 198 245 40 199 245 40 200 245 40 201 245 40 202 245 40 203 245 40 204 245 40 205 245 40 206 245 40 208 245 40 209 245 40 210 245 40 211 245 40 212 245 40 213 245 40 214 245 40 215 245 40 216 245 40 217 245 40 218 245 40 219 245 40 220 245 40 221 245 40 222 245 40 224 245 40 225 245 40 226 245 40 227 245 40 228 245 40 229 245 40 230 245 40 231 245 40 232 245 40 233 245 40 234 245 40 235 245 40 236 245 40 237 245 40 238 245 40 240 245 40 241 245 40 242 245 40 243 245 40 244 245 40 245 245 40 246 245 40 247 245 40 248 245 40 249 245 40 250 245 40 251 245 40 252 245 40 253 245 40 255 245
40 0 243 40 1 243 40 2 243 40 3 243 40 4 243 40 5 243 40 6 243 40 7 243 40 8 243 40 9 243 40 10 243 40 11 243 40 12 243 40 13 243 40 14 243 40 16 243 40 17 243 40 18 243 40 19 243 40 20 243 40 21 243 40 22 243 40 23 243 40 24 243 40 25 243 40 26 243 40 27 243 40 28 243 40 29 243 40 30 243 40 32 243 40 33 243 40 34 243 40 35 243 40 36 243 40 37 243 40 38 243 40 39 243 40 40 243 40 41 243 40 42 243 40 43 243 40 44 243 40 45 243 40 46 243 40 48 243 40 49 243 40 50 243 40 51 243 40 52 243 40 53 243 40 54 243 40 55 243 40 56 243 40 57 243 40 58 243 40 59 243 40 60 243 40 61 243 40 62 243 40 64 243 40 65 243 40 66 243 40 67 243 40 68 243 40 69 243 40 70 243 40 71 243 40 72 243 40 73 243 40 74 243 40 75 243 40 76 243 40 77 243 40 78 243 40 80 243 40 81 243 40 82 243 40 83 243 40 84 243 40 85 243 40 86 243 40 87 243 40 88 243 40 89 243 40 90 243 40 91 243 40 92 243 40 93 243 40 94 243 40 96 243 40 97 243 40 98 243 40 99 243 40 100 243 40 101 243 40 102 243 40 103 243 40 104 243 40 105 243 40 106 243 40 107 243 40 108 243 40 109 243 40 110 243 40 112 243 40 113 243 40 114 243 40 115 243 40 116 243 40 117 243 40 118 243 40 119 243 40 120 243 40 121 243 40 122 243 40 123 243 40 124 243 40 125 243 40 126 243 40 128 243 40 129 243 40 130 243 40 131 243 40 132 243 40 133 243 40 134 243 40 135 243 40 136 243 40 137 243 40 138 243 40 139 243 40 140 243 40 141 243 40 142 243 40 144 243 40 145 243 40 146 243 40 147 243 40 148 243 40 149 243 40 150 243 40 151 243 40 152 243 40 153 243 40 154 243 40 155 243 40 156 243 40 157 243 40 158 243 40 160 243 40 161 243 40 162 243 40 163 243 40 164 243 40 165 243 40 166 243 40 167 243 40 168 243 40 169 243 40 170 243 40 171 243 40 172 243 40 173 243 40 174 243 40 176 243 40 177 243 40 178 243 40 179 243 40 180 243 40 181 243 40 182 243 40 183 243 40 184 243 40 185 243 40 186 243 40 187 243 40 188 243 40 189 243 40 190 243 40 192 243 40 193 243 40 194 243 40 195 243 40 196 243 40 197 243 40 198 243 40 199 243 40 200 243 40 201 243 40 202 243 40 203 243 40 204 243 40 205 243 40 206 243 40 208 243 40 209 243 40 210 243 40 211 243 40 212 243 40 213 243 40 214 243 40 215 243 40 216 243 40 217 243 40 218 243 40 219 243 40 220 243 40 221 243 40 222 243 40 224 243 40 225 243 40 226 243 40 227 243 40 228 243 40 229 243 40 230 243 40 231 243 40 232 243 40 233 243 40 234 243 40 235 243 40 236 243 40 237 243 40 238 243 40 240 243 40 241 243 40 242 243 40 243 243 40 244 243 40 245 243 40 246 243 40 247 243 40 248 243 40 249 243 40 250 243 40 251 243 40 252 243 40 253 243 40 255 243
40 0 242 40 1 242 40 2 242 40 3 242 40 4 242 40 5 242 40 6 242 40 7 242 40 8 242 40 9 242 40 10 242 40 11 242 40 12 242 40 13 242 40 14 242 40 16 242 40 17 242 40 18 242 40 19 242 40 20 242 40 21 242 40 22 242 40 23 242 40 24 242 40 25 242 40 26 242 40 27 242 40 28 242 40 29 242 40 30 242 40 32 242 40 33 242 40 34 242 40 35 242 40 36 242 40 37 242 40 38 242 40 39 242 40 40 242 40 41 242 40 42 242 40 43 242 40 44 242 40 45 242 40 46 242 40 48 242 40 49 242 40 50 242 40 51 242 40 52 242 40 53 242 40 54 242 40 55 242 40 56 242 40 57 242 40 58 242 40 59 242 40 60 242 40 61 242 40 62 242 40 64 242 40 65 242 40 66 242 40 67 242 40 68 242 40 69 242 40 70 242 40 71 242 40 72 242 40 73 242 40 74 242 40 75 242 40 76 242 40 77 242 40 78 242 40 80 242 40 81 242 40 82 242 40 83 242 40 84 242 40 85 242 40 86 242 40 87 242 40 88 242 40 89 242 40 90 242 40 91 242 40 92 242 40 93 242 40 94 242 40 96 242 40 97 242 40 98 242 40 99 242 40 100 242 40 101 242 40 102 242 40 103 242 40 104 242 40 105 242 40 106 242 40 107 242 40 108 242 40 109 242 40 110 242 40 112 242 40 113 242 40 114 242 40 115 242 40 116 242 40 117 242 40 118 242 40 119 242 40 120 242 40 121 242 40 122 242 40 123 242 40 124 242 40 125 242 40 126 242 40 128 242 40 129 242 40 130 242 40 131 242 40 132 242 40 133 242 40 134 242 40 135 242 40 136 242 40 137 242 40 138 242 40 139 242 40 140 242 40 141 242 40 142 242 40 144 242 40 145 242 40 146 242 40 147 242 40 148 242 40 149 242 40 150 242 40 151 242 40 152 242 40 153 242 40 154 242 40 155 242 40 156 242 40 157 242 40 158 242 40 160 242 40 161 242 40 162 242 40 163 242 40 164 242 40 165 242 40 166 242 40 167 242 40 168 242 40 169 242 40 170 242 40 171 242 40 172 242 40 173 242 40 174 242 40 176 242 40 177 242 40 178 242 40 179 242 40 180 242 40 181 242 40 182 242 40 183 242 40 184 242 40 185 242 40 186 242 40 187 242 40 188 242 40 189 242 40 190 242 40 192 242 40 193 242 40 194 242 40 195 242 40 196 242 40 197 242 40 198 242 40 199 242 40 200 242 40 201 242 40 202 242 40 203 242 40 204 242 40 205 242 40 206 242 40 208 242 40 209 242 40 210 242 40 211 242 40 212 242 40 213 242 40 214 242 40 215 242 40 216 242 40 217 242 40 218 242 40 219 242 40 220 242 40 221 242 40 222 242 40 224 242 40 225 242 40 226 242 40 227 242 40 228 242 40 229 242 40 230 242 40 231 242 40 232 242 40 233 242 40 234 242 40 235 242 40 236 242 40 237 242 40 238 242 40 240 242 40 241 242 40 242 242 40 243 242 40 244 242 40 245 242 40 246 242 40 247 242 40 248 242 40 249 242 40 250 242 40 251 242 40 252 242 40 253 242 40 255 242
40 0 240 40 1 240 40 2 240 40 3 240 40 4 240 40 5 240 40 6 240 40 7 240 40 8 240 40 9 240 40 10 240 40 11 240 40 12 240 40 13 240 40 14 240 40 16 240 40 17 240 40 18 240 40 19 240 40 20 240 40 21 240 40 22 240 40 23 240 40 24 240 40 25 240 40 26 240 40 27 240 40 28 240 40 29 240 40 30 240 40 32 240 40 33 240 40 34 240 40 35 240 40 36 240 40 37 240 40 38 240 40 39 240 40 40 240 40 41 240 40 42 240 40 43 240 40 44 240 40 45 240 40 46 240 40 48 240 40 49 240 40 50 240 40 51 240 40 52 240 40 53 240 40 54 240 40 55 240 40 56 240 40 57 240 40 58 240 40 59 240 40 60 240 40 61 240 40 62 240 40 64 240 40 65 240 40 66 240 40 67 240 40 68 240 40 69 240 40 70 240 40 71 240 40 72 240 40 73 240 40 74 240 40 75 240 40 76 240 40 77 240 40 78 240 40 80 240 40 81 240 40 82 240 40 83 240 40 84 240 40 85 240 40 86 240 40 87 240 40 88 240 40 89 240 40 90 240 40 91 240 40 92 240 40 93 240 40 94 240 40 96 240 40 97 240 40 98 240 40 99 240 40 100 240 40 101 240 40 102 240 40 103 240 40 104 240 40 105 240 40 106 240 40 107 240 40 108 240 40 109 240 40 110 240 40 112 240 40 113 240 40 114 240 40 115 240 40 116 240 40 117 240 40 118 240 40 119 240 40 120 240 40 121 240 40 122 240 40 123 240 40 124 240 40 125 240 40 126 240 40 128 240 40 129 240 40 130 240 40 131 240 40 132 240 40 133 240 40 134 240 40 135 240 40 136 240 40 137 240 40 138 240 40 139 240 40 140 240 40 141 240 40 142 240 40 144 240 40 145 240 40 146 240 40 147 240 40 148 240 40 149 240 40 150 240 40 151 240 40 152 240 40 153 240 40 154 240 40 155 240 40 156 240 40 157 240 40 158 240 40 160 240 40 161 240 40 162 240 40 163 240 40 164 240 40 165 240 40 166 240 40 167 240 40 168 240 40 169 240 40 170 240 40 171 240 40 172 240 40 173 240 40 174 240 40 176 240 40 177 240 40 178 240 40 179 240 40 180 240 40 181 240 40 182 240 40 183 240 40 184 240 40 185 240 40 186 240 40 187 240 40 188 240 40 189 240 40 190 240 40 192 240 40 193 240 40 194 240 40 195 240 40 196 240 40 197 240 40 198 240 40 199 240 40 200 240 40 201 240 40 202 240 40 203 240 40 204 240 40 205 240 40 206 240 40 208 240 40 209 240 40 210 240 40 211 240 40 212 240 40 213 240 40 214 240 40 215 240 40 216 240 40 217 240 40 218 240 40 219 240 40 220 240 40 221 240 40 222 240 40 224 240 40 225 240 40 226 240 40 227 240 40 228 240 40 229 240 40 230 240 40 231 240 40 232 240 40 233 240 40 234 240 40 235 240 40 236 240 40 237 240 40 238 240 40 240 240 40 241 240 40 242 240 40 243 240 40 244 240 40 245 240 40 246 240 40 247 240 40 248 240 40 249 240 40 250 240 40 251 240 40 252 240 40 253 240 40 255 240
40 0 239 40 1 239 40 2 239 40 3 239 40 4 239 40 5 239 40 6 239 40 7 239 40 8 239 40 9 239 40 10 239 40 11 239 40 12 239 40 13 239 40 14 239 40 16 239 40 17 239 40 18 239 40 19 239 40 20 239 40 21 239 40 22 239 40 23 239 40 24 239 40 25 239 40 26 239 40 27 239 40 28 239 40 29 239 40 30 239 40 32 239 40 33 239 40 34 239 40 35 239 40 36 239 40 37 239 40 38 239 40 39 239 40 40 239 40 41 239 40 42 239 40 43 239 40 44 239 40 45 239 40 46 239 40 48 239 40 49 239 40 50 239 40 51 239 40 52 239 40 53 239 40 54 239 40 55 239 40 56 239 40 57 239 40 58 239 40 59 239 40 60 239 40 61 239 40 62 239 40 64 239 40 65 239 40 66 239 40 67 239 40 68 239 40 69 239 40 70 239 40 71 239 40 72 239 40 73 239 40 74 239 40 75 239 40 76 239 40 77 239 40 78 239 40 80 239 40 81 239 40 82 239 40 83 239 40 84 239 40 85 239 40 86 239 40 87 239 40 88 239 40 89 239 40 90 239 40 91 239 40 92 239 40 93 239 40 94 239 40 96 239 40 97 239 40 98 239 40 99 239 40 100 239 40 101 239 40 102 239 40 103 239 40 104 239 40 105 239 40 106 239 40 107 239 40 108 239 40 109 239 40 110 239 40 112 239 40 113 239 40 114 239 40 115 239 40 116 239 40 117 239 40 118 239 40 119 239 40 120 239 40 121 239 40 122 239 40 123 239 40 124 239 40 125 239 40 126 239 40 128 239 40 129 239 40 130 239 40 131 239 40 132 239 40 133 239 40 134 239 40 135 239 40 136 239 40 137 239 40 138 239 40 139 239 40 140 239 40 141 239 40 142 239 40 144 239 40 145 239 40 146 239 40 147 239 40 148 239 40 149 239 40 150 239 40 151 239 40 152 239 40 153 239 40 154 239 40 155 239 40 156 239 40 157 239 40 158 239 40 160 239 40 161 239 40 162 239 40 163 239 40 164 239 40 165 239 40 166 239 40 167 239 40 168 239 40 169 239 40 170 239 40 171 239 40 172 239 40 173 239 40 174 239 40 176 239 40 177 239 40 178 239 40 179 239 40 180 239 40 181 239 40 182 239 40 183 239 40 184 239 40 185 239 40 186 239 40 187 239 40 188 239 40 189 239 40 190 239 40 192 239 40 193 239 40 194 239 40 195 239 40 196 239 40 197 239 40 198 239 40 199 239 40 200 239 40 201 239 40 202 239 40 203 239 40 204 239 40 205 239 40 206 239 40 208 239 40 209 239 40 210 239 40 211 239 40 212 239 40 213 239 40 214 239 40 215 239 40 216 239 40 217 239 40 218 239 40 219 239 40 220 239 40 221 239 40 222 239 40 224 239 40 225 239 40 226 239 40 227 239 40 228 239 40 229 239 40 230 239 40 231 239 40 232 239 40 233 239 40 234 239 40 235 239 40 236 239 40 237 239 40 238 239 40 240 239 40 241 239 40 242 239 40 243 239 40 244 239 40 245 239 40 246 239 40 247 239 40 248 239 40 249 239 40 250 239 40 251 239 40 252 239 40 253 239 40 255 239
40 0 237 40 1 237 40 2 237 40 3 237 40 4 237 40 5 237 40 6 237 40 7 237 40 8 237 40 9 237 40 10 237 40 11 237 40 12 237 40 13 237 40 14 237 40 16 237 40 17 237 40 18 237 40 19 237 40 20 237 40 21 237 40 22 237 40 23 237 40 24 237 40 25 237 40 26 237 40 27 237 40 28 237 40 29 237 40 30 237 40 32 237 40 33 237 40 34 237 40 35 237 40 36 237 40 37 237 40 38 237 40 39 237 40 40 237 40 41 237 40 42 237 40 43 237 40 44 237 40 45 237 40 46 237 40 48 237 40 49 237 40 50 237 40 51 237 40 52 237 40 53 237 40 54 237 40 55 237 40 56 237 40 57 237 40 58 237 40 59 237 40 60 237 40 61 237 40 62 237 40 64 237 40 65 237 40 66 237 40 67 237 40 68 237 40 69 237 40 70 237 40 71 237 40 72 237 40 73 237 40 74 237 40 75 237 40 76 237 40 77 237 40 78 237 40 80 237 40 81 237 40 82 237 40 83 237 40 84 237 40 85 237 40 86 237 40 87 237 40 88 237 40 89 237 40 90 237 40 91 237 40 92 237 40 93 237 40 94 237 40 96 237 40 97 237 40 98 237 40 99 237 40 100 237 40 101 237 40 102 237 40 103 237 40 104 237 40 105 237 40 106 237 40 107 237 40 108 237 40 109 237 40 110 237 40 112 237 40 113 237 40 114 237 40 115 237 40 116 237 40 117 237 40 118 237 40 119 237 40 120 237 40 121 237 40 122 237 40 123 237 40 124 237 40 125 237 40 126 237 40 128 237 40 129 237 40 130 237 40 131 237 40 132 237 40 133 237 40 134 237 40 135 237 40 136 237 40 137 237 40 138 237 40 139 237 40 140 237 40 141 237 40 142 237 40 144 237 40 145 237 40 146 237 40 147 237 40 148 237 40 149 237 40 150 237 40 151 237 40 152 237 40 153 237 40 154 237 40 155 237 40 156 237 40 157 237 40 158 237 40 160 237 40 161 237 40 162 237 40 163 237 40 164 237 40 165 237 40 166 237 40 167 237 40 168 237 40 169 237 40 170 237 40 171 237 40 172 237 40 173 237 40 174 237 40 176 237 40 177 237 40 178 237 40 179 237 40 180 237 40 181 237 40 182 237 40 183 237 40 184 237 40 185 237 40 186 237 40 187 237 40 188 237 40 189 237 40 190 237 40 192 237 40 193 237 40 194 237 40 195 237 40 196 237 40 197 237 40 198 237 40 199 237 40 200 237 40 201 237 40 202 237 40 203 237 40 204 237 40 205 237 40 206 237 40 208 237 40 209 237 40 210 237 40 211 237 40 212 237 40 213 237 40 214 237 40 215 237 40 216 237 40 217 237 40 218 237 40 219 237 40 220 237 40 221 237 40 222 237 40 224 237 40 225 237 40 226 237 40 227 237 40 228 237 40 229 237 40 230 237 40 231 237 40 232 237 40 233 237 40 234 237 40 235 237 40 236 237 40 237 237 40 238 237 40 240 237 40 241 237 40 242 237 40 243 237 40 244 237 40 245 237 40 246 237 40 247 237 40 248 237 40 249 237 40 250 237 40 251 237 40 252 237 40 253 237 40 255 237
40 0 236 40 1 236 40 2 236 40 3 236 40 4 236 40 5 236 40 6 236 40 7 236 40 8 236 40 9 236 40 10 236 40 11 236 40 12 236 40 13 236 40 14 236 40 16 236 40 17 236 40 18 236 40 19 236 40 20 236 40 21 236 40 22 236 40 23 236 40 24 236 40 25 236 40 26 236 40 27 236 40 28 236 40 29 236 40 30 236 40 32 236 40 33 236 40 34 236 40 35 236 40 36 236 40 37 236 40 38 236 40 39 236 40 40 236 40 41 236 40 42 236 40 43 236 40 44 236 40 45 236 40 46 236 40 48 236 40 49 236 40 50 236 40 51 236 40 52 236 40 53 236 40 54 236 40 55 236 40 56 236 40 57 236 40 58 236 40 59 236 40 60 236 40 61 236 40 62 236 40 64 236 40 65 236 40 66 236 40 67 236 40 68 236 40 69 236 40 70 236 40 71 236 40 72 236 40 73 236 40 74 236 40 75 236 40 76 236 40 77 236 40 78 236 40 80 236 40 81 236 40 82 236 40 83 236 40 84 236 40 85 236 40 86 236 40 87 236 40 88 236 40 89 236 40 90 236 40 91 236 40 92 236 40 93 236 40 94 236 40 96 236 40 97 236 40 98 236 40 99 236 40 100 236 40 101 236 40 102 236 40 103 236 40 104 236 40 105 236 40 106 236 40 107 236 40 108 236 40 109 236 40 110 236 40 112 236 40 113 236 40 114 236 40 115 236 40 116 236 40 117 236 40 118 236 40 119 236 40 120 236 40 121 236 40 122 236 40 123 236 40 124 236 40 125 236 40 126 236 40 128 236 40 129 236 40 130 236 40 131 236 40 132 236 40 133 236 40 134 236 40 135 236 40 136 236 40 137 236 40 138 236 40 139 236 40 140 236 40 141 236 40 142 236 40 144 236 40 145 236 40 146 236 40 147 236 40 148 236 40 149 236 40 150 236 40 151 236 40 152 236 40 153 236 40 154 236 40 155 236 40 156 236 40 157 236 40 158 236 40 160 236 40 161 236 40 162 236 40 163 236 40 164 236 40 165 236 40 166 236 40 167 236 40 168 236 40 169 236 40 170 236 40 171 236 40 172 236 40 173 236 40 174 236 40 176 236 40 177 236 40 178 236 40 179 236 40 180 236 40 181 236 40 182 236 40 183 236 40 184 236 40 185 236 40 186 236 40 187 236 40 188 236 40 189 236 40 190 236 40 192 236 40 193 236 40 194 236 40 195 236 40 196 236 40 197 236 40 198 236 40 199 236 40 200 236 40 201 236 40 202 236 40 203 236 40 204 236 40 205 236 40 206 236 40 208 236 40 209 236 40 210 236 40 211 236 40 212 236 40 213 236 40 214 236 40 215 236 40 216 236 40 217 236 40 218 236 40 219 236 40 220 236 40 221 236 40 222 236 40 224 236 40 225 236 40 226 236 40 227 236 40 228 236 40 229 236 40 230 236 40 231 236 40 232 236 40 233 236 40 234 236 40 235 236 40 236 236 40 237 236 40 238 236 40 240 236 40 241 236 40 242 236 40 243 236 40 244 236 40 245 236 40 246 236 40 247 236 40 248 236 40 249 236 40 250 236 40 251 236 40 252 236 40 253 236 40 255 236
40 0 235 40 1 235 40 2 235 40 3 235 40 4 235 40 5 235 40 6 235 40 7 235 40 8 235 40 9 235 40 10 235 40 11 235 40 12 235 40 13 235 40 14 235 40 16 235 40 17 235 40 18 235 40 19 235 40 20 235 40 21 235 40 22 235 40 23 235 40 24 235 40 25 235 40 26 235 40 27 235 40 28 235 40 29 235 40 30 235 40 32 235 40 33 235 40 34 235 40 35 235 40 36 235 40 37 235 40 38 235 40 39 235 40 40 235 40 41 235 40 42 235 40 43 235 40 44 235 40 45 235 40 46 235 40 48 235 40 49 235 40 50 235 40 51 235 40 52 235 40 53 235 40 54 235 40 55 235 40 56 235 40 57 235 40 58 235 40 59 235 40 60 235 40 61 235 40 62 235 40 64 235 40 65 235 40 66 235 40 67 235 40 68 235 40 69 235 40 70 235 40 71 235 40 72 235 40 73 235 40 74 235 40 75 235 40 76 235 40 77 235 40 78 235 40 80 235 40 81 235 40 82 235 40 83 235 40 84 235 40 85 235 40 86 235 40 87 235 40 88 235 40 89 235 40 90 235 40 91 235 40 92 235 40 93 235 40 94 235 40 96 235 40 97 235 40 98 235 40 99 235 40 100 235 40 101 235 40 102 235 40 103 235 40 104 235 40 105 235 40 106 235 40 107 235 40 108 235 40 109 235 40 110 235 40 112 235 40 113 235 40 114 235 40 115 235 40 116 235 40 117 235 40 118 235 40 119 235 40 120 235 40 121 235 40 122 235 40 123 235 40 124 235 40 125 235 40 126 235 40 128 235 40 129 235 40 130 235 40 131 235 40 132 235 40 133 235 40 134 235 40 135 235 40 136 235 40 137 235 40 138 235 40 139 235 40 140 235 40 141 235 40 142 235 40 144 235 40 145 235 40 146 235 40 147 235 40 148 235 40 149 235 40 150 235 40 151 235 40 152 235 40 153 235 40 154 235 40 155 235 40 156 235 40 157 235 40 158 235 40 160 235 40 161 235 40 162 235 40 163 235 40 164 235 40 165 235 40 166 235 40 167 235 40 168 235 40 169 235 40 170 235 40 171 235 40 172 235 40 173 235 40 174 235 40 176 235 40 177 235 40 178 235 40 179 235 40 180 235 40 181 235 40 182 235 40 183 235 40 184 235 40 185 235 40 186 235 40 187 235 40 188 235 40 189 235 40 190 235 40 192 235 40 193 235 40 194 235 40 195 235 40 196 235 40 197 235 40 198 235 40 199 235 40 200 235 40 201 235 40 202 235 40 203 235 40 204 235 40 205 235 40 206 235 40 208 235 40 209 235 40 210 235 40 211 235 40 212 235 40 213 235 40 214 235 40 215 235 40 216 235 40 217 235 40 218 235 40 219 235 40 220 235 40 221 235 40 222 235 40 224 235 40 225 235 40 226 235 40 227 235 40 228 235 40 229 235 40 230 235 40 231 235 40 232 235 40 233 235 40 234 235 40 235 235 40 236 235 40 237 235 40 238 235 40 240 235 40 241 235 40 242 235 40 243 235 40 244 235 40 245 235 40 246 235 40 247 235 40 248 235 40 249 235 40 250 235 40 251 235 40 252 235 40 253 235 40 255 235
40 0 233 40 1 233 40 2 233 40 3 233 40 4 233 40 5 233 40 6 233 40 7 233 40 8 233 40 9 233 40 10 233 40 11 233 40 12 233 40 13 233 40 14 233 40 16 233 40 17 233 40 18 233 40 19 233 40 20 233 40 21 233 40 22 233 40 23 233 40 24 233 40 25 233 40 26 233 40 27 233 40 28 233 40 29 233 40 30 233 40 32 233 40 33 233 40 34 233 40 35 233 40 36 233 40 37 233 40 38 233 40 39 233 40 40 233 40 41 233 40 42 233 40 43 233 40 44 233 40 45 233 40 46 233 40 48 233 40 49 233 40 50 233 40 51 233 40 52 233 40 53 233 40 54 233 40 55 233 40 56 233 40 57 233 40 58 233 40 59 233 40 60 233 40 61 233 40 62 233 40 64 233 40 65 233 40 66 233 40 67 233 40 68 233 40 69 233 40 70 233 40 71 233 40 72 233 40 73 233 40 74 233 40 75 233 40 76 233 40 77 233 40 78 233 40 80 233 40 81 233 40 82 233 40 83 233 40 84 233 40 85 233 40 86 233 40 87 233 40 88 233 40 89 233 40 90 233 40 91 233 40 92 233 40 93 233 40 94 233 40 96 233 40 97 233 40 98 233 40 99 233 40 100 233 40 101 233 40 102 233 40 103 233 40 104 233 40 105 233 40 106 233 40 107 233 40 108 233 40 109 233 40 110 233 40 112 233 40 113 233 40 114 233 40 115 233 40 116 233 40 117 233 40 118 233 40 119 233 40 120 233 40 121 233 40 122 233 40 123 233 40 124 233 40 125 233 40 126 233 40 128 233 40 129 233 40 130 233 40 131 233 40 132 233 40 133 233 40 134 233 40 135 233 40 136 233 40 137 233 40 138 233 40 139 233 40 140 233 40 141 233 40 142 233 40 144 233 40 145 233 40 146 233 40 147 233 40 148 233 40 149 233 40 150 233 40 151 233 40 152 233 40 153 233 40 154 233 40 155 233 40 156 233 40 157 233 40 158 233 40 160 233 40 161 233 40 162 233 40 163 233 40 164 233 40 165 233 40 166 233 40 167 233 40 168 233 40 169 233 40 170 233 40 171 233 40 172 233 40 173 233 40 174 233 40 176 233 40 177 233 40 178 233 40 179 233 40 180 233 40 181 233 40 182 233 40 183 233 40 184 233 40 185 233 40 186 233 40 187 233 40 188 233 40 189 233 40 190 233 40 192 233 40 193 233 40 194 233 40 195 233 40 196 233 40 197 233 40 198 233 40 199 233 40 200 233 40 201 233 40 202 233 40 203 233 40 204 233 40 205 233 40 206 233 40 208 233 40 209 233 40 210 233 40 211 233 40 212 233 40 213 233 40 214 233 40 215 233 40 216 233 40 217 233 40 218 233 40 219 233 40 220 233 40 221 233 40 222 233 40 224 233 40 225 233 40 226 233 40 227 233 40 228 233 40 229 233 40 230 233 40 231 233 40 232 233 40 233 233 40 234 233 40 235 233 40 236 233 40 237 233 40 238 233 40 240 233 40 241 233 40 242 233 40 243 233 40 244 233 40 245 233 40 246 233 40 247 233 40 248 233 40 249 233 40 250 233 40 251 233 40 252 233 40 253 233 40 255 233
40 0 232 40 1 232 40 2 232 40 3 232 40 4 232 40 5 232 40 6 232 40 7 232 40 8 232 40 9 232 40 10 232 40 11 232 40 12 232 40 13 232 40 14 232 40 16 232 40 17 232 40 18 232 40 19 232 40 20 232 40 21 232 40 22 232 40 23 232 40 24 232 40 25 232 40 26 232 40 27 232 40 28 232 40 29 232 40 30 232 40 32 232 40 33 232 40 34 232 40 35 232 40 36 232 40 37 232 40 38 232 40 39 232 40 40 232 40 41 232 40 42 232 40 43 232 40 44 232 40 45 232 40 46 232 40 48 232 40 49 232 40 50 232 40 51 232 40 52 232 40 53 232 40 54 232 40 55 232 40 56 232 40 57 232 40 58 232 40 59 232 40 60 232 40 61 232 40 62 232 40 64 232 40 65 232 40 66 232 40 67 232 40 68 232 40 69 232 40 70 232 40 71 232 40 72 232 40 73 232 40 74 232 40 75 232 40 76 232 40 77 232 40 78 232 40 80 232 40 81 232 40 82 232 40 83 232 40 84 232 40 85 232 40 86 232 40 87 232 40 88 232 40 89 232 40 90 232 40 91 232 40 92 232 40 93 232 40 94 232 40 96 232 40 97 232 40 98 232 40 99 232 40 100 232 40 101 232 40 102 232 40 103 232 40 104 232 40 105 232 40 106 232 40 107 232 40 108 232 40 109 232 40 110 232 40 112 232 40 113 232 40 114 232 40 115 232 40 116 232 40 117 232 40 118 232 40 119 232 40 120 232 40 121 232 40 122 232 40 123 232 40 124 232 40 125 232 40 126 232 40 128 232 40 129 232 40 130 232 40 131 232 40 132 232 40 133 232 40 134 232 40 135 232 40 136 232 40 137 232 40 138 232 40 139 232 40 140 232 40 141 232 40 142 232 40 144 232 40 145 232 40 146 232 40 147 232 40 148 232 40 149 232 40 150 232 40 151 232 40 152 232 40 153 232 40 154 232 40 155 232 40 156 232 40 157 232 40 158 232 40 160 232 40 161 232 40 162 232 40 163 232 40 164 232 40 165 232 40 166 232 40 167 232 40 168 232 40 169 232 40 170 232 40 171 232 40 172 232 40 173 232 40 174 232 40 176 232 40 177 232 40 178 232 40 179 232 40 180 232 40 181 232 40 182 232 40 183 232 40 184 232 40 185 232 40 186 232 40 187 232 40 188 232 40 189 232 40 190 232 40 192 232 40 193 232 40 194 232 40 195 232 40 196 232 40 197 232 40 198 232 40 199 232 40 200 232 40 201 232 40 202 232 40 203 232 40 204 232 40 205 232 40 206 232 40 208 232 40 209 232 40 210 232 40 211 232 40 212 232 40 213 232 40 214 232 40 215 232 40 216 232 40 217 232 40 218 232 40 219 232 40 220 232 40 221 232 40 222 232 40 224 232 40 225 232 40 226 232 40 227 232 40 228 232 40 229 232 40 230 232 40 231 232 40 232 232 40 233 232 40 234 232 40 235 232 40 236 232 40 237 232 40 238 232 40 240 232 40 241 232 40 242 232 40 243 232 40 244 232 40 245 232 40 246 232 40 247 232 40 248 232 40 249 232 40 250 232 40 251 232 40 252 232 40 253 232 40 255 232
40 0 230 40 1 230 40 2 230 40 3 230 40 4 230 40 5 230 40 6 230 40 7 230 40 8 230 40 9 230 40 10 230 40 11 230 40 12 230 40 13 230 40 14 230 40 16 230 40 17 230 40 18 230 40 19 230 40 20 230 40 21 230 40 22 230 40 23 230 40 24 230 40 25 230 40 26 230 40 27 230 40 28 230 40 29 230 40 30 230 40 32 230 40 33 230 40 34 230 40 35 230 40 36 230 40 37 230 40 38 230 40 39 230 40 40 230 40 41 230 40 42 230 40 43 230 40 44 230 40 45 230 40 46 230 40 48 230 40 49 230 40 50 230 40 51 230 40 52 230 40 53 230 40 54 230 40 55 230 40 56 230 40 57 230 40 58 230 40 59 230 40 60 230 40 61 230 40 62 230 40 64 230 40 65 230 40 66 230 40 67 230 40 68 230 40 69 230 40 70 230 40 71 230 40 72 230 40 73 230 40 74 230 40 75 230 40 76 230 40 77 230 40 78 230 40 80 230 40 81 230 40 82 230 40 83 230 40 84 230 40 85 230 40 86 230 40 87 230 40 88 230 40 89 230 40 90 230 40 91 230 40 92 230 40 93 230 40 94 230 40 96 230 40 97 230 40 98 230 40 99 230 40 100 230 40 101 230 40 102 230 40 103 230 40 104 230 40 105 230 40 106 230 40 107 230 40 108 230 40 109 230 40 110 230 40 112 230 40 113 230 40 114 230 40 115 230 40 116 230 40 117 230 40 118 230 40 119 230 40 120 230 40 121 230 40 122 230 40 123 230 40 124 230 40 125 230 40 126 230 40 128 230 40 129 230 40 130 230 40 131 230 40 132 230 40 133 230 40 134 230 40 135 230 40 136 230 40 137 230 40 138 230 40 139 230 40 140 230 40 141 230 40 142 230 40 144 230 40 145 230 40 146 230 40 147 230 40 148 230 40 149 230 40 150 230 40 151 230 40 152 230 40 153 230 40 154 230 40 155 230 40 156 230 40 157 230 40 158 230 40 160 230 40 161 230 40 162 230 40 163 230 40 164 230 40 165 230 40 166 230 40 167 230 40 168 230 40 169 230 40 170 230 40 171 230 40 172 230 40 173 230 40 174 230 40 176 230 40 177 230 40 178 230 40 179 230 40 180 230 40 181 230 40 182 230 40 183 230 40 184 230 40 185 230 40 186 230 40 187 230 40 188 230 40 189 230 40 190 230 40 192 230 40 193 230 40 194 230 40 195 230 40 196 230 40 197 230 40 198 230 40 199 230 40 200 230 40 201 230 40 202 230 40 203 230 40 204 230 40 205 230 40 206 230 40 208 230 40 209 230 40 210 230 40 211 230 40 212 230 40 213 230 40 214 230 40 215 230 40 216 230 40 217 230 40 218 230 40 219 230 40 220 230 40 221 230 40 222 230 40 224 230 40 225 230 40 226 230 40 227 230 40 228 230 40 229 230 40 230 230 40 231 230 40 232 230 40 233 230 40 234 230 40 235 230 40 236 230 40 237 230 40 238 230 40 240 230 40 241 230 40 242 230 40 243 230 40 244 230 40 245 230 40 246 230 40 247 230 40 248 230 40 249 230 40 250 230 40 251 230 40 252 230 40 253 230 40 255 230
40 0 229 40 1 229 40 2 229 40 3 229 40 4 229 40 5 229 40 6 229 40 7 229 40 8 229 40 9 229 40 10 229 40 11 229 40 12 229 40 13 229 40 14 229 40 16 229 40 17 229 40 18 229 40 19 229 40 20 229 40 21 229 40 22 229 40 23 229 40 24 229 40 25 229 40 26 229 40 27 229 40 28 229 40 29 229 40 30 229 40 32 229 40 33 229 40 34 229 40 35 229 40 36 229 40 37 229 40 38 229 40 39 229 40 40 229 40 41 229 40 42 229 40 43 229 40 44 229 40 45 229 40 46 229 40 48 229 40 49 229 40 50 229 40 51 229 40 52 229 40 53 229 40 54 229 40 55 229 40 56 229 40 57 229 40 58 229 40 59 229 40 60 229 40 61 229 40 62 229 40 64 229 40 65 229 40 66 229 40 67 229 40 68 229 40 69 229 40 70 229 40 71 229 40 72 229 40 73 229 40 74 229 40 75 229 40 76 229 40 77 229 40 78 229 40 80 229 40 81 229 40 82 229 40 83 229 40 84 229 40 85 229 40 86 229 40 87 229 40 88 229 40 89 229 40 90 229 40 91 229 40 92 229 40 93 229 40 94 229 40 96 229 40 97 229 40 98 229 40 99 229 40 100 229 40 101 229 40 102 229 40 103 229 40 104 229 40 105 229 40 106 229 40 107 229 40 108 229 40 109 229 40 110 229 40 112 229 40 113 229 40 114 229 40 115 229 40 116 229 40 117 229 40 118 229 40 119 229 40 120 229 40 121 229 40 122 229 40 123 229 40 124 229 40 125 229 40 126 229 40 128 229 40 129 229 40 130 229 40 131 229 40 132 229 40 133 229 40 134 229 40 135 229 40 136 229 40 137 229 40 138 229 40 139 229 40 140 229 40 141 229 40 142 229 40 144 229 40 145 229 40 146 229 40 147 229 40 148 229 40 149 229 40 150 229 40 151 229 40 152 229 40 153 229 40 154 229 40 155 229 40 156 229 40 157 229 40 158 229 40 160 229 40 161 229 40 162 229 40 163 229 40 164 229 40 165 229 40 166 229 40 167 229 40 168 229 40 169 229 40 170 229 40 171 229 40 172 229 40 173 229 40 174 229 40 176 229 40 177 229 40 178 229 40 179 229 40 180 229 40 181 229 40 182 229 40 183 229 40 184 229 40 185 229 40 186 229 40 187 229 40 188 229 40 189 229 40 190 229 40 192 229 40 193 229 40 194 229 40 195 229 40 196 229 40 197 229 40 198 229 40 199 229 40 200 229 40 201 229 40 202 229 40 203 229 40 204 229 40 205 229 40 206 229 40 208 229 40 209 229 40 210 229 40 211 229 40 212 229 40 213 229 40 214 229 40 215 229 40 216 229 40 217 229 40 218 229 40 219 229 40 220 229 40 221 229 40 222 229 40 224 229 40 225 229 40 226 229 40 227 229 40 228 229 40 229 229 40 230 229 40 231 229 40 232 229 40 233 229 40 234 229 40 235 229 40 236 229 40 237 229 40 238 229 40 240 229 40 241 229 40 242 229 40 243 229 40 244 229 40 245 229 40 246 229 40 247 229 40 248 229 40 249 229 40 250 229 40 251 229 40 252 229 40 253 229 40 255 229
40 0 227 40 1 227 40 2 227 40 3 227 40 4 227 40 5 227 40 6 227 40 7 227 40 8 227 40 9 227 40 10 227 40 11 227 40 12 227 40 13 227 40 14 227 40 16 227 40 17 227 40 18 227 40 19 227 40 20 227 40 21 227 40 22 227 40 23 227 40 24 227 40 25 227 40 26 227 40 27 227 40 28 227 40 29 227 40 30 227 40 32 227 40 33 227 40 34 227 40 35 227 40 36 227 40 37 227 40 38 227 40 39 227 40 40 227 40 41 227 40 42 227 40 43 227 40 44 227 40 45 227 40 46 227 40 48 227 40 49 227 40 50 227 40 51 227 40 52 227 40 53 227 40 54 227 40 55 227 40 56 227 40 57 227 40 58 227 40 59 227 40 60 227 40 61 227 40 62 227 40 64 227 40 65 227 40 66 227 40 67 227 40 68 227 40 69 227 40 70 227 40 71 227 40 72 227 40 73 227 40 74 227 40 75 227 40 76 227 40 77 227 40 78 227 40 80 227 40 81 227 40 82 227 40 83 227 40 84 227 40 85 227 40 86 227 40 87 227 40 88 227 40 89 227 40 90 227 40 91 227 40 92 227 40 93 227 40 94 227 40 96 227 40 97 227 40 98 227 40 99 227 40 100 227 40 101 227 40 102 227 40 103 227 40 104 227 40 105 227 40 106 227 40 107 227 40 108 227 40 109 227 40 110 227 40 112 227 40 113 227 40 114 227 40 115 227 40 116 227 40 117 227 40 118 227 40 119 227 40 120 227 40 121 227 40 122 227 40 123 227 40 124 227 40 125 227 40 126 227 40 128 227 40 129 227 40 130 227 40 131 227 40 132 227 40 133 227 40 134 227 40 135 227 40 136 227 40 137 227 40 138 227 40 139 227 40 140 227 40 141 227 40 142 227 40 144 227 40 145 227 40 146 227 40 147 227 40 148 227 40 149 227 40 150 227 40 151 227 40 152 227 40 153 227 40 154 227 40 155 227 40 156 227 40 157 227 40 158 227 40 160 227 40 161 227 40 162 227 40 163 227 40 164 227 40 165 227 40 166 227 40 167 227 40 168 227 40 169 227 40 170 227 40 171 227 40 172 227 40 173 227 40 174 227 40 176 227 40 177 227 40 178 227 40 179 227 40 180 227 40 181 227 40 182 227 40 183 227 40 184 227 40 185 227 40 186 227 40 187 227 40 188 227 40 189 227 40 190 227 40 192 227 40 193 227 40 194 227 40 195 227 40 196 227 40 197 227 40 198 227 40 199 227 40 200 227 40 201 227 40 202 227 40 203 227 40 204 227 40 205 227 40 206 227 40 208 227 40 209 227 40 210 227 40 211 227 40 212 227 40 213 227 40 214 227 40 215 227 40 216 227 40 217 227 40 218 227 40 219 227 40 220 227 40 221 227 40 222 227 40 224 227 40 225 227 40 226 227 40 227 227 40 228 227 40 229 227 40 230 227 40 231 227 40 232 227 40 233 227 40 234 227 40 235 227 40 236 227 40 237 227 40 238 227 40 240 227 40 241 227 40 242 227 40 243 227 40 244 227 40 245 227 40 246 227 40 247 227 40 248 227 40 249 227 40 250 227 40 251 227 40 252 227 40 253 227 40 255 227
40 0 226 40 1 226 40 2 226 40 3 226 40 4 226 40 5 226 40 6 226 40 7 226 40 8 226 40 9 226 40 10 226 40 11 226 40 12 226 40 13 226 40 14 226 40 16 226 40 17 226 40 18 226 40 19 226 40 20 226 40 21 226 40 22 226 40 23 226 40 24 226 40 25 226 40 26 226 40 27 226 40 28 226 40 29 226 40 30 226 40 32 226 40 33 226 40 34 226 40 35 226 40 36 226 40 37 226 40 38 226 40 39 226 40 40 226 40 41 226 40 42 226 40 43 226 40 44 226 40 45 226 40 46 226 40 48 226 40 49 226 40 50 226 40 51 226 40 52 226 40 53 226 40 54 226 40 55 226 40 56 226 40 57 226 40 58 226 40 59 226 40 60 226 40 61 226 40 62 226 40 64 226 40 65 226 40 66 226 40 67 226 40 68 226 40 69 226 40 70 226 40 71 226 40 72 226 40 73 226 40 74 226 40 75 226 40 76 226 40 77 226 40 78 226 40 80 226 40 81 226 40 82 226 40 83 226 40 84 226 40 85 226 40 86 226 40 87 226 40 88 226 40 89 226 40 90 226 40 91 226 40 92 226 40 93 226 40 94 226 40 96 226 40 97 226 40 98 226 40 99 226 40 100 226 40 101 226 40 102 226 40 103 226 40 104 226 40 105 226 40 106 226 40 107 226 40 108 226 40 109 226 40 110 226 40 112 226 40 113 226 40 114 226 40 115 226 40 116 226 40 117 226 40 118 226 40 119 226 40 120 226 40 121 226 40 122 226 40 123 226 40 124 226 40 125 226 40 126 226 40 128 226 40 129 226 40 130 226 40 131 226 40 132 226 40 133 226 40 134 226 40 135 226 40 136 226 40 137 226 40 138 226 40 139 226 40 140 226 40 141 226 40 142 226 40 144 226 40 145 226 40 146 226 40 147 226 40 148 226 40 149 226 40 150 226 40 151 226 40 152 226 40 153 226 40 154 226 40 155 226 40 156 226 40 157 226 40 158 226 40 160 226 40 161 226 40 162 226 40 163 226 40 164 226 40 165 226 40 166 226 40 167 226 40 168 226 40 169 226 40 170 226 40 171 226 40 172 226 40 173 226 40 174 226 40 176 226 40 177 226 40 178 226 40 179 226 40 180 226 40 181 226 40 182 226 40 183 226 40 184 226 40 185 226 40 186 226 40 187 226 40 188 226 40 189 226 40 190 226 40 192 226 40 193 226 40 194 226 40 195 226 40 196 226 40 197 226 40 198 226 40 199 226 40 200 226 40 201 226 40 202 226 40 203 226 40 204 226 40 205 226 40 206 226 40 208 226 40 209 226 40 210 226 40 211 226 40 212 226 40 213 226 40 214 226 40 215 226 40 216 226 40 217 226 40 218 226 40 219 226 40 220 226 40 221 226 40 222 226 40 224 226 40 225 226 40 226 226 40 227 226 40 228 226 40 229 226 40 230 226 40 231 226 40 232 226 40 233 226 40 234 226 40 235 226 40 236 226 40 237 226 40 238 226 40 240 226 40 241 226 40 242 226 40 243 226 40 244 226 40 245 226 40 246 226 40 247 226 40 248 226 40 249 226 40 250 226 40 251 226 40 252 226 40 253 226 40 255 226
40 0 225 40 1 225 40 2 225 40 3 225 40 4 225 40 5 225 40 6 225 40 7 225 40 8 225 40 9 225 40 10 225 40 11 225 40 12 225 40 13 225 40 14 225 40 16 225 40 17 225 40 18 225 40 19 225 40 20 225 40 21 225 40 22 225 40 23 225 40 24 225 40 25 225 40 26 225 40 27 225 40 28 225 40 29 225 40 30 225 40 32 225 40 33 225 40 34 225 40 35 225 40 36 225 40 37 225 40 38 225 40 39 225 40 40 225 40 41 225 40 42 225 40 43 225 40 44 225 40 45 225 40 46 225 40 48 225 40 49 225 40 50 225 40 51 225 40 52 225 40 53 225 40 54 225 40 55 225 40 56 225 40 57 225 40 58 225 40 59 225 40 60 225 40 61 225 40 62 225 40 64 225 40 65 225 40 66 225 40 67 225 40 68 225 40 69 225 40 70 225 40 71 225 40 72 225 40 73 225 40 74 225 40 75 225 40 76 225 40 77 225 40 78 225 40 80 225 40 81 225 40 82 225 40 83 225 40 84 225 40 85 225 40 86 225 40 87 225 40 88 225 40 89 225 40 90 225 40 91 225 40 92 225 40 93 225 40 94 225 40 96 225 40 97 225 40 98 225 40 99 225 40 100 225 40 101 225 40 102 225 40 103 225 40 104 225 40 105 225 40 106 225 40 107 225 40 108 225 40 109 225 40 110 225 40 112 225 40 113 225 40 114 225 40 115 225 40 116 225 40 117 225 40 118 225 40 119 225 40 120 225 40 121 225 40 122 225 40 123 225 40 124 225 40 125 225 40 126 225 40 128 225 40 129 225 40 130 225 40 131 225 40 132 225 40 133 225 40 134 225 40 135 225 40 136 225 40 137 225 40 138 225 40 139 225 40 140 225 40 141 225 40 142 225 40 144 225 40 145 225 40 146 225 40 147 225 40 148 225 40 149 225 40 150 225 40 151 225 40 152 225 40 153 225 40 154 225 40 155 225 40 156 225 40 157 225 40 158 225 40 160 225 40 161 225 40 162 225 40 163 225 40 164 225 40 165 225 40 166 225 40 167 225 40 168 225 40 169 225 40 170 225 40 171 225 40 172 225 40 173 225 40 174 225 40 176 225 40 177 225 40 178 225 40 179 225 40 180 225 40 181 225 40 182 225 40 183 225 40 184 225 40 185 225 40 186 225 40 187 225 40 188 225 40 189 225 40 190 225 40 192 225 40 193 225 40 194 225 40 195 225 40 196 225 40 197 225 40 198 225 40 199 225 40 200 225 40 201 225 40 202 225 40 203 225 40 204 225 40 205 225 40 206 225 40 208 225 40 209 225 40 210 225 40 211 225 40 212 225 40 213 225 40 214 225 40 215 225 40 216 225 40 217 225 40 218 225 40 219 225 40 220 225 40 221 225 40 222 225 40 224 225 40 225 225 40 226 225 40 227 225 40 228 225 40 229 225 40 230 225 40 231 225 40 232 225 40 233 225 40 234 225 40 235 225 40 236 225 40 237 225 40 238 225 40 240 225 40 241 225 40 242 225 40 243 225 40 244 225 40 245 225 40 246 225 40 247 225 40 248 225 40 249 225 40 250 225 40 251 225 40 252 225 40 253 225 40 255 225
40 0 223 40 1 223 40 2 223 40 3 223 40 4 223 40 5 223 40 6 223 40 7 223 40 8 223 40 9 223 40 10 223 40 11 223 40 12 223 40 13 223 40 14 223 40 16 223 40 17 223 40 18 223 40 19 223 40 20 223 40 21 223 40 22 223 40 23 223 40 24 223 40 25 223 40 26 223 40 27 223 40 28 223 40 29 223 40 30 223 40 32 223 40 33 223 40 34 223 40 35 223 40 36 223 40 37 223 40 38 223 40 39 223 40 40 223 40 41 223 40 42 223 40 43 223 40 44 223 40 45 223 40 46 223 40 48 223 40 49 223 40 50 223 40 51 223 40 52 223 40 53 223 40 54 223 40 55 223 40 56 223 40 57 223 40 58 223 40 59 223 40 60 223 40 61 223 40 62 223 40 64 223 40 65 223 40 66 223 40 67 223 40 68 223 40 69 223 40 70 223 40 71 223 40 72 223 40 73 223 40 74 223 40 75 223 40 76 223 40 77 223 40 78 223 40 80 223 40 81 223 40 82 223 40 83 223 40 84 223 40 85 223 40 86 223 40 87 223 40 88 223 40 89 223 40 90 223 40 91 223 40 92 223 40 93 223 40 94 223 40 96 223 40 97 223 40 98 223 40 99 223 40 100 223 40 101 223 40 102 223 40 103 223 40 104 223 40 105 223 40 106 223 40 107 223 40 108 223 40 109 223 40 110 223 40 112 223 40 113 223 40 114 223 40 115 223 40 116 223 40 117 223 40 118 223 40 119 223 40 120 223 40 121 223 40 122 223 40 123 223 40 124 223 40 125 223 40 126 223 40 128 223 40 129 223 40 130 223 40 131 223 40 132 223 40 133 223 40 134 223 40 135 223 40 136 223 40 137 223 40 138 223 40 139 223 40 140 223 40 141 223 40 142 223 40 144 223 40 145 223 40 146 223 40 147 223 40 148 223 40 149 223 40 150 223 40 151 223 40 152 223 40 153 223 40 154 223 40 155 223 40 156 223 40 157 223 40 158 223 40 160 223 40 161 223 40 162 223 40 163 223 40 164 223 40 165 223 40 166 223 40 167 223 40 168 223 40 169 223 40 170 223 40 171 223 40 172 223 40 173 223 40 174 223 40 176 223 40 177 223 40 178 223 40 179 223 40 180 223 40 181 223 40 182 223 40 183 223 40 184 223 40 185 223 40 186 223 40 187 223 40 188 223 40 189 223 40 190 223 40 192 223 40 193 223 40 194 223 40 195 223 40 196 223 40 197 223 40 198 223 40 199 223 40 200 223 40 201 223 40 202 223 40 203 223 40 204 223 40 205 223 40 206 223 40 208 223 40 209 223 40 210 223 40 211 223 40 212 223 40 213 223 40 214 223 40 215 223 40 216 223 40 217 223 40 218 223 40 219 223 40 220 223 40 221 223 40 222 223 40 224 223 40 225 223 40 226 223 40 227 223 40 228 223 40 229 223 40 230 223 40 231 223 40 232 223 40 233 223 40 234 223 40 235 223 40 236 223 40 237 223 40 238 223 40 240 223 40 241 223 40 242 223 40 243 223 40 244 223 40 245 223 40 246 223 40 247 223 40 248 223 40 249 223 40 250 223 40 251 223 40 252 223 40 253 223 40 255 223
40 0 222 40 1 222 40 2 222 40 3 222 40 4 222 40 5 222 40 6 222 40 7 222 40 8 222 40 9 222 40 10 222 40 11 222 40 12 222 40 13 222 40 14 222 40 16 222 40 17 222 40 18 222 40 19 222 40 20 222 40 21 222 40 22 222 40 23 222 40 24 222 40 25 222 40 26 222 40 27 222 40 28 222 40 29 222 40 30 222 40 32 222 40 33 222 40 34 222 40 35 222 40 36 222 40 37 222 40 38 222 40 39 222 40 40 222 40 41 222 40 42 222 40 43 222 40 44 222 40 45 222 40 46 222 40 48 222 40 49 222 40 50 222 40 51 222 40 52 222 40 53 222 40 54 222 40 55 222 40 56 222 40 57 222 40 58 222 40 59 222 40 60 222 40 61 222 40 62 222 40 64 222 40 65 222 40 66 222 40 67 222 40 68 222 40 69 222 40 70 222 40 71 222 40 72 222 40 73 222 40 74 222 40 75 222 40 76 222 40 77 222 40 78 222 40 80 222 40 81 222 40 82 222 40 83 222 40 84 222 40 85 222 40 86 222 40 87 222 40 88 222 40 89 222 40 90 222 40 91 222 40 92 222 40 93 222 40 94 222 40 96 222 40 97 222 40 98 222 40 99 222 40 100 222 40 101 222 40 102 222 40 103 222 40 104 222 40 105 222 40 106 222 40 107 222 40 108 222 40 109 222 40 110 222 40 112 222 40 113 222 40 114 222 40 115 222 40 116 222 40 117 222 40 118 222 40 119 222 40 120 222 40 121 222 40 122 222 40 123 222 40 124 222 40 125 222 40 126 222 40 128 222 40 129 222 40 130 222 40 131 222 40 132 222 40 133 222 40 134 222 40 135 222 40 136 222 40 137 222 40 138 222 40 139 222 40 140 222 40 141 222 40 142 222 40 144 222 40 145 222 40 146 222 40 147 222 40 148 222 40 149 222 40 150 222 40 151 222 40 152 222 40 153 222 40 154 222 40 155 222 40 156 222 40 157 222 40 158 222 40 160 222 40 161 222 40 162 222 40 163 222 40 164 222 40 165 222 40 166 222 40 167 222 40 168 222 40 169 222 40 170 222 40 171 222 40 172 222 40 173 222 40 174 222 40 176 222 40 177 222 40 178 222 40 179 222 40 180 222 40 181 222 40 182 222 40 183 222 40 184 222 40 185 222 40 186 222 40 187 222 40 188 222 40 189 222 40 190 222 40 192 222 40 193 222 40 194 222 40 195 222 40 196 222 40 197 222 40 198 222 40 199 222 40 200 222 40 201 222 40 202 222 40 203 222 40 204 222 40 205 222 40 206 222 40 208 222 40 209 222 40 210 222 40 211 222 40 212 222 40 213 222 40 214 222 40 215 222 40 216 222 40 217 222 40 218 222 40 219 222 40 220 222 40 221 222 40 222 222 40 224 222 40 225 222 40 226 222 40 227 222 40 228 222 40 229 222 40 230 222 40 231 222 40 232 222 40 233 222 40 234 222 40 235 222 40 236 222 40 237 222 40 238 222 40 240 222 40 241 222 40 242 222 40 243 222 40 244 222 40 245 222 40 246 222 40 247 222 40 248 222 40 249 222 40 250 222 40 251 222 40 252 222 40 253 222 40 255 222
40 0 220 40 1 220 40 2 220 40 3 220 40 4 220 40 5 220 40 6 220 40 7 220 40 8 220 40 9 220 40 10 220 40 11 220 40 12 220 40 13 220 40 14 220 40 16 220 40 17 220 40 18 220 40 19 220 40 20 220 40 21 220 40 22 220 40 23 220 40 24 220 40 25 220 40 26 220 40 27 220 40 28 220 40 29 220 40 30 220 40 32 220 40 33 220 40 34 220 40 35 220 40 36 220 40 37 220 40 38 220 40 39 220 40 40 220 40 41 220 40 42 220 40 43 220 40 44 220 40 45 220 40 46 220 40 48 220 40 49 220 40 50 220 40 51 220 40 52 220 40 53 220 40 54 220 40 55 220 40 56 220 40 57 220 40 58 220 40 59 220 40 60 220 40 61 220 40 62 220 40 64 220 40 65 220 40 66 220 40 67 220 40 68 220 40 69 220 40 70 220 40 71 220 40 72 220 40 73 220 40 74 220 40 75 220 40 76 220 40 77 220 40 78 220 40 80 220 40 81 220 40 82 220 40 83 220 40 84 220 40 85 220 40 86 220 40 87 220 40 88 220 40 89 220 40 90 220 40 91 220 40 92 220 40 93 220 40 94 220 40 96 220 40 97 220 40 98 220 40 99 220 40 100 220 40 101 220 40 102 220 40 103 220 40 104 220 40 105 220 40 106 220 40 107 220 40 108 220 40 109 220 40 110 220 40 112 220 40 113 220 40 114 220 40 115 220 40 116 220 40 117 220 40 118 220 40 119 220 40 120 220 40 121 220 40 122 220 40 123 220 40 124 220 40 125 220 40 126 220 40 128 220 40 129 220 40 130 220 40 131 220 40 132 220 40 133 220 40 134 220 40 135 220 40 136 220 40 137 220 40 138 220 40 139 220 40 140 220 40 141 220 40 142 220 40 144 220 40 145 220 40 146 220 40 147 220 40 148 220 40 149 220 40 150 220 40 151 220 40 152 220 40 153 220 40 154 220 40 155 220 40 156 220 40 157 220 40 158 220 40 160 220 40 161 220 40 162 220 40 163 220 40 164 220 40 165 220 40 166 220 40 167 220 40 168 220 40 169 220 40 170 220 40 171 220 40 172 220 40 173 220 40 174 220 40 176 220 40 177 220 40 178 220 40 179 220 40 180 220 40 181 220 40 182 220 40 183 220 40 184 220 40 185 220 40 186 220 40 187 220 40 188 220 40 189 220 40 190 220 40 192 220 40 193 220 40 194 220 40 195 220 40 196 220 40 197 220 40 198 220 40 199 220 40 200 220 40 201 220 40 202 220 40 203 220 40 204 220 40 205 220 40 206 220 40 208 220 40 209 220 40 210 220 40 211 220 40 212 220 40 213 220 40 214 220 40 215 220 40 216 220 40 217 220 40 218 220 40 219 220 40 220 220 40 221 220 40 222 220 40 224 220 40 225 220 40 226 220 40 227 220 40 228 220 40 229 220 40 230 220 40 231 220 40 232 220 40 233 220 40 234 220 40 235 220 40 236 220 40 237 220 40 238 220 40 240 220 40 241 220 40 242 220 40 243 220 40 244 220 40 245 220 40 246 220 40 247 220 40 248 220 40 249 220 40 250 220 40 251 220 40 252 220 40 253 220 40 255 220
40 0 219 40 1 219 40 2 219 40 3 219 40 4 219 40 5 219 40 6 219 40 7 219 40 8 219 40 9 219 40 10 219 40 11 219 40 12 219 40 13 219 40 14 219 40 16 219 40 17 219 40 18 219 40 19 219 40 20 219 40 21 219 40 22 219 40 23 219 40 24 219 40 25 219 40 26 219 40 27 219 40 28 219 40 29 219 40 30 219 40 32 219 40 33 219 40 34 219 40 35 219 40 36 219 40 37 219 40 38 219 40 39 219 40 40 219 40 41 219 40 42 219 40 43 219 40 44 219 40 45 219 40 46 219 40 48 219 40 49 219 40 50 219 40 51 219 40 52 219 40 53 219 40 54 219 40 55 219 40 56 219 40 57 219 40 58 219 40 59 219 40 60 219 40 61 219 40 62 219 40 64 219 40 65 219 40 66 219 40 67 219 40 68 219 40 69 219 40 70 219 40 71 219 40 72 219 40 73 219 40 74 219 40 75 219 40 76 219 40 77 219 40 78 219 40 80 219 40 81 219 40 82 219 40 83 219 40 84 219 40 85 219 40 86 219 40 87 219 40 88 219 40 89 219 40 90 219 40 91 219 40 92 219 40 93 219 40 94 219 40 96 219 40 97 219 40 98 219 40 99 219 40 100 219 40 101 219 40 102 219 40 103 219 40 104 219 40 105 219 40 106 219 40 107 219 40 108 219 40 109 219 40 110 219 40 112 219 40 113 219 40 114 219 40 115 219 40 116 219 40 117 219 40 118 219 40 119 219 40 120 219 40 121 219 40 122 219 40 123 219 40 124 219 40 125 219 40 126 219 40 128 219 40 129 219 40 130 219 40 131 219 40 132 219 40 133 219 40 134 219 40 135 219 40 136 219 40 137 219 40 138 219 40 139 219 40 140 219 40 141 219 40 142 219 40 144 219 40 145 219 40 146 219 40 147 219 40 148 219 40 149 219 40 150 219 40 151 219 40 152 219 40 153 219 40 154 219 40 155 219 40 156 219 40 157 219 40 158 219 40 160 219 40 161 219 40 162 219 40 163 219 40 164 219 40 165 219 40 166 219 40 167 219 40 168 219 40 169 219 40 170 219 40 171 219 40 172 219 40 173 219 40 174 219 40 176 219 40 177 219 40 178 219 40 179 219 40 180 219 40 181 219 40 182 219 40 183 219 40 184 219 40 185 219 40 186 219 40 187 219 40 188 219 40 189 219 40 190 219 40 192 219 40 193 219 40 194 219 40 195 219 40 196 219 40 197 219 40 198 219 40 199 219 40 200 219 40 201 219 40 202 219 40 203 219 40 204 219 40 205 219 40 206 219 40 208 219 40 209 219 40 210 219 40 211 219 40 212 219 40 213 219 40 214 219 40 215 219 40 216 219 40 217 219 40 218 219 40 219 219 40 220 219 40 221 219 40 222 219 40 224 219 40 225 219 40 226 219 40 227 219 40 228 219 40 229 219 40 230 219 40 231 219 40 232 219 40 233 219 40 234 219 40 235 219 40 236 219 40 237 219 40 238 219 40 240 219 40 241 219 40 242 219 40 243 219 40 244 219 40 245 219 40 246 219 40 247 219 40 248 219 40 249 219 40 250 219 40 251 219 40 252 219 40 253 219 40 255 219
40 0 217 40 1 217 40 2 217 40 3 217 40 4 217 40 5 217 40 6 217 40 7 217 40 8 217 40 9 217 40 10 217 40 11 217 40 12 217 40 13 217 40 14 217 40 16 217 40 17 217 40 18 217 40 19 217 40 20 217 40 21 217 40 22 217 40 23 217 40 24 217 40 25 217 40 26 217 40 27 217 40 28 217 40 29 217 40 30 217 40 32 217 40 33 217 40 34 217 40 35 217 40 36 217 40 37 217 40 38 217 40 39 217 40 40 217 40 41 217 40 42 217 40 43 217 40 44 217 40 45 217 40 46 217 40 48 217 40 49 217 40 50 217 40 51 217 40 52 217 40 53 217 40 54 217 40 55 217 40 56 217 40 57 217 40 58 217 40 59 217 40 60 217 40 61 217 40 62 217 40 64 217 40 65 217 40 66 217 40 67 217 40 68 217 40 69 217 40 70 217 40 71 217 40 72 217 40 73 217 40 74 217 40 75 217 40 76 217 40 77 217 40 78 217 40 80 217 40 81 217 40 82 217 40 83 217 40 84 217 40 85 217 40 86 217 40 87 217 40 88 217 40 89 217 40 90 217 40 91 217 40 92 217 40 93 217 40 94 217 40 96 217 40 97 217 40 98 217 40 99 217 40 100 217 40 101 217 40 102 217 40 103 217 40 104 217 40 105 217 40 106 217 40 107 217 40 108 217 40 109 217 40 110 217 40 112 217 40 113 217 40 114 217 40 115 217 40 116 217 40 117 217 40 118 217 40 119 217 40 120 217 40 121 217 40 122 217 40 123 217 40 124 217 40 125 217 40 126 217 40 128 217 40 129 217 40 130 217 40 131 217 40 132 217 40 133 217 40 134 217 40 135 217 40 136 217 40 137 217 40 138 217 40 139 217 40 140 217 40 141 217 40 142 217 40 144 217 40 145 217 40 146 217 40 147 217 40 148 217 40 149 217 40 150 217 40 151 217 40 152 217 40 153 217 40 154 217 40 155 217 40 156 217 40 157 217 40 158 217 40 160 217 40 161 217 40 162 217 40 163 217 40 164 217 40 165 217 40 166 217 40 167 217 40 168 217 40 169 217 40 170 217 40 171 217 40 172 217 40 173 217 40 174 217 40 176 217 40 177 217 40 178 217 40 179 217 40 180 217 40 181 217 40 182 217 40 183 217 40 184 217 40 185 217 40 186 217 40 187 217 40 188 217 40 189 217 40 190 217 40 192 217 40 193 217 40 194 217 40 195 217 40 196 217 40 197 217 40 198 217 40 199 217 40 200 217 40 201 217 40 202 217 40 203 217 40 204 217 40 205 217 40 206 217 40 208 217 40 209 217 40 210 217 40 211 217 40 212 217 40 213 217 40 214 217 40 215 217 40 216 217 40 217 217 40 218 217 40 219 217 40 220 217 40 221 217 40 222 217 40 224 217 40 225 217 40 226 217 40 227 217 40 228 217 40 229 217 40 230 217 40 231 217 40 232 217 40 233 217 40 234 217 40 235 217 40 236 217 40 237 217 40 238 217 40 240 217 40 241 217 40 242 217 40 243 217 40 244 217 40 245 217 40 246 217 40 247 217 40 248 217 40 249 217 40 250 217 40 251 217 40 252 217 40 253 217 40 255 217
40 0 216 40 1 216 40 2 216 40 3 216 40 4 216 40 5 216 40 6 216 40 7 216 40 8 216 40 9 216 40 10 216 40 11 216 40 12 216 40 13 216 40 14 216 40 16 216 40 17 216 40 18 216 40 19 216 40 20 216 40 21 216 40 22 216 40 23 216 40 24 216 40 25 216 40 26 216 40 27 216 40 28 216 40 29 216 40 30 216 40 32 216 40 33 216 40 34 216 40 35 216 40 36 216 40 37 216 40 38 216 40 39 216 40 40 216 40 41 216 40 42 216 40 43 216 40 44 216 40 45 216 40 46 216 40 48 216 40 49 216 40 50 216 40 51 216 40 52 216 40 53 216 40 54 216 40 55 216 40 56 216 40 57 216 40 58 216 40 59 216 40 60 216 40 61 216 40 62 216 40 64 216 40 65 216 40 66 216 40 67 216 40 68 216 40 69 216 40 70 216 40 71 216 40 72 216 40 73 216 40 74 216 40 75 216 40 76 216 40 77 216 40 78 216 40 80 216 40 81 216 40 82 216 40 83 216 40 84 216 40 85 216 40 86 216 40 87 216 40 88 216 40 89 216 40 90 216 40 91 216 40 92 216 40 93 216 40 94 216 40 96 216 40 97 216 40 98 216 40 99 216 40 100 216 40 101 216 40 102 216 40 103 216 40 104 216 40 105 216 40 106 216 40 107 216 40 108 216 40 109 216 40 110 216 40 112 216 40 113 216 40 114 216 40 115 216 40 116 216 40 117 216 40 118 216 40 119 216 40 120 216 40 121 216 40 122 216 40 123 216 40 124 216 40 125 216 40 126 216 40 128 216 40 129 216 40 130 216 40 131 216 40 132 216 40 133 216 40 134 216 40 135 216 40 136 216 40 137 216 40 138 216 40 139 216 40 140 216 40 141 216 40 142 216 40 144 216 40 145 216 40 146 216 40 147 216 40 148 216 40 149 216 40 150 216 40 151 216 40 152 216 40 153 216 40 154 216 40 155 216 40 156 216 40 157 216 40 158 216 40 160 216 40 161 216 40 162 216 40 163 216 40 164 216 40 165 216 40 166 216 40 167 216 40 168 216 40 169 216 40 170 216 40 171 216 40 172 216 40 173 216 40 174 216 40 176 216 40 177 216 40 178 216 40 179 216 40 180 216 40 181 216 40 182 216 40 183 216 40 184 216 40 185 216 40 186 216 40 187 216 40 188 216 40 189 216 40 190 216 40 192 216 40 193 216 40 194 216 40 195 216 40 196 216 40 197 216 40 198 216 40 199 216 40 200 216 40 201 216 40 202 216 40 203 216 40 204 216 40 205 216 40 206 216 40 208 216 40 209 216 40 210 216 40 211 216 40 212 216 40 213 216 40 214 216 40 215 216 40 216 216 40 217 216 40 218 216 40 219 216 40 220 216 40 221 216 40 222 216 40 224 216 40 225 216 40 226 216 40 227 216 40 228 216 40 229 216 40 230 216 40 231 216 40 232 216 40 233 216 40 234 216 40 235 216 40 236 216 40 237 216 40 238 216 40 240 216 40 241 216 40 242 216 40 243 216 40 244 216 40 245 216 40 246 216 40 247 216 40 248 216 40 249 216 40 250 216 40 251 216 40 252 216 40 253 216 40 255 216
40 0 215 40 1 215 40 2 215 40 3 215 40 4 215 40 5 215 40 6 215 40 7 215 40 8 215 40 9 215 40 10 215 40 11 215 40 12 215 40 13 215 40 14 215 40 16 215 40 17 215 40 18 215 40 19 215 40 20 215 40 21 215 40 22 215 40 23 215 40 24 215 40 25 215 40 26 215 40 27 215 40 28 215 40 29 215 40 30 215 40 32 215 40 33 215 40 34 215 40 35 215 40 36 215 40 37 215 40 38 215 40 39 215 40 40 215 40 41 215 40 42 215 40 43 215 40 44 215 40 45 215 40 46 215 40 48 215 40 49 215 40 50 215 40 51 215 40 52 215 40 53 215 40 54 215 40 55 215 40 56 215 40 57 215 40 58 215 40 59 215 40 60 215 40 61 215 40 62 215 40 64 215 40 65 215 40 66 215 40 67 215 40 68 215 40 69 215 40 70 215 40 71 215 40 72 215 40 73 215 40 74 215 40 75 215 40 76 215 40 77 215 40 78 215 40 80 215 40 81 215 40 82 215 40 83 215 40 84 215 40 85 215 40 86 215 40 87 215 40 88 215 40 89 215 40 90 215 40 91 215 40 92 215 40 93 215 40 94 215 40 96 215 40 97 215 40 98 215 40 99 215 40 100 215 40 101 215 40 102 215 40 103 215 40 104 215 40 105 215 40 106 215 40 107 215 40 108 215 40 109 215 40 110 215 40 112 215 40 113 215 40 114 215 40 115 215 40 116 215 40 117 215 40 118 215 40 119 215 40 120 215 40 121 215 40 122 215 40 123 215 40 124 215 40 125 215 40 126 215 40 128 215 40 129 215 40 130 215 40 131 215 40 132 215 40 133 215 40 134 215 40 135 215 40 136 215 40 137 215 40 138 215 40 139 215 40 140 215 40 141 215 40 142 215 40 144 215 40 145 215 40 146 215 40 147 215 40 148 215 40 149 215 40 150 215 40 151 215 40 152 215 40 153 215 40 154 215 40 155 215 40 156 215 40 157 215 40 158 215 40 160 215 40 161 215 40 162 215 40 163 215 40 164 215 40 165 215 40 166 215 40 167 215 40 168 215 40 169 215 40 170 215 40 171 215 40 172 215 40 173 215 40 174 215 40 176 215 40 177 215 40 178 215 40 179 215 40 180 215 40 181 215 40 182 215 40 183 215 40 184 215 40 185 215 40 186 215 40 187 215 40 188 215 40 189 215 40 190 215 40 192 215 40 193 215 40 194 215 40 195 215 40 196 215 40 197 215 40 198 215 40 199 215 40 200 215 40 201 215 40 202 215 40 203 215 40 204 215 40 205 215 40 206 215 40 208 215 40 209 215 40 210 215 40 211 215 40 212 215 40 213 215 40 214 215 40 215 215 40 216 215 40 217 215 40 218 215 40 219 215 40 220 215 40 221 215 40 222 215 40 224 215 40 225 215 40 226 215 40 227 215 40 228 215 40 229 215 40 230 215 40 231 215 40 232 215 40 233 215 40 234 215 40 235 215 40 236 215 40 237 215 40 238 215 40 240 215 40 241 215 40 242 215 40 243 215 40 244 215 40 245 215 40 246 215 40 247 215 40 248 215 40 249 215 40 250 215 40 251 215 40 252 215 40 253 215 40 255 215
40 0 213 40 1 213 40 2 213 40 3 213 40 4 213 40 5 213 40 6 213 40 7 213 40 8 213 40 9 213 40 10 213 40 11 213 40 12 213 40 13 213 40 14 213 40 16 213 40 17 213 40 18 213 40 19 213 40 20 213 40 21 213 40 22 213 40 23 213 40 24 213 40 25 213 40 26 213 40 27 213 40 28 213 40 29 213 40 30 213 40 32 213 40 33 213 40 34 213 40 35 213 40 36 213 40 37 213 40 38 213 40 39 213 40 40 213 40 41 213 40 42 213 40 43 213 40 44 213 40 45 213 40 46 213 40 48 213 40 49 213 40 50 213 40 51 213 40 52 213 40 53 213 40 54 213 40 55 213 40 56 213 40 57 213 40 58 213 40 59 213 40 60 213 40 61 213 40 62 213 40 64 213 40 65 213 40 66 213 40 67 213 40 68 213 40 69 213 40 70 213 40 71 213 40 72 213 40 73 213 40 74 213 40 75 213 40 76 213 40 77 213 40 78 213 40 80 213 40 81 213 40 82 213 40 83 213 40 84 213 40 85 213 40 86 213 40 87 213 40 88 213 40 89 213 40 90 213 40 91 213 40 92 213 40 93 213 40 94 213 40 96 213 40 97 213 40 98 213 40 99 213 40 100 213 40 101 213 40 102 213 40 103 213 40 104 213 40 105 213 40 106 213 40 107 213 40 108 213 40 109 213 40 110 213 40 112 213 40 113 213 40 114 213 40 115 213 40 116 213 40 117 213 40 118 213 40 119 213 40 120 213 40 121 213 40 122 213 40 123 213 40 124 213 40 125 213 40 126 213 40 128 213 40 129 213 40 130 213 40 131 213 40 132 213 40 133 213 40 134 213 40 135 213 40 136 213 40 137 213 40 138 213 40 139 213 40 140 213 40 141 213 40 142 213 40 144 213 40 145 213 40 146 213 40 147 213 40 148 213 40 149 213 40 150 213 40 151 213 40 152 213 40 153 213 40 154 213 40 155 213 40 156 213 40 157 213 40 158 213 40 160 213 40 161 213 40 162 213 40 163 213 40 164 213 40 165 213 40 166 213 40 167 213 40 168 213 40 169 213 40 170 213 40 171 213 40 172 213 40 173 213 40 174 213 40 176 213 40 177 213 40 178 213 40 179 213 40 180 213 40 181 213 40 182 213 40 183 213 40 184 213 40 185 213 40 186 213 40 187 213 40 188 213 40 189 213 40 190 213 40 192 213 40 193 213 40 194 213 40 195 213 40 196 213 40 197 213 40 198 213 40 199 213 40 200 213 40 201 213 40 202 213 40 203 213 40 204 213 40 205 213 40 206 213 40 208 213 40 209 213 40 210 213 40 211 213 40 212 213 40 213 213 40 214 213 40 215 213 40 216 213 40 217 213 40 218 213 40 219 213 40 220 213 40 221 213 40 222 213 40 224 213 40 225 213 40 226 213 40 227 213 40 228 213 40 229 213 40 230 213 40 231 213 40 232 213 40 233 213 40 234 213 40 235 213 40 236 213 40 237 213 40 238 213 40 240 213 40 241 213 40 242 213 40 243 213 40 244 213 40 245 213 40 246 213 40 247 213 40 248 213 40 249 213 40 250 213 40 251 213 40 252 213 40 253 213 40 255 213
40 0 212 40 1 212 40 2 212 40 3 212 40 4 212 40 5 212 40 6 212 40 7 212 40 8 212 40 9 212 40 10 212 40 11 212 40 12 212 40 13 212 40 14 212 40 16 212 40 17 212 40 18 212 40 19 212 40 20 212 40 21 212 40 22 212 40 23 212 40 24 212 40 25 212 40 26 212 40 27 212 40 28 212 40 29 212 40 30 212 40 32 212 40 33 212 40 34 212 40 35 212 40 36 212 40 37 212 40 38 212 40 39 212 40 40 212 40 41 212 40 42 212 40 43 212 40 44 212 40 45 212 40 46 212 40 48 212 40 49 212 40 50 212 40 51 212 40 52 212 40 53 212 40 54 212 40 55 212 40 56 212 40 57 212 40 58 212 40 59 212 40 60 212 40 61 212 40 62 212 40 64 212 40 65 212 40 66 212 40 67 212 40 68 212 40 69 212 40 70 212 40 71 212 40 72 212 40 73 212 40 74 212 40 75 212 40 76 212 40 77 212 40 78 212 40 80 212 40 81 212 40 82 212 40 83 212 40 84 212 40 85 212 40 86 212 40 87 212 40 88 212 40 89 212 40 90 212 40 91 212 40 92 212 40 93 212 40 94 212 40 96 212 40 97 212 40 98 212 40 99 212 40 100 212 40 101 212 40 102 212 40 103 212 40 104 212 40 105 212 40 106 212 40 107 212 40 108 212 40 109 212 40 110 212 40 112 212 40 113 212 40 114 212 40 115 212 40 116 212 40 117 212 40 118 212 40 119 212 40 120 212 40 121 212 40 122 212 40 123 212 40 124 212 40 125 212 40 126 212 40 128 212 40 129 212 40 130 212 40 131 212 40 132 212 40 133 212 40 134 212 40 135 212 40 136 212 40 137 212 40 138 212 40 139 212 40 140 212 40 141 212 40 142 212 40 144 212 40 145 212 40 146 212 40 147 212 40 148 212 40 149 212 40 150 212 40 151 212 40 152 212 40 153 212 40 154 212 40 155 212 40 156 212 40 157 212 40 158 212 40 160 212 40 161 212 40 162 212 40 163 212 40 164 212 40 165 212 40 166 212 40 167 212 40 168 212 40 169 212 40 170 212 40 171 212 40 172 212 40 173 212 40 174 212 40 176 212 40 177 212 40 178 212 40 179 212 40 180 212 40 181 212 40 182 212 40 183 212 40 184 212 40 185 212 40 186 212 40 187 212 40 188 212 40 189 212 40 190 212 40 192 212 40 193 212 40 194 212 40 195 212 40 196 212 40 197 212 40 198 212 40 199 212 40 200 212 40 201 212 40 202 212 40 203 212 40 204 212 40 205 212 40 206 212 40 208 212 40 209 212 40 210 212 40 211 212 40 212 212 40 213 212 40 214 212 40 215 212 40 216 212 40 217 212 40 218 212 40 219 212 40 220 212 40 221 212 40 222 212 40 224 212 40 225 212 40 226 212 40 227 212 40 228 212 40 229 212 40 230 212 40 231 212 40 232 212 40 233 212 40 234 212 40 235 212 40 236 212 40 237 212 40 238 212 40 240 212 40 241 212 40 242 212 40 243 212 40 244 212 40 245 212 40 246 212 40 247 212 40 248 212 40 249 212 40 250 212 40 251 212 40 252 212 40 253 212 40 255 212
40 0 210 40 1 210 40 2 210 40 3 210 40 4 210 40 5 210 40 6 210 40 7 210 40 8 210 40 9 210 40 10 210 40 11 210 40 12 210 40 13 210 40 14 210 40 16 210 40 17 210 40 18 210 40 19 210 40 20 210 40 21 210 40 22 210 40 23 210 40 24 210 40 25 210 40 26 210 40 27 210 40 28 210 40 29 210 40 30 210 40 32 210 40 33 210 40 34 210 40 35 210 40 36 210 40 37 210 40 38 210 40 39 210 40 40 210 40 41 210 40 42 210 40 43 210 40 44 210 40 45 210 40 46 210 40 48 210 40 49 210 40 50 210 40 51 210 40 52 210 40 53 210 40 54 210 40 55 210 40 56 210 40 57 210 40 58 210 40 59 210 40 60 210 40 61 210 40 62 210 40 64 210 40 65 210 40 66 210 40 67 210 40 68 210 40 69 210 40 70 210 40 71 210 40 72 210 40 73 210 40 74 210 40 75 210 40 76 210 40 77 210 40 78 210 40 80 210 40 81 210 40 82 210 40 83 210 40 84 210 40 85 210 40 86 210 40 87 210 40 88 210 40 89 210 40 90 210 40 91 210 40 92 210 40 93 210 40 94 210 40 96 210 40 97 210 40 98 210 40 99 210 40 100 210 40 101 210 40 102 210 40 103 210 40 104 210 40 105 210 40 106 210 40 107 210 40 108 210 40 109 210 40 110 210 40 112 210 40 113 210 40 114 210 40 115 210 40 116 210 40 117 210 40 118 210 40 119 210 40 120 210 40 121 210 40 122 210 40 123 210 40 124 210 40 125 210 40 126 210 40 128 210 40 129 210 40 130 210 40 131 210 40 132 210 40 133 210 40 134 210 40 135 210 40 136 210 40 137 210 40 138 210 40 139 210 40 140 210 40 141 210 40 142 210 40 144 210 40 145 210 40 146 210 40 147 210 40 148 210 40 149 210 40 150 210 40 151 210 40 152 210 40 153 210 40 154 210 40 155 210 40 156 210 40 157 210 40 158 210 40 160 210 40 161 210 40 162 210 40 163 210 40 164 210 40 165 210 40 166 210 40 167 210 40 168 210 40 169 210 40 170 210 40 171 210 40 172 210 40 173 210 40 174 210 40 176 210 40 177 210 40 178 210 40 179 210 40 180 210 40 181 210 40 182 210 40 183 210 40 184 210 40 185 210 40 186 210 40 187 210 40 188 210 40 189 210 40 190 210 40 192 210 40 193 210 40 194 210 40 195 210 40 196 210 40 197 210 40 198 210 40 199 210 40 200 210 40 201 210 40 202 210 40 203 210 40 204 210 40 205 210 40 206 210 40 208 210 40 209 210 40 210 210 40 211 210 40 212 210 40 213 210 40 214 210 40 215 210 40 216 210 40 217 210 40 218 210 40 219 210 40 220 210 40 221 210 40 222 210 40 224 210 40 225 210 40 226 210 40 227 210 40 228 210 40 229 210 40 230 210 40 231 210 40 232 210 40 233 210 40 234 210 40 235 210 40 236 210 40 237 210 40 238 210 40 240 210 40 241 210 40 242 210 40 243 210 40 244 210 40 245 210 40 246 210 40 247 210 40 248 210 40 249 210 40 250 210 40 251 210 40 252 210 40 253 210 40 255 210
40 0 209 40 1 209 40 2 209 40 3 209 40 4 209 40 5 209 40 6 209 40 7 209 40 8 209 40 9 209 40 10 209 40 11 209 40 12 209 40 13 209 40 14 209 40 16 209 40 17 209 40 18 209 40 19 209 40 20 209 40 21 209 40 22 209 40 23 209 40 24 209 40 25 209 40 26 209 40 27 209 40 28 209 40 29 209 40 30 209 40 32 209 40 33 209 40 34 209 40 35 209 40 36 209 40 37 209 40 38 209 40 39 209 40 40 209 40 41 209 40 42 209 40 43 209 40 44 209 40 45 209 40 46 209 40 48 209 40 49 209 40 50 209 40 51 209 40 52 209 40 53 209 40 54 209 40 55 209 40 56 209 40 57 209 40 58 209 40 59 209 40 60 209 40 61 209 40 62 209 40 64 209 40 65 209 40 66 209 40 67 209 40 68 209 40 69 209 40 70 209 40 71 209 40 72 209 40 73 209 40 74 209 40 75 209 40 76 209 40 77 209 40 78 209 40 80 209 40 81 209 40 82 209 40 83 209 40 84 209 40 85 209 40 86 209 40 87 209 40 88 209 40 89 209 40 90 209 40 91 209 40 92 209 40 93 209 40 94 209 40 96 209 40 97 209 40 98 209 40 99 209 40 100 209 40 101 209 40 102 209 40 103 209 40 104 209 40 105 209 40 106 209 40 107 209 40 108 209 40 109 209 40 110 209 40 112 209 40 113 209 40 114 209 40 115 209 40 116 209 40 117 209 40 118 209 40 119 209 40 120 209 40 121 209 40 122 209 40 123 209 40 124 209 40 125 209 40 126 209 40 128 209 40 129 209 40 130 209 40 131 209 40 132 209 40 133 209 40 134 209 40 135 209 40 136 209 40 137 209 40 138 209 40 139 209 40 140 209 40 141 209 40 142 209 40 144 209 40 145 209 40 146 209 40 147 209 40 148 209 40 149 209 40 150 209 40 151 209 40 152 209 40 153 209 40 154 209 40 155 209 40 156 209 40 157 209 40 158 209 40 160 209 40 161 209 40 162 209 40 163 209 40 164 209 40 165 209 40 166 209 40 167 209 40 168 209 40 169 209 40 170 209 40 171 209 40 172 209 40 173 209 40 174 209 40 176 209 40 177 209 40 178 209 40 179 209 40 180 209 40 181 209 40 182 209 40 183 209 40 184 209 40 185 209 40 186 209 40 187 209 40 188 209 40 189 209 40 190 209 40 192 209 40 193 209 40 194 209 40 195 209 40 196 209 40 197 209 40 198 209 40 199 209 40 200 209 40 201 209 40 202 209 40 203 209 40 204 209 40 205 209 40 206 209 40 208 209 40 209 209 40 210 209 40 211 209 40 212 209 40 213 209 40 214 209 40 215 209 40 216 209 40 217 209 40 218 209 40 219 209 40 220 209 40 221 209 40 222 209 40 224 209 40 225 209 40 226 209 40 227 209 40 228 209 40 229 209 40 230 209 40 231 209 40 232 209 40 233 209 40 234 209 40 235 209 40 236 209 40 237 209 40 238 209 40 240 209 40 241 209 40 242 209 40 243 209 40 244 209 40 245 209 40 246 209 40 247 209 40 248 209 40 249 209 40 250 209 40 251 209 40 252 209 40 253 209 40 255 209
40 0 207 40 1 207 40 2 207 40 3 207 40 4 207 40 5 207 40 6 207 40 7 207 40 8 207 40 9 207 40 10 207 40 11 207 40 12 207 40 13 207 40 14 207 40 16 207 40 17 207 40 18 207 40 19 207 40 20 207 40 21 207 40 22 207 40 23 207 40 24 207 40 25 207 40 26 207 40 27 207 40 28 207 40 29 207 40 30 207 40 32 207 40 33 207 40 34 207 40 35 207 40 36 207 40 37 207 40 38 207 40 39 207 40 40 207 40 41 207 40 42 207 40 43 207 40 44 207 40 45 207 40 46 207 40 48 207 40 49 207 40 50 207 40 51 207 40 52 207 40 53 207 40 54 207 40 55 207 40 56 207 40 57 207 40 58 207 40 59 207 40 60 207 40 61 207 40 62 207 40 64 207 40 65 207 40 66 207 40 67 207 40 68 207 40 69 207 40 70 207 40 71 207 40 72 207 40 73 207 40 74 207 40 75 207 40 76 207 40 77 207 40 78 207 40 80 207 40 81 207 40 82 207 40 83 207 40 84 207 40 85 207 40 86 207 40 87 207 40 88 207 40 89 207 40 90 207 40 91 207 40 92 207 40 93 207 40 94 207 40 96 207 40 97 207 40 98 207 40 99 207 40 100 207 40 101 207 40 102 207 40 103 207 40 104 207 40 105 207 40 106 207 40 107 207 40 108 207 40 109 207 40 110 207 40 112 207 40 113 207 40 114 207 40 115 207 40 116 207 40 117 207 40 118 207 40 119 207 40 120 207 40 121 207 40 122 207 40 123 207 40 124 207 40 125 207 40 126 207 40 128 207 40 129 207 40 130 207 40 131 207 40 132 207 40 133 207 40 134 207 40 135 207 40 136 207 40 137 207 40 138 207 40 139 207 40 140 207 40 141 207 40 142 207 40 144 207 40 145 207 40 146 207 40 147 207 40 148 207 40 149 207 40 150 207 40 151 207 40 152 207 40 153 207 40 154 207 40 155 207 40 156 207 40 157 207 40 158 207 40 160 207 40 161 207 40 162 207 40 163 207 40 164 207 40 165 207 40 166 207 40 167 207 40 168 207 40 169 207 40 170 207 40 171 207 40 172 207 40 173 207 40 174 207 40 176 207 40 177 207 40 178 207 40 179 207 40 180 207 40 181 207 40 182 207 40 183 207 40 184 207 40 185 207 40 186 207 40 187 207 40 188 207 40 189 207 40 190 207 40 192 207 40 193 207 40 194 207 40 195 207 40 196 207 40 197 207 40 198 207 40 199 207 40 200 207 40 201 207 40 202 207 40 203 207 40 204 207 40 205 207 40 206 207 40 208 207 40 209 207 40 210 207 40 211 207 40 212 207 40 213 207 40 214 207 40 215 207 40 216 207 40 217 207 40 218 207 40 219 207 40 220 207 40 221 207 40 222 207 40 224 207 40 225 207 40 226 207 40 227 207 40 228 207 40 229 207 40 230 207 40 231 207 40 232 207 40 233 207 40 234 207 40 235 207 40 236 207 40 237 207 40 238 207 40 240 207 40 241 207 40 242 207 40 243 207 40 244 207 40 245 207 40 246 207 40 247 207 40 248 207 40 249 207 40 250 207 40 251 207 40 252 207 40 253 207 40 255 207
40 0 206 40 1 206 40 2 206 40 3 206 40 4 206 40 5 206 40 6 206 40 7 206 40 8 206 40 9 206 40 10 206 40 11 206 40 12 206 40 13 206 40 14 206 40 16 206 40 17 206 40 18 206 40 19 206 40 20 206 40 21 206 40 22 206 40 23 206 40 24 206 40 25 206 40 26 206 40 27 206 40 28 206 40 29 206 40 30 206 40 32 206 40 33 206 40 34 206 40 35 206 40 36 206 40 37 206 40 38 206 40 39 206 40 40 206 40 41 206 40 42 206 40 43 206 40 44 206 40 45 206 40 46 206 40 48 206 40 49 206 40 50 206 40 51 206 40 52 206 40 53 206 40 54 206 40 55 206 40 56 206 40 57 206 40 58 206 40 59 206 40 60 206 40 61 206 40 62 206 40 64 206 40 65 206 40 66 206 40 67 206 40 68 206 40 69 206 40 70 206 40 71 206 40 72 206 40 73 206 40 74 206 40 75 206 40 76 206 40 77 206 40 78 206 40 80 206 40 81 206 40 82 206 40 83 206 40 84 206 40 85 206 40 86 206 40 87 206 40 88 206 40 89 206 40 90 206 40 91 206 40 92 206 40 93 206 40 94 206 40 96 206 40 97 206 40 98 206 40 99 206 40 100 206 40 101 206 40 102 206 40 103 206 40 104 206 40 105 206 40 106 206 40 107 206 40 108 206 40 109 206 40 110 206 40 112 206 40 113 206 40 114 206 40 115 206 40 116 206 40 117 206 40 118 206 40 119 206 40 120 206 40 121 206 40 122 206 40 123 206 40 124 206 40 125 206 40 126 206 40 128 206 40 129 206 40 130 206 40 131 206 40 132 206 40 133 206 40 134 206 40 135 206 40 136 206 40 137 206 40 138 206 40 139 206 40 140 206 40 141 206 40 142 206 40 144 206 40 145 206 40 146 206 40 147 206 40 148 206 40 149 206 40 150 206 40 151 206 40 152 206 40 153 206 40 154 206 40 155 206 40 156 206 40 157 206 40 158 206 40 160 206 40 161 206 40 162 206 40 163 206 40 164 206 40 165 206 40 166 206 40 167 206 40 168 206 40 169 206 40 170 206 40 171 206 40 172 206 40 173 206 40 174 206 40 176 206 40 177 206 40 178 206 40 179 206 40 180 206 40 181 206 40 182 206 40 183 206 40 184 206 40 185 206 40 186 206 40 187 206 40 188 206 40 189 206 40 190 206 40 192 206 40 193 206 40 194 206 40 195 206 40 196 206 40 197 206 40 198 206 40 199 206 40 200 206 40 201 206 40 202 206 40 203 206 40 204 206 40 205 206 40 206 206 40 208 206 40 209 206 40 210 206 40 211 206 40 212 206 40 213 206 40 214 206 40 215 206 40 216 206 40 217 206 40 218 206 40 219 206 40 220 206 40 221 206 40 222 206 40 224 206 40 225 206 40 226 206 40 227 206 40 228 206 40 229 206 40 230 206 40 231 206 40 232 206 40 233 206 40 234 206 40 235 206 40 236 206 40 237 206 40 238 206 40 240 206 40 241 206 40 242 206 40 243 206 40 244 206 40 245 206 40 246 206 40 247 206 40 248 206 40 249 206 40 250 206 40 251 206 40 252 206 40 253 206 40 255 206
40 0 205 40 1 205 40 2 205 40 3 205 40 4 205 40 5 205 40 6 205 40 7 205 40 8 205 40 9 205 40 10 205 40 11 205 40 12 205 40 13 205 40 14 205 40 16 205 40 17 205 40 18 205 40 19 205 40 20 205 40 21 205 40 22 205 40 23 205 40 24 205 40 25 205 40 26 205 40 27 205 40 28 205 40 29 205 40 30 205 40 32 205 40 33 205 40 34 205 40 35 205 40 36 205 40 37 205 40 38 205 40 39 205 40 40 205 40 41 205 40 42 205 40 43 205 40 44 205 40 45 205 40 46 205 40 48 205 40 49 205 40 50 205 40 51 205 40 52 205 40 53 205 40 54 205 40 55 205 40 56 205 40 57 205 40 58 205 40 59 205 40 60 205 40 61 205 40 62 205 40 64 205 40 65 205 40 66 205 40 67 205 40 68 205 40 69 205 40 70 205 40 71 205 40 72 205 40 73 205 40 74 205 40 75 205 40 76 205 40 77 205 40 78 205 40 80 205 40 81 205 40 82 205 40 83 205 40 84 205 40 85 205 40 86 205 40 87 205 40 88 205 40 89 205 40 90 205 40 91 205 40 92 205 40 93 205 40 94 205 40 96 205 40 97 205 40 98 205 40 99 205 40 100 205 40 101 205 40 102 205 40 103 205 40 104 205 40 105 205 40 106 205 40 107 205 40 108 205 40 109 205 40 110 205 40 112 205 40 113 205 40 114 205 40 115 205 40 116 205 40 117 205 40 118 205 40 119 205 40 120 205 40 121 205 40 122 205 40 123 205 40 124 205 40 125 205 40 126 205 40 128 205 40 129 205 40 130 205 40 131 205 40 132 205 40 133 205 40 134 205 40 135 205 40 136 205 40 137 205 40 138 205 40 139 205 40 140 205 40 141 205 40 142 205 40 144 205 40 145 205 40 146 205 40 147 205 40 148 205 40 149 205 40 150 205 40 151 205 40 152 205 40 153 205 40 154 205 40 155 205 40 156 205 40 157 205 40 158 205 40 160 205 40 161 205 40 162 205 40 163 205 40 164 205 40 165 205 40 166 205 40 167 205 40 168 205 40 169 205 40 170 205 40 171 205 40 172 205 40 173 205 40 174 205 40 176 205 40 177 205 40 178 205 40 179 205 40 180 205 40 181 205 40 182 205 40 183 205 40 184 205 40 185 205 40 186 205 40 187 205 40 188 205 40 189 205 40 190 205 40 192 205 40 193 205 40 194 205 40 195 205 40 196 205 40 197 205 40 198 205 40 199 205 40 200 205 40 201 205 40 202 205 40 203 205 40 204 205 40 205 205 40 206 205 40 208 205 40 209 205 40 210 205 40 211 205 40 212 205 40 213 205 40 214 205 40 215 205 40 216 205 40 217 205 40 218 205 40 219 205 40 220 205 40 221 205 40 222 205 40 224 205 40 225 205 40 226 205 40 227 205 40 228 205 40 229 205 40 230 205 40 231 205 40 232 205 40 233 205 40 234 205 40 235 205 40 236 205 40 237 205 40 238 205 40 240 205 40 241 205 40 242 205 40 243 205 40 244 205 40 245 205 40 246 205 40 247 205 40 248 205 40 249 205 40 250 205 40 251 205 40 252 205 40 253 205 40 255 205
40 0 203 40 1 203 40 2 203 40 3 203 40 4 203 40 5 203 40 6 203 40 7 203 40 8 203 40 9 203 40 10 203 40 11 203 40 12 203 40 13 203 40 14 203 40 16 203 40 17 203 40 18 203 40 19 203 40 20 203 40 21 203 40 22 203 40 23 203 40 24 203 40 25 203 40 26 203 40 27 203 40 28 203 40 29 203 40 30 203 40 32 203 40 33 203 40 34 203 40 35 203 40 36 203 40 37 203 40 38 203 40 39 203 40 40 203 40 41 203 40 42 203 40 43 203 40 44 203 40 45 203 40 46 203 40 48 203 40 49 203 40 50 203 40 51 203 40 52 203 40 53 203 40 54 203 40 55 203 40 56 203 40 57 203 40 58 203 40 59 203 40 60 203 40 61 203 40 62 203 40 64 203 40 65 203 40 66 203 40 67 203 40 68 203 40 69 203 40 70 203 40 71 203 40 72 203 40 73 203 40 74 203 40 75 203 40 76 203 40 77 203 40 78 203 40 80 203 40 81 203 40 82 203 40 83 203 40 84 203 40 85 203 40 86 203 40 87 203 40 88 203 40 89 203 40 90 203 40 91 203 40 92 203 40 93 203 40 94 203 40 96 203 40 97 203 40 98 203 40 99 203 40 100 203 40 101 203 40 102 203 40 103 203 40 104 203 40 105 203 40 106 203 40 107 203 40 108 203 40 109 203 40 110 203 40 112 203 40 113 203 40 114 203 40 115 203 40 116 203 40 117 203 40 118 203 40 119 203 40 120 203 40 121 203 40 122 203 40 123 203 40 124 203 40 125 203 40 126 203 40 128 203 40 129 203 40 130 203 40 131 203 40 132 203 40 133 203 40 134 203 40 135 203 40 136 203 40 137 203 40 138 203 40 139 203 40 140 203 40 141 203 40 142 203 40 144 203 40 145 203 40 146 203 40 147 203 40 148 203 40 149 203 40 150 203 40 151 203 40 152 203 40 153 203 40 154 203 40 155 203 40 156 203 40 157 203 40 158 203 40 160 203 40 161 203 40 162 203 40 163 203 40 164 203 40 165 203 40 166 203 40 167 203 40 168 203 40 169 203 40 170 203 40 171 203 40 172 203 40 173 203 40 174 203 40 176 203 40 177 203 40 178 203 40 179 203 40 180 203 40 181 203 40 182 203 40 183 203 40 184 203 40 185 203 40 186 203 40 187 203 40 188 203 40 189 203 40 190 203 40 192 203 40 193 203 40 194 203 40 195 203 40 196 203 40 197 203 40 198 203 40 199 203 40 200 203 40 201 203 40 202 203 40 203 203 40 204 203 40 205 203 40 206 203 40 208 203 40 209 203 40 210 203 40 211 203 40 212 203 40 213 203 40 214 203 40 215 203 40 216 203 40 217 203 40 218 203 40 219 203 40 220 203 40 221 203 40 222 203 40 224 203 40 225 203 40 226 203 40 227 203 40 228 203 40 229 203 40 230 203 40 231 203 40 232 203 40 233 203 40 234 203 40 235 203 40 236 203 40 237 203 40 238 203 40 240 203 40 241 203 40 242 203 40 243 203 40 244 203 40 245 203 40 246 203 40 247 203 40 248 203 40 249 203 40 250 203 40 251 203 40 252 203 40 253 203 40 255 203
40 0 202 40 1 202 40 2 202 40 3 202 40 4 202 40 5 202 40 6 202 40 7 202 40 8 202 40 9 202 40 10 202 40 11 202 40 12 202 40 13 202 40 14 202 40 16 202 40 17 202 40 18 202 40 19 202 40 20 202 40 21 202 40 22 202 40 23 202 40 24 202 40 25 202 40 26 202 40 27 202 40 28 202 40 29 202 40 30 202 40 32 202 40 33 202 40 34 202 40 35 202 40 36 202 40 37 202 40 38 202 40 39 202 40 40 202 40 41 202 40 42 202 40 43 202 40 44 202 40 45 202 40 46 202 40 48 202 40 49 202 40 50 202 40 51 202 40 52 202 40 53 202 40 54 202 40 55 202 40 56 202 40 57 202 40 58 202 40 59 202 40 60 202 40 61 202 40 62 202 40 64 202 40 65 202 40 66 202 40 67 202 40 68 202 40 69 202 40 70 202 40 71 202 40 72 202 40 73 202 40 74 202 40 75 202 40 76 202 40 77 202 40 78 202 40 80 202 40 81 202 40 82 202 40 83 202 40 84 202 40 85 202 40 86 202 40 87 202 40 88 202 40 89 202 40 90 202 40 91 202 40 92 202 40 93 202 40 94 202 40 96 202 40 97 202 40 98 202 40 99 202 40 100 202 40 101 202 40 102 202 40 103 202 40 104 202 40 105 202 40 106 202 40 107 202 40 108 202 40 109 202 40 110 202 40 112 202 40 113 202 40 114 202 40 115 202 40 116 202 40 117 202 40 118 202 40 119 202 40 120 202 40 121 202 40 122 202 40 123 202 40 124 202 40 125 202 40 126 202 40 128 202 40 129 202 40 130 202 40 131 202 40 132 202 40 133 202 40 134 202 40 135 202 40 136 202 40 137 202 40 138 202 40 139 202 40 140 202 40 141 202 40 142 202 40 144 202 40 145 202 40 146 202 40 147 202 40 148 202 40 149 202 40 150 202 40 151 202 40 152 202 40 153 202 40 154 202 40 155 202 40 156 202 40 157 202 40 158 202 40 160 202 40 161 202 40 162 202 40 163 202 40 164 202 40 165 202 40 166 202 40 167 202 40 168 202 40 169 202 40 170 202 40 171 202 40 172 202 40 173 202 40 174 202 40 176 202 40 177 202 40 178 202 40 179 202 40 180 202 40 181 202 40 182 202 40 183 202 40 184 202 40 185 202 40 186 202 40 187 202 40 188 202 40 189 202 40 190 202 40 192 202 40 193 202 40 194 202 40 195 202 40 196 202 40 197 202 40 198 202 40 199 202 40 200 202 40 201 202 40 202 202 40 203 202 40 204 202 40 205 202 40 206 202 40 208 202 40 209 202 40 210 202 40 211 202 40 212 202 40 213 202 40 214 202 40 215 202 40 216 202 40 217 202 40 218 202 40 219 202 40 220 202 40 221 202 40 222 202 40 224 202 40 225 202 40 226 202 40 227 202 40 228 202 40 229 202 40 230 202 40 231 202 40 232 202 40 233 202 40 234 202 40 235 202 40 236 202 40 237 202 40 238 202 40 240 202 40 241 202 40 242 202 40 243 202 40 244 202 40 245 202 40 246 202 40 247 202 40 248 202 40 249 202 40 250 202 40 251 202 40 252 202 40 253 202 40 255 202
40 0 200 40 1 200 40 2 200 40 3 200 40 4 200 40 5 200 40 6 200 40 7 200 40 8 200 40 9 200 40 10 200 40 11 200 40 12 200 40 13 200 40 14 200 40 16 200 40 17 200 40 18 200 40 19 200 40 20 200 40 21 200 40 22 200 40 23 200 40 24 200 40 25 200 40 26 200 40 27 200 40 28 200 40 29 200 40 30 200 40 32 200 40 33 200 40 34 200 40 35 200 40 36 200 40 37 200 40 38 200 40 39 200 40 40 200 40 41 200 40 42 200 40 43 200 40 44 200 40 45 200 40 46 200 40 48 200 40 49 200 40 50 200 40 51 200 40 52 200 40 53 200 40 54 200 40 55 200 40 56 200 40 57 200 40 58 200 40 59 200 40 60 200 40 61 200 40 62 200 40 64 200 40 65 200 40 66 200 40 67 200 40 68 200 40 69 200 40 70 200 40 71 200 40 72 200 40 73 200 40 74 200 40 75 200 40 76 200 40 77 200 40 78 200 40 80 200 40 81 200 40 82 200 40 83 200 40 84 200 40 85 200 40 86 200 40 87 200 40 88 200 40 89 200 40 90 200 40 91 200 40 92 200 40 93 200 40 94 200 40 96 200 40 97 200 40 98 200 40 99 200 40 100 200 40 101 200 40 102 200 40 103 200 40 104 200 40 105 200 40 106 200 40 107 200 40 108 200 40 109 200 40 110 200 40 112 200 40 113 200 40 114 200 40 115 200 40 116 200 40 117 200 40 118 200 40 119 200 40 120 200 40 121 200 40 122 200 40 123 200 40 124 200 40 125 200 40 126 200 40 128 200 40 129 200 40 130 200 40 131 200 40 132 200 40 133 200 40 134 200 40 135 200 40 136 200 40 137 200 40 138 200 40 139 200 40 140 200 40 141 200 40 142 200 40 144 200 40 145 200 40 146 200 40 147 200 40 148 200 40 149 200 40 150 200 40 151 200 40 152 200 40 153 200 40 154 200 40 155 200 40 156 200 40 157 200 40 158 200 40 160 200 40 161 200 40 162 200 40 163 200 40 164 200 40 165 200 40 166 200 40 167 200 40 168 200 40 169 200 40 170 200 40 171 200 40 172 200 40 173 200 40 174 200 40 176 200 40 177 200 40 178 200 40 179 200 40 180 200 40 181 200 40 182 200 40 183 200 40 184 200 40 185 200 40 186 200 40 187 200 40 188 200 40 189 200 40 190 200 40 192 200 40 193 200 40 194 200 40 195 200 40 196 200 40 197 200 40 198 200 40 199 200 40 200 200 40 201 200 40 202 200 40 203 200 40 204 200 40 205 200 40 206 200 40 208 200 40 209 200 40 210 200 40 211 200 40 212 200 40 213 200 40 214 200 40 215 200 40 216 200 40 217 200 40 218 200 40 219 200 40 220 200 40 221 200 40 222 200 40 224 200 40 225 200 40 226 200 40 227 200 40 228 200 40 229 200 40 230 200 40 231 200 40 232 200 40 233 200 40 234 200 40 235 200 40 236 200 40 237 200 40 238 200 40 240 200 40 241 200 40 242 200 40 243 200 40 244 200 40 245 200 40 246 200 40 247 200 40 248 200 40 249 200 40 250 200 40 251 200 40 252 200 40 253 200 40 255 200
40 0 199 40 1 199 40 2 199 40 3 199 40 4 199 40 5 199 40 6 199 40 7 199 40 8 199 40 9 199 40 10 199 40 11 199 40 12 199 40 13 199 40 14 199 40 16 199 40 17 199 40 18 199 40 19 199 40 20 199 40 21 199 40 22 199 40 23 199 40 24 199 40 25 199 40 26 199 40 27 199 40 28 199 40 29 199 40 30 199 40 32 199 40 33 199 40 34 199 40 35 199 40 36 199 40 37 199 40 38 199 40 39 199 40 40 199 40 41 199 40 42 199 40 43 199 40 44 199 40 45 199 40 46 199 40 48 199 40 49 199 40 50 199 40 51 199 40 52 199 40 53 199 40 54 199 40 55 199 40 56 199 40 57 199 40 58 199 40 59 199 40 60 199 40 61 199 40 62 199 40 64 199 40 65 199 40 66 199 40 67 199 40 68 199 40 69 199 40 70 199 40 71 199 40 72 199 40 73 199 40 74 199 40 75 199 40 76 199 40 77 199 40 78 199 40 80 199 40 81 199 40 82 199 40 83 199 40 84 199 40 85 199 40 86 199 40 87 199 40 88 199 40 89 199 40 90 199 40 91 199 40 92 199 40 93 199 40 94 199 40 96 199 40 97 199 40 98 199 40 99 199 40 100 199 40 101 199 40 102 199 40 103 199 40 104 199 40 105 199 40 106 199 40 107 199 40 108 199 40 109 199 40 110 199 40 112 199 40 113 199 40 114 199 40 115 199 40 116 199 40 117 199 40 118 199 40 119 199 40 120 199 40 121 199 40 122 199 40 123 199 40 124 199 40 125 199 40 126 199 40 128 199 40 129 199 40 130 199 40 131 199 40 132 199 40 133 199 40 134 199 40 135 199 40 136 199 40 137 199 40 138 199 40 139 199 40 140 199 40 141 199 40 142 199 40 144 199 40 145 199 40 146 199 40 147 199 40 148 199 40 149 199 40 150 199 40 151 199 40 152 199 40 153 199 40 154 199 40 155 199 40 156 199 40 157 199 40 158 199 40 160 199 40 161 199 40 162 199 40 163 199 40 164 199 40 165 199 40 166 199 40 167 199 40 168 199 40 169 199 40 170 199 40 171 199 40 172 199 40 173 199 40 174 199 40 176 199 40 177 199 40 178 199 40 179 199 40 180 199 40 181 199 40 182 199 40 183 199 40 184 199 40 185 199 40 186 199 40 187 199 40 188 199 40 189 199 40 190 199 40 192 199 40 193 199 40 194 199 40 195 199 40 196 199 40 197 199 40 198 199 40 199 199 40 200 199 40 201 199 40 202 199 40 203 199 40 204 199 40 205 199 40 206 199 40 208 199 40 209 199 40 210 199 40 211 199 40 212 199 40 213 199 40 214 199 40 215 199 40 216 199 40 217 199 40 218 199 40 219 199 40 220 199 40 221 199 40 222 199 40 224 199 40 225 199 40 226 199 40 227 199 40 228 199 40 229 199 40 230 199 40 231 199 40 232 199 40 233 199 40 234 199 40 235 199 40 236 199 40 237 199 40 238 199 40 240 199 40 241 199 40 242 199 40 243 199 40 244 199 40 245 199 40 246 199 40 247 199 40 248 199 40 249 199 40 250 199 40 251 199 40 252 199 40 253 199 40 255 199
40 0 198 40 1 198 40 2 198 40 3 198 40 4 198 40 5 198 40 6 198 40 7 198 40 8 198 40 9 198 40 10 198 40 11 198 40 12 198 40 13 198 40 14 198 40 16 198 40 17 198 40 18 198 40 19 198 40 20 198 40 21 198 40 22 198 40 23 198 40 24 198 40 25 198 40 26 198 40 27 198 40 28 198 40 29 198 40 30 198 40 32 198 40 33 198 40 34 198 40 35 198 40 36 198 40 37 198 40 38 198 40 39 198 40 40 198 40 41 198 40 42 198 40 43 198 40 44 198 40 45 198 40 46 198 40 48 198 40 49 198 40 50 198 40 51 198 40 52 198 40 53 198 40 54 198 40 55 198 40 56 198 40 57 198 40 58 198 40 59 198 40 60 198 40 61 198 40 62 198 40 64 198 40 65 198 40 66 198 40 67 198 40 68 198 40 69 198 40 70 198 40 71 198 40 72 198 40 73 198 40 74 198 40 75 198 40 76 198 40 77 198 40 78 198 40 80 198 40 81 198 40 82 198 40 83 198 40 84 198 40 85 198 40 86 198 40 87 198 40 88 198 40 89 198 40 90 198 40 91 198 40 92 198 40 93 198 40 94 198 40 96 198 40 97 198 40 98 198 40 99 198 40 100 198 40 101 198 40 102 198 40 103 198 40 104 198 40 105 198 40 106 198 40 107 198 40 108 198 40 109 198 40 110 198 40 112 198 40 113 198 40 114 198 40 115 198 40 116 198 40 117 198 40 118 198 40 119 198 40 120 198 40 121 198 40 122 198 40 123 198 40 124 198 40 125 198 40 126 198 40 128 198 40 129 198 40 130 198 40 131 198 40 132 198 40 133 198 40 134 198 40 135 198 40 136 198 40 137 198 40 138 198 40 139 198 40 140 198 40 141 198 40 142 198 40 144 198 40 145 198 40 146 198 40 147 198 40 148 198 40 149 198 40 150 198 40 151 198 40 152 198 40 153 198 40 154 198 40 155 198 40 156 198 40 157 198 40 158 198 40 160 198 40 161 198 40 162 198 40 163 198 40 164 198 40 165 198 40 166 198 40 167 198 40 168 198 40 169 198 40 170 198 40 171 198 40 172 198 40 173 198 40 174 198 40 176 198 40 177 198 40 178 198 40 179 198 40 180 198 40 181 198 40 182 198 40 183 198 40 184 198 40 185 198 40 186 198 40 187 198 40 188 198 40 189 198 40 190 198 40 192 198 40 193 198 40 194 198 40 195 198 40 196 198 40 197 198 40 198 198 40 199 198 40 200 198 40 201 198 40 202 198 40 203 198 40 204 198 40 205 198 40 206 198 40 208 198 40 209 198 40 210 198 40 211 198 40 212 198 40 213 198 40 214 198 40 215 198 40 216 198 40 217 198 40 218 198 40 219 198 40 220 198 40 221 198 40 222 198 40 224 198 40 225 198 40 226 198 40 227 198 40 228 198 40 229 198 40 230 198 40 231 198 40 232 198 40 233 198 40 234 198 40 235 198 40 236 198 40 237 198 40 238 198 40 240 198 40 241 198 40 242 198 40 243 198 40 244 198 40 245 198 40 246 198 40 247 198 40 248 198 40 249 198 40 250 198 40 251 198 40 252 198 40 253 198 40 255 198
40 0 196 40 1 196 40 2 196 40 3 196 40 4 196 40 5 196 40 6 196 40 7 196 40 8 196 40 9 196 40 10 196 40 11 196 40 12 196 40 13 196 40 14 196 40 16 196 40 17 196 40 18 196 40 19 196 40 20 196 40 21 196 40 22 196 40 23 196 40 24 196 40 25 196 40 26 196 40 27 196 40 28 196 40 29 196 40 30 196 40 32 196 40 33 196 40 34 196 40 35 196 40 36 196 40 37 196 40 38 196 40 39 196 40 40 196 40 41 196 40 42 196 40 43 196 40 44 196 40 45 196 40 46 196 40 48 196 40 49 196 40 50 196 40 51 196 40 52 196 40 53 196 40 54 196 40 55 196 40 56 196 40 57 196 40 58 196 40 59 196 40 60 196 40 61 196 40 62 196 40 64 196 40 65 196 40 66 196 40 67 196 40 68 196 40 69 196 40 70 196 40 71 196 40 72 196 40 73 196 40 74 196 40 75 196 40 76 196 40 77 196 40 78 196 40 80 196 40 81 196 40 82 196 40 83 196 40 84 196 40 85 196 40 86 196 40 87 196 40 88 196 40 89 196 40 90 196 40 91 196 40 92 196 40 93 196 40 94 196 40 96 196 40 97 196 40 98 196 40 99 196 40 100 196 40 101 196 40 102 196 40 103 196 40 104 196 40 105 196 40 106 196 40 107 196 40 108 196 40 109 196 40 110 196 40 112 196 40 113 196 40 114 196 40 115 196 40 116 196 40 117 196 40 118 196 40 119 196 40 120 196 40 121 196 40 122 196 40 123 196 40 124 196 40 125 196 40 126 196 40 128 196 40 129 196 40 130 196 40 131 196 40 132 196 40 133 196 40 134 196 40 135 196 40 136 196 40 137 196 40 138 196 40 139 196 40 140 196 40 141 196 40 142 196 40 144 196 40 145 196 40 146 196 40 147 196 40 148 196 40 149 196 40 150 196 40 151 196 40 152 196 40 153 196 40 154 196 40 155 196 40 156 196 40 157 196 40 158 196 40 160 196 40 161 196 40 162 196 40 163 196 40 164 196 40 165 196 40 166 196 40 167 196 40 168 196 40 169 196 40 170 196 40 171 196 40 172 196 40 173 196 40 174 196 40 176 196 40 177 196 40 178 196 40 179 196 40 180 196 40 181 196 40 182 196 40 183 196 40 184 196 40 185 196 40 186 196 40 187 196 40 188 196 40 189 196 40 190 196 40 192 196 40 193 196 40 194 196 40 195 196 40 196 196 40 197 196 40 198 196 40 199 196 40 200 196 40 201 196 40 202 196 40 203 196 40 204 196 40 205 196 40 206 196 40 208 196 40 209 196 40 210 196 40 211 196 40 212 196 40 213 196 40 214 196 40 215 196 40 216 196 40 217 196 40 218 196 40 219 196 40 220 196 40 221 196 40 222 196 40 224 196 40 225 196 40 226 196 40 227 196 40 228 196 40 229 196 40 230 196 40 231 196 40 232 196 40 233 196 40 234 196 40 235 196 40 236 196 40 237 196 40 238 196 40 240 196 40 241 196 40 242 196 40 243 196 40 244 196 40 245 196 40 246 196 40 247 196 40 248 196 40 249 196 40 250 196 40 251 196 40 252 196 40 253 196 40 255 196
40 0 195 40 1 195 40 2 195 40 3 195 40 4 195 40 5 195 40 6 195 40 7 195 40 8 195 40 9 195 40 10 195 40 11 195 40 12 195 40 13 195 40 14 195 40 16 195 40 17 195 40 18 195 40 19 195 40 20 195 40 21 195 40 22 195 40 23 195 40 24 195 40 25 195 40 26 195 40 27 195 40 28 195 40 29 195 40 30 195 40 32 195 40 33 195 40 34 195 40 35 195 40 36 195 40 37 195 40 38 195 40 39 195 40 40 195 40 41 195 40 42 195 40 43 195 40 44 195 40 45 195 40 46 195 40 48 195 40 49 195 40 50 195 40 51 195 40 52 195 40 53 195 40 54 195 40 55 195 40 56 195 40 57 195 40 58 195 40 59 195 40 60 195 40 61 195 40 62 195 40 64 195 40 65 195 40 66 195 40 67 195 40 68 195 40 69 195 40 70 195 40 71 195 40 72 195 40 73 195 40 74 195 40 75 195 40 76 195 40 77 195 40 78 195 40 80 195 40 81 195 40 82 195 40 83 195 40 84 195 40 85 195 40 86 195 40 87 195 40 88 195 40 89 195 40 90 195 40 91 195 40 92 195 40 93 195 40 94 195 40 96 195 40 97 195 40 98 195 40 99 195 40 100 195 40 101 195 40 102 195 40 103 195 40 104 195 40 105 195 40 106 195 40 107 195 40 108 195 40 109 195 40 110 195 40 112 195 40 113 195 40 114 195 40 115 195 40 116 195 40 117 195 40 118 195 40 119 195 40 120 195 40 121 195 40 122 195 40 123 195 40 124 195 40 125 195 40 126 195 40 128 195 40 129 195 40 130 195 40 131 195 40 132 195 40 133 195 40 134 195 40 135 195 40 136 195 40 137 195 40 138 195 40 139 195 40 140 195 40 141 195 40 142 195 40 144 195 40 145 195 40 146 195 40 147 195 40 148 195 40 149 195 40 150 195 40 151 195 40 152 195 40 153 195 40 154 195 40 155 195 40 156 195 40 157 195 40 158 195 40 160 195 40 161 195 40 162 195 40 163 195 40 164 195 40 165 195 40 166 195 40 167 195 40 168 195 40 169 195 40 170 195 40 171 195 40 172 195 40 173 195 40 174 195 40 176 195 40 177 195 40 178 195 40 179 195 40 180 195 40 181 195 40 182 195 40 183 195 40 184 195 40 185 195 40 186 195 40 187 195 40 188 195 40 189 195 40 190 195 40 192 195 40 193 195 40 194 195 40 195 195 40 196 195 40 197 195 40 198 195 40 199 195 40 200 195 40 201 195 40 202 195 40 203 195 40 204 195 40 205 195 40 206 195 40 208 195 40 209 195 40 210 195 40 211 195 40 212 195 40 213 195 40 214 195 40 215 195 40 216 195 40 217 195 40 218 195 40 219 195 40 220 195 40 221 195 40 222 195 40 224 195 40 225 195 40 226 195 40 227 195 40 228 195 40 229 195 40 230 195 40 231 195 40 232 195 40 233 195 40 234 195 40 235 195 40 236 195 40 237 195 40 238 195 40 240 195 40 241 195 40 242 195 40 243 195 40 244 195 40 245 195 40 246 195 40 247 195 40 248 195 40 249 195 40 250 195 40 251 195 40 252 195 40 253 195 40 255 195
40 0 193 40 1 193 40 2 193 40 3 193 40 4 193 40 5 193 40 6 193 40 7 193 40 8 193 40 9 193 40 10 193 40 11 193 40 12 193 40 13 193 40 14 193 40 16 193 40 17 193 40 18 193 40 19 193 40 20 193 40 21 193 40 22 193 40 23 193 40 24 193 40 25 193 40 26 193 40 27 193 40 28 193 40 29 193 40 30 193 40 32 193 40 33 193 40 34 193 40 35 193 40 36 193 40 37 193 40 38 193 40 39 193 40 40 193 40 41 193 40 42 193 40 43 193 40 44 193 40 45 193 40 46 193 40 48 193 40 49 193 40 50 193 40 51 193 40 52 193 40 53 193 40 54 193 40 55 193 40 56 193 40 57 193 40 58 193 40 59 193 40 60 193 40 61 193 40 62 193 40 64 193 40 65 193 40 66 193 40 67 193 40 68 193 40 69 193 40 70 193 40 71 193 40 72 193 40 73 193 40 74 193 40 75 193 40 76 193 40 77 193 40 78 193 40 80 193 40 81 193 40 82 193 40 83 193 40 84 193 40 85 193 40 86 193 40 87 193 40 88 193 40 89 193 40 90 193 40 91 193 40 92 193 40 93 193 40 94 193 40 96 193 40 97 193 40 98 193 40 99 193 40 100 193 40 101 193 40 102 193 40 103 193 40 104 193 40 105 193 40 106 193 40 107 193 40 108 193 40 109 193 40 110 193 40 112 193 40 113 193 40 114 193 40 115 193 40 116 193 40 117 193 40 118 193 40 119 193 40 120 193 40 121 193 40 122 193 40 123 193 40 124 193 40 125 193 40 126 193 40 128 193 40 129 193 40 130 193 40 131 193 40 132 193 40 133 193 40 134 193 40 135 193 40 136 193 40 137 193 40 138 193 40 139 193 40 140 193 40 141 193 40 142 193 40 144 193 40 145 193 40 146 193 40 147 193 40 148 193 40 149 193 40 150 193 40 151 193 40 152 193 40 153 193 40 154 193 40 155 193 40 156 193 40 157 193 40 158 193 40 160 193 40 161 193 40 162 193 40 163 193 40 164 193 40 165 193 40 166 193 40 167 193 40 168 193 40 169 193 40 170 193 40 171 193 40 172 193 40 173 193 40 174 193 40 176 193 40 177 193 40 178 193 40 179 193 40 180 193 40 181 193 40 182 193 40 183 193 40 184 193 40 185 193 40 186 193 40 187 193 40 188 193 40 189 193 40 190 193 40 192 193 40 193 193 40 194 193 40 195 193 40 196 193 40 197 193 40 198 193 40 199 193 40 200 193 40 201 193 40 202 193 40 203 193 40 204 193 40 205 193 40 206 193 40 208 193 40 209 193 40 210 193 40 211 193 40 212 193 40 213 193 40 214 193 40 215 193 40 216 193 40 217 193 40 218 193 40 219 193 40 220 193 40 221 193 40 222 193 40 224 193 40 225 193 40 226 193 40 227 193 40 228 193 40 229 193 40 230 193 40 231 193 40 232 193 40 233 193 40 234 193 40 235 193 40 236 193 40 237 193 40 238 193 40 240 193 40 241 193 40 242 193 40 243 193 40 244 193 40 245 193 40 246 193 40 247 193 40 248 193 40 249 193 40 250 193 40 251 193 40 252 193 40 253 193 40 255 193
40 0 192 40 1 192 40 2 192 40 3 192 40 4 192 40 5 192 40 6 192 40 7 192 40 8 192 40 9 192 40 10 192 40 11 192 40 12 192 40 13 192 40 14 192 40 16 192 40 17 192 40 18 192 40 19 192 40 20 192 40 21 192 40 22 192 40 23 192 40 24 192 40 25 192 40 26 192 40 27 192 40 28 192 40 29 192 40 30 192 40 32 192 40 33 192 40 34 192 40 35 192 40 36 192 40 37 192 40 38 192 40 39 192 40 40 192 40 41 192 40 42 192 40 43 192 40 44 192 40 45 192 40 46 192 40 48 192 40 49 192 40 50 192 40 51 192 40 52 192 40 53 192 40 54 192 40 55 192 40 56 192 40 57 192 40 58 192 40 59 192 40 60 192 40 61 192 40 62 192 40 64 192 40 65 192 40 66 192 40 67 192 40 68 192 40 69 192 40 70 192 40 71 192 40 72 192 40 73 192 40 74 192 40 75 192 40 76 192 40 77 192 40 78 192 40 80 192 40 81 192 40 82 192 40 83 192 40 84 192 40 85 192 40 86 192 40 87 192 40 88 192 40 89 192 40 90 192 40 91 192 40 92 192 40 93 192 40 94 192 40 96 192 40 97 192 40 98 192 40 99 192 40 100 192 40 101 192 40 102 192 40 103 192 40 104 192 40 105 192 40 106 192 40 107 192 40 108 192 40 109 192 40 110 192 40 112 192 40 113 192 40 114 192 40 115 192 40 116 192 40 117 192 40 118 192 40 119 192 40 120 192 40 121 192 40 122 192 40 123 192 40 124 192 40 125 192 40 126 192 40 128 192 40 129 192 40 130 192 40 131 192 40 132 192 40 133 192 40 134 192 40 135 192 40 136 192 40 137 192 40 138 192 40 139 192 40 140 192 40 141 192 40 142 192 40 144 192 40 145 192 40 146 192 40 147 192 40 148 192 40 149 192 40 150 192 40 151 192 40 152 192 40 153 192 40 154 192 40 155 192 40 156 192 40 157 192 40 158 192 40 160 192 40 161 192 40 162 192 40 163 192 40 164 192 40 165 192 40 166 192 40 167 192 40 168 192 40 169 192 40 170 192 40 171 192 40 172 192 40 173 192 40 174 192 40 176 192 40 177 192 40 178 192 40 179 192 40 180 192 40 181 192 40 182 192 40 183 192 40 184 192 40 185 192 40 186 192 40 187 192 40 188 192 40 189 192 40 190 192 40 192 192 40 193 192 40 194 192 40 195 192 40 196 192 40 197 192 40 198 192 40 199 192 40 200 192 40 201 192 40 202 192 40 203 192 40 204 192 40 205 192 40 206 192 40 208 192 40 209 192 40 210 192 40 211 192 40 212 192 40 213 192 40 214 192 40 215 192 40 216 192 40 217 192 40 218 192 40 219 192 40 220 192 40 221 192 40 222 192 40 224 192 40 225 192 40 226 192 40 227 192 40 228 192 40 229 192 40 230 192 40 231 192 40 232 192 40 233 192 40 234 192 40 235 192 40 236 192 40 237 192 40 238 192 40 240 192 40 241 192 40 242 192 40 243 192 40 244 192 40 245 192 40 246 192 40 247 192 40 248 192 40 249 192 40 250 192 40 251 192 40 252 192 40 253 192 40 255 192
40 0 190 40 1 190 40 2 190 40 3 190 40 4 190 40 5 190 40 6 190 40 7 190 40 8 190 40 9 190 40 10 190 40 11 190 40 12 190 40 13 190 40 14 190 40 16 190 40 17 190 40 18 190 40 19 190 40 20 190 40 21 190 40 22 190 40 23 190 40 24 190 40 25 190 40 26 190 40 27 190 40 28 190 40 29 190 40 30 190 40 32 190 40 33 190 40 34 190 40 35 190 40 36 190 40 37 190 40 38 190 40 39 190 40 40 190 40 41 190 40 42 190 40 43 190 40 44 190 40 45 190 40 46 190 40 48 190 40 49 190 40 50 190 40 51 190 40 52 190 40 53 190 40 54 190 40 55 190 40 56 190 40 57 190 40 58 190 40 59 190 40 60 190 40 61 190 40 62 190 40 64 190 40 65 190 40 66 190 40 67 190 40 68 190 40 69 190 40 70 190 40 71 190 40 72 190 40 73 190 40 74 190 40 75 190 40 76 190 40 77 190 40 78 190 40 80 190 40 81 190 40 82 190 40 83 190 40 84 190 40 85 190 40 86 190 40 87 190 40 88 190 40 89 190 40 90 190 40 91 190 40 92 190 40 93 190 40 94 190 40 96 190 40 97 190 40 98 190 40 99 190 40 100 190 40 101 190 40 102 190 40 103 190 40 104 190 40 105 190 40 106 190 40 107 190 40 108 190 40 109 190 40 110 190 40 112 190 40 113 190 40 114 190 40 115 190 40 116 190 40 117 190 40 118 190 40 119 190 40 120 190 40 121 190 40 122 190 40 123 190 40 124 190 40 125 190 40 126 190 40 128 190 40 129 190 40 130 190 40 131 190 40 132 190 40 133 190 40 134 190 40 135 190 40 136 190 40 137 190 40 138 190 40 139 190 40 140 190 40 141 190 40 142 190 40 144 190 40 145 190 40 146 190 40 147 190 40 148 190 40 149 190 40 150 190 40 151 190 40 152 190 40 153 190 40 154 190 40 155 190 40 156 190 40 157 190 40 158 190 40 160 190 40 161 190 40 162 190 40 163 190 40 164 190 40 165 190 40 166 190 40 167 190 40 168 190 40 169 190 40 170 190 40 171 190 40 172 190 40 173 190 40 174 190 40 176 190 40 177 190 40 178 190 40 179 190 40 180 190 40 181 190 40 182 190 40 183 190 40 184 190 40 185 190 40 186 190 40 187 190 40 188 190 40 189 190 40 190 190 40 192 190 40 193 190 40 194 190 40 195 190 40 196 190 40 197 190 40 198 190 40 199 190 40 200 190 40 201 190 40 202 190 40 203 190 40 204 190 40 205 190 40 206 190 40 208 190 40 209 190 40 210 190 40 211 190 40 212 190 40 213 190 40 214 190 40 215 190 40 216 190 40 217 190 40 218 190 40 219 190 40 220 190 40 221 190 40 222 190 40 224 190 40 225 190 40 226 190 40 227 190 40 228 190 40 229 190 40 230 190 40 231 190 40 232 190 40 233 190 40 234 190 40 235 190 40 236 190 40 237 190 40 238 190 40 240 190 40 241 190 40 242 190 40 243 190 40 244 190 40 245 190 40 246 190 40 247 190 40 248 190 40 249 190 40 250 190 40 251 190 40 252 190 40 253 190 40 255 190
40 0 189 40 1 189 40 2 189 40 3 189 40 4 189 40 5 189 40 6 189 40 7 189 40 8 189 40 9 189 40 10 189 40 11 189 40 12 189 40 13 189 40 14 189 40 16 189 40 17 189 40 18 189 40 19 189 40 20 189 40 21 189 40 22 189 40 23 189 40 24 189 40 25 189 40 26 189 40 27 189 40 28 189 40 29 189 40 30 189 40 32 189 40 33 189 40 34 189 40 35 189 40 36 189 40 37 189 40 38 189 40 39 189 40 40 189 40 41 189 40 42 189 40 43 189 40 44 189 40 45 189 40 46 189 40 48 189 40 49 189 40 50 189 40 51 189 40 52 189 40 53 189 40 54 189 40 55 189 40 56 189 40 57 189 40 58 189 40 59 189 40 60 189 40 61 189 40 62 189 40 64 189 40 65 189 40 66 189 40 67 189 40 68 189 40 69 189 40 70 189 40 71 189 40 72 189 40 73 189 40 74 189 40 75 189 40 76 189 40 77 189 40 78 189 40 80 189 40 81 189 40 82 189 40 83 189 40 84 189 40 85 189 40 86 189 40 87 189 40 88 189 40 89 189 40 90 189 40 91 189 40 92 189 40 93 189 40 94 189 40 96 189 40 97 189 40 98 189 40 99 189 40 100 189 40 101 189 40 102 189 40 103 189 40 104 189 40 105 189 40 106 189 40 107 189 40 108 189 40 109 189 40 110 189 40 112 189 40 113 189 40 114 189 40 115 189 40 116 189 40 117 189 40 118 189 40 119 189 40 120 189 40 121 189 40 122 189 40 123 189 40 124 189 40 125 189 40 126 189 40 128 189 40 129 189 40 130 189 40 131 189 40 132 189 40 133 189 40 134 189 40 135 189 40 136 189 40 137 189 40 138 189 40 139 189 40 140 189 40 141 189 40 142 189 40 144 189 40 145 189 40 146 189 40 147 189 40 148 189 40 149 189 40 150 189 40 151 189 40 152 189 40 153 189 40 154 189 40 155 189 40 156 189 40 157 189 40 158 189 40 160 189 40 161 189 40 162 189 40 163 189 40 164 189 40 165 189 40 166 189 40 167 189 40 168 189 40 169 189 40 170 189 40 171 189 40 172 189 40 173 189 40 174 189 40 176 189 40 177 189 40 178 189 40 179 189 40 180 189 40 181 189 40 182 189 40 183 189 40 184 189 40 185 189 40 186 189 40 187 189 40 188 189 40 189 189 40 190 189 40 192 189 40 193 189 40 194 189 40 195 189 40 196 189 40 197 189 40 198 189 40 199 189 40 200 189 40 201 189 40 202 189 40 203 189 40 204 189 40 205 189 40 206 189 40 208 189 40 209 189 40 210 189 40 211 189 40 212 189 40 213 189 40 214 189 40 215 189 40 216 189 40 217 189 40 218 189 40 219 189 40 220 189 40 221 189 40 222 189 40 224 189 40 225 189 40 226 189 40 227 189 40 228 189 40 229 189 40 230 189 40 231 189 40 232 189 40 233 189 40 234 189 40 235 189 40 236 189 40 237 189 40 238 189 40 240 189 40 241 189 40 242 189 40 243 189 40 244 189 40 245 189 40 246 189 40 247 189 40 248 189 40 249 189 40 250 189 40 251 189 40 252 189 40 253 189 40 255 189
40 0 188 40 1 188 40 2 188 40 3 188 40 4 188 40 5 188 40 6 188 40 7 188 40 8 188 40 9 188 40 10 188 40 11 188 40 12 188 40 13 188 40 14 188 40 16 188 40 17 188 40 18 188 40 19 188 40 20 188 40 21 188 40 22 188 40 23 188 40 24 188 40 25 188 40 26 188 40 27 188 40 28 188 40 29 188 40 30 188 40 32 188 40 33 188 40 34 188 40 35 188 40 36 188 40 37 188 40 38 188 40 39 188 40 40 188 40 41 188 40 42 188 40 43 188 40 44 188 40 45 188 40 46 188 40 48 188 40 49 188 40 50 188 40 51 188 40 52 188 40 53 188 40 54 188 40 55 188 40 56 188 40 57 188 40 58 188 40 59 188 40 60 188 40 61 188 40 62 188 40 64 188 40 65 188 40 66 188 40 67 188 40 68 188 40 69 188 40 70 188 40 71 188 40 72 188 40 73 188 40 74 188 40 75 188 40 76 188 40 77 188 40 78 188 40 80 188 40 81 188 40 82 188 40 83 188 40 84 188 40 85 188 40 86 188 40 87 188 40 88 188 40 89 188 40 90 188 40 91 188 40 92 188 40 93 188 40 94 188 40 96 188 40 97 188 40 98 188 40 99 188 40 100 188 40 101 188 40 102 188 40 103 188 40 104 188 40 105 188 40 106 188 40 107 188 40 108 188 40 109 188 40 110 188 40 112 188 40 113 188 40 114 188 40 115 188 40 116 188 40 117 188 40 118 188 40 119 188 40 120 188 40 121 188 40 122 188 40 123 188 40 124 188 40 125 188 40 126 188 40 128 188 40 129 188 40 130 188 40 131 188 40 132 188 40 133 188 40 134 188 40 135 188 40 136 188 40 137 188 40 138 188 40 139 188 40 140 188 40 141 188 40 142 188 40 144 188 40 145 188 40 146 188 40 147 188 40 148 188 40 149 188 40 150 188 40 151 188 40 152 188 40 153 188 40 154 188 40 155 188 40 156 188 40 157 188 40 158 188 40 160 188 40 161 188 40 162 188 40 163 188 40 164 188 40 165 188 40 166 188 40 167 188 40 168 188 40 169 188 40 170 188 40 171 188 40 172 188 40 173 188 40 174 188 40 176 188 40 177 188 40 178 188 40 179 188 40 180 188 40 181 188 40 182 188 40 183 188 40 184 188 40 185 188 40 186 188 40 187 188 40 188 188 40 189 188 40 190 188 40 192 188 40 193 188 40 194 188 40 195 188 40 196 188 40 197 188 40 198 188 40 199 188 40 200 188 40 201 188 40 202 188 40 203 188 40 204 188 40 205 188 40 206 188 40 208 188 40 209 188 40 210 188 40 211 188 40 212 188 40 213 188 40 214 188 40 215 188 40 216 188 40 217 188 40 218 188 40 219 188 40 220 188 40 221 188 40 222 188 40 224 188 40 225 188 40 226 188 40 227 188 40 228 188 40 229 188 40 230 188 40 231 188 40 232 188 40 233 188 40 234 188 40 235 188 40 236 188 40 237 188 40 238 188 40 240 188 40 241 188 40 242 188 40 243 188 40 244 188 40 245 188 40 246 188 40 247 188 40 248 188 40 249 188 40 250 188 40 251 188 40 252 188 40 253 188 40 255 188
40 0 186 40 1 186 40 2 186 40 3 186 40 4 186 40 5 186 40 6 186 40 7 186 40 8 186 40 9 186 40 10 186 40 11 186 40 12 186 40 13 186 40 14 186 40 16 186 40 17 186 40 18 186 40 19 186 40 20 186 40 21 186 40 22 186 40 23 186 40 24 186 40 25 186 40 26 186 40 27 186 40 28 186 40 29 186 40 30 186 40 32 186 40 33 186 40 34 186 40 35 186 40 36 186 40 37 186 40 38 186 40 39 186 40 40 186 40 41 186 40 42 186 40 43 186 40 44 186 40 45 186 40 46 186 40 48 186 40 49 186 40 50 186 40 51 186 40 52 186 40 53 186 40 54 186 40 55 186 40 56 186 40 57 186 40 58 186 40 59 186 40 60 186 40 61 186 40 62 186 40 64 186 40 65 186 40 66 186 40 67 186 40 68 186 40 69 186 40 70 186 40 71 186 40 72 186 40 73 186 40 74 186 40 75 186 40 76 186 40 77 186 40 78 186 40 80 186 40 81 186 40 82 186 40 83 186 40 84 186 40 85 186 40 86 186 40 87 186 40 88 186 40 89 186 40 90 186 40 91 186 40 92 186 40 93 186 40 94 186 40 96 186 40 97 186 40 98 186 40 99 186 40 100 186 40 101 186 40 102 186 40 103 186 40 104 186 40 105 186 40 106 186 40 107 186 40 108 186 40 109 186 40 110 186 40 112 186 40 113 186 40 114 186 40 115 186 40 116 186 40 117 186 40 118 186 40 119 186 40 120 186 40 121 186 40 122 186 40 123 186 40 124 186 40 125 186 40 126 186 40 128 186 40 129 186 40 130 186 40 131 186 40 132 186 40 133 186 40 134 186 40 135 186 40 136 186 40 137 186 40 138 186 40 139 186 40 140 186 40 141 186 40 142 186 40 144 186 40 145 186 40 146 186 40 147 186 40 148 186 40 149 186 40 150 186 40 151 186 40 152 186 40 153 186 40 154 186 40 155 186 40 156 186 40 157 186 40 158 186 40 160 186 40 161 186 40 162 186 40 163 186 40 164 186 40 165 186 40 166 186 40 167 186 40 168 186 40 169 186 40 170 186 40 171 186 40 172 186 40 173 186 40 174 186 40 176 186 40 177 186 40 178 186 40 179 186 40 180 186 40 181 186 40 182 186 40 183 186 40 184 186 40 185 186 40 186 186 40 187 186 40 188 186 40 189 186 40 190 186 40 192 186 40 193 186 40 194 186 40 195 186 40 196 186 40 197 186 40 198 186 40 199 186 40 200 186 40 201 186 40 202 186 40 203 186 40 204 186 40 205 186 40 206 186 40 208 186 40 209 186 40 210 186 40 211 186 40 212 186 40 213 186 40 214 186 40 215 186 40 216 186 40 217 186 40 218 186 40 219 186 40 220 186 40 221 186 40 222 186 40 224 186 40 225 186 40 226 186 40 227 186 40 228 186 40 229 186 40 230 186 40 231 186 40 232 186 40 233 186 40 234 186 40 235 186 40 236 186 40 237 186 40 238 186 40 240 186 40 241 186 40 242 186 40 243 186 40 244 186 40 245 186 40 246 186 40 247 186 40 248 186 40 249 186 40 250 186 40 251 186 40 252 186 40 253 186 40 255 186
40 0 185 40 1 185 40 2 185 40 3 185 40 4 185 40 5 185 40 6 185 40 7 185 40 8 185 40 9 185 40 10 185 40 11 185 40 12 185 40 13 185 40 14 185 40 16 185 40 17 185 40 18 185 40 19 185 40 20 185 40 21 185 40 22 185 40 23 185 40 24 185 40 25 185 40 26 185 40 27 185 40 28 185 40 29 185 40 30 185 40 32 185 40 33 185 40 34 185 40 35 185 40 36 185 40 37 185 40 38 185 40 39 185 40 40 185 40 41 185 40 42 185 40 43 185 40 44 185 40 45 185 40 46 185 40 48 185 40 49 185 40 50 185 40 51 185 40 52 185 40 53 185 40 54 185 40 55 185 40 56 185 40 57 185 40 58 185 40 59 185 40 60 185 40 61 185 40 62 185 40 64 185 40 65 185 40 66 185 40 67 185 40 68 185 40 69 185 40 70 185 40 71 185 40 72 185 40 73 185 40 74 185 40 75 185 40 76 185 40 77 185 40 78 185 40 80 185 40 81 185 40 82 185 40 83 185 40 84 185 40 85 185 40 86 185 40 87 185 40 88 185 40 89 185 40 90 185 40 91 185 40 92 185 40 93 185 40 94 185 40 96 185 40 97 185 40 98 185 40 99 185 40 100 185 40 101 185 40 102 185 40 103 185 40 104 185 40 105 185 40 106 185 40 107 185 40 108 185 40 109 185 40 110 185 40 112 185 40 113 185 40 114 185 40 115 185 40 116 185 40 117 185 40 118 185 40 119 185 40 120 185 40 121 185 40 122 185 40 123 185 40 124 185 40 125 185 40 126 185 40 128 185 40 129 185 40 130 185 40 131 185 40 132 185 40 133 185 40 134 185 40 135 185 40 136 185 40 137 185 40 138 185 40 139 185 40 140 185 40 141 185 40 142 185 40 144 185 40 145 185 40 146 185 40 147 185 40 148 185 40 149 185 40 150 185 40 151 185 40 152 185 40 153 185 40 154 185 40 155 185 40 156 185 40 157 185 40 158 185 40 160 185 40 161 185 40 162 185 40 163 185 40 164 185 40 165 185 40 166 185 40 167 185 40 168 185 40 169 185 40 170 185 40 171 185 40 172 185 40 173 185 40 174 185 40 176 185 40 177 185 40 178 185 40 179 185 40 180 185 40 181 185 40 182 185 40 183 185 40 184 185 40 185 185 40 186 185 40 187 185 40 188 185 40 189 185 40 190 185 40 192 185 40 193 185 40 194 185 40 195 185 40 196 185 40 197 185 40 198 185 40 199 185 40 200 185 40 201 185 40 202 185 40 203 185 40 204 185 40 205 185 40 206 185 40 208 185 40 209 185 40 210 185 40 211 185 40 212 185 40 213 185 40 214 185 40 215 185 40 216 185 40 217 185 40 218 185 40 219 185 40 220 185 40 221 185 40 222 185 40 224 185 40 225 185 40 226 185 40 227 185 40 228 185 40 229 185 40 230 185 40 231 185 40 232 185 40 233 185 40 234 185 40 235 185 40 236 185 40 237 185 40 238 185 40 240 185 40 241 185 40 242 185 40 243 185 40 244 185 40 245 185 40 246 185 40 247 185 40 248 185 40 249 185 40 250 185 40 251 185 40 252 185 40 253 185 40 255 185
40 0 183 40 1 183 40 2 183 40 3 183 40 4 183 40 5 183 40 6 183 40 7 183 40 8 183 40 9 183 40 10 183 40 11 183 40 12 183 40 13 183 40 14 183 40 16 183 40 17 183 40 18 183 40 19 183 40 20 183 40 21 183 40 22 183 40 23 183 40 24 183 40 25 183 40 26 183 40 27 183 40 28 183 40 29 183 40 30 183 40 32 183 40 33 183 40 34 183 40 35 183 40 36 183 40 37 183 40 38 183 40 39 183 40 40 183 40 41 183 40 42 183 40 43 183 40 44 183 40 45 183 40 46 183 40 48 183 40 49 183 40 50 183 40 51 183 40 52 183 40 53 183 40 54 183 40 55 183 40 56 183 40 57 183 40 58 183 40 59 183 40 60 183 40 61 183 40 62 183 40 64 183 40 65 183 40 66 183 40 67 183 40 68 183 40 69 183 40 70 183 40 71 183 40 72 183 40 73 183 40 74 183 40 75 183 40 76 183 40 77 183 40 78 183 40 80 183 40 81 183 40 82 183 40 83 183 40 84 183 40 85 183 40 86 183 40 87 183 40 88 183 40 89 183 40 90 183 40 91 183 40 92 183 40 93 183 40 94 183 40 96 183 40 97 183 40 98 183 40 99 183 40 100 183 40 101 183 40 102 183 40 103 183 40 104 183 40 105 183 40 106 183 40 107 183 40 108 183 40 109 183 40 110 183 40 112 183 40 113 183 40 114 183 40 115 183 40 116 183 40 117 183 40 118 183 40 119 183 40 120 183 40 121 183 40 122 183 40 123 183 40 124 183 40 125 183 40 126 183 40 128 183 40 129 183 40 130 183 40 131 183 40 132 183 40 133 183 40 134 183 40 135 183 40 136 183 40 137 183 40 138 183 40 139 183 40 140 183 40 141 183 40 142 183 40 144 183 40 145 183 40 146 183 40 147 183 40 148 183 40 149 183 40 150 183 40 151 183 40 152 183 40 153 183 40 154 183 40 155 183 40 156 183 40 157 183 40 158 183 40 160 183 40 161 183 40 162 183 40 163 183 40 164 183 40 165 183 40 166 183 40 167 183 40 168 183 40 169 183 40 170 183 40 171 183 40 172 183 40 173 183 40 174 183 40 176 183 40 177 183 40 178 183 40 179 183 40 180 183 40 181 183 40 182 183 40 183 183 40 184 183 40 185 183 40 186 183 40 187 183 40 188 183 40 189 183 40 190 183 40 192 183 40 193 183 40 194 183 40 195 183 40 196 183 40 197 183 40 198 183 40 199 183 40 200 183 40 201 183 40 202 183 40 203 183 40 204 183 40 205 183 40 206 183 40 208 183 40 209 183 40 210 183 40 211 183 40 212 183 40 213 183 40 214 183 40 215 183 40 216 183 40 217 183 40 218 183 40 219 183 40 220 183 40 221 183 40 222 183 40 224 183 40 225 183 40 226 183 40 227 183 40 228 183 40 229 183 40 230 183 40 231 183 40 232 183 40 233 183 40 234 183 40 235 183 40 236 183 40 237 183 40 238 183 40 240 183 40 241 183 40 242 183 40 243 183 40 244 183 40 245 183 40 246 183 40 247 183 40 248 183 40 249 183 40 250 183 40 251 183 40 252 183 40 253 183 40 255 183
40 0 182 40 1 182 40 2 182 40 3 182 40 4 182 40 5 182 40 6 182 40 7 182 40 8 182 40 9 182 40 10 182 40 11 182 40 12 182 40 13 182 40 14 182 40 16 182 40 17 182 40 18 182 40 19 182 40 20 182 40 21 182 40 22 182 40 23 182 40 24 182 40 25 182 40 26 182 40 27 182 40 28 182 40 29 182 40 30 182 40 32 182 40 33 182 40 34 182 40 35 182 40 36 182 40 37 182 40 38 182 40 39 182 40 40 182 40 41 182 40 42 182 40 43 182 40 44 182 40 45 182 40 46 182 40 48 182 40 49 182 40 50 182 40 51 182 40 52 182 40 53 182 40 54 182 40 55 182 40 56 182 40 57 182 40 58 182 40 59 182 40 60 182 40 61 182 40 62 182 40 64 182 40 65 182 40 66 182 40 67 182 40 68 182 40 69 182 40 70 182 40 71 182 40 72 182 40 73 182 40 74 182 40 75 182 40 76 182 40 77 182 40 78 182 40 80 182 40 81 182 40 82 182 40 83 182 40 84 182 40 85 182 40 86 182 40 87 182 40 88 182 40 89 182 40 90 182 40 91 182 40 92 182 40 93 182 40 94 182 40 96 182 40 97 182 40 98 182 40 99 182 40 100 182 40 101 182 40 102 182 40 103 182 40 104 182 40 105 182 40 106 182 40 107 182 40 108 182 40 109 182 40 110 182 40 112 182 40 113 182 40 114 182 40 115 182 40 116 182 40 117 182 40 118 182 40 119 182 40 120 182 40 121 182 40 122 182 40 123 182 40 124 182 40 125 182 40 126 182 40 128 182 40 129 182 40 130 182 40 131 182 40 132 182 40 133 182 40 134 182 40 135 182 40 136 182 40 137 182 40 138 182 40 139 182 40 140 182 40 141 182 40 142 182 40 144 182 40 145 182 40 146 182 40 147 182 40 148 182 40 149 182 40 150 182 40 151 182 40 152 182 40 153 182 40 154 182 40 155 182 40 156 182 40 157 182 40 158 182 40 160 182 40 161 182 40 162 182 40 163 182 40 164 182 40 165 182 40 166 182 40 167 182 40 168 182 40 169 182 40 170 182 40 171 182 40 172 182 40 173 182 40 174 182 40 176 182 40 177 182 40 178 182 40 179 182 40 180 182 40 181 182 40 182 182 40 183 182 40 184 182 40 185 182 40 186 182 40 187 182 40 188 182 40 189 182 40 190 182 40 192 182 40 193 182 40 194 182 40 195 182 40 196 182 40 197 182 40 198 182 40 199 182 40 200 182 40 201 182 40 202 182 40 203 182 40 204 182 40 205 182 40 206 182 40 208 182 40 209 182 40 210 182 40 211 182 40 212 182 40 213 182 40 214 182 40 215 182 40 216 182 40 217 182 40 218 182 40 219 182 40 220 182 40 221 182 40 222 182 40 224 182 40 225 182 40 226 182 40 227 182 40 228 182 40 229 182 40 230 182 40 231 182 40 232 182 40 233 182 40 234 182 40 235 182 40 236 182 40 237 182 40 238 182 40 240 182 40 241 182 40 242 182 40 243 182 40 244 182 40 245 182 40 246 182 40 247 182 40 248 182 40 249 182 40 250 182 40 251 182 40 252 182 40 253 182 40 255 182
40 0 180 40 1 180 40 2 180 40 3 180 40 4 180 40 5 180 40 6 180 40 7 180 40 8 180 40 9 180 40 10 180 40 11 180 40 12 180 40 13 180 40 14 180 40 16 180 40 17 180 40 18 180 40 19 180 40 20 180 40 21 180 40 22 180 40 23 180 40 24 180 40 25 180 40 26 180 40 27 180 40 28 180 40 29 180 40 30 180 40 32 180 40 33 180 40 34 180 40 35 180 40 36 180 40 37 180 40 38 180 40 39 180 40 40 180 40 41 180 40 42 180 40 43 180 40 44 180 40 45 180 40 46 180 40 48 180 40 49 180 40 50 180 40 51 180 40 52 180 40 53 180 40 54 180 40 55 180 40 56 180 40 57 180 40 58 180 40 59 180 40 60 180 40 61 180 40 62 180 40 64 180 40 65 180 40 66 180 40 67 180 40 68 180 40 69 180 40 70 180 40 71 180 40 72 180 40 73 180 40 74 180 40 75 180 40 76 180 40 77 180 40 78 180 40 80 180 40 81 180 40 82 180 40 83 180 40 84 180 40 85 180 40 86 180 40 87 180 40 88 180 40 89 180 40 90 180 40 91 180 40 92 180 40 93 180 40 94 180 40 96 180 40 97 180 40 98 180 40 99 180 40 100 180 40 101 180 40 102 180 40 103 180 40 104 180 40 105 180 40 106 180 40 107 180 40 108 180 40 109 180 40 110 180 40 112 180 40 113 180 40 114 180 40 115 180 40 116 180 40 117 180 40 118 180 40 119 180 40 120 180 40 121 180 40 122 180 40 123 180 40 124 180 40 125 180 40 126 180 40 128 180 40 129 180 40 130 180 40 131 180 40 132 180 40 133 180 40 134 180 40 135 180 40 136 180 40 137 180 40 138 180 40 139 180 40 140 180 40 141 180 40 142 180 40 144 180 40 145 180 40 146 180 40 147 180 40 148 180 40 149 180 40 150 180 40 151 180 40 152 180 40 153 180 40 154 180 40 155 180 40 156 180 40 157 180 40 158 180 40 160 180 40 161 180 40 162 180 40 163 180 40 164 180 40 165 180 40 166 180 40 167 180 40 168 180 40 169 180 40 170 180 40 171 180 40 172 180 40 173 180 40 174 180 40 176 180 40 177 180 40 178 180 40 179 180 40 180 180 40 181 180 40 182 180 40 183 180 40 184 180 40 185 180 40 186 180 40 187 180 40 188 180 40 189 180 40 190 180 40 192 180 40 193 180 40 194 180 40 195 180 40 196 180 40 197 180 40 198 180 40 199 180 40 200 180 40 201 180 40 202 180 40 203 180 40 204 180 40 205 180 40 206 180 40 208 180 40 209 180 40 210 180 40 211 180 40 212 180 40 213 180 40 214 180 40 215 180 40 216 180 40 217 180 40 218 180 40 219 180 40 220 180 40 221 180 40 222 180 40 224 180 40 225 180 40 226 180 40 227 180 40 228 180 40 229 180 40 230 180 40 231 180 40 232 180 40 233 180 40 234 180 40 235 180 40 236 180 40 237 180 40 238 180 40 240 180 40 241 180 40 242 180 40 243 180 40 244 180 40 245 180 40 246 180 40 247 180 40 248 180 40 249 180 40 250 180 40 251 180 40 252 180 40 253 180 40 255 180
40 0 179 40 1 179 40 2 179 40 3 179 40 4 179 40 5 179 40 6 179 40 7 179 40 8 179 40 9 179 40 10 179 40 11 179 40 12 179 40 13 179 40 14 179 40 16 179 40 17 179 40 18 179 40 19 179 40 20 179 40 21 179 40 22 179 40 23 179 40 24 179 40 25 179 40 26 179 40 27 179 40 28 179 40 29 179 40 30 179 40 32 179 40 33 179 40 34 179 40 35 179 40 36 179 40 37 179 40 38 179 40 39 179 40 40 179 40 41 179 40 42 179 40 43 179 40 44 179 40 45 179 40 46 179 40 48 179 40 49 179 40 50 179 40 51 179 40 52 179 40 53 179 40 54 179 40 55 179 40 56 179 40 57 179 40 58 179 40 59 179 40 60 179 40 61 179 40 62 179 40 64 179 40 65 179 40 66 179 40 67 179 40 68 179 40 69 179 40 70 179 40 71 179 40 72 179 40 73 179 40 74 179 40 75 179 40 76 179 40 77 179 40 78 179 40 80 179 40 81 179 40 82 179 40 83 179 40 84 179 40 85 179 40 86 179 40 87 179 40 88 179 40 89 179 40 90 179 40 91 179 40 92 179 40 93 179 40 94 179 40 96 179 40 97 179 40 98 179 40 99 179 40 100 179 40 101 179 40 102 179 40 103 179 40 104 179 40 105 179 40 106 179 40 107 179 40 108 179 40 109 179 40 110 179 40 112 179 40 113 179 40 114 179 40 115 179 40 116 179 40 117 179 40 118 179 40 119 179 40 120 179 40 121 179 40 122 179 40 123 179 40 124 179 40 125 179 40 126 179 40 128 179 40 129 179 40 130 179 40 131 179 40 132 179 40 133 179 40 134 179 40 135 179 40 136 179 40 137 179 40 138 179 40 139 179 40 140 179 40 141 179 40 142 179 40 144 179 40 145 179 40 146 179 40 147 179 40 148 179 40 149 179 40 150 179 40 151 179 40 152 179 40 153 179 40 154 179 40 155 179 40 156 179 40 157 179 40 158 179 40 160 179 40 161 179 40 162 179 40 163 179 40 164 179 40 165 179 40 166 179 40 167 179 40 168 179 40 169 179 40 170 179 40 171 179 40 172 179 40 173 179 40 174 179 40 176 179 40 177 179 40 178 179 40 179 179 40 180 179 40 181 179 40 182 179 40 183 179 40 184 179 40 185 179 40 186 179 40 187 179 40 188 179 40 189 179 40 190 179 40 192 179 40 193 179 40 194 179 40 195 179 40 196 179 40 197 179 40 198 179 40 199 179 40 200 179 40 201 179 40 202 179 40 203 179 40 204 179 40 205 179 40 206 179 40 208 179 40 209 179 40 210 179 40 211 179 40 212 179 40 213 179 40 214 179 40 215 179 40 216 179 40 217 179 40 218 179 40 219 179 40 220 179 40 221 179 40 222 179 40 224 179 40 225 179 40 226 179 40 227 179 40 228 179 40 229 179 40 230 179 40 231 179 40 232 179 40 233 179 40 234 179 40 235 179 40 236 179 40 237 179 40 238 179 40 240 179 40 241 179 40 242 179 40 243 179 40 244 179 40 245 179 40 246 179 40 247 179 40 248 179 40 249 179 40 250 179 40 251 179 40 252 179 40 253 179 40 255 179
40 0 178 40 1 178 40 2 178 40 3 178 40 4 178 40 5 178 40 6 178 40 7 178 40 8 178 40 9 178 40 10 178 40 11 178 40 12 178 40 13 178 40 14 178 40 16 178 40 17 178 40 18 178 40 19 178 40 20 178 40 21 178 40 22 178 40 23 178 40 24 178 40 25 178 40 26 178 40 27 178 40 28 178 40 29 178 40 30 178 40 32 178 40 33 178 40 34 178 40 35 178 40 36 178 40 37 178 40 38 178 40 39 178 40 40 178 40 41 178 40 42 178 40 43 178 40 44 178 40 45 178 40 46 178 40 48 178 40 49 178 40 50 178 40 51 178 40 52 178 40 53 178 40 54 178 40 55 178 40 56 178 40 57 178 40 58 178 40 59 178 40 60 178 40 61 178 40 62 178 40 64 178 40 65 178 40 66 178 40 67 178 40 68 178 40 69 178 40 70 178 40 71 178 40 72 178 40 73 178 40 74 178 40 75 178 40 76 178 40 77 178 40 78 178 40 80 178 40 81 178 40 82 178 40 83 178 40 84 178 40 85 178 40 86 178 40 87 178 40 88 178 40 89 178 40 90 178 40 91 178 40 92 178 40 93 178 40 94 178 40 96 178 40 97 178 40 98 178 40 99 178 40 100 178 40 101 178 40 102 178 40 103 178 40 104 178 40 105 178 40 106 178 40 107 178 40 108 178 40 109 178 40 110 178 40 112 178 40 113 178 40 114 178 40 115 178 40 116 178 40 117 178 40 118 178 40 119 178 40 120 178 40 121 178 40 122 178 40 123 178 40 124 178 40 125 178 40 126 178 40 128 178 40 129 178 40 130 178 40 131 178 40 132 178 40 133 178 40 134 178 40 135 178 40 136 178 40 137 178 40 138 178 40 139 178 40 140 178 40 141 178 40 142 178 40 144 178 40 145 178 40 146 178 40 147 178 40 148 178 40 149 178 40 150 178 40 151 178 40 152 178 40 153 178 40 154 178 40 155 178 40 156 178 40 157 178 40 158 178 40 160 178 40 161 178 40 162 178 40 163 178 40 164 178 40 165 178 40 166 178 40 167 178 40 168 178 40 169 178 40 170 178 40 171 178 40 172 178 40 173 178 40 174 178 40 176 178 40 177 178 40 178 178 40 179 178 40 180 178 40 181 178 40 182 178 40 183 178 40 184 178 40 185 178 40 186 178 40 187 178 40 188 178 40 189 178 40 190 178 40 192 178 40 193 178 40 194 178 40 195 178 40 196 178 40 197 178 40 198 178 40 199 178 40 200 178 40 201 178 40 202 178 40 203 178 40 204 178 40 205 178 40 206 178 40 208 178 40 209 178 40 210 178 40 211 178 40 212 178 40 213 178 40 214 178 40 215 178 40 216 178 40 217 178 40 218 178 40 219 178 40 220 178 40 221 178 40 222 178 40 224 178 40 225 178 40 226 178 40 227 178 40 228 178 40 229 178 40 230 178 40 231 178 40 232 178 40 233 178 40 234 178 40 235 178 40 236 178 40 237 178 40 238 178 40 240 178 40 241 178 40 242 178 40 243 178 40 244 178 40 245 178 40 246 178 40 247 178 40 248 178 40 249 178 40 250 178 40 251 178 40 252 178 40 253 178 40 255 178
40 0 176 40 1 176 40 2 176 40 3 176 40 4 176 40 5 176 40 6 176 40 7 176 40 8 176 40 9 176 40 10 176 40 11 176 40 12 176 40 13 176 40 14 176 40 16 176 40 17 176 40 18 176 40 19 176 40 20 176 40 21 176 40 22 176 40 23 176 40 24 176 40 25 176 40 26 176 40 27 176 40 28 176 40 29 176 40 30 176 40 32 176 40 33 176 40 34 176 40 35 176 40 36 176 40 37 176 40 38 176 40 39 176 40 40 176 40 41 176 40 42 176 40 43 176 40 44 176 40 45 176 40 46 176 40 48 176 40 49 176 40 50 176 40 51 176 40 52 176 40 53 176 40 54 176 40 55 176 40 56 176 40 57 176 40 58 176 40 59 176 40 60 176 40 61 176 40 62 176 40 64 176 40 65 176 40 66 176 40 67 176 40 68 176 40 69 176 40 70 176 40 71 176 40 72 176 40 73 176 40 74 176 40 75 176 40 76 176 40 77 176 40 78 176 40 80 176 40 81 176 40 82 176 40 83 176 40 84 176 40 85 176 40 86 176 40 87 176 40 88 176 40 89 176 40 90 176 40 91 176 40 92 176 40 93 176 40 94 176 40 96 176 40 97 176 40 98 176 40 99 176 40 100 176 40 101 176 40 102 176 40 103 176 40 104 176 40 105 176 40 106 176 40 107 176 40 108 176 40 109 176 40 110 176 40 112 176 40 113 176 40 114 176 40 115 176 40 116 176 40 117 176 40 118 176 40 119 176 40 120 176 40 121 176 40 122 176 40 123 176 40 124 176 40 125 176 40 126 176 40 128 176 40 129 176 40 130 176 40 131 176 40 132 176 40 133 176 40 134 176 40 135 176 40 136 176 40 137 176 40 138 176 40 139 176 40 140 176 40 141 176 40 142 176 40 144 176 40 145 176 40 146 176 40 147 176 40 148 176 40 149 176 40 150 176 40 151 176 40 152 176 40 153 176 40 154 176 40 155 176 40 156 176 40 157 176 40 158 176 40 160 176 40 161 176 40 162 176 40 163 176 40 164 176 40 165 176 40 166 176 40 167 176 40 168 176 40 169 176 40 170 176 40 171 176 40 172 176 40 173 176 40 174 176 40 176 176 40 177 176 40 178 176 40 179 176 40 180 176 40 181 176 40 182 176 40 183 176 40 184 176 40 185 176 40 186 176 40 187 176 40 188 176 40 189 176 40 190 176 40 192 176 40 193 176 40 194 176 40 195 176 40 196 176 40 197 176 40 198 176 40 199 176 40 200 176 40 201 176 40 202 176 40 203 176 40 204 176 40 205 176 40 206 176 40 208 176 40 209 176 40 210 176 40 211 176 40 212 176 40 213 176 40 214 176 40 215 176 40 216 176 40 217 176 40 218 176 40 219 176 40 220 176 40 221 176 40 222 176 40 224 176 40 225 176 40 226 176 40 227 176 40 228 176 40 229 176 40 230 176 40 231 176 40 232 176 40 233 176 40 234 176 40 235 176 40 236 176 40 237 176 40 238 176 40 240 176 40 241 176 40 242 176 40 243 176 40 244 176 40 245 176 40 246 176 40 247 176 40 248 176 40 249 176 40 250 176 40 251 176 40 252 176 40 253 176 40 255 176
40 0 175 40 1 175 40 2 175 40 3 175 40 4 175 40 5 175 40 6 175 40 7 175 40 8 175 40 9 175 40 10 175 40 11 175 40 12 175 40 13 175 40 14 175 40 16 175 40 17 175 40 18 175 40 19 175 40 20 175 40 21 175 40 22 175 40 23 175 40 24 175 40 25 175 40 26 175 40 27 175 40 28 175 40 29 175 40 30 175 40 32 175 40 33 175 40 34 175 40 35 175 40 36 175 40 37 175 40 38 175 40 39 175 40 40 175 40 41 175 40 42 175 40 43 175 40 44 175 40 45 175 40 46 175 40 48 175 220 180 70 220 180 70 220 180 70 220 180 70 220 180 70 220 180 70 220 180 70 220 180 70 220 180 70 220 180 70 220 180 70 220 180 70 220 180 70 220 180 70 220 180 70 220 180 70 220 180 70 220 180 70 220 180 70 220 180 70 220 180 70 220 180 70 220 180 70 220 180 70 220 180 70 220 180 70 220 180 70 220 180 70 220 180 70 220 180 70 220 180 70 220 180 70 220 180 70 220 180 70 220 180 70 220 180 70 220 180 70 220 180 70 220 180 70 220 180 70 220 180 70 220 180 70 220 180 70 220 180 70 220 180 70 220 180 70 220 180 70 220 180 70 220 180 70 220 180 70 220 180 70 220 180 70 220 180 70 220 180 70 220 180 70 220 180 70 220 180 70 220 180 70 220 180 70 220 180 70 220 180 70 220 180 70 220 180 70 220 180 70 220 180 70 220 180 70 220 180 70 220 180 70 220 180 70 220 180 70 220 180 70 220 180 70 220 180 70 220 180 70 220 180 70 220 180 70 220 180 70 220 180 70 220 180 70 220 180 70 220 180 70 220 180 70 220 180 70 220 180 70 220 180 70 220 180 70 220 180 70 220 180 70 220 180 70 220 180 70 220 180 70 220 180 70 220 180 70 220 180 70 220 180 70 220 180 70 220 180 70 220 180 70 220 180 70 220 180 70 220 180 70 220 180 70 220 180 70 220 180 70 220 180 70 220 180 70 220 180 70 220 180 70 220 180 70 220 180 70 220 180 70 220 180 70 220 180 70 220 180 70 220 180 70 220 180 70 220 180 70 220 180 70 220 180 70 220 180 70 220 180 70 220 180 70 220 180 70 220 180 70 220 180 70 220 180 70 220 180 70 220 180 70 220 180 70 220 180 70 220 180 70 220 180 70 220 180 70 220 180 70 220 180 70 220 180 70 220 180 70 220 180 70 220 180 70 220 180 70 220 180 70 220 180 70 220 180 70 220 180 70 220 180 70 220 180 70 220 180 70 220 180 70 220 180 70 40 208 175 40 209 175 40 210 175 40 211 175 40 212 175 40 213 175 40 214 175 40 215 175 40 216 175 40 217 175 40 218 175 40 219 175 40 220 175 40 221 175 40 222 175 40 224 175 40 225 175 40 226 175 40 227 175 40 228 175 40 229 175 40 230 175 40 231 175 40 232 175 40 233 175 40 234 175 40 235 175 40 236 175 40 237 175 40 238 175 40 240 175 40 241 175 40 242 175 40 243 175 40 244 175 40 245 175 40 246 175 40 247 175 40 248 175 40 249 175 40 250 175 40 251 175 40 252 175 40 253 175 40 255 175
40 0 173 40 1 173 40 2 173 40 3 173 40 4 173 40 5 173 40 6 173 40 7 173 40 8 173 40 9 173 40 10 173 40 11 173 40 12 173 40 13 173 40 14 173 40 16 173 40 17 173 40 18 173 40 19 173 40 20 173 40 21 173 40 22 173 40 23 173 40 24 173 40 25 173 40 26 173 40 27 173 40 28 173 40 29 173 40 30 173 40 32 173 40 33 173 40 34 173 40 35 173 40 36 173 40 37 173 40 38 173 40 39 173 40 40 173 40 41 173 40 42 173 40 43 173 40 44 173 40 45 173 40 46 173 40 48 173 220 180 70 220 180 70 220 180 70 220 180 70 220 180 70 220 180 70 220 180 70 220 180 70 220 180 70 220 180 70 220 180 70 220 180 70 220 180 70 220 180 70 220 180 70 220 180 70 220 180 70 220 180 70 220 180 70 220 180 70 220 180 70 220 180 70 220 180 70 220 180 70 220 180 70 220 180 70 220 180 70 220 180 70 220 180 70 220 180 70 220 180 70 220 180 70 220 180 70 220 180 70 220 180 70 220 180 70 220 180 70 220 180 70 220 180 70 220 180 70 220 180 70 220 180 70 220 180 70 220 180 70 220 180 70 220 180 70 220 180 70 220 180 70 220 180 70 220 180 70 220 180 70 220 180 70 220 180 70 220 180 70 220 180 70 220 180 70 220 180 70 220 180 70 220 180 70 220 180 70 220 180 70 220 180 70 220 180 70 220 180 70 220 180 70 220 180 70 220 180 70 220 180 70 220 180 70 220 180 70 220 180 70 220 180 70 220 180 70 220 180 70 220 180 70 220 180 70 220 180 70 220 180 70 220 180 70 220 180 70 220 180 70 220 180 70 220 180 70 220 180 70 220 180 70 220 180 70 220 180 70 220 180 70 220 180 70 220 180 70 220 180 70 220 180 70 220 180 70 220 180 70 220 180 70 220 180 70 220 180 70 220 180 70 220 180 70 220 180 70 220 180 70 220 180 70 220 180 70 220 180 70 220 180 70 220 180 70 220 180 70 220 180 70 220 180 70 220 180 70 220 180 70 220 180 70 220 180 70 220 180 70 220 180 70 220 180 70 220 180 70 220 180 70 220 180 70 220 180 70 220 180 70 220 180 70 220 180 70 220 180 70 220 180 70 220 180 70 220 180 70 220 180 70 220 180 70 220 180 70 220 180 70 220 180 70 220 180 70 220 180 70 220 180 70 220 180 70 220 180 70 220 180 70 220 180 70 220 180 70 220 180 70 220 180 70 220 180 70 220 180 70 220 180 70 220 180 70 220 180 70 220 180 70 220 180 70 40 208 173 40 209 173 40 210 173 40 211 173 40 212 173 40 213 173 40 214 173 40 215 173 40 216 173 40 217 173 40 218 173 40 219 173 40 220 173 40 221 173 40 222 173 40 224 173 40 225 173 40 226 173 40 227 173 40 228 173 40 229 173 40 230 173 40 231 173 40 232 173 40 233 173 40 234 173 40 235 173 40 236 173 40 237 173 40 238 173 40 240 173 40 241 173 40 242 173 40 243 173 40 244 173 40 245 173 40 246 173 40 247 173 40 248 173 40 249 173 40 250 173 40 251 173 40 252 173 40 253 173 40 255 173
40 0 172 40 1 172 40 2 172 40 3 172 40 4 172 40 5 172 40 6 172 40 7 172 40 8 172 40 9 172 40 10 172 40 11 172 40 12 172 40 13 172 40 14 172 40 16 172 40 17 172 40 18 172 40 19 172 40 20 172 40 21 172 40 22 172 40 23 172 40 24 172 40 25 172 40 26 172 40 27 172 40 28 172 40 29 172 40 30 172 40 32 172 40 33 172 40 34 172 40 35 172 40 36 172 40 37 172 40 38 172 40 39 172 40 40 172 40 41 172 40 42 172 40 43 172 40 44 172 40 45 172 40 46 172 40 48 172 220 180 70 220 180 70 220 180 70 220 180 70 220 180 70 220 180 70 220 180 70 220 180 70 220 180 70 220 180 70 220 180 70 220 180 70 220 180 70 220 180 70 220 180 70 220 180 70 220 180 70 220 180 70 220 180 70 220 180 70 220 180 70 220 180 70 220 180 70 220 180 70 220 180 70 220 180 70 220 180 70 220 180 70 220 180 70 220 180 70 220 180 70 220 180 70 220 180 70 220 180 70 220 180 70 220 180 70 220 180 70 220 180 70 220 180 70 220 180 70 220 180 70 220 180 70 220 180 70 220 180 70 220 180 70 220 180 70 220 180 70 220 180 70 220 180 70 220 180 70 220 180 70 220 180 70 220 180 70 220 180 70 220 180 70 220 180 70 220 180 70 220 180 70 220 180 70 220 180 70 220 180 70 220 180 70 220 180 70 220 180 70 220 180 70 220 180 70 220 180 70 220 180 70 220 180 70 220 180 70 220 180 70 220 180 70 220 180 70 220 180 70 220 180 70 220 180 70 220 180 70 220 180 70 220 180 70 220 180 70 220 180 70 220 180 70 220 180 70 220 180 70 220 180 70 220 180 70 220 180 70 220 180 70 220 180 70 220 180 70 220 180 70 220 180 70 220 180 70 220 180 70 220 180 70 220 180 70 220 180 70 220 180 70 220 180 70 220 180 70 220 180 70 220 180 70 220 180 70 220 180 70 220 180 70 220 180 70 220 180 70 220 180 70 220 180 70 220 180 70 220 180 70 220 180 70 220 180 70 220 180 70 220 180 70 220 180 70 220 180 70 220 180 70 220 180 70 220 180 70 220 180 70 220 180 70 220 180 70 220 180 70 220 180 70 220 180 70 220 180 70 220 180 70 220 180 70 220 180 70 220 180 70 220 180 70 220 180 70 220 180 70 220 180 70 220 180 70 220 180 70 220 180 70 220 180 70 220 180 70 220 180 70 220 180 70 220 180 70 220 180 70 220 180 70 220 180 70 220 180 70 220 180 70 220 180 70 40 208 172 40 209 172 40 210 172 40 211 172 40 212 172 40 213 172 40 214 172 40 215 172 40 216 172 40 217 172 40 218 172 40 219 172 40 220 172 40 221 172 40 222 172 40 224 172 40 225 172 40 226 172 40 227 172 40 228 172 40 229 172 40 230 172 40 231 172 40 232 172 40 233 172 40 234 172 40 235 172 40 236 172 40 237 172 40 238 172 40 240 172 40 241 172 40 242 172 40 243 172 40 244 172 40 245 172 40 246 172 40 247 172 40 248 172 40 249 172 40 250 172 40 251 172 40 252 172 40 253 172 40 255 172
40 0 170 40 1 170 40 2 170 40 3 170 40 4 170 40 5 170 40 6 170 40 7 170 40 8 170 40 9 170 40 10 170 40 11 170 40 12 170 40 13 170 40 14 170 40 16 170 40 17 170 40 18 170 40 19 170 40 20 170 40 21 170 40 22 170 40 23 170 40 24 170 40 25 170 40 26 170 40 27 170 40 28 170 40 29 170 40 30 170 40 32 170 40 33 170 40 34 170 40 35 170 40 36 170 40 37 170 40 38 170 40 39 170 40 40 170 40 41 170 40 42 170 40 43 170 40 44 170 40 45 170 40 46 170 40 48 170 220 180 70 220 180 70 220 180 70 220 180 70 220 180 70 220 180 70 220 180 70 220 180 70 220 180 70 220 180 70 220 180 70 220 180 70 220 180 70 220 180 70 220 180 70 220 180 70 220 180 70 220 180 70 220 180 70 220 180 70 220 180 70 220 180 70 220 180 70 220 180 70 220 180 70 220 180 70 220 180 70 220 180 70 220 180 70 220 180 70 220 180 70 220 180 70 220 180 70 220 180 70 220 180 70 220 180 70 220 180 70 220 180 70 220 180 70 220 180 70 220 180 70 220 180 70 220 180 70 220 180 70 220 180 70 220 180 70 220 180 70 220 180 70 220 180 70 220 180 70 220 180 70 220 180 70 220 180 70 220 180 70 220 180 70 220 180 70 220 180 70 220 180 70 220 180 70 220 180 70 220 180 70 220 180 70 220 180 70 220 180 70 220 180 70 220 180 70 220 180 70 220 180 70 220 180 70 220 180 70 220 180 70 220 180 70 220 180 70 220 180 70 220 180 70 220 180 70 220 180 70 220 180 70 220 180 70 220 180 70 220 180 70 220 180 70 220 180 70 220 180 70 220 180 70 220 180 70 220 180 70 220 180 70 220 180 70 220 180 70 220 180 70 220 180 70 220 180 70 220 180 70 220 180 70 220 180 70 220 180 70 220 180 70 220 180 70 220 180 70 220 180 70 220 180 70 220 180 70 220 180 70 220 180 70 220 180 70 220 180 70 220 180 70 220 180 70 220 180 70 220 180 70 220 180 70 220 180 70 220 180 70 220 180 70 220 180 70 220 180 70 220 180 70 220 180 70 220 180 70 220 180 70 220 180 70 220 180 70 220 180 70 220 180 70 220 180 70 220 180 70 220 180 70 220 180 70 220 180 70 220 180 70 220 180 70 220 180 70 220 180 70 220 180 70 220 180 70 220 180 70 220 180 70 220 180 70 220 180 70 220 180 70 220 180 70 220 180 70 220 180 70 220 180 70 220 180 70 220 180 70 220 180 70 220 180 70 40 208 170 40 209 170 40 210 170 40 211 170 40 212 170 40 213 170 40 214 170 40 215 170 40 216 170 40 217 170 40 218 170 40 219 170 40 220 170 40 221 170 40 222 170 40 224 170 40 225 170 40 226 170 40 227 170 40 228 170 40 229 170 40 230 170 40 231 170 40 232 170 40 233 170 40 234 170 40 235 170 40 236 170 40 237 170 40 238 170 40 240 170 40 241 170 40 242 170 40 243 170 40 244 170 40 245 170 40 246 170 40 247 170 40 248 170 40 249 170 40 250 170 40 251 170 40 252 170 40 253 170 40 255 170
40 0 169 40 1 169 40 2 169 40 3 169 40 4 169 40 5 169 40 6 169 40 7 169 40 8 169 40 9 169 40 10 169 40 11 169 40 12 169 40 13 169 40 14 169 40 16 169 40 17 169 40 18 169 40 19 169 40 20 169 40 21 169 40 22 169 40 23 169 40 24 169 40 25 169 40 26 169 40 27 169 40 28 169 40 29 169 40 30 169 40 32 169 40 33 169 40 34 169 40 35 169 40 36 169 40 37 169 40 38 169 40 39 169 40 40 169 40 41 169 40 42 169 40 43 169 40 44 169 40 45 169 40 46 169 40 48 169 220 180 70 220 180 70 220 180 70 220 180 70 220 180 70 220 180 70 220 180 70 220 180 70 220 180 70 220 180 70 220 180 70 220 180 70 220 180 70 220 180 70 220 180 70 220 180 70 220 180 70 220 180 70 220 180 70 220 180 70 220 180 70 220 180 70 220 180 70 220 180 70 220 180 70 220 180 70 220 180 70 220 180 70 220 180 70 220 180 70 220 180 70 220 180 70 220 180 70 220 180 70 220 180 70 220 180 70 220 180 70 220 180 70 220 180 70 220 180 70 220 180 70 220 180 70 220 180 70 220 180 70 220 180 70 220 180 70 220 180 70 220 180 70 220 180 70 220 180 70 220 180 70 220 180 70 220 180 70 220 180 70 220 180 70 220 180 70 220 180 70 220 180 70 220 180 70 220 180 70 220 180 70 220 180 70 220 180 70 220 180 70 220 180 70 220 180 70 220 180 70 220 180 70 220 180 70 220 180 70 220 180 70 220 180 70 220 180 70 220 180 70 220 180 70 220 180 70 220 180 70 220 180 70 220 180 70 220 180 70 220 180 70 220 180 70 220 180 70 220 180 70 220 180 70 220 180 70 220 180 70 220 180 70 220 180 70 220 180 70 220 180 70 220 180 70 220 180 70 220 180 70 220 180 70 220 180 70 220 180 70 220 180 70 220 180 70 220 180 70 220 180 70 220 180 70 220 180 70 220 180 70 220 180 70 220 180 70 220 180 70 220 180 70 220 180 70 220 180 70 220 180 70 220 180 70 220 180 70 220 180 70 220 180 70 220 180 70 220 180 70 220 180 70 220 180 70 220 180 70 220 180 70 220 180 70 220 180 70 220 180 70 220 180 70 220 180 70 220 180 70 220 180 70 220 180 70 220 180 70 220 180 70 220 180 70 220 180 70 220 180 70 220 180 70 220 180 70 220 180 70 220 180 70 220 180 70 220 180 70 220 180 70 220 180 70 220 180 70 220 180 70 220 180 70 220 180 70 220 180 70 220 180 70 220 180 70 40 208 169 40 209 169 40 210 169 40 211 169 40 212 169 40 213 169 40 214 169 40 215 169 40 216 169 40 217 169 40 218 169 40 219 169 40 220 169 40 221 169 40 222 169 40 224 169 40 225 169 40 226 169 40 227 169 40 228 169 40 229 169 40 230 169 40 231 169 40 232 169 40 233 169 40 234 169 40 235 169 40 236 169 40 237 169 40 238 169 40 240 169 40 241 169 40 242 169 40 243 169 40 244 169 40 245 169 40 246 169 40 247 169 40 248 169 40 249 169 40 250 169 40 251 169 40 252 169 40 253 169 40 255 169
40 0 168 40 1 168 40 2 168 40 3 168 40 4 168 40 5 168 40 6 168 40 7 168 40 8 168 40 9 168 40 10 168 40 11 168 40 12 168 40 13 168 40 14 168 40 16 168 40 17 168 40 18 168 40 19 168 40 20 168 40 21 168 40 22 168 40 23 168 40 24 168 40 25 168 40 26 168 40 27 168 40 28 168 40 29 168 40 30 168 40 32 168 40 33 168 40 34 168 40 35 168 40 36 168 40 37 168 40 38 168 40 39 168 40 40 168 40 41 168 40 42 168 40 43 168 40 44 168 40 45 168 40 46 168 40 48 168 220 180 70 220 180 70 220 180 70 220 180 70 220 180 70 220 180 70 220 180 70 220 180 70 220 180 70 220 180 70 220 180 70 220 180 70 220 180 70 220 180 70 220 180 70 220 180 70 220 180 70 220 180 70 220 180 70 220 180 70 220 180 70 220 180 70 220 180 70 220 180 70 220 180 70 220 180 70 220 180 70 220 180 70 220 180 70 220 180 70 220 180 70 220 180 70 220 180 70 220 180 70 220 180 70 220 180 70 220 180 70 220 180 70 220 180 70 220 180 70 220 180 70 220 180 70 220 180 70 220 180 70 220 180 70 220 180 70 220 180 70 220 180 70 220 180 70 220 180 70 220 180 70 220 180 70 220 180 70 220 180 70 220 180 70 220 180 70 220 180 70 220 180 70 220 180 70 220 180 70 220 180 70 220 180 70 220 180 70 220 180 70 220 180 70 220 180 70 220 180 70 220 180 70 220 180 70 220 180 70 220 180 70 220 180 70 220 180 70 220 180 70 220 180 70 220 180 70 220 180 70 220 180 70 220 180 70 220 180 70 220 180 70 220 180 70 220 180 70 220 180 70 220 180 70 220 180 70 220 180 70 220 180 70 220 180 70 220 180 70 220 180 70 220 180 70 220 180 70 220 180 70 220 180 70 220 180 70 220 180 70 220 180 70 220 180 70 220 180 70 220 180 70 220 180 70 220 180 70 220 180 70 220 180 70 220 180 70 220 180 70 220 180 70 220 180 70 220 180 70 220 180 70 220 180 70 220 180 70 220 180 70 220 180 70 220 180 70 220 180 70 220 180 70 220 180 70 220 180 70 220 180 70 220 180 70 220 180 70 220 180 70 220 180 70 220 180 70 220 180 70 220 180 70 220 180 70 220 180 70 220 180 70 220 180 70 220 180 70 220 180 70 220 180 70 220 180 70 220 180 70 220 180 70 220 180 70 220 180 70 220 180 70 220 180 70 220 180 70 220 180 70 220 180 70 220 180 70 220 180 70 220 180 70 220 180 70 40 208 168 40 209 168 40 210 168 40 211 168 40 212 168 40 213 168 40 214 168 40 215 168 40 216 168 40 217 168 40 218 168 40 219 168 40 220 168 40 221 168 40 222 168 40 224 168 40 225 168 40 226 168 40 227 168 40 228 168 40 229 168 40 230 168 40 231 168 40 232 168 40 233 168 40 234 168 40 235 168 40 236 168 40 237 168 40 238 168 40 240 168 40 241 168 40 242 168 40 243 168 40 244 168 40 245 168 40 246 168 40 247 168 40 248 168 40 249 168 40 250 168 40 251 168 40 252 168 40 253 168 40 255 168
40 0 166 40 1 166 40 2 166 40 3 166 40 4 166 40 5 166 40 6 166 40 7 166 40 8 166 40 9 166 40 10 166 40 11 166 40 12 166 40 13 166 40 14 166 40 16 166 40 17 166 40 18 166 40 19 166 40 20 166 40 21 166 40 22 166 40 23 166 40 24 166 40 25 166 40 26 166 40 27 166 40 28 166 40 29 166 40 30 166 40 32 166 40 33 166 40 34 166 40 35 166 40 36 166 40 37 166 40 38 166 40 39 166 40 40 166 40 41 166 40 42 166 40 43 166 40 44 166 40 45 166 40 46 166 40 48 166 220 180 70 220 180 70 220 180 70 220 180 70 220 180 70 220 180 70 220 180 70 220 180 70 220 180 70 220 180 70 220 180 70 220 180 70 220 180 70 220 180 70 220 180 70 220 180 70 220 180 70 220 180 70 220 180 70 220 180 70 220 180 70 220 180 70 220 180 70 220 180 70 220 180 70 220 180 70 220 180 70 220 180 70 220 180 70 220 180 70 220 180 70 220 180 70 220 180 70 220 180 70 220 180 70 220 180 70 220 180 70 220 180 70 220 180 70 220 180 70 220 180 70 220 180 70 220 180 70 220 180 70 220 180 70 220 180 70 220 180 70 220 180 70 220 180 70 220 180 70 220 180 70 220 180 70 220 180 70 220 180 70 220 180 70 220 180 70 220 180 70 220 180 70 220 180 70 220 180 70 220 180 70 220 180 70 220 180 70 220 180 70 220 180 70 220 180 70 220 180 70 220 180 70 220 180 70 220 180 70 220 180 70 220 180 70 220 180 70 220 180 70 220 180 70 220 180 70 220 180 70 220 180 70 220 180 70 220 180 70 220 180 70 220 180 70 220 180 70 220 180 70 220 180 70 220 180 70 220 180 70 220 180 70 220 180 70 220 180 70 220 180 70 220 180 70 220 180 70 220 180 70 220 180 70 220 180 70 220 180 70 220 180 70 220 180 70 220 180 70 220 180 70 220 180 70 220 180 70 220 180 70 220 180 70 220 180 70 220 180 70 220 180 70 220 180 70 220 180 70 220 180 70 220 180 70 220 180 70 220 180 70 220 180 70 220 180 70 220 180 70 220 180 70 220 180 70 220 180 70 220 180 70 220 180 70 220 180 70 220 180 70 220 180 70 220 180 70 220 180 70 220 180 70 220 180 70 220 180 70 220 180 70 220 180 70 220 180 70 220 180 70 220 180 70 220 180 70 220 180 70 220 180 70 220 180 70 220 180 70 220 180 70 220 180 70 220 180 70 220 180 70 220 180 70 220 180 70 220 180 70 220 180 70 220 180 70 40 208 166 40 209 166 40 210 166 40 211 166 40 212 166 40 213 166 40 214 166 40 215 166 40 216 166 40 217 166 40 218 166 40 219 166 40 220 166 40 221 166 40 222 166 40 224 166 40 225 166 40 226 166 40 227 166 40 228 166 40 229 166 40 230 166 40 231 166 40 232 166 40 233 166 40 234 166 40 235 166 40 236 166 40 237 166 40 238 166 40 240 166 40 241 166 40 242 166 40 243 166 40 244 166 40 245 166 40 246 166 40 247 166 40 248 166 40 249 166 40 250 166 40 251 166 40 252 166 40 253 166 40 255 166
40 0 165 40 1 165 40 2 165 40 3 165 40 4 165 40 5 165 40 6 165 40 7 165 40 8 165 40 9 165 40 10 165 40 11 165 40 12 165 40 13 165 40 14 165 40 16 165 40 17 165 40 18 165 40 19 165 40 20 165 40 21 165 40 22 165 40 23 165 40 24 165 40 25 165 40 26 165 40 27 165 40 28 165 40 29 165 40 30 165 40 32 165 40 33 165 40 34 165 40 35 165 40 36 165 40 37 165 40 38 165 40 39 165 40 40 165 40 41 165 40 42 165 40 43 165 40 44 165 40 45 165 40 46 165 40 48 165 220 180 70 220 180 70 220 180 70 220 180 70 220 180 70 220 180 70 220 180 70 220 180 70 220 180 70 220 180 70 220 180 70 220 180 70 220 180 70 220 180 70 220 180 70 220 180 70 220 180 70 220 180 70 220 180 70 220 180 70 220 180 70 220 180 70 220 180 70 220 180 70 220 180 70 220 180 70 220 180 70 220 180 70 220 180 70 220 180 70 220 180 70 220 180 70 220 180 70 220 180 70 220 180 70 220 180 70 220 180 70 220 180 70 220 180 70 220 180 70 220 180 70 220 180 70 220 180 70 220 180 70 220 180 70 220 180 70 220 180 70 220 180 70 220 180 70 220 180 70 220 180 70 220 180 70 220 180 70 220 180 70 220 180 70 220 180 70 220 180 70 220 180 70 220 180 70 220 180 70 220 180 70 220 180 70 220 180 70 220 180 70 220 180 70 220 180 70 220 180 70 220 180 70 220 180 70 220 180 70 220 180 70 220 180 70 220 180 70 220 180 70 220 180 70 220 180 70 220 180 70 220 180 70 220 180 70 220 180 70 220 180 70 220 180 70 220 180 70 220 180 70 220 180 70 220 180 70 220 180 70 220 180 70 220 180 70 220 180 70 220 180 70 220 180 70 220 180 70 220 180 70 220 180 70 220 180 70 220 180 70 220 180 70 220 180 70 220 180 70 220 180 70 220 180 70 220 180 70 220 180 70 220 180 70 220 180 70 220 180 70 220 180 70 220 180 70 220 180 70 220 180 70 220 180 70 220 180 70 220 180 70 220 180 70 220 180 70 220 180 70 220 180 70 220 180 70 220 180 70 220 180 70 220 180 70 220 180 70 220 180 70 220 180 70 220 180 70 220 180 70 220 180 70 220 180 70 220 180 70 220 180 70 220 180 70 220 180 70 220 180 70 220 180 70 220 180 70 220 180 70 220 180 70 220 180 70 220 180 70 220 180 70 220 180 70 220 180 70 220 180 70 220 180 70 220 180 70 220 180 70 220 180 70 220 180 70 40 208 165 40 209 165 40 210 165 40 211 165 40 212 165 40 213 165 40 214 165 40 215 165 40 216 165 40 217 165 40 218 165 40 219 165 40 220 165 40 221 165 40 222 165 40 224 165 40 225 165 40 226 165 40 227 165 40 228 165 40 229 165 40 230 165 40 231 165 40 232 165 40 233 165 40 234 165 40 235 165 40 236 165 40 237 165 40 238 165 40 240 165 40 241 165 40 242 165 40 243 165 40 244 165 40 245 165 40 246 165 40 247 165 40 248 165 40 249 165 40 250 165 40 251 165 40 252 165 40 253 165 40 255 165
40 0 163 40 1 163 40 2 163 40 3 163 40 4 163 40 5 163 40 6 163 40 7 163 40 8 163 40 9 163 40 10 163 40 11 163 40 12 163 40 13 163 40 14 163 40 16 163 40 17 163 40 18 163 40 19 163 40 20 163 40 21 163 40 22 163 40 23 163 40 24 163 40 25 163 40 26 163 40 27 163 40 28 163 40 29 163 40 30 163 40 32 163 40 33 163 40 34 163 40 35 163 40 36 163 40 37 163 40 38 163 40 39 163 40 40 163 40 41 163 40 42 163 40 43 163 40 44 163 40 45 163 40 46 163 40 48 163 220 180 70 220 180 70 220 180 70 220 180 70 220 180 70 220 180 70 220 180 70 220 180 70 220 180 70 220 180 70 220 180 70 220 180 70 220 180 70 220 180 70 220 180 70 220 180 70 220 180 70 220 180 70 220 180 70 220 180 70 220 180 70 220 180 70 220 180 70 220 180 70 220 180 70 220 180 70 220 180 70 220 180 70 220 180 70 220 180 70 220 180 70 220 180 70 220 180 70 220 180 70 220 180 70 220 180 70 220 180 70 220 180 70 220 180 70 220 180 70 220 180 70 220 180 70 220 180 70 220 180 70 220 180 70 220 180 70 220 180 70 220 180 70 220 180 70 220 180 70 220 180 70 220 180 70 220 180 70 220 180 70 220 180 70 220 180 70 220 180 70 220 180 70 220 180 70 220 180 70 220 180 70 220 180 70 220 180 70 220 180 70 220 180 70 220 180 70 220 180 70 220 180 70 220 180 70 220 180 70 220 180 70 220 180 70 220 180 70 220 180 70 220 180 70 220 180 70 220 180 70 220 180 70 220 180 70 220 180 70 220 180 70 220 180 70 220 180 70 220 180 70 220 180 70 220 180 70 220 180 70 220 180 70 220 180 70 220 180 70 220 180 70 220 180 70 220 180 70 220 180 70 220 180 70 220 180 70 220 180 70 220 180 70 220 180 70 220 180 70 220 180 70 220 180 70 220 180 70 220 180 70 220 180 70 220 180 70 220 180 70 220 180 70 220 180 70 220 180 70 220 180 70 220 180 70 220 180 70 220 180 70 220 180 70 220 180 70 220 180 70 220 180 70 220 180 70 220 180 70 220 180 70 220 180 70 220 180 70 220 180 70 220 180 70 220 180 70 220 180 70 220 180 70 220 180 70 220 180 70 220 180 70 220 180 70 220 180 70 220 180 70 220 180 70 220 180 70 220 180 70 220 180 70 220 180 70 220 180 70 220 180 70 220 180 70 220 180 70 220 180 70 220 180 70 220 180 70 220 180 70 220 180 70 220 180 70 40 208 163 40 209 163 40 210 163 40 211 163 40 212 163 40 213 163 40 214 163 40 215 163 40 216 163 40 217 163 40 218 163 40 219 163 40 220 163 40 221 163 40 222 163 40 224 163 40 225 163 40 226 163 40 227 163 40 228 163 40 229 163 40 230 163 40 231 163 40 232 163 40 233 163 40 234 163 40 235 163 40 236 163 40 237 163 40 238 163 40 240 163 40 241 163 40 242 163 40 243 163 40 244 163 40 245 163 40 246 163 40 247 163 40 248 163 40 249 163 40 250 163 40 251 163 40 252 163 40 253 163 40 255 163
40 0 162 40 1 162 40 2 162 40 3 162 40 4 162 40 5 162 40 6 162 40 7 162 40 8 162 40 9 162 40 10 162 40 11 162 40 12 162 40 13 162 40 14 162 40 16 162 40 17 162 40 18 162 40 19 162 40 20 162 40 21 162 40 22 162 40 23 162 40 24 162 40 25 162 40 26 162 40 27 162 40 28 162 40 29 162 40 30 162 40 32 162 40 33 162 40 34 162 40 35 162 40 36 162 40 37 162 40 38 162 40 39 162 40 40 162 40 41 162 40 42 162 40 43 162 40 44 162 40 45 162 40 46 162 40 48 162 220 180 70 220 180 70 220 180 70 220 180 70 220 180 70 220 180 70 220 180 70 220 180 70 220 180 70 220 180 70 220 180 70 220 180 70 220 180 70 220 180 70 220 180 70 220 180 70 220 180 70 220 180 70 220 180 70 220 180 70 220 180 70 220 180 70 220 180 70 220 180 70 220 180 70 220 180 70 220 180 70 220 180 70 220 180 70 220 180 70 220 180 70 220 180 70 220 180 70 220 180 70 220 180 70 220 180 70 220 180 70 220 180 70 220 180 70 220 180 70 220 180 70 220 180 70 220 180 70 220 180 70 220 180 70 220 180 70 220 180 70 220 180 70 220 180 70 220 180 70 220 180 70 220 180 70 220 180 70 220 180 70 220 180 70 220 180 70 220 180 70 220 180 70 220 180 70 220 180 70 220 180 70 220 180 70 220 180 70 220 180 70 220 180 70 220 180 70 220 180 70 220 180 70 220 180 70 220 180 70 220 180 70 220 180 70 220 180 70 220 180 70 220 180 70 220 180 70 220 180 70 220 180 70 220 180 70 220 180 70 220 180 70 220 180 70 220 180 70 220 180 70 220 180 70 220 180 70 220 180 70 220 180 70 220 180 70 220 180 70 220 180 70 220 180 70 220 180 70 220 180 70 220 180 70 220 180 70 220 180 70 220 180 70 220 180 70 220 180 70 220 180 70 220 180 70 220 180 70 220 180 70 220 180 70 220 180 70 220 180 70 220 180 70 220 180 70 220 180 70 220 180 70 220 180 70 220 180 70 220 180 70 220 180 70 220 180 70 220 180 70 220 180 70 220 180 70 220 180 70 220 180 70 220 180 70 220 180 70 220 180 70 220 180 70 220 180 70 220 180 70 220 180 70 220 180 70 220 180 70 220 180 70 220 180 70 220 180 70 220 180 70 220 180 70 220 180 70 220 180 70 220 180 70 220 180 70 220 180 70 220 180 70 220 180 70 220 180 70 220 180 70 220 180 70 220 180 70 220 180 70 220 180 70 220 180 70 40 208 162 40 209 162 40 210 162 40 211 162 40 212 162 40 213 162 40 214 162 40 215 162 40 216 162 40 217 162 40 218 162 40 219 162 40 220 162 40 221 162 40 222 162 40 224 162 40 225 162 40 226 162 40 227 162 40 228 162 40 229 162 40 230 162 40 231 162 40 232 162 40 233 162 40 234 162 40 235 162 40 236 162 40 237 162 40 238 162 40 240 162 40 241 162 40 242 162 40 243 162 40 244 162 40 245 162 40 246 162 40 247 162 40 248 162 40 249 162 40 250 162 40 251 162 40 252 162 40 253 162 40 255 162
40 0 160 40 1 160 40 2 160 40 3 160 40 4 160 40 5 160 40 6 160 40 7 160 40 8 160 40 9 160 40 10 160 40 11 160 40 12 160 40 13 160 40 14 160 40 16 160 40 17 160 40 18 160 40 19 160 40 20 160 40 21 160 40 22 160 40 23 160 40 24 160 40 25 160 40 26 160 40 27 160 40 28 160 40 29 160 40 30 160 40 32 160 40 33 160 40 34 160 40 35 160 40 36 160 40 37 160 40 38 160 40 39 160 40 40 160 40 41 160 40 42 160 40 43 160 40 44 160 40 45 160 40 46 160 40 48 160 220 180 70 220 180 70 220 180 70 220 180 70 220 180 70 220 180 70 220 180 70 220 180 70 220 180 70 220 180 70 220 180 70 220 180 70 220 180 70 220 180 70 220 180 70 220 180 70 220 180 70 220 180 70 220 180 70 220 180 70 220 180 70 220 180 70 220 180 70 220 180 70 220 180 70 220 180 70 220 180 70 220 180 70 220 180 70 220 180 70 220 180 70 220 180 70 220 180 70 220 180 70 220 180 70 220 180 70 220 180 70 220 180 70 220 180 70 220 180 70 220 180 70 220 180 70 220 180 70 220 180 70 220 180 70 220 180 70 220 180 70 220 180 70 220 180 70 220 180 70 220 180 70 220 180 70 220 180 70 220 180 70 220 180 70 220 180 70 220 180 70 220 180 70 220 180 70 220 180 70 220 180 70 220 180 70 220 180 70 220 180 70 220 180 70 220 180 70 220 180 70 220 180 70 220 180 70 220 180 70 220 180 70 220 180 70 220 180 70 220 180 70 220 180 70 220 180 70 220 180 70 220 180 70 220 180 70 220 180 70 220 180 70 220 180 70 220 180 70 220 180 70 220 180 70 220 180 70 220 180 70 220 180 70 220 180 70 220 180 70 220 180 70 220 180 70 220 180 70 220 180 70 220 180 70 220 180 70 220 180 70 220 180 70 220 180 70 220 180 70 220 180 70 220 180 70 220 180 70 220 180 70 220 180 70 220 180 70 220 180 70 220 180 70 220 180 70 220 180 70 220 180 70 220 180 70 220 180 70 220 180 70 220 180 70 220 180 70 220 180 70 220 180 70 220 180 70 220 180 70 220 180 70 220 180 70 220 180 70 220 180 70 220 180 70 220 180 70 220 180 70 220 180 70 220 180 70 220 180 70 220 180 70 220 180 70 220 180 70 220 180 70 220 180 70 220 180 70 220 180 70 220 180 70 220 180 70 220 180 70 220 180 70 220 180 70 220 180 70 220 180 70 220 180 70 220 180 70 220 180 70 220 180 70 220 180 70 40 208 160 40 209 160 40 210 160 40 211 160 40 212 160 40 213 160 40 214 160 40 215 160 40 216 160 40 217 160 40 218 160 40 219 160 40 220 160 40 221 160 40 222 160 40 224 160 40 225 160 40 226 160 40 227 160 40 228 160 40 229 160 40 230 160 40 231 160 40 232 160 40 233 160 40 234 160 40 235 160 40 236 160 40 237 160 40 238 160 40 240 160 40 241 160 40 242 160 40 243 160 40 244 160 40 245 160 40 246 160 40 247 160 40 248 160 40 249 160 40 250 160 40 251 160 40 252 160 40 253 160 40 255 160
40 0 159 40 1 159 40 2 159 40 3 159 40 4 159 40 5 159 40 6 159 40 7 159 40 8 159 40 9 159 40 10 159 40 11 159 40 12 159 40 13 159 40 14 159 40 16 159 40 17 159 40 18 159 40 19 159 40 20 159 40 21 159 40 22 159 40 23 159 40 24 159 40 25 159 40 26 159 40 27 159 40 28 159 40 29 159 40 30 159 40 32 159 40 33 159 40 34 159 40 35 159 40 36 159 40 37 159 40 38 159 40 39 159 40 40 159 40 41 159 40 42 159 40 43 159 40 44 159 40 45 159 40 46 159 40 48 159 220 180 70 220 180 70 220 180 70 220 180 70 220 180 70 220 180 70 220 180 70 220 180 70 220 180 70 220 180 70 220 180 70 220 180 70 220 180 70 220 180 70 220 180 70 220 180 70 220 180 70 220 180 70 220 180 70 220 180 70 220 180 70 220 180 70 220 180 70 220 180 70 220 180 70 220 180 70 220 180 70 220 180 70 220 180 70 220 180 70 220 180 70 220 180 70 220 180 70 220 180 70 220 180 70 220 180 70 220 180 70 220 180 70 220 180 70 220 180 70 220 180 70 220 180 70 220 180 70 220 180 70 220 180 70 220 180 70 220 180 70 220 180 70 220 180 70 220 180 70 220 180 70 220 180 70 220 180 70 220 180 70 220 180 70 220 180 70 220 180 70 220 180 70 220 180 70 220 180 70 220 180 70 220 180 70 220 180 70 220 180 70 220 180 70 220 180 70 220 180 70 220 180 70 220 180 70 220 180 70 220 180 70 220 180 70 220 180 70 220 180 70 220 180 70 220 180 70 220 180 70 220 180 70 220 180 70 220 180 70 220 180 70 220 180 70 220 180 70 220 180 70 220 180 70 220 180 70 220 180 70 220 180 70 220 180 70 220 180 70 220 180 70 220 180 70 220 180 70 220 180 70 220 180 70 220 180 70 220 180 70 220 180 70 220 180 70 220 180 70 220 180 70 220 180 70 220 180 70 220 180 70 220 180 70 220 180 70 220 180 70 220 180 70 220 180 70 220 180 70 220 180 70 220 180 70 220 180 70 220 180 70 220 180 70 220 180 70 220 180 70 220 180 70 220 180 70 220 180 70 220 180 70 220 180 70 220 180 70 220 180 70 220 180 70 220 180 70 220 180 70 220 180 70 220 180 70 220 180 70 220 180 70 220 180 70 220 180 70 220 180 70 220 180 70 220 180 70 220 180 70 220 180 70 220 180 70 220 180 70 220 180 70 220 180 70 220 180 70 220 180 70 220 180 70 220 180 70 220 180 70 220 180 70 220 180 70 40 208 159 40 209 159 40 210 159 40 211 159 40 212 159 40 213 159 40 214 159 40 215 159 40 216 159 40 217 159 40 218 159 40 219 159 40 220 159 40 221 159 40 222 159 40 224 159 40 225 159 40 226 159 40 227 159 40 228 159 40 229 159 40 230 159 40 231 159 40 232 159 40 233 159 40 234 159 40 235 159 40 236 159 40 237 159 40 238 159 40 240 159 40 241 159 40 242 159 40 243 159 40 244 159 40 245 159 40 246 159 40 247 159 40 248 159 40 249 159 40 250 159 40 251 159 40 252 159 40 253 159 40 255 159
40 0 158 40 1 158 40 2 158 40 3 158 40 4 158 40 5 158 40 6 158 40 7 158 40 8 158 40 9 158 40 10 158 40 11 158 40 12 158 40 13 158 40 14 158 40 16 158 40 17 158 40 18 158 40 19 158 40 20 158 40 21 158 40 22 158 40 23 158 40 24 158 40 25 158 40 26 158 40 27 158 40 28 158 40 29 158 40 30 158 40 32 158 40 33 158 40 34 158 40 35 158 40 36 158 40 37 158 40 38 158 40 39 158 40 40 158 40 41 158 40 42 158 40 43 158 40 44 158 40 45 158 40 46 158 40 48 158 220 180 70 220 180 70 220 180 70 220 180 70 220 180 70 220 180 70 220 180 70 220 180 70 220 180 70 220 180 70 220 180 70 220 180 70 220 180 70 220 180 70 220 180 70 220 180 70 220 180 70 220 180 70 220 180 70 220 180 70 220 180 70 220 180 70 220 180 70 220 180 70 220 180 70 220 180 70 220 180 70 220 180 70 220 180 70 220 180 70 220 180 70 220 180 70 220 180 70 220 180 70 220 180 70 220 180 70 220 180 70 220 180 70 220 180 70 220 180 70 220 180 70 220 180 70 220 180 70 220 180 70 220 180 70 220 180 70 220 180 70 220 180 70 220 180 70 220 180 70 220 180 70 220 180 70 220 180 70 220 180 70 220 180 70 220 180 70 220 180 70 220 180 70 220 180 70 220 180 70 220 180 70 220 180 70 220 180 70 220 180 70 220 180 70 220 180 70 220 180 70 220 180 70 220 180 70 220 180 70 220 180 70 220 180 70 220 180 70 220 180 70 220 180 70 220 180 70 220 180 70 220 180 70 220 180 70 220 180 70 220 180 70 220 180 70 220 180 70 220 180 70 220 180 70 220 180 70 220 180 70 220 180 70 220 180 70 220 180 70 220 180 70 220 180 70 220 180 70 220 180 70 220 180 70 220 180 70 220 180 70 220 180 70 220 180 70 220 180 70 220 180 70 220 180 70 220 180 70 220 180 70 220 180 70 220 180 70 220 180 70 220 180 70 220 180 70 220 180 70 220 180 70 220 180 70 220 180 70 220 180 70 220 180 70 220 180 70 220 180 70 220 180 70 220 180 70 220 180 70 220 180 70 220 180 70 220 180 70 220 180 70 220 180 70 220 180 70 220 180 70 220 180 70 220 180 70 220 180 70 220 180 70 220 180 70 220 180 70 220 180 70 220 180 70 220 180 70 220 180 70 220 180 70 220 180 70 220 180 70 220 180 70 220 180 70 220 180 70 220 180 70 220 180 70 220 180 70 220 180 70 220 180 70 220 180 70 40 208 158 40 209 158 40 210 158 40 211 158 40 212 158 40 213 158 40 214 158 40 215 158 40 216 158 40 217 158 40 218 158 40 219 158 40 220 158 40 221 158 40 222 158 40 224 158 40 225 158 40 226 158 40 227 158 40 228 158 40 229 158 40 230 158 40 231 158 40 232 158 40 233 158 40 234 158 40 235 158 40 236 158 40 237 158 40 238 158 40 240 158 40 241 158 40 242 158 40 243 158 40 244 158 40 245 158 40 246 158 40 247 158 40 248 158 40 249 158 40 250 158 40 251 158 40 252 158 40 253 158 40 255 158
40 0 156 40 1 156 40 2 156 40 3 156 40 4 156 40 5 156 40 6 156 40 7 156 40 8 156 40 9 156 40 10 156 40 11 156 40 12 156 40 13 156 40 14 156 40 16 156 40 17 156 40 18 156 40 19 156 40 20 156 40 21 156 40 22 156 40 23 156 40 24 156 40 25 156 40 26 156 40 27 156 40 28 156 40 29 156 40 30 156 40 32 156 40 33 156 40 34 156 40 35 156 40 36 156 40 37 156 40 38 156 40 39 156 40 40 156 40 41 156 40 42 156 40 43 156 40 44 156 40 45 156 40 46 156 40 48 156 220 180 70 220 180 70 220 180 70 220 180 70 220 180 70 220 180 70 220 180 70 220 180 70 220 180 70 220 180 70 220 180 70 220 180 70 220 180 70 220 180 70 220 180 70 220 180 70 220 180 70 220 180 70 220 180 70 220 180 70 220 180 70 220 180 70 220 180 70 220 180 70 220 180 70 220 180 70 220 180 70 220 180 70 220 180 70 220 180 70 220 180 70 220 180 70 220 180 70 220 180 70 220 180 70 220 180 70 220 180 70 220 180 70 220 180 70 220 180 70 220 180 70 220 180 70 220 180 70 220 180 70 220 180 70 220 180 70 220 180 70 220 180 70 220 180 70 220 180 70 220 180 70 220 180 70 220 180 70 220 180 70 220 180 70 220 180 70 220 180 70 220 180 70 220 180 70 220 180 70 220 180 70 220 180 70 220 180 70 220 180 70 220 180 70 220 180 70 220 180 70 220 180 70 220 180 70 220 180 70 220 180 70 220 180 70 220 180 70 220 180 70 220 180 70 220 180 70 220 180 70 220 180 70 220 180 70 220 180 70 220 180 70 220 180 70 220 180 70 220 180 70 220 180 70 220 180 70 220 180 70 220 180 70 220 180 70 220 180 70 220 180 70 220 180 70 220 180 70 220 180 70 220 180 70 220 180 70 220 180 70 220 180 70 220 180 70 220 180 70 220 180 70 220 180 70 220 180 70 220 180 70 220 180 70 220 180 70 220 180 70 220 180 70 220 180 70 220 180 70 220 180 70 220 180 70 220 180 70 220 180 70 220 180 70 220 180 70 220 180 70 220 180 70 220 180 70 220 180 70 220 180 70 220 180 70 220 180 70 220 180 70 220 180 70 220 180 70 220 180 70 220 180 70 220 180 70 220 180 70 220 180 70 220 180 70 220 180 70 220 180 70 220 180 70 220 180 70 220 180 70 220 180 70 220 180 70 220 180 70 220 180 70 220 180 70 220 180 70 220 180 70 220 180 70 220 180 70 220 180 70 220 180 70 220 180 70 40 208 156 40 209 156 40 210 156 40 211 156 40 212 156 40 213 156 40 214 156 40 215 156 40 216 156 40 217 156 40 218 156 40 219 156 40 220 156 40 221 156 40 222 156 40 224 156 40 225 156 40 226 156 40 227 156 40 228 156 40 229 156 40 230 156 40 231 156 40 232 156 40 233 156 40 234 156 40 235 156 40 236 156 40 237 156 40 238 156 40 240 156 40 241 156 40 242 156 40 243 156 40 244 156 40 245 156 40 246 156 40 247 156 40 248 156 40 249 156 40 250 156 40 251 156 40 252 156 40 253 156 40 255 156
40 0 155 40 1 155 40 2 155 40 3 155 40 4 155 40 5 155 40 6 155 40 7 155 40 8 155 40 9 155 40 10 155 40 11 155 40 12 155 40 13 155 40 14 155 40 16 155 40 17 155 40 18 155 40 19 155 40 20 155 40 21 155 40 22 155 40 23 155 40 24 155 40 25 155 40 26 155 40 27 155 40 28 155 40 29 155 40 30 155 40 32 155 40 33 155 40 34 155 40 35 155 40 36 155 40 37 155 40 38 155 40 39 155 40 40 155 40 41 155 40 42 155 40 43 155 40 44 155 40 45 155 40 46 155 40 48 155 220 180 70 220 180 70 220 180 70 220 180 70 220 180 70 220 180 70 220 180 70 220 180 70 220 180 70 220 180 70 220 180 70 220 180 70 220 180 70 220 180 70 220 180 70 220 180 70 220 180 70 220 180 70 220 180 70 220 180 70 220 180 70 220 180 70 220 180 70 220 180 70 220 180 70 220 180 70 220 180 70 220 180 70 220 180 70 220 180 70 220 180 70 220 180 70 220 180 70 220 180 70 220 180 70 220 180 70 220 180 70 220 180 70 220 180 70 220 180 70 220 180 70 220 180 70 220 180 70 220 180 70 220 180 70 220 180 70 220 180 70 220 180 70 220 180 70 220 180 70 220 180 70 220 180 70 220 180 70 220 180 70 220 180 70 220 180 70 220 180 70 220 180 70 220 180 70 220 180 70 220 180 70 220 180 70 220 180 70 220 180 70 220 180 70 220 180 70 220 180 70 220 180 70 220 180 70 220 180 70 220 180 70 220 180 70 220 180 70 220 180 70 220 180 70 220 180 70 220 180 70 220 180 70 220 180 70 220 180 70 220 180 70 220 180 70 220 180 70 220 180 70 220 180 70 220 180 70 220 180 70 220 180 70 220 180 70 220 180 70 220 180 70 220 180 70 220 180 70 220 180 70 220 180 70 220 180 70 220 180 70 220 180 70 220 180 70 220 180 70 220 180 70 220 180 70 220 180 70 220 180 70 220 180 70 220 180 70 220 180 70 220 180 70 220 180 70 220 180 70 220 180 70 220 180 70 220 180 70 220 180 70 220 180 70 220 180 70 220 180 70 220 180 70 220 180 70 220 180 70 220 180 70 220 180 70 220 180 70 220 180 70 220 180 70 220 180 70 220 180 70 220 180 70 220 180 70 220 180 70 220 180 70 220 180 70 220 180 70 220 180 70 220 180 70 220 180 70 220 180 70 220 180 70 220 180 70 220 180 70 220 180 70 220 180 70 220 180 70 220 180 70 220 180 70 220 180 70 220 180 70 220 180 70 220 180 70 40 208 155 40 209 155 40 210 155 40 211 155 40 212 155 40 213 155 40 214 155 40 215 155 40 216 155 40 217 155 40 218 155 40 219 155 40 220 155 40 221 155 40 222 155 40 224 155 40 225 155 40 226 155 40 227 155 40 228 155 40 229 155 40 230 155 40 231 155 40 232 155 40 233 155 40 234 155 40 235 155 40 236 155 40 237 155 40 238 155 40 240 155 40 241 155 40 242 155 40 243 155 40 244 155 40 245 155 40 246 155 40 247 155 40 248 155 40 249 155 40 250 155 40 251 155 40 252 155 40 253 155 40 255 155
40 0 153 40 1 153 40 2 153 40 3 153 40 4 153 40 5 153 40 6 153 40 7 153 40 8 153 40 9 153 40 10 153 40 11 153 40 12 153 40 13 153 40 14 153 40 16 153 40 17 153 40 18 153 40 19 153 40 20 153 40 21 153 40 22 153 40 23 153 40 24 153 40 25 153 40 26 153 40 27 153 40 28 153 40 29 153 40 30 153 40 32 153 40 33 153 40 34 153 40 35 153 40 36 153 40 37 153 40 38 153 40 39 153 40 40 153 40 41 153 40 42 153 40 43 153 40 44 153 40 45 153 40 46 153 40 48 153 220 180 70 220 180 70 220 180 70 220 180 70 220 180 70 220 180 70 220 180 70 220 180 70 220 180 70 220 180 70 220 180 70 220 180 70 220 180 70 220 180 70 220 180 70 220 180 70 220 180 70 220 180 70 220 180 70 220 180 70 220 180 70 220 180 70 220 180 70 220 180 70 220 180 70 220 180 70 220 180 70 220 180 70 220 180 70 220 180 70 220 180 70 220 180 70 220 180 70 220 180 70 220 180 70 220 180 70 220 180 70 220 180 70 220 180 70 220 180 70 220 180 70 220 180 70 220 180 70 220 180 70 220 180 70 220 180 70 220 180 70 220 180 70 220 180 70 220 180 70 220 180 70 220 180 70 220 180 70 220 180 70 220 180 70 220 180 70 220 180 70 220 180 70 220 180 70 220 180 70 220 180 70 220 180 70 220 180 70 220 180 70 220 180 70 220 180 70 220 180 70 220 180 70 220 180 70 220 180 70 220 180 70 220 180 70 220 180 70 220 180 70 220 180 70 220 180 70 220 180 70 220 180 70 220 180 70 220 180 70 220 180 70 220 180 70 220 180 70 220 180 70 220 180 70 220 180 70 220 180 70 220 180 70 220 180 70 220 180 70 220 180 70 220 180 70 220 180 70 220 180 70 220 180 70 220 180 70 220 180 70 220 180 70 220 180 70 220 180 70 220 180 70 220 180 70 220 180 70 220 180 70 220 180 70 220 180 70 220 180 70 220 180 70 220 180 70 220 180 70 220 180 70 220 180 70 220 180 70 220 180 70 220 180 70 220 180 70 220 180 70 220 180 70 220 180 70 220 180 70 220 180 70 220 180 70 220 180 70 220 180 70 220 180 70 220 180 70 220 180 70 220 180 70 220 180 70 220 180 70 220 180 70 220 180 70 220 180 70 220 180 70 220 180 70 220 180 70 220 180 70 220 180 70 220 180 70 220 180 70 220 180 70 220 180 70 220 180 70 220 180 70 220 180 70 220 180 70 220 180 70 220 180 70 220 180 70 40 208 153 40 209 153 40 210 153 40 211 153 40 212 153 40 213 153 40 214 153 40 215 153 40 216 153 40 217 153 40 218 153 40 219 153 40 220 153 40 221 153 40 222 153 40 224 153 40 225 153 40 226 153 40 227 153 40 228 153 40 229 153 40 230 153 40 231 153 40 232 153 40 233 153 40 234 153 40 235 153 40 236 153 40 237 153 40 238 153 40 240 153 40 241 153 40 242 153 40 243 153 40 244 153 40 245 153 40 246 153 40 247 153 40 248 153 40 249 153 40 250 153 40 251 153 40 252 153 40 253 153 40 255 153
40 0 152 40 1 152 40 2 152 40 3 152 40 4 152 40 5 152 40 6 152 40 7 152 40 8 152 40 9 152 40 10 152 40 11 152 40 12 152 40 13 152 40 14 152 40 16 152 40 17 152 40 18 152 40 19 152 40 20 152 40 21 152 40 22 152 40 23 152 40 24 152 40 25 152 40 26 152 40 27 152 40 28 152 40 29 152 40 30 152 40 32 152 40 33 152 40 34 152 40 35 152 40 36 152 40 37 152 40 38 152 40 39 152 40 40 152 40 41 152 40 42 152 40 43 152 40 44 152 40 45 152 40 46 152 40 48 152 220 180 70 220 180 70 220 180 70 220 180 70 220 180 70 220 180 70 220 180 70 220 180 70 220 180 70 220 180 70 220 180 70 220 180 70 220 180 70 220 180 70 220 180 70 220 180 70 220 180 70 220 180 70 220 180 70 220 180 70 220 180 70 220 180 70 220 180 70 220 180 70 220 180 70 220 180 70 220 180 70 220 180 70 220 180 70 220 180 70 220 180 70 220 180 70 220 180 70 220 180 70 220 180 70 220 180 70 220 180 70 220 180 70 220 180 70 220 180 70 220 180 70 220 180 70 220 180 70 220 180 70 220 180 70 220 180 70 220 180 70 220 180 70 220 180 70 220 180 70 220 180 70 220 180 70 220 180 70 220 180 70 220 180 70 220 180 70 220 180 70 220 180 70 220 180 70 220 180 70 220 180 70 220 180 70 220 180 70 220 180 70 220 180 70 220 180 70 220 180 70 220 180 70 220 180 70 220 180 70 220 180 70 220 180 70 220 180 70 220 180 70 220 180 70 220 180 70 220 180 70 220 180 70 220 180 70 220 180 70 220 180 70 220 180 70 220 180 70 220 180 70 220 180 70 220 180 70 220 180 70 220 180 70 220 180 70 220 180 70 220 180 70 220 180 70 220 180 70 220 180 70 220 180 70 220 180 70 220 180 70 220 180 70 220 180 70 220 180 70 220 180 70 220 180 70 220 180 70 220 180 70 220 180 70 220 180 70 220 180 70 220 180 70 220 180 70 220 180 70 220 180 70 220 180 70 220 180 70 220 180 70 220 180 70 220 180 70 220 180 70 220 180 70 220 180 70 220 180 70 220 180 70 220 180 70 220 180 70 220 180 70 220 180 70 220 180 70 220 180 70 220 180 70 220 180 70 220 180 70 220 180 70 220 180 70 220 180 70 220 180 70 220 180 70 220 180 70 220 180 70 220 180 70 220 180 70 220 180 70 220 180 70 220 180 70 220 180 70 220 180 70 220 180 70 220 180 70 220 180 70 220 180 70 220 180 70 40 208 152 40 209 152 40 210 152 40 211 152 40 212 152 40 213 152 40 214 152 40 215 152 40 216 152 40 217 152 40 218 152 40 219 152 40 220 152 40 221 152 40 222 152 40 224 152 40 225 152 40 226 152 40 227 152 40 228 152 40 229 152 40 230 152 40 231 152 40 232 152 40 233 152 40 234 152 40 235 152 40 236 152 40 237 152 40 238 152 40 240 152 40 241 152 40 242 152 40 243 152 40 244 152 40 245 152 40 246 152 40 247 152 40 248 152 40 249 152 40 250 152 40 251 152 40 252 152 40 253 152 40 255 152
40 0 151 40 1 151 40 2 151 40 3 151 40 4 151 40 5 151 40 6 151 40 7 151 40 8 151 40 9 151 40 10 151 40 11 151 40 12 151 40 13 151 40 14 151 40 16 151 40 17 151 40 18 151 40 19 151 40 20 151 40 21 151 40 22 151 40 23 151 40 24 151 40 25 151 40 26 151 40 27 151 40 28 151 40 29 151 40 30 151 40 32 151 40 33 151 40 34 151 40 35 151 40 36 151 40 37 151 40 38 151 40 39 151 40 40 151 40 41 151 40 42 151 40 43 151 40 44 151 40 45 151 40 46 151 40 48 151 220 180 70 220 180 70 220 180 70 220 180 70 220 180 70 220 180 70 220 180 70 220 180 70 220 180 70 220 180 70 220 180 70 220 180 70 220 180 70 220 180 70 220 180 70 220 180 70 220 180 70 220 180 70 220 180 70 220 180 70 220 180 70 220 180 70 220 180 70 220 180 70 220 180 70 220 180 70 220 180 70 220 180 70 220 180 70 220 180 70 220 180 70 220 180 70 220 180 70 220 180 70 220 180 70 220 180 70 220 180 70 220 180 70 220 180 70 220 180 70 220 180 70 220 180 70 220 180 70 220 180 70 220 180 70 220 180 70 220 180 70 220 180 70 220 180 70 220 180 70 220 180 70 220 180 70 220 180 70 220 180 70 220 180 70 220 180 70 220 180 70 220 180 70 220 180 70 220 180 70 220 180 70 220 180 70 220 180 70 220 180 70 220 180 70 220 180 70 220 180 70 220 180 70 220 180 70 220 180 70 220 180 70 220 180 70 220 180 70 220 180 70 220 180 70 220 180 70 220 180 70 220 180 70 220 180 70 220 180 70 220 180 70 220 180 70 220 180 70 220 180 70 220 180 70 220 180 70 220 180 70 220 180 70 220 180 70 220 180 70 220 180 70 220 180 70 220 180 70 220 180 70 220 180 70 220 180 70 220 180 70 220 180 70 220 180 70 220 180 70 220 180 70 220 180 70 220 180 70 220 180 70 220 180 70 220 180 70 220 180 70 220 180 70 220 180 70 220 180 70 220 180 70 220 180 70 220 180 70 220 180 70 220 180 70 220 180 70 220 180 70 220 180 70 220 180 70 220 180 70 220 180 70 220 180 70 220 180 70 220 180 70 220 180 70 220 180 70 220 180 70 220 180 70 220 180 70 220 180 70 220 180 70 220 180 70 220 180 70 220 180 70 220 180 70 220 180 70 220 180 70 220 180 70 220 180 70 220 180 70 220 180 70 220 180 70 220 180 70 220 180 70 220 180 70 220 180 70 220 180 70 220 180 70 220 180 70 40 208 151 40 209 151 40 210 151 40 211 151 40 212 151 40 213 151 40 214 151 40 215 151 40 216 151 40 217 151 40 218 151 40 219 151 40 220 151 40 221 151 40 222 151 40 224 151 40 225 151 40 226 151 40 227 151 40 228 151 40 229 151 40 230 151 40 231 151 40 232 151 40 233 151 40 234 151 40 235 151 40 236 151 40 237 151 40 238 151 40 240 151 40 241 151 40 242 151 40 243 151 40 244 151 40 245 151 40 246 151 40 247 151 40 248 151 40 249 151 40 250 151 40 251 151 40 252 151 40 253 151 40 255 151
40 0 149 40 1 149 40 2 149 40 3 149 40 4 149 40 5 149 40 6 149 40 7 149 40 8 149 40 9 149 40 10 149 40 11 149 40 12 149 40 13 149 40 14 149 40 16 149 40 17 149 40 18 149 40 19 149 40 20 149 40 21 149 40 22 149 40 23 149 40 24 149 40 25 149 40 26 149 40 27 149 40 28 149 40 29 149 40 30 149 40 32 149 40 33 149 40 34 149 40 35 149 40 36 149 40 37 149 40 38 149 40 39 149 40 40 149 40 41 149 40 42 149 40 43 149 40 44 149 40 45 149 40 46 149 40 48 149 220 180 70 220 180 70 220 180 70 220 180 70 220 180 70 220 180 70 220 180 70 220 180 70 220 180 70 220 180 70 220 180 70 220 180 70 220 180 70 220 180 70 220 180 70 220 180 70 220 180 70 220 180 70 220 180 70 220 180 70 220 180 70 220 180 70 220 180 70 220 180 70 220 180 70 220 180 70 220 180 70 220 180 70 220 180 70 220 180 70 220 180 70 220 180 70 220 180 70 220 180 70 220 180 70 220 180 70 220 180 70 220 180 70 220 180 70 220 180 70 220 180 70 220 180 70 220 180 70 220 180 70 220 180 70 220 180 70 220 180 70 220 180 70 220 180 70 220 180 70 220 180 70 220 180 70 220 180 70 220 180 70 220 180 70 220 180 70 220 180 70 220 180 70 220 180 70 220 180 70 220 180 70 220 180 70 220 180 70 220 180 70 220 180 70 220 180 70 220 180 70 220 180 70 220 180 70 220 180 70 220 180 70 220 180 70 220 180 70 220 180 70 220 180 70 220 180 70 220 180 70 220 180 70 220 180 70 220 180 70 220 180 70 220 180 70 220 180 70 220 180 70 220 180 70 220 180 70 220 180 70 220 180 70 220 180 70 220 180 70 220 180 70 220 180 70 220 180 70 220 180 70 220 180 70 220 180 70 220 180 70 220 180 70 220 180 70 220 180 70 220 180 70 220 180 70 220 180 70 220 180 70 220 180 70 220 180 70 220 180 70 220 180 70 220 180 70 220 180 70 220 180 70 220 180 70 220 180 70 220 180 70 220 180 70 220 180 70 220 180 70 220 180 70 220 180 70 220 180 70 220 180 70 220 180 70 220 180 70 220 180 70 220 180 70 220 180 70 220 180 70 220 180 70 220 180 70 220 180 70 220 180 70 220 180 70 220 180 70 220 180 70 220 180 70 220 180 70 220 180 70 220 180 70 220 180 70 220 180 70 220 180 70 220 180 70 220 180 70 220 180 70 220 180 70 220 180 70 220 180 70 220 180 70 220 180 70 40 208 149 40 209 149 40 210 149 40 211 149 40 212 149 40 213 149 40 214 149 40 215 149 40 216 149 40 217 149 40 218 149 40 219 149 40 220 149 40 221 149 40 222 149 40 224 149 40 225 149 40 226 149 40 227 149 40 228 149 40 229 149 40 230 149 40 231 149 40 232 149 40 233 149 40 234 149 40 235 149 40 236 149 40 237 149 40 238 149 40 240 149 40 241 149 40 242 149 40 243 149 40 244 149 40 245 149 40 246 149 40 247 149 40 248 149 40 249 149 40 250 149 40 251 149 40 252 149 40 253 149 40 255 149
40 0 148 40 1 148 40 2 148 40 3 148 40 4 148 40 5 148 40 6 148 40 7 148 40 8 148 40 9 148 40 10 148 40 11 148 40 12 148 40 13 148 40 14 148 40 16 148 40 17 148 40 18 148 40 19 148 40 20 148 40 21 148 40 22 148 40 23 148 40 24 148 40 25 148 40 26 148 40 27 148 40 28 148 40 29 148 40 30 148 40 32 148 40 33 148 40 34 148 40 35 148 40 36 148 40 37 148 40 38 148 40 39 148 40 40 148 40 41 148 40 42 148 40 43 148 40 44 148 40 45 148 40 46 148 40 48 148 220 180 70 220 180 70 220 180 70 220 180 70 220 180 70 220 180 70 220 180 70 220 180 70 220 180 70 220 180 70 220 180 70 220 180 70 220 180 70 220 180 70 220 180 70 220 180 70 220 180 70 220 180 70 220 180 70 220 180 70 220 180 70 220 180 70 220 180 70 220 180 70 220 180 70 220 180 70 220 180 70 220 180 70 220 180 70 220 180 70 220 180 70 220 180 70 220 180 70 220 180 70 220 180 70 220 180 70 220 180 70 220 180 70 220 180 70 220 180 70 220 180 70 220 180 70 220 180 70 220 180 70 220 180 70 220 180 70 220 180 70 220 180 70 220 180 70 220 180 70 220 180 70 220 180 70 220 180 70 220 180 70 220 180 70 220 180 70 220 180 70 220 180 70 220 180 70 220 180 70 220 180 70 220 180 70 220 180 70 220 180 70 220 180 70 220 180 70 220 180 70 220 180 70 220 180 70 220 180 70 220 180 70 220 180 70 220 180 70 220 180 70 220 180 70 220 180 70 220 180 70 220 180 70 220 180 70 220 180 70 220 180 70 220 180 70 220 180 70 220 180 70 220 180 70 220 180 70 220 180 70 220 180 70 220 180 70 220 180 70 220 180 70 220 180 70 220 180 70 220 180 70 220 180 70 220 180 70 220 180 70 220 180 70 220 180 70 220 180 70 220 180 70 220 180 70 220 180 70 220 180 70 220 180 70 220 180 70 220 180 70 220 180 70 220 180 70 220 180 70 220 180 70 220 180 70 220 180 70 220 180 70 220 180 70 220 180 70 220 180 70 220 180 70 220 180 70 220 180 70 220 180 70 220 180 70 220 180 70 220 180 70 220 180 70 220 180 70 220 180 70 220 180 70 220 180 70 220 180 70 220 180 70 220 180 70 220 180 70 220 180 70 220 180 70 220 180 70 220 180 70 220 180 70 220 180 70 220 180 70 220 180 70 220 180 70 220 180 70 220 180 70 220 180 70 220 180 70 220 180 70 220 180 70 220 180 70 40 208 148 40 209 148 40 210 148 40 211 148 40 212 148 40 213 148 40 214 148 40 215 148 40 216 148 40 217 148 40 218 148 40 219 148 40 220 148 40 221 148 40 222 148 40 224 148 40 225 148 40 226 148 40 227 148 40 228 148 40 229 148 40 230 148 40 231 148 40 232 148 40 233 148 40 234 148 40 235 148 40 236 148 40 237 148 40 238 148 40 240 148 40 241 148 40 242 148 40 243 148 40 244 148 40 245 148 40 246 148 40 247 148 40 248 148 40 249 148 40 250 148 40 251 148 40 252 148 40 253 148 40 255 148
40 0 146 40 1 146 40 2 146 40 3 146 40 4 146 40 5 146 40 6 146 40 7 146 40 8 146 40 9 146 40 10 146 40 11 146 40 12 146 40 13 146 40 14 146 40 16 146 40 17 146 40 18 146 40 19 146 40 20 146 40 21 146 40 22 146 40 23 146 40 24 146 40 25 146 40 26 146 40 27 146 40 28 146 40 29 146 40 30 146 40 32 146 40 33 146 40 34 146 40 35 146 40 36 146 40 37 146 40 38 146 40 39 146 40 40 146 40 41 146 40 42 146 40 43 146 40 44 146 40 45 146 40 46 146 40 48 146 220 180 70 220 180 70 220 180 70 220 180 70 220 180 70 220 180 70 220 180 70 220 180 70 220 180 70 220 180 70 220 180 70 220 180 70 220 180 70 220 180 70 220 180 70 220 180 70 220 180 70 220 180 70 220 180 70 220 180 70 220 180 70 220 180 70 220 180 70 220 180 70 220 180 70 220 180 70 220 180 70 220 180 70 220 180 70 220 180 70 220 180 70 220 180 70 220 180 70 220 180 70 220 180 70 220 180 70 220 180 70 220 180 70 220 180 70 220 180 70 220 180 70 220 180 70 220 180 70 220 180 70 220 180 70 220 180 70 220 180 70 220 180 70 220 180 70 220 180 70 220 180 70 220 180 70 220 180 70 220 180 70 220 180 70 220 180 70 220 180 70 220 180 70 220 180 70 220 180 70 220 180 70 220 180 70 220 180 70 220 180 70 220 180 70 220 180 70 220 180 70 220 180 70 220 180 70 220 180 70 220 180 70 220 180 70 220 180 70 220 180 70 220 180 70 220 180 70 220 180 70 220 180 70 220 180 70 220 180 70 220 180 70 220 180 70 220 180 70 220 180 70 220 180 70 220 180 70 220 180 70 220 180 70 220 180 70 220 180 70 220 180 70 220 180 70 220 180 70 220 180 70 220 180 70 220 180 70 220 180 70 220 180 70 220 180 70 220 180 70 220 180 70 220 180 70 220 180 70 220 180 70 220 180 70 220 180 70 220 180 70 220 180 70 220 180 70 220 180 70 220 180 70 220 180 70 220 180 70 220 180 70 220 180 70 220 180 70 220 180 70 220 180 70 220 180 70 220 180 70 220 180 70 220 180 70 220 180 70 220 180 70 220 180 70 220 180 70 220 180 70 220 180 70 220 180 70 220 180 70 220 180 70 220 180 70 220 180 70 220 180 70 220 180 70 220 180 70 220 180 70 220 180 70 220 180 70 220 180 70 220 180 70 220 180 70 220 180 70 220 180 70 220 180 70 220 180 70 220 180 70 220 180 70 220 180 70 40 208 146 40 209 146 40 210 146 40 211 146 40 212 146 40 213 146 40 214 146 40 215 146 40 216 146 40 217 146 40 218 146 40 219 146 40 220 146 40 221 146 40 222 146 40 224 146 40 225 146 40 226 146 40 227 146 40 228 146 40 229 146 40 230 146 40 231 146 40 232 146 40 233 146 40 234 146 40 235 146 40 236 146 40 237 146 40 238 146 40 240 146 40 241 146 40 242 146 40 243 146 40 244 146 40 245 146 40 246 146 40 247 146 40 248 146 40 249 146 40 250 146 40 251 146 40 252 146 40 253 146 40 255 146
40 0 145 40 1 145 40 2 145 40 3 145 40 4 145 40 5 145 40 6 145 40 7 145 40 8 145 40 9 145 40 10 145 40 11 145 40 12 145 40 13 145 40 14 145 40 16 145 40 17 145 40 18 145 40 19 145 40 20 145 40 21 145 40 22 145 40 23 145 40 24 145 40 25 145 40 26 145 40 27 145 40 28 145 40 29 145 40 30 145 40 32 145 40 33 145 40 34 145 40 35 145 40 36 145 40 37 145 40 38 145 40 39 145 40 40 145 40 41 145 40 42 145 40 43 145 40 44 145 40 45 145 40 46 145 40 48 145 220 180 70 220 180 70 220 180 70 220 180 70 220 180 70 220 180 70 220 180 70 220 180 70 220 180 70 220 180 70 220 180 70 220 180 70 220 180 70 220 180 70 220 180 70 220 180 70 220 180 70 220 180 70 220 180 70 220 180 70 220 180 70 220 180 70 220 180 70 220 180 70 220 180 70 220 180 70 220 180 70 220 180 70 220 180 70 220 180 70 220 180 70 220 180 70 220 180 70 220 180 70 220 180 70 220 180 70 220 180 70 220 180 70 220 180 70 220 180 70 220 180 70 220 180 70 220 180 70 220 180 70 220 180 70 220 180 70 220 180 70 220 180 70 220 180 70 220 180 70 220 180 70 220 180 70 220 180 70 220 180 70 220 180 70 220 180 70 220 180 70 220 180 70 220 180 70 220 180 70 220 180 70 220 180 70 220 180 70 220 180 70 220 180 70 220 180 70 220 180 70 220 180 70 220 180 70 220 180 70 220 180 70 220 180 70 220 180 70 220 180 70 220 180 70 220 180 70 220 180 70 220 180 70 220 180 70 220 180 70 220 180 70 220 180 70 220 180 70 220 180 70 220 180 70 220 180 70 220 180 70 220 180 70 220 180 70 220 180 70 220 180 70 220 180 70 220 180 70 220 180 70 220 180 70 220 180 70 220 180 70 220 180 70 220 180 70 220 180 70 220 180 70 220 180 70 220 180 70 220 180 70 220 180 70 220 180 70 220 180 70 220 180 70 220 180 70 220 180 70 220 180 70 220 180 70 220 180 70 220 180 70 220 180 70 220 180 70 220 180 70 220 180 70 220 180 70 220 180 70 220 180 70 220 180 70 220 180 70 220 180 70 220 180 70 220 180 70 220 180 70 220 180 70 220 180 70 220 180 70 220 180 70 220 180 70 220 180 70 220 180 70 220 180 70 220 180 70 220 180 70 220 180 70 220 180 70 220 180 70 220 180 70 220 180 70 220 180 70 220 180 70 220 180 70 220 180 70 220 180 70 220 180 70 220 180 70 40 208 145 40 209 145 40 210 145 40 211 145 40 212 145 40 213 145 40 214 145 40 215 145 40 216 145 40 217 145 40 218 145 40 219 145 40 220 145 40 221 145 40 222 145 40 224 145 40 225 145 40 226 145 40 227 145 40 228 145 40 229 145 40 230 145 40 231 145 40 232 145 40 233 145 40 234 145 40 235 145 40 236 145 40 237 145 40 238 145 40 240 145 40 241 145 40 242 145 40 243 145 40 244 145 40 245 145 40 246 145 40 247 145 40 248 145 40 249 145 40 250 145 40 251 145 40 252 145 40 253 145 40 255 145
40 0 143 40 1 143 40 2 143 40 3 143 40 4 143 40 5 143 40 6 143 40 7 143 40 8 143 40 9 143 40 10 143 40 11 143 40 12 143 40 13 143 40 14 143 40 16 143 40 17 143 40 18 143 40 19 143 40 20 143 40 21 143 40 22 143 40 23 143 40 24 143 40 25 143 40 26 143 40 27 143 40 28 143 40 29 143 40 30 143 40 32 143 40 33 143 40 34 143 40 35 143 40 36 143 40 37 143 40 38 143 40 39 143 40 40 143 40 41 143 40 42 143 40 43 143 40 44 143 40 45 143 40 46 143 40 48 143 220 180 70 220 180 70 220 180 70 220 180 70 220 180 70 220 180 70 220 180 70 220 180 70 220 180 70 220 180 70 220 180 70 220 180 70 220 180 70 220 180 70 220 180 70 220 180 70 220 180 70 220 180 70 220 180 70 220 180 70 220 180 70 220 180 70 220 180 70 220 180 70 220 180 70 220 180 70 220 180 70 220 180 70 220 180 70 220 180 70 220 180 70 220 180 70 220 180 70 220 180 70 220 180 70 220 180 70 220 180 70 220 180 70 220 180 70 220 180 70 220 180 70 220 180 70 220 180 70 220 180 70 220 180 70 220 180 70 220 180 70 220 180 70 220 180 70 220 180 70 220 180 70 220 180 70 220 180 70 220 180 70 220 180 70 220 180 70 220 180 70 220 180 70 220 180 70 220 180 70 220 180 70 220 180 70 220 180 70 220 180 70 220 180 70 220 180 70 220 180 70 220 180 70 220 180 70 220 180 70 220 180 70 220 180 70 220 180 70 220 180 70 220 180 70 220 180 70 220 180 70 220 180 70 220 180 70 220 180 70 220 180 70 220 180 70 220 180 70 220 180 70 220 180 70 220 180 70 220 180 70 220 180 70 220 180 70 220 180 70 220 180 70 220 180 70 220 180 70 220 180 70 220 180 70 220 180 70 220 180 70 220 180 70 220 180 70 220 180 70 220 180 70 220 180 70 220 180 70 220 180 70 220 180 70 220 180 70 220 180 70 220 180 70 220 180 70 220 180 70 220 180 70 220 180 70 220 180 70 220 180 70 220 180 70 220 180 70 220 180 70 220 180 70 220 180 70 220 180 70 220 180 70 220 180 70 220 180 70 220 180 70 220 180 70 220 180 70 220 180 70 220 180 70 220 180 70 220 180 70 220 180 70 220 180 70 220 180 70 220 180 70 220 180 70 220 180 70 220 180 70 220 180 70 220 180 70 220 180 70 220 180 70 220 180 70 220 180 70 220 180 70 220 180 70 220 180 70 220 180 70 220 180 70 220 180 70 40 208 143 40 209 143 40 210 143 40 211 143 40 212 143 40 213 143 40 214 143 40 215 143 40 216 143 40 217 143 40 218 143 40 219 143 40 220 143 40 221 143 40 222 143 40 224 143 40 225 143 40 226 143 40 227 143 40 228 143 40 229 143 40 230 143 40 231 143 40 232 143 40 233 143 40 234 143 40 235 143 40 236 143 40 237 143 40 238 143 40 240 143 40 241 143 40 242 143 40 243 143 40 244 143 40 245 143 40 246 143 40 247 143 40 248 143 40 249 143 40 250 143 40 251 143 40 252 143 40 253 143 40 255 143
40 0 142 40 1 142 40 2 142 40 3 142 40 4 142 40 5 142 40 6 142 40 7 142 40 8 142 40 9 142 40 10 142 40 11 142 40 12 142 40 13 142 40 14 142 40 16 142 40 17 142 40 18 142 40 19 142 40 20 142 40 21 142 40 22 142 40 23 142 40 24 142 40 25 142 40 26 142 40 27 142 40 28 142 40 29 142 40 30 142 40 32 142 40 33 142 40 34 142 40 35 142 40 36 142 40 37 142 40 38 142 40 39 142 40 40 142 40 41 142 40 42 142 40 43 142 40 44 142 40 45 142 40 46 142 40 48 142 220 180 70 220 180 70 220 180 70 220 180 70 220 180 70 220 180 70 220 180 70 220 180 70 220 180 70 220 180 70 220 180 70 220 180 70 220 180 70 220 180 70 220 180 70 220 180 70 220 180 70 220 180 70 220 180 70 220 180 70 220 180 70 220 180 70 220 180 70 220 180 70 220 180 70 220 180 70 220 180 70 220 180 70 220 180 70 220 180 70 220 180 70 220 180 70 220 180 70 220 180 70 220 180 70 220 180 70 220 180 70 220 180 70 220 180 70 220 180 70 220 180 70 220 180 70 220 180 70 220 180 70 220 180 70 220 180 70 220 180 70 220 180 70 220 180 70 220 180 70 220 180 70 220 180 70 220 180 70 220 180 70 220 180 70 220 180 70 220 180 70 220 180 70 220 180 70 220 180 70 220 180 70 220 180 70 220 180 70 220 180 70 220 180 70 220 180 70 220 180 70 220 180 70 220 180 70 220 180 70 220 180 70 220 180 70 220 180 70 220 180 70 220 180 70 220 180 70 220 180 70 220 180 70 220 180 70 220 180 70 220 180 70 220 180 70 220 180 70 220 180 70 220 180 70 220 180 70 220 180 70 220 180 70 220 180 70 220 180 70 220 180 70 220 180 70 220 180 70 220 180 70 220 180 70 220 180 70 220 180 70 220 180 70 220 180 70 220 180 70 220 180 70 220 180 70 220 180 70 220 180 70 220 180 70 220 180 70 220 180 70 220 180 70 220 180 70 220 180 70 220 180 70 220 180 70 220 180 70 220 180 70 220 180 70 220 180 70 220 180 70 220 180 70 220 180 70 220 180 70 220 180 70 220 180 70 220 180 70 220 180 70 220 180 70 220 180 70 220 180 70 220 180 70 220 180 70 220 180 70 220 180 70 220 180 70 220 180 70 220 180 70 220 180 70 220 180 70 220 180 70 220 180 70 220 180 70 220 180 70 220 180 70 220 180 70 220 180 70 220 180 70 220 180 70 220 180 70 220 180 70 220 180 70 220 180 70 40 208 142 40 209 142 40 210 142 40 211 142 40 212 142 40 213 142 40 214 142 40 215 142 40 216 142 40 217 142 40 218 142 40 219 142 40 220 142 40 221 142 40 222 142 40 224 142 40 225 142 40 226 142 40 227 142 40 228 142 40 229 142 40 230 142 40 231 142 40 232 142 40 233 142 40 234 142 40 235 142 40 236 142 40 237 142 40 238 142 40 240 142 40 241 142 40 242 142 40 243 142 40 244 142 40 245 142 40 246 142 40 247 142 40 248 142 40 249 142 40 250 142 40 251 142 40 252 142 40 253 142 40 255 142
40 0 141 40 1 141 40 2 141 40 3 141 40 4 141 40 5 141 40 6 141 40 7 141 40 8 141 40 9 141 40 10 141 40 11 141 40 12 141 40 13 141 40 14 141 40 16 141 40 17 141 40 18 141 40 19 141 40 20 141 40 21 141 40 22 141 40 23 141 40 24 141 40 25 141 40 26 141 40 27 141 40 28 141 40 29 141 40 30 141 40 32 141 40 33 141 40 34 141 40 35 141 40 36 141 40 37 141 40 38 141 40 39 141 40 40 141 40 41 141 40 42 141 40 43 141 40 44 141 40 45 141 40 46 141 40 48 141 220 180 70 220 180 70 220 180 70 220 180 70 220 180 70 220 180 70 220 180 70 220 180 70 220 180 70 220 180 70 220 180 70 220 180 70 220 180 70 220 180 70 220 180 70 220 180 70 220 180 70 220 180 70 220 180 70 220 180 70 220 180 70 220 180 70 220 180 70 220 180 70 220 180 70 220 180 70 220 180 70 220 180 70 220 180 70 220 180 70 220 180 70 220 180 70 220 180 70 220 180 70 220 180 70 220 180 70 220 180 70 220 180 70 220 180 70 220 180 70 220 180 70 220 180 70 220 180 70 220 180 70 220 180 70 220 180 70 220 180 70 220 180 70 220 180 70 220 180 70 220 180 70 220 180 70 220 180 70 220 180 70 220 180 70 220 180 70 220 180 70 220 180 70 220 180 70 220 180 70 220 180 70 220 180 70 220 180 70 220 180 70 220 180 70 220 180 70 220 180 70 220 180 70 220 180 70 220 180 70 220 180 70 220 180 70 220 180 70 220 180 70 220 180 70 220 180 70 220 180 70 220 180 70 220 180 70 220 180 70 220 180 70 220 180 70 220 180 70 220 180 70 220 180 70 220 180 70 220 180 70 220 180 70 220 180 70 220 180 70 220 180 70 220 180 70 220 180 70 220 180 70 220 180 70 220 180 70 220 180 70 220 180 70 220 180 70 220 180 70 220 180 70 220 180 70 220 180 70 220 180 70 220 180 70 220 180 70 220 180 70 220 180 70 220 180 70 220 180 70 220 180 70 220 180 70 220 180 70 220 180 70 220 180 70 220 180 70 220 180 70 220 180 70 220 180 70 220 180 70 220 180 70 220 180 70 220 180 70 220 180 70 220 180 70 220 180 70 220 180 70 220 180 70 220 180 70 220 180 70 220 180 70 220 180 70 220 180 70 220 180 70 220 180 70 220 180 70 220 180 70 220 180 70 220 180 70 220 180 70 220 180 70 220 180 70 220 180 70 220 180 70 220 180 70 220 180 70 220 180 70 220 180 70 220 180 70 40 208 141 40 209 141 40 210 141 40 211 141 40 212 141 40 213 141 40 214 141 40 215 141 40 216 141 40 217 141 40 218 141 40 219 141 40 220 141 40 221 141 40 222 141 40 224 141 40 225 141 40 226 141 40 227 141 40 228 141 40 229 141 40 230 141 40 231 141 40 232 141 40 233 141 40 234 141 40 235 141 40 236 141 40 237 141 40 238 141 40 240 141 40 241 141 40 242 141 40 243 141 40 244 141 40 245 141 40 246 141 40 247 141 40 248 141 40 249 141 40 250 141 40 251 141 40 252 141 40 253 141 40 255 141
40 0 139 40 1 139 40 2 139 40 3 139 40 4 139 40 5 139 40 6 139 40 7 139 40 8 139 40 9 139 40 10 139 40 11 139 40 12 139 40 13 139 40 14 139 40 16 139 40 17 139 40 18 139 40 19 139 40 20 139 40 21 139 40 22 139 40 23 139 40 24 139 40 25 139 40 26 139 40 27 139 40 28 139 40 29 139 40 30 139 40 32 139 40 33 139 40 34 139 40 35 139 40 36 139 40 37 139 40 38 139 40 39 139 40 40 139 40 41 139 40 42 139 40 43 139 40 44 139 40 45 139 40 46 139 40 48 139 220 180 70 220 180 70 220 180 70 220 180 70 220 180 70 220 180 70 220 180 70 220 180 70 220 180 70 220 180 70 220 180 70 220 180 70 220 180 70 220 180 70 220 180 70 220 180 70 220 180 70 220 180 70 220 180 70 220 180 70 220 180 70 220 180 70 220 180 70 220 180 70 220 180 70 220 180 70 220 180 70 220 180 70 220 180 70 220 180 70 220 180 70 220 180 70 220 180 70 220 180 70 220 180 70 220 180 70 220 180 70 220 180 70 220 180 70 220 180 70 220 180 70 220 180 70 220 180 70 220 180 70 220 180 70 220 180 70 220 180 70 220 180 70 220 180 70 220 180 70 220 180 70 220 180 70 220 180 70 220 180 70 220 180 70 220 180 70 220 180 70 220 180 70 220 180 70 220 180 70 220 180 70 220 180 70 220 180 70 220 180 70 220 180 70 220 180 70 220 180 70 220 180 70 220 180 70 220 180 70 220 180 70 220 180 70 220 180 70 220 180 70 220 180 70 220 180 70 220 180 70 220 180 70 220 180 70 220 180 70 220 180 70 220 180 70 220 180 70 220 180 70 220 180 70 220 180 70 220 180 70 220 180 70 220 180 70 220 180 70 220 180 70 220 180 70 220 180 70 220 180 70 220 180 70 220 180 70 220 180 70 220 180 70 220 180 70 220 180 70 220 180 70 220 180 70 220 180 70 220 180 70 220 180 70 220 180 70 220 180 70 220 180 70 220 180 70 220 180 70 220 180 70 220 180 70 220 180 70 220 180 70 220 180 70 220 180 70 220 180 70 220 180 70 220 180 70 220 180 70 220 180 70 220 180 70 220 180 70 220 180 70 220 180 70 220 180 70 220 180 70 220 180 70 220 180 70 220 180 70 220 180 70 220 180 70 220 180 70 220 180 70 220 180 70 220 180 70 220 180 70 220 180 70 220 180 70 220 180 70 220 180 70 220 180 70 220 180 70 220 180 70 220 180 70 220 180 70 220 180 70 220 180 70 220 180 70 40 208 139 40 209 139 40 210 139 40 211 139 40 212 139 40 213 139 40 214 139 40 215 139 40 216 139 40 217 139 40 218 139 40 219 139 40 220 139 40 221 139 40 222 139 40 224 139 40 225 139 40 226 139 40 227 139 40 228 139 40 229 139 40 230 139 40 231 139 40 232 139 40 233 139 40 234 139 40 235 139 40 236 139 40 237 139 40 238 139 40 240 139 40 241 139 40 242 139 40 243 139 40 244 139 40 245 139 40 246 139 40 247 139 40 248 139 40 249 139 40 250 139 40 251 139 40 252 139 40 253 139 40 255 139
40 0 138 40 1 138 40 2 138 40 3 138 40 4 138 40 5 138 40 6 138 40 7 138 40 8 138 40 9 138 40 10 138 40 11 138 40 12 138 40 13 138 40 14 138 40 16 138 40 17 138 40 18 138 40 19 138 40 20 138 40 21 138 40 22 138 40 23 138 40 24 138 40 25 138 40 26 138 40 27 138 40 28 138 40 29 138 40 30 138 40 32 138 40 33 138 40 34 138 40 35 138 40 36 138 40 37 138 40 38 138 40 39 138 40 40 138 40 41 138 40 42 138 40 43 138 40 44 138 40 45 138 40 46 138 40 48 138 220 180 70 220 180 70 220 180 70 220 180 70 220 180 70 220 180 70 220 180 70 220 180 70 220 180 70 220 180 70 220 180 70 220 180 70 220 180 70 220 180 70 220 180 70 220 180 70 220 180 70 220 180 70 220 180 70 220 180 70 220 180 70 220 180 70 220 180 70 220 180 70 220 180 70 220 180 70 220 180 70 220 180 70 220 180 70 220 180 70 220 180 70 220 180 70 220 180 70 220 180 70 220 180 70 220 180 70 220 180 70 220 180 70 220 180 70 220 180 70 220 180 70 220 180 70 220 180 70 220 180 70 220 180 70 220 180 70 220 180 70 220 180 70 220 180 70 220 180 70 220 180 70 220 180 70 220 180 70 220 180 70 220 180 70 220 180 70 220 180 70 220 180 70 220 180 70 220 180 70 220 180 70 220 180 70 220 180 70 220 180 70 220 180 70 220 180 70 220 180 70 220 180 70 220 180 70 220 180 70 220 180 70 220 180 70 220 180 70 220 180 70 220 180 70 220 180 70 220 180 70 220 180 70 220 180 70 220 180 70 220 180 70 220 180 70 220 180 70 220 180 70 220 180 70 220 180 70 220 180 70 220 180 70 220 180 70 220 180 70 220 180 70 220 180 70 220 180 70 220 180 70 220 180 70 220 180 70 220 180 70 220 180 70 220 180 70 220 180 70 220 180 70 220 180 70 220 180 70 220 180 70 220 180 70 220 180 70 220 180 70 220 180 70 220 180 70 220 180 70 220 180 70 220 180 70 220 180 70 220 180 70 220 180 70 220 180 70 220 180 70 220 180 70 220 180 70 220 180 70 220 180 70 220 180 70 220 180 70 220 180 70 220 180 70 220 180 70 220 180 70 220 180 70 220 180 70 220 180 70 220 180 70 220 180 70 220 180 70 220 180 70 220 180 70 220 180 70 220 180 70 220 180 70 220 180 70 220 180 70 220 180 70 220 180 70 220 180 70 220 180 70 220 180 70 220 180 70 220 180 70 220 180 70 220 180 70 40 208 138 40 209 138 40 210 138 40 211 138 40 212 138 40 213 138 40 214 138 40 215 138 40 216 138 40 217 138 40 218 138 40 219 138 40 220 138 40 221 138 40 222 138 40 224 138 40 225 138 40 226 138 40 227 138 40 228 138 40 229 138 40 230 138 40 231 138 40 232 138 40 233 138 40 234 138 40 235 138 40 236 138 40 237 138 40 238 138 40 240 138 40 241 138 40 242 138 40 243 138 40 244 138 40 245 138 40 246 138 40 247 138 40 248 138 40 249 138 40 250 138 40 251 138 40 252 138 40 253 138 40 255 138
40 0 136 40 1 136 40 2 136 40 3 136 40 4 136 40 5 136 40 6 136 40 7 136 40 8 136 40 9 136 40 10 136 40 11 136 40 12 136 40 13 136 40 14 136 40 16 136 40 17 136 40 18 136 40 19 136 40 20 136 40 21 136 40 22 136 40 23 136 40 24 136 40 25 136 40 26 136 40 27 136 40 28 136 40 29 136 40 30 136 40 32 136 40 33 136 40 34 136 40 35 136 40 36 136 40 37 136 40 38 136 40 39 136 40 40 136 40 41 136 40 42 136 40 43 136 40 44 136 40 45 136 40 46 136 40 48 136 220 180 70 220 180 70 220 180 70 220 180 70 220 180 70 220 180 70 220 180 70 220 180 70 220 180 70 220 180 70 220 180 70 220 180 70 220 180 70 220 180 70 220 180 70 220 180 70 220 180 70 220 180 70 220 180 70 220 180 70 220 180 70 220 180 70 220 180 70 220 180 70 220 180 70 220 180 70 220 180 70 220 180 70 220 180 70 220 180 70 220 180 70 220 180 70 220 180 70 220 180 70 220 180 70 220 180 70 220 180 70 220 180 70 220 180 70 220 180 70 220 180 70 220 180 70 220 180 70 220 180 70 220 180 70 220 180 70 220 180 70 220 180 70 220 180 70 220 180 70 220 180 70 220 180 70 220 180 70 220 180 70 220 180 70 220 180 70 220 180 70 220 180 70 220 180 70 220 180 70 220 180 70 220 180 70 220 180 70 220 180 70 220 180 70 220 180 70 220 180 70 220 180 70 220 180 70 220 180 70 220 180 70 220 180 70 220 180 70 220 180 70 220 180 70 220 180 70 220 180 70 220 180 70 220 180 70 220 180 70 220 180 70 220 180 70 220 180 70 220 180 70 220 180 70 220 180 70 220 180 70 220 180 70 220 180 70 220 180 70 220 180 70 220 180 70 220 180 70 220 180 70 220 180 70 220 180 70 220 180 70 220 180 70 220 180 70 220 180 70 220 180 70 220 180 70 220 180 70 220 180 70 220 180 70 220 180 70 220 180 70 220 180 70 220 180 70 220 180 70 220 180 70 220 180 70 220 180 70 220 180 70 220 180 70 220 180 70 220 180 70 220 180 70 220 180 70 220 180 70 220 180 70 220 180 70 220 180 70 220 180 70 220 180 70 220 180 70 220 180 70 220 180 70 220 180 70 220 180 70 220 180 70 220 180 70 220 180 70 220 180 70 220 180 70 220 180 70 220 180 70 220 180 70 220 180 70 220 180 70 220 180 70 220 180 70 220 180 70 220 180 70 220 180 70 220 180 70 220 180 70 220 180 70 220 180 70 40 208 136 40 209 136 40 210 136 40 211 136 40 212 136 40 213 136 40 214 136 40 215 136 40 216 136 40 217 136 40 218 136 40 219 136 40 220 136 40 221 136 40 222 136 40 224 136 40 225 136 40 226 136 40 227 136 40 228 136 40 229 136 40 230 136 40 231 136 40 232 136 40 233 136 40 234 136 40 235 136 40 236 136 40 237 136 40 238 136 40 240 136 40 241 136 40 242 136 40 243 136 40 244 136 40 245 136 40 246 136 40 247 136 40 248 136 40 249 136 40 250 136 40 251 136 40 252 136 40 253 136 40 255 136
40 0 135 40 1 135 40 2 135 40 3 135 40 4 135 40 5 135 40 6 135 40 7 135 40 8 135 40 9 135 40 10 135 40 11 135 40 12 135 40 13 135 40 14 135 40 16 135 40 17 135 40 18 135 40 19 135 40 20 135 40 21 135 40 22 135 40 23 135 40 24 135 40 25 135 40 26 135 40 27 135 40 28 135 40 29 135 40 30 135 40 32 135 40 33 135 40 34 135 40 35 135 40 36 135 40 37 135 40 38 135 40 39 135 40 40 135 40 41 135 40 42 135 40 43 135 40 44 135 40 45 135 40 46 135 40 48 135 220 180 70 220 180 70 220 180 70 220 180 70 220 180 70 220 180 70 220 180 70 220 180 70 220 180 70 220 180 70 220 180 70 220 180 70 220 180 70 220 180 70 220 180 70 220 180 70 220 180 70 220 180 70 220 180 70 220 180 70 220 180 70 220 180 70 220 180 70 220 180 70 220 180 70 220 180 70 220 180 70 220 180 70 220 180 70 220 180 70 220 180 70 220 180 70 220 180 70 220 180 70 220 180 70 220 180 70 220 180 70 220 180 70 220 180 70 220 180 70 220 180 70 220 180 70 220 180 70 220 180 70 220 180 70 220 180 70 220 180 70 220 180 70 220 180 70 220 180 70 220 180 70 220 180 70 220 180 70 220 180 70 220 180 70 220 180 70 220 180 70 220 180 70 220 180 70 220 180 70 220 180 70 220 180 70 220 180 70 220 180 70 220 180 70 220 180 70 220 180 70 220 180 70 220 180 70 220 180 70 220 180 70 220 180 70 220 180 70 220 180 70 220 180 70 220 180 70 220 180 70 220 180 70 220 180 70 220 180 70 220 180 70 220 180 70 220 180 70 220 180 70 220 180 70 220 180 70 220 180 70 220 180 70 220 180 70 220 180 70 220 180 70 220 180 70 220 180 70 220 180 70 220 180 70 220 180 70 220 180 70 220 180 70 220 180 70 220 180 70 220 180 70 220 180 70 220 180 70 220 180 70 220 180 70 220 180 70 220 180 70 220 180 70 220 180 70 220 180 70 220 180 70 220 180 70 220 180 70 220 180 70 220 180 70 220 180 70 220 180 70 220 180 70 220 180 70 220 180 70 220 180 70 220 180 70 220 180 70 220 180 70 220 180 70 220 180 70 220 180 70 220 180 70 220 180 70 220 180 70 220 180 70 220 180 70 220 180 70 220 180 70 220 180 70 220 180 70 220 180 70 220 180 70 220 180 70 220 180 70 220 180 70 220 180 70 220 180 70 220 180 70 220 180 70 220 180 70 220 180 70 220 180 70 220 180 70 40 208 135 40 209 135 40 210 135 40 211 135 40 212 135 40 213 135 40 214 135 40 215 135 40 216 135 40 217 135 40 218 135 40 219 135 40 220 135 40 221 135 40 222 135 40 224 135 40 225 135 40 226 135 40 227 135 40 228 135 40 229 135 40 230 135 40 231 135 40 232 135 40 233 135 40 234 135 40 235 135 40 236 135 40 237 135 40 238 135 40 240 135 40 241 135 40 242 135 40 243 135 40 244 135 40 245 135 40 246 135 40 247 135 40 248 135 40 249 135 40 250 135 40 251 135 40 252 135 40 253 135 40 255 135
40 0 133 40 1 133 40 2 133 40 3 133 40 4 133 40 5 133 40 6 133 40 7 133 40 8 133 40 9 133 40 10 133 40 11 133 40 12 133 40 13 133 40 14 133 40 16 133 40 17 133 40 18 133 40 19 133 40 20 133 40 21 133 40 22 133 40 23 133 40 24 133 40 25 133 40 26 133 40 27 133 40 28 133 40 29 133 40 30 133 40 32 133 40 33 133 40 34 133 40 35 133 40 36 133 40 37 133 40 38 133 40 39 133 40 40 133 40 41 133 40 42 133 40 43 133 40 44 133 40 45 133 40 46 133 40 48 133 220 180 70 220 180 70 220 180 70 220 180 70 220 180 70 220 180 70 220 180 70 220 180 70 220 180 70 220 180 70 220 180 70 220 180 70 220 180 70 220 180 70 220 180 70 220 180 70 220 180 70 220 180 70 220 180 70 220 180 70 220 180 70 220 180 70 220 180 70 220 180 70 220 180 70 220 180 70 220 180 70 220 180 70 220 180 70 220 180 70 220 180 70 220 180 70 220 180 70 220 180 70 220 180 70 220 180 70 220 180 70 220 180 70 220 180 70 220 180 70 220 180 70 220 180 70 220 180 70 220 180 70 220 180 70 220 180 70 220 180 70 220 180 70 220 180 70 220 180 70 220 180 70 220 180 70 220 180 70 220 180 70 220 180 70 220 180 70 220 180 70 220 180 70 220 180 70 220 180 70 220 180 70 220 180 70 220 180 70 220 180 70 220 180 70 220 180 70 220 180 70 220 180 70 220 180 70 220 180 70 220 180 70 220 180 70 220 180 70 220 180 70 220 180 70 220 180 70 220 180 70 220 180 70 220 180 70 220 180 70 220 180 70 220 180 70 220 180 70 220 180 70 220 180 70 220 180 70 220 180 70 220 180 70 220 180 70 220 180 70 220 180 70 220 180 70 220 180 70 220 180 70 220 180 70 220 180 70 220 180 70 220 180 70 220 180 70 220 180 70 220 180 70 220 180 70 220 180 70 220 180 70 220 180 70 220 180 70 220 180 70 220 180 70 220 180 70 220 180 70 220 180 70 220 180 70 220 180 70 220 180 70 220 180 70 220 180 70 220 180 70 220 180 70 220 180 70 220 180 70 220 180 70 220 180 70 220 180 70 220 180 70 220 180 70 220 180 70 220 180 70 220 180 70 220 180 70 220 180 70 220 180 70 220 180 70 220 180 70 220 180 70 220 180 70 220 180 70 220 180 70 220 180 70 220 180 70 220 180 70 220 180 70 220 180 70 220 180 70 220 180 70 220 180 70 220 180 70 220 180 70 220 180 70 220 180 70 40 208 133 40 209 133 40 210 133 40 211 133 40 212 133 40 213 133 40 214 133 40 215 133 40 216 133 40 217 133 40 218 133 40 219 133 40 220 133 40 221 133 40 222 133 40 224 133 40 225 133 40 226 133 40 227 133 40 228 133 40 229 133 40 230 133 40 231 133 40 232 133 40 233 133 40 234 133 40 235 133 40 236 133 40 237 133 40 238 133 40 240 133 40 241 133 40 242 133 40 243 133 40 244 133 40 245 133 40 246 133 40 247 133 40 248 133 40 249 133 40 250 133 40 251 133 40 252 133 40 253 133 40 255 133
40 0 132 40 1 132 40 2 132 40 3 132 40 4 132 40 5 132 40 6 132 40 7 132 40 8 132 40 9 132 40 10 132 40 11 132 40 12 132 40 13 132 40 14 132 40 16 132 40 17 132 40 18 132 40 19 132 40 20 132 40 21 132 40 22 132 40 23 132 40 24 132 40 25 132 40 26 132 40 27 132 40 28 132 40 29 132 40 30 132 40 32 132 40 33 132 40 34 132 40 35 132 40 36 132 40 37 132 40 38 132 40 39 132 40 40 132 40 41 132 40 42 132 40 43 132 40 44 132 40 45 132 40 46 132 40 48 132 220 180 70 220 180 70 220 180 70 220 180 70 220 180 70 220 180 70 220 180 70 220 180 70 220 180 70 220 180 70 220 180 70 220 180 70 220 180 70 220 180 70 220 180 70 220 180 70 220 180 70 220 180 70 220 180 70 220 180 70 220 180 70 220 180 70 220 180 70 220 180 70 220 180 70 220 180 70 220 180 70 220 180 70 220 180 70 220 180 70 220 180 70 220 180 70 220 180 70 220 180 70 220 180 70 220 180 70 220 180 70 220 180 70 220 180 70 220 180 70 220 180 70 220 180 70 220 180 70 220 180 70 220 180 70 220 180 70 220 180 70 220 180 70 220 180 70 220 180 70 220 180 70 220 180 70 220 180 70 220 180 70 220 180 70 220 180 70 220 180 70 220 180 70 220 180 70 220 180 70 220 180 70 220 180 70 220 180 70 220 180 70 220 180 70 220 180 70 220 180 70 220 180 70 220 180 70 220 180 70 220 180 70 220 180 70 220 180 70 220 180 70 220 180 70 220 180 70 220 180 70 220 180 70 220 180 70 220 180 70 220 180 70 220 180 70 220 180 70 220 180 70 220 180 70 220 180 70 220 180 70 220 180 70 220 180 70 220 180 70 220 180 70 220 180 70 220 180 70 220 180 70 220 180 70 220 180 70 220 180 70 220 180 70 220 180 70 220 180 70 220 180 70 220 180 70 220 180 70 220 180 70 220 180 70 220 180 70 220 180 70 220 180 70 220 180 70 220 180 70 220 180 70 220 180 70 220 180 70 220 180 70 220 180 70 220 180 70 220 180 70 220 180 70 220 180 70 220 180 70 220 180 70 220 180 70 220 180 70 220 180 70 220 180 70 220 180 70 220 180 70 220 180 70 220 180 70 220 180 70 220 180 70 220 180 70 220 180 70 220 180 70 220 180 70 220 180 70 220 180 70 220 180 70 220 180 70 220 180 70 220 180 70 220 180 70 220 180 70 220 180 70 220 180 70 220 180 70 220 180 70 220 180 70 220 180 70 40 208 132 40 209 132 40 210 132 40 211 132 40 212 132 40 213 132 40 214 132 40 215 132 40 216 132 40 217 132 40 218 132 40 219 132 40 220 132 40 221 132 40 222 132 40 224 132 40 225 132 40 226 132 40 227 132 40 228 132 40 229 132 40 230 132 40 231 132 40 232 132 40 233 132 40 234 132 40 235 132 40 236 132 40 237 132 40 238 132 40 240 132 40 241 132 40 242 132 40 243 132 40 244 132 40 245 132 40 246 132 40 247 132 40 248 132 40 249 132 40 250 132 40 251 132 40 252 132 40 253 132 40 255 132
40 0 131 40 1 131 40 2 131 40 3 131 40 4 131 40 5 131 40 6 131 40 7 131 40 8 131 40 9 131 40 10 131 40 11 131 40 12 131 40 13 131 40 14 131 40 16 131 40 17 131 40 18 131 40 19 131 40 20 131 40 21 131 40 22 131 40 23 131 40 24 131 40 25 131 40 26 131 40 27 131 40 28 131 40 29 131 40 30 131 40 32 131 40 33 131 40 34 131 40 35 131 40 36 131 40 37 131 40 38 131 40 39 131 40 40 131 40 41 131 40 42 131 40 43 131 40 44 131 40 45 131 40 46 131 40 48 131 220 180 70 220 180 70 220 180 70 220 180 70 220 180 70 220 180 70 220 180 70 220 180 70 220 180 70 220 180 70 220 180 70 220 180 70 220 180 70 220 180 70 220 180 70 220 180 70 220 180 70 220 180 70 220 180 70 220 180 70 220 180 70 220 180 70 220 180 70 220 180 70 220 180 70 220 180 70 220 180 70 220 180 70 220 180 70 220 180 70 220 180 70 220 180 70 220 180 70 220 180 70 220 180 70 220 180 70 220 180 70 220 180 70 220 180 70 220 180 70 220 180 70 220 180 70 220 180 70 220 180 70 220 180 70 220 180 70 220 180 70 220 180 70 220 180 70 220 180 70 220 180 70 220 180 70 220 180 70 220 180 70 220 180 70 220 180 70 220 180 70 220 180 70 220 180 70 220 180 70 220 180 70 220 180 70 220 180 70 220 180 70 220 180 70 220 180 70 220 180 70 220 180 70 220 180 70 220 180 70 220 180 70 220 180 70 220 180 70 220 180 70 220 180 70 220 180 70 220 180 70 220 180 70 220 180 70 220 180 70 220 180 70 220 180 70 220 180 70 220 180 70 220 180 70 220 180 70 220 180 70 220 180 70 220 180 70 220 180 70 220 180 70 220 180 70 220 180 70 220 180 70 220 180 70 220 180 70 220 180 70 220 180 70 220 180 70 220 180 70 220 180 70 220 180 70 220 180 70 220 180 70 220 180 70 220 180 70 220 180 70 220 180 70 220 180 70 220 180 70 220 180 70 220 180 70 220 180 70 220 180 70 220 180 70 220 180 70 220 180 70 220 180 70 220 180 70 220 180 70 220 180 70 220 180 70 220 180 70 220 180 70 220 180 70 220 180 70 220 180 70 220 180 70 220 180 70 220 180 70 220 180 70 220 180 70 220 180 70 220 180 70 220 180 70 220 180 70 220 180 70 220 180 70 220 180 70 220 180 70 220 180 70 220 180 70 220 180 70 220 180 70 220 180 70 220 180 70 220 180 70 220 180 70 220 180 70 40 208 131 40 209 131 40 210 131 40 211 131 40 212 131 40 213 131 40 214 131 40 215 131 40 216 131 40 217 131 40 218 131 40 219 131 40 220 131 40 221 131 40 222 131 40 224 131 40 225 131 40 226 131 40 227 131 40 228 131 40 229 131 40 230 131 40 231 131 40 232 131 40 233 131 40 234 131 40 235 131 40 236 131 40 237 131 40 238 131 40 240 131 40 241 131 40 242 131 40 243 131 40 244 131 40 245 131 40 246 131 40 247 131 40 248 131 40 249 131 40 250 131 40 251 131 40 252 131 40 253 131 40 255 131
40 0 129 40 1 129 40 2 129 40 3 129 40 4 129 40 5 129 40 6 129 40 7 129 40 8 129 40 9 129 40 10 129 40 11 129 40 12 129 40 13 129 40 14 129 40 16 129 40 17 129 40 18 129 40 19 129 40 20 129 40 21 129 40 22 129 40 23 129 40 24 129 40 25 129 40 26 129 40 27 129 40 28 129 40 29 129 40 30 129 40 32 129 40 33 129 40 34 129 40 35 129 40 36 129 40 37 129 40 38 129 40 39 129 40 40 129 40 41 129 40 42 129 40 43 129 40 44 129 40 45 129 40 46 129 40 48 129 220 180 70 220 180 70 220 180 70 220 180 70 220 180 70 220 180 70 220 180 70 220 180 70 220 180 70 220 180 70 220 180 70 220 180 70 220 180 70 220 180 70 220 180 70 220 180 70 220 180 70 220 180 70 220 180 70 220 180 70 220 180 70 220 180 70 220 180 70 220 180 70 220 180 70 220 180 70 220 180 70 220 180 70 220 180 70 220 180 70 220 180 70 220 180 70 220 180 70 220 180 70 220 180 70 220 180 70 220 180 70 220 180 70 220 180 70 220 180 70 220 180 70 220 180 70 220 180 70 220 180 70 220 180 70 220 180 70 220 180 70 220 180 70 220 180 70 220 180 70 220 180 70 220 180 70 220 180 70 220 180 70 220 180 70 220 180 70 220 180 70 220 180 70 220 180 70 220 180 70 220 180 70 220 180 70 220 180 70 220 180 70 220 180 70 220 180 70 220 180 70 220 180 70 220 180 70 220 180 70 220 180 70 220 180 70 220 180 70 220 180 70 220 180 70 220 180 70 220 180 70 220 180 70 220 180 70 220 180 70 220 180 70 220 180 70 220 180 70 220 180 70 220 180 70 220 180 70 220 180 70 220 180 70 220 180 70 220 180 70 220 180 70 220 180 70 220 180 70 220 180 70 220 180 70 220 180 70 220 180 70 220 180 70 220 180 70 220 180 70 220 180 70 220 180 70 220 180 70 220 180 70 220 180 70 220 180 70 220 180 70 220 180 70 220 180 70 220 180 70 220 180 70 220 180 70 220 180 70 220 180 70 220 180 70 220 180 70 220 180 70 220 180 70 220 180 70 220 180 70 220 180 70 220 180 70 220 180 70 220 180 70 220 180 70 220 180 70 220 180 70 220 180 70 220 180 70 220 180 70 220 180 70 220 180 70 220 180 70 220 180 70 220 180 70 220 180 70 220 180 70 220 180 70 220 180 70 220 180 70 220 180 70 220 180 70 220 180 70 220 180 70 220 180 70 220 180 70 220 180 70 220 180 70 220 180 70 40 208 129 40 209 129 40 210 129 40 211 129 40 212 129 40 213 129 40 214 129 40 215 129 40 216 129 40 217 129 40 218 129 40 219 129 40 220 129 40 221 129 40 222 129 40 224 129 40 225 129 40 226 129 40 227 129 40 228 129 40 229 129 40 230 129 40 231 129 40 232 129 40 233 129 40 234 129 40 235 129 40 236 129 40 237 129 40 238 129 40 240 129 40 241 129 40 242 129 40 243 129 40 244 129 40 245 129 40 246 129 40 247 129 40 248 129 40 249 129 40 250 129 40 251 129 40 252 129 40 253 129 40 255 129
40 0 128 40 1 128 40 2 128 40 3 128 40 4 128 40 5 128 40 6 128 40 7 128 40 8 128 40 9 128 40 10 128 40 11 128 40 12 128 40 13 128 40 14 128 40 16 128 40 17 128 40 18 128 40 19 128 40 20 128 40 21 128 40 22 128 40 23 128 40 24 128 40 25 128 40 26 128 40 27 128 40 28 128 40 29 128 40 30 128 40 32 128 40 33 128 40 34 128 40 35 128 40 36 128 40 37 128 40 38 128 40 39 128 40 40 128 40 41 128 40 42 128 40 43 128 40 44 128 40 45 128 40 46 128 40 48 128 220 180 70 220 180 70 220 180 70 220 180 70 220 180 70 220 180 70 220 180 70 220 180 70 220 180 70 220 180 70 220 180 70 220 180 70 220 180 70 220 180 70 220 180 70 220 180 70 220 180 70 220 180 70 220 180 70 220 180 70 220 180 70 220 180 70 220 180 70 220 180 70 220 180 70 220 180 70 220 180 70 220 180 70 220 180 70 220 180 70 220 180 70 220 180 70 220 180 70 220 180 70 220 180 70 220 180 70 220 180 70 220 180 70 220 180 70 220 180 70 220 180 70 220 180 70 220 180 70 220 180 70 220 180 70 220 180 70 220 180 70 220 180 70 220 180 70 220 180 70 220 180 70 220 180 70 220 180 70 220 180 70 220 180 70 220 180 70 220 180 70 220 180 70 220 180 70 220 180 70 220 180 70 220 180 70 220 180 70 220 180 70 220 180 70 220 180 70 220 180 70 220 180 70 220 180 70 220 180 70 220 180 70 220 180 70 220 180 70 220 180 70 220 180 70 220 180 70 220 180 70 220 180 70 220 180 70 220 180 70 220 180 70 220 180 70 220 180 70 220 180 70 220 180 70 220 180 70 220 180 70 220 180 70 220 180 70 220 180 70 220 180 70 220 180 70 220 180 70 220 180 70 220 180 70 220 180 70 220 180 70 220 180 70 220 180 70 220 180 70 220 180 70 220 180 70 220 180 70 220 180 70 220 180 70 220 180 70 220 180 70 220 180 70 220 180 70 220 180 70 220 180 70 220 180 70 220 180 70 220 180 70 220 180 70 220 180 70 220 180 70 220 180 70 220 180 70 220 180 70 220 180 70 220 180 70 220 180 70 220 180 70 220 180 70 220 180 70 220 180 70 220 180 70 220 180 70 220 180 70 220 180 70 220 180 70 220 180 70 220 180 70 220 180 70 220 180 70 220 180 70 220 180 70 220 180 70 220 180 70 220 180 70 220 180 70 220 180 70 220 180 70 220 180 70 220 180 70 220 180 70 220 180 70 220 180 70 40 208 128 40 209 128 40 210 128 40 211 128 40 212 128 40 213 128 40 214 128 40 215 128 40 216 128 40 217 128 40 218 128 40 219 128 40 220 128 40 221 128 40 222 128 40 224 128 40 225 128 40 226 128 40 227 128 40 228 128 40 229 128 40 230 128 40 231 128 40 232 128 40 233 128 40 234 128 40 235 128 40 236 128 40 237 128 40 238 128 40 240 128 40 241 128 40 242 128 40 243 128 40 244 128 40 245 128 40 246 128 40 247 128 40 248 128 40 249 128 40 250 128 40 251 128 40 252 128 40 253 128 40 255 128
40 0 126 40 1 126 40 2 126 40 3 126 40 4 126 40 5 126 40 6 126 40 7 126 40 8 126 40 9 126 40 10 126 40 11 126 40 12 126 40 13 126 40 14 126 40 16 126 40 17 126 40 18 126 40 19 126 40 20 126 40 21 126 40 22 126 40 23 126 40 24 126 40 25 126 40 26 126 40 27 126 40 28 126 40 29 126 40 30 126 40 32 126 40 33 126 40 34 126 40 35 126 40 36 126 40 37 126 40 38 126 40 39 126 40 40 126 40 41 126 40 42 126 40 43 126 40 44 126 40 45 126 40 46 126 40 48 126 220 180 70 220 180 70 220 180 70 220 180 70 220 180 70 220 180 70 220 180 70 220 180 70 220 180 70 220 180 70 220 180 70 220 180 70 220 180 70 220 180 70 220 180 70 220 180 70 220 180 70 220 180 70 220 180 70 220 180 70 220 180 70 220 180 70 220 180 70 220 180 70 220 180 70 220 180 70 220 180 70 220 180 70 220 180 70 220 180 70 220 180 70 220 180 70 220 180 70 220 180 70 220 180 70 220 180 70 220 180 70 220 180 70 220 180 70 220 180 70 220 180 70 220 180 70 220 180 70 220 180 70 220 180 70 220 180 70 220 180 70 220 180 70 220 180 70 220 180 70 220 180 70 220 180 70 220 180 70 220 180 70 220 180 70 220 180 70 220 180 70 220 180 70 220 180 70 220 180 70 220 180 70 220 180 70 220 180 70 220 180 70 220 180 70 220 180 70 220 180 70 220 180 70 220 180 70 220 180 70 220 180 70 220 180 70 220 180 70 220 180 70 220 180 70 220 180 70 220 180 70 220 180 70 220 180 70 220 180 70 220 180 70 220 180 70 220 180 70 220 180 70 220 180 70 220 180 70 220 180 70 220 180 70 220 180 70 220 180 70 220 180 70 220 180 70 220 180 70 220 180 70 220 180 70 220 180 70 220 180 70 220 180 70 220 180 70 220 180 70 220 180 70 220 180 70 220 180 70 220 180 70 220 180 70 220 180 70 220 180 70 220 180 70 220 180 70 220 180 70 220 180 70 220 180 70 220 180 70 220 180 70 220 180 70 220 180 70 220 180 70 220 180 70 220 180 70 220 180 70 220 180 70 220 180 70 220 180 70 220 180 70 220 180 70 220 180 70 220 180 70 220 180 70 220 180 70 220 180 70 220 180 70 220 180 70 220 180 70 220 180 70 220 180 70 220 180 70 220 180 70 220 180 70 220 180 70 220 180 70 220 180 70 220 180 70 220 180 70 220 180 70 220 180 70 220 180 70 220 180 70 220 180 70 220 180 70 40 208 126 40 209 126 40 210 126 40 211 126 40 212 126 40 213 126 40 214 126 40 215 126 40 216 126 40 217 126 40 218 126 40 219 126 40 220 126 40 221 126 40 222 126 40 224 126 40 225 126 40 226 126 40 227 126 40 228 126 40 229 126 40 230 126 40 231 126 40 232 126 40 233 126 40 234 126 40 235 126 40 236 126 40 237 126 40 238 126 40 240 126 40 241 126 40 242 126 40 243 126 40 244 126 40 245 126 40 246 126 40 247 126 40 248 126 40 249 126 40 250 126 40 251 126 40 252 126 40 253 126 40 255 126
40 0 125 40 1 125 40 2 125 40 3 125 40 4 125 40 5 125 40 6 125 40 7 125 40 8 125 40 9 125 40 10 125 40 11 125 40 12 125 40 13 125 40 14 125 40 16 125 40 17 125 40 18 125 40 19 125 40 20 125 40 21 125 40 22 125 40 23 125 40 24 125 40 25 125 40 26 125 40 27 125 40 28 125 40 29 125 40 30 125 40 32 125 40 33 125 40 34 125 40 35 125 40 36 125 40 37 125 40 38 125 40 39 125 40 40 125 40 41 125 40 42 125 40 43 125 40 44 125 40 45 125 40 46 125 40 48 125 220 180 70 220 180 70 220 180 70 220 180 70 220 180 70 220 180 70 220 180 70 220 180 70 220 180 70 220 180 70 220 180 70 220 180 70 220 180 70 220 180 70 220 180 70 220 180 70 220 180 70 220 180 70 220 180 70 220 180 70 220 180 70 220 180 70 220 180 70 220 180 70 220 180 70 220 180 70 220 180 70 220 180 70 220 180 70 220 180 70 220 180 70 220 180 70 220 180 70 220 180 70 220 180 70 220 180 70 220 180 70 220 180 70 220 180 70 220 180 70 220 180 70 220 180 70 220 180 70 220 180 70 220 180 70 220 180 70 220 180 70 220 180 70 220 180 70 220 180 70 220 180 70 220 180 70 220 180 70 220 180 70 220 180 70 220 180 70 220 180 70 220 180 70 220 180 70 220 180 70 220 180 70 220 180 70 220 180 70 220 180 70 220 180 70 220 180 70 220 180 70 220 180 70 220 180 70 220 180 70 220 180 70 220 180 70 220 180 70 220 180 70 220 180 70 220 180 70 220 180 70 220 180 70 220 180 70 220 180 70 220 180 70 220 180 70 220 180 70 220 180 70 220 180 70 220 180 70 220 180 70 220 180 70 220 180 70 220 180 70 220 180 70 220 180 70 220 180 70 220 180 70 220 180 70 220 180 70 220 180 70 220 180 70 220 180 70 220 180 70 220 180 70 220 180 70 220 180 70 220 180 70 220 180 70 220 180 70 220 180 70 220 180 70 220 180 70 220 180 70 220 180 70 220 180 70 220 180 70 220 180 70 220 180 70 220 180 70 220 180 70 220 180 70 220 180 70 220 180 70 220 180 70 220 180 70 220 180 70 220 180 70 220 180 70 220 180 70 220 180 70 220 180 70 220 180 70 220 180 70 220 180 70 220 180 70 220 180 70 220 180 70 220 180 70 220 180 70 220 180 70 220 180 70 220 180 70 220 180 70 220 180 70 220 180 70 220 180 70 220 180 70 220 180 70 220 180 70 220 180 70 220 180 70 220 180 70 40 208 125 40 209 125 40 210 125 40 211 125 40 212 125 40 213 125 40 214 125 40 215 125 40 216 125 40 217 125 40 218 125 40 219 125 40 220 125 40 221 125 40 222 125 40 224 125 40 225 125 40 226 125 40 227 125 40 228 125 40 229 125 40 230 125 40 231 125 40 232 125 40 233 125 40 234 125 40 235 125 40 236 125 40 237 125 40 238 125 40 240 125 40 241 125 40 242 125 40 243 125 40 244 125 40 245 125 40 246 125 40 247 125 40 248 125 40 249 125 40 250 125 40 251 125 40 252 125 40 253 125 40 255 125
40 0 123 40 1 123 40 2 123 40 3 123 40 4 123 40 5 123 40 6 123 40 7 123 40 8 123 40 9 123 40 10 123 40 11 123 40 12 123 40 13 123 40 14 123 40 16 123 40 17 123 40 18 123 40 19 123 40 20 123 40 21 123 40 22 123 40 23 123 40 24 123 40 25 123 40 26 123 40 27 123 40 28 123 40 29 123 40 30 123 40 32 123 40 33 123 40 34 123 40 35 123 40 36 123 40 37 123 40 38 123 40 39 123 40 40 123 40 41 123 40 42 123 40 43 123 40 44 123 40 45 123 40 46 123 40 48 123 220 180 70 220 180 70 220 180 70 220 180 70 220 180 70 220 180 70 220 180 70 220 180 70 220 180 70 220 180 70 220 180 70 220 180 70 220 180 70 220 180 70 220 180 70 220 180 70 220 180 70 220 180 70 220 180 70 220 180 70 220 180 70 220 180 70 220 180 70 220 180 70 220 180 70 220 180 70 220 180 70 220 180 70 220 180 70 220 180 70 220 180 70 220 180 70 220 180 70 220 180 70 220 180 70 220 180 70 220 180 70 220 180 70 220 180 70 220 180 70 220 180 70 220 180 70 220 180 70 220 180 70 220 180 70 220 180 70 220 180 70 220 180 70 220 180 70 220 180 70 220 180 70 220 180 70 220 180 70 220 180 70 220 180 70 220 180 70 220 180 70 220 180 70 220 180 70 220 180 70 220 180 70 220 180 70 220 180 70 220 180 70 220 180 70 220 180 70 220 180 70 220 180 70 220 180 70 220 180 70 220 180 70 220 180 70 220 180 70 220 180 70 220 180 70 220 180 70 220 180 70 220 180 70 220 180 70 220 180 70 220 180 70 220 180 70 220 180 70 220 180 70 220 180 70 220 180 70 220 180 70 220 180 70 220 180 70 220 180 70 220 180 70 220 180 70 220 180 70 220 180 70 220 180 70 220 180 70 220 180 70 220 180 70 220 180 70 220 180 70 220 180 70 220 180 70 220 180 70 220 180 70 220 180 70 220 180 70 220 180 70 220 180 70 220 180 70 220 180 70 220 180 70 220 180 70 220 180 70 220 180 70 220 180 70 220 180 70 220 180 70 220 180 70 220 180 70 220 180 70 220 180 70 220 180 70 220 180 70 220 180 70 220 180 70 220 180 70 220 180 70 220 180 70 220 180 70 220 180 70 220 180 70 220 180 70 220 180 70 220 180 70 220 180 70 220 180 70 220 180 70 220 180 70 220 180 70 220 180 70 220 180 70 220 180 70 220 180 70 220 180 70 220 180 70 220 180 70 220 180 70 220 180 70 220 180 70 40 208 123 40 209 123 40 210 123 40 211 123 40 212 123 40 213 123 40 214 123 40 215 123 40 216 123 40 217 123 40 218 123 40 219 123 40 220 123 40 221 123 40 222 123 40 224 123 40 225 123 40 226 123 40 227 123 40 228 123 40 229 123 40 230 123 40 231 123 40 232 123 40 233 123 40 234 123 40 235 123 40 236 123 40 237 123 40 238 123 40 240 123 40 241 123 40 242 123 40 243 123 40 244 123 40 245 123 40 246 123 40 247 123 40 248 123 40 249 123 40 250 123 40 251 123 40 252 123 40 253 123 40 255 123
40 0 122 40 1 122 40 2 122 40 3 122 40 4 122 40 5 122 40 6 122 40 7 122 40 8 122 40 9 122 40 10 122 40 11 122 40 12 122 40 13 122 40 14 122 40 16 122 40 17 122 40 18 122 40 19 122 40 20 122 40 21 122 40 22 122 40 23 122 40 24 122 40 25 122 40 26 122 40 27 122 40 28 122 40 29 122 40 30 122 40 32 122 40 33 122 40 34 122 40 35 122 40 36 122 40 37 122 40 38 122 40 39 122 40 40 122 40 41 122 40 42 122 40 43 122 40 44 122 40 45 122 40 46 122 40 48 122 220 180 70 220 180 70 220 180 70 220 180 70 220 180 70 220 180 70 220 180 70 220 180 70 220 180 70 220 180 70 220 180 70 220 180 70 220 180 70 220 180 70 220 180 70 220 180 70 220 180 70 220 180 70 220 180 70 220 180 70 220 180 70 220 180 70 220 180 70 220 180 70 220 180 70 220 180 70 220 180 70 220 180 70 220 180 70 220 180 70 220 180 70 220 180 70 220 180 70 220 180 70 220 180 70 220 180 70 220 180 70 220 180 70 220 180 70 220 180 70 220 180 70 220 180 70 220 180 70 220 180 70 220 180 70 220 180 70 220 180 70 220 180 70 220 180 70 220 180 70 220 180 70 220 180 70 220 180 70 220 180 70 220 180 70 220 180 70 220 180 70 220 180 70 220 180 70 220 180 70 220 180 70 220 180 70 220 180 70 220 180 70 220 180 70 220 180 70 220 180 70 220 180 70 220 180 70 220 180 70 220 180 70 220 180 70 220 180 70 220 180 70 220 180 70 220 180 70 220 180 70 220 180 70 220 180 70 220 180 70 220 180 70 220 180 70 220 180 70 220 180 70 220 180 70 220 180 70 220 180 70 220 180 70 220 180 70 220 180 70 220 180 70 220 180 70 220 180 70 220 180 70 220 180 70 220 180 70 220 180 70 220 180 70 220 180 70 220 180 70 220 180 70 220 180 70 220 180 70 220 180 70 220 180 70 220 180 70 220 180 70 220 180 70 220 180 70 220 180 70 220 180 70 220 180 70 220 180 70 220 180 70 220 180 70 220 180 70 220 180 70 220 180 70 220 180 70 220 180 70 220 180 70 220 180 70 220 180 70 220 180 70 220 180 70 220 180 70 220 180 70 220 180 70 220 180 70 220 180 70 220 180 70 220 180 70 220 180 70 220 180 70 220 180 70 220 180 70 220 180 70 220 180 70 220 180 70 220 180 70 220 180 70 220 180 70 220 180 70 220 180 70 220 180 70 220 180 70 220 180 70 220 180 70 220 180 70 40 208 122 40 209 122 40 210 122 40 211 122 40 212 122 40 213 122 40 214 122 40 215 122 40 216 122 40 217 122 40 218 122 40 219 122 40 220 122 40 221 122 40 222 122 40 224 122 40 225 122 40 226 122 40 227 122 40 228 122 40 229 122 40 230 122 40 231 122 40 232 122 40 233 122 40 234 122 40 235 122 40 236 122 40 237 122 40 238 122 40 240 122 40 241 122 40 242 122 40 243 122 40 244 122 40 245 122 40 246 122 40 247 122 40 248 122 40 249 122 40 250 122 40 251 122 40 252 122 40 253 122 40 255 122
40 0 121 40 1 121 40 2 121 40 3 121 40 4 121 40 5 121 40 6 121 40 7 121 40 8 121 40 9 121 40 10 121 40 11 121 40 12 121 40 13 121 40 14 121 40 16 121 40 17 121 40 18 121 40 19 121 40 20 121 40 21 121 40 22 121 40 23 121 40 24 121 40 25 121 40 26 121 40 27 121 40 28 121 40 29 121 40 30 121 40 32 121 40 33 121 40 34 121 40 35 121 40 36 121 40 37 121 40 38 121 40 39 121 40 40 121 40 41 121 40 42 121 40 43 121 40 44 121 40 45 121 40 46 121 40 48 121 220 180 70 220 180 70 220 180 70 220 180 70 220 180 70 220 180 70 220 180 70 220 180 70 220 180 70 220 180 70 220 180 70 220 180 70 220 180 70 220 180 70 220 180 70 220 180 70 220 180 70 220 180 70 220 180 70 220 180 70 220 180 70 220 180 70 220 180 70 220 180 70 220 180 70 220 180 70 220 180 70 220 180 70 220 180 70 220 180 70 220 180 70 220 180 70 220 180 70 220 180 70 220 180 70 220 180 70 220 180 70 220 180 70 220 180 70 220 180 70 220 180 70 220 180 70 220 180 70 220 180 70 220 180 70 220 180 70 220 180 70 220 180 70 220 180 70 220 180 70 220 180 70 220 180 70 220 180 70 220 180 70 220 180 70 220 180 70 220 180 70 220 180 70 220 180 70 220 180 70 220 180 70 220 180 70 220 180 70 220 180 70 220 180 70 220 180 70 220 180 70 220 180 70 220 180 70 220 180 70 220 180 70 220 180 70 220 180 70 220 180 70 220 180 70 220 180 70 220 180 70 220 180 70 220 180 70 220 180 70 220 180 70 220 180 70 220 180 70 220 180 70 220 180 70 220 180 70 220 180 70 220 180 70 220 180 70 220 180 70 220 180 70 220 180 70 220 180 70 220 180 70 220 180 70 220 180 70 220 180 70 220 180 70 220 180 70 220 180 70 220 180 70 220 180 70 220 180 70 220 180 70 220 180 70 220 180 70 220 180 70 220 180 70 220 180 70 220 180 70 220 180 70 220 180 70 220 180 70 220 180 70 220 180 70 220 180 70 220 180 70 220 180 70 220 180 70 220 180 70 220 180 70 220 180 70 220 180 70 220 180 70 220 180 70 220 180 70 220 180 70 220 180 70 220 180 70 220 180 70 220 180 70 220 180 70 220 180 70 220 180 70 220 180 70 220 180 70 220 180 70 220 180 70 220 180 70 220 180 70 220 180 70 220 180 70 220 180 70 220 180 70 220 180 70 220 180 70 220 180 70 220 180 70 220 180 70 40 208 121 40 209 121 40 210 121 40 211 121 40 212 121 40 213 121 40 214 121 40 215 121 40 216 121 40 217 121 40 218 121 40 219 121 40 220 121 40 221 121 40 222 121 40 224 121 40 225 121 40 226 121 40 227 121 40 228 121 40 229 121 40 230 121 40 231 121 40 232 121 40 233 121 40 234 121 40 235 121 40 236 121 40 237 121 40 238 121 40 240 121 40 241 121 40 242 121 40 243 121 40 244 121 40 245 121 40 246 121 40 247 121 40 248 121 40 249 121 40 250 121 40 251 121 40 252 121 40 253 121 40 255 121
40 0 119 40 1 119 40 2 119 40 3 119 40 4 119 40 5 119 40 6 119 40 7 119 40 8 119 40 9 119 40 10 119 40 11 119 40 12 119 40 13 119 40 14 119 40 16 119 40 17 119 40 18 119 40 19 119 40 20 119 40 21 119 40 22 119 40 23 119 40 24 119 40 25 119 40 26 119 40 27 119 40 28 119 40 29 119 40 30 119 40 32 119 40 33 119 40 34 119 40 35 119 40 36 119 40 37 119 40 38 119 40 39 119 40 40 119 40 41 119 40 42 119 40 43 119 40 44 119 40 45 119 40 46 119 40 48 119 220 180 70 220 180 70 220 180 70 220 180 70 220 180 70 220 180 70 220 180 70 220 180 70 220 180 70 220 180 70 220 180 70 220 180 70 220 180 70 220 180 70 220 180 70 220 180 70 220 180 70 220 180 70 220 180 70 220 180 70 220 180 70 220 180 70 220 180 70 220 180 70 220 180 70 220 180 70 220 180 70 220 180 70 220 180 70 220 180 70 220 180 70 220 180 70 220 180 70 220 180 70 220 180 70 220 180 70 220 180 70 220 180 70 220 180 70 220 180 70 220 180 70 220 180 70 220 180 70 220 180 70 220 180 70 220 180 70 220 180 70 220 180 70 220 180 70 220 180 70 220 180 70 220 180 70 220 180 70 220 180 70 220 180 70 220 180 70 220 180 70 220 180 70 220 180 70 220 180 70 220 180 70 220 180 70 220 180 70 220 180 70 220 180 70 220 180 70 220 180 70 220 180 70 220 180 70 220 180 70 220 180 70 220 180 70 220 180 70 220 180 70 220 180 70 220 180 70 220 180 70 220 180 70 220 180 70 220 180 70 220 180 70 220 180 70 220 180 70 220 180 70 220 180 70 220 180 70 220 180 70 220 180 70 220 180 70 220 180 70 220 180 70 220 180 70 220 180 70 220 180 70 220 180 70 220 180 70 220 180 70 220 180 70 220 180 70 220 180 70 220 180 70 220 180 70 220 180 70 220 180 70 220 180 70 220 180 70 220 180 70 220 180 70 220 180 70 220 180 70 220 180 70 220 180 70 220 180 70 220 180 70 220 180 70 220 180 70 220 180 70 220 180 70 220 180 70 220 180 70 220 180 70 220 180 70 220 180 70 220 180 70 220 180 70 220 180 70 220 180 70 220 180 70 220 180 70 220 180 70 220 180 70 220 180 70 220 180 70 220 180 70 220 180 70 220 180 70 220 180 70 220 180 70 220 180 70 220 180 70 220 180 70 220 180 70 220 180 70 220 180 70 220 180 70 220 180 70 220 180 70 220 180 70 220 180 70 40 208 119 40 209 119 40 210 119 40 211 119 40 212 119 40 213 119 40 214 119 40 215 119 40 216 119 40 217 119 40 218 119 40 219 119 40 220 119 40 221 119 40 222 119 40 224 119 40 225 119 40 226 119 40 227 119 40 228 119 40 229 119 40 230 119 40 231 119 40 232 119 40 233 119 40 234 119 40 235 119 40 236 119 40 237 119 40 238 119 40 240 119 40 241 119 40 242 119 40 243 119 40 244 119 40 245 119 40 246 119 40 247 119 40 248 119 40 249 119 40 250 119 40 251 119 40 252 119 40 253 119 40 255 119
40 0 118 40 1 118 40 2 118 40 3 118 40 4 118 40 5 118 40 6 118 40 7 118 40 8 118 40 9 118 40 10 118 40 11 118 40 12 118 40 13 118 40 14 118 40 16 118 40 17 118 40 18 118 40 19 118 40 20 118 40 21 118 40 22 118 40 23 118 40 24 118 40 25 118 40 26 118 40 27 118 40 28 118 40 29 118 40 30 118 40 32 118 40 33 118 40 34 118 40 35 118 40 36 118 40 37 118 40 38 118 40 39 118 40 40 118 40 41 118 40 42 118 40 43 118 40 44 118 40 45 118 40 46 118 40 48 118 220 180 70 220 180 70 220 180 70 220 180 70 220 180 70 220 180 70 220 180 70 220 180 70 220 180 70 220 180 70 220 180 70 220 180 70 220 180 70 220 180 70 220 180 70 220 180 70 220 180 70 220 180 70 220 180 70 220 180 70 220 180 70 220 180 70 220 180 70 220 180 70 220 180 70 220 180 70 220 180 70 220 180 70 220 180 70 220 180 70 220 180 70 220 180 70 220 180 70 220 180 70 220 180 70 220 180 70 220 180 70 220 180 70 220 180 70 220 180 70 220 180 70 220 180 70 220 180 70 220 180 70 220 180 70 220 180 70 220 180 70 220 180 70 220 180 70 220 180 70 220 180 70 220 180 70 220 180 70 220 180 70 220 180 70 220 180 70 220 180 70 220 180 70 220 180 70 220 180 70 220 180 70 220 180 70 220 180 70 220 180 70 220 180 70 220 180 70 220 180 70 220 180 70 220 180 70 220 180 70 220 180 70 220 180 70 220 180 70 220 180 70 220 180 70 220 180 70 220 180 70 220 180 70 220 180 70 220 180 70 220 180 70 220 180 70 220 180 70 220 180 70 220 180 70 220 180 70 220 180 70 220 180 70 220 180 70 220 180 70 220 180 70 220 180 70 220 180 70 220 180 70 220 180 70 220 180 70 220 180 70 220 180 70 220 180 70 220 180 70 220 180 70 220 180 70 220 180 70 220 180 70 220 180 70 220 180 70 220 180 70 220 180 70 220 180 70 220 180 70 220 180 70 220 180 70 220 180 70 220 180 70 220 180 70 220 180 70 220 180 70 220 180 70 220 180 70 220 180 70 220 180 70 220 180 70 220 180 70 220 180 70 220 180 70 220 180 70 220 180 70 220 180 70 220 180 70 220 180 70 220 180 70 220 180 70 220 180 70 220 180 70 220 180 70 220 180 70 220 180 70 220 180 70 220 180 70 220 180 70 220 180 70 220 180 70 220 180 70 220 180 70 220 180 70 220 180 70 220 180 70 220 180 70 220 180 70 40 208 118 40 209 118 40 210 118 40 211 118 40 212 118 40 213 118 40 214 118 40 215 118 40 216 118 40 217 118 40 218 118 40 219 118 40 220 118 40 221 118 40 222 118 40 224 118 40 225 118 40 226 118 40 227 118 40 228 118 40 229 118 40 230 118 40 231 118 40 232 118 40 233 118 40 234 118 40 235 118 40 236 118 40 237 118 40 238 118 40 240 118 40 241 118 40 242 118 40 243 118 40 244 118 40 245 118 40 246 118 40 247 118 40 248 118 40 249 118 40 250 118 40 251 118 40 252 118 40 253 118 40 255 118
40 0 116 40 1 116 40 2 116 40 3 116 40 4 116 40 5 116 40 6 116 40 7 116 40 8 116 40 9 116 40 10 116 40 11 116 40 12 116 40 13 116 40 14 116 40 16 116 40 17 116 40 18 116 40 19 116 40 20 116 40 21 116 40 22 116 40 23 116 40 24 116 40 25 116 40 26 116 40 27 116 40 28 116 40 29 116 40 30 116 40 32 116 40 33 116 40 34 116 40 35 116 40 36 116 40 37 116 40 38 116 40 39 116 40 40 116 40 41 116 40 42 116 40 43 116 40 44 116 40 45 116 40 46 116 40 48 116 220 180 70 220 180 70 220 180 70 220 180 70 220 180 70 220 180 70 220 180 70 220 180 70 220 180 70 220 180 70 220 180 70 220 180 70 220 180 70 220 180 70 220 180 70 220 180 70 220 180 70 220 180 70 220 180 70 220 180 70 220 180 70 220 180 70 220 180 70 220 180 70 220 180 70 220 180 70 220 180 70 220 180 70 220 180 70 220 180 70 220 180 70 220 180 70 220 180 70 220 180 70 220 180 70 220 180 70 220 180 70 220 180 70 220 180 70 220 180 70 220 180 70 220 180 70 220 180 70 220 180 70 220 180 70 220 180 70 220 180 70 220 180 70 220 180 70 220 180 70 220 180 70 220 180 70 220 180 70 220 180 70 220 180 70 220 180 70 220 180 70 220 180 70 220 180 70 220 180 70 220 180 70 220 180 70 220 180 70 220 180 70 220 180 70 220 180 70 220 180 70 220 180 70 220 180 70 220 180 70 220 180 70 220 180 70 220 180 70 220 180 70 220 180 70 220 180 70 220 180 70 220 180 70 220 180 70 220 180 70 220 180 70 220 180 70 220 180 70 220 180 70 220 180 70 220 180 70 220 180 70 220 180 70 220 180 70 220 180 70 220 180 70 220 180 70 220 180 70 220 180 70 220 180 70 220 180 70 220 180 70 220 180 70 220 180 70 220 180 70 220 180 70 220 180 70 220 180 70 220 180 70 220 180 70 220 180 70 220 180 70 220 180 70 220 180 70 220 180 70 220 180 70 220 180 70 220 180 70 220 180 70 220 180 70 220 180 70 220 180 70 220 180 70 220 180 70 220 180 70 220 180 70 220 180 70 220 180 70 220 180 70 220 180 70 220 180 70 220 180 70 220 180 70 220 180 70 220 180 70 220 180 70 220 180 70 220 180 70 220 180 70 220 180 70 220 180 70 220 180 70 220 180 70 220 180 70 220 180 70 220 180 70 220 180 70 220 180 70 220 180 70 220 180 70 220 180 70 220 180 70 220 180 70 220 180 70 40 208 116 40 209 116 40 210 116 40 211 116 40 212 116 40 213 116 40 214 116 40 215 116 40 216 116 40 217 116 40 218 116 40 219 116 40 220 116 40 221 116 40 222 116 40 224 116 40 225 116 40 226 116 40 227 116 40 228 116 40 229 116 40 230 116 40 231 116 40 232 116 40 233 116 40 234 116 40 235 116 40 236 116 40 237 116 40 238 116 40 240 116 40 241 116 40 242 116 40 243 116 40 244 116 40 245 116 40 246 116 40 247 116 40 248 116 40 249 116 40 250 116 40 251 116 40 252 116 40 253 116 40 255 116
40 0 115 40 1 115 40 2 115 40 3 115 40 4 115 40 5 115 40 6 115 40 7 115 40 8 115 40 9 115 40 10 115 40 11 115 40 12 115 40 13 115 40 14 115 40 16 115 40 17 115 40 18 115 40 19 115 40 20 115 40 21 115 40 22 115 40 23 115 40 24 115 40 25 115 40 26 115 40 27 115 40 28 115 40 29 115 40 30 115 40 32 115 40 33 115 40 34 115 40 35 115 40 36 115 40 37 115 40 38 115 40 39 115 40 40 115 40 41 115 40 42 115 40 43 115 40 44 115 40 45 115 40 46 115 40 48 115 220 180 70 220 180 70 220 180 70 220 180 70 220 180 70 220 180 70 220 180 70 220 180 70 220 180 70 220 180 70 220 180 70 220 180 70 220 180 70 220 180 70 220 180 70 220 180 70 220 180 70 220 180 70 220 180 70 220 180 70 220 180 70 220 180 70 220 180 70 220 180 70 220 180 70 220 180 70 220 180 70 220 180 70 220 180 70 220 180 70 220 180 70 220 180 70 220 180 70 220 180 70 220 180 70 220 180 70 220 180 70 220 180 70 220 180 70 220 180 70 220 180 70 220 180 70 220 180 70 220 180 70 220 180 70 220 180 70 220 180 70 220 180 70 220 180 70 220 180 70 220 180 70 220 180 70 220 180 70 220 180 70 220 180 70 220 180 70 220 180 70 220 180 70 220 180 70 220 180 70 220 180 70 220 180 70 220 180 70 220 180 70 220 180 70 220 180 70 220 180 70 220 180 70 220 180 70 220 180 70 220 180 70 220 180 70 220 180 70 220 180 70 220 180 70 220 180 70 220 180 70 220 180 70 220 180 70 220 180 70 220 180 70 220 180 70 220 180 70 220 180 70 220 180 70 220 180 70 220 180 70 220 180 70 220 180 70 220 180 70 220 180 70 220 180 70 220 180 70 220 180 70 220 180 70 220 180 70 220 180 70 220 180 70 220 180 70 220 180 70 220 180 70 220 180 70 220 180 70 220 180 70 220 180 70 220 180 70 220 180 70 220 180 70 220 180 70 220 180 70 220 180 70 220 180 70 220 180 70 220 180 70 220 180 70 220 180 70 220 180 70 220 180 70 220 180 70 220 180 70 220 180 70 220 180 70 220 180 70 220 180 70 220 180 70 220 180 70 220 180 70 220 180 70 220 180 70 220 180 70 220 180 70 220 180 70 220 180 70 220 180 70 220 180 70 220 180 70 220 180 70 220 180 70 220 180 70 220 180 70 220 180 70 220 180 70 220 180 70 220 180 70 220 180 70 220 180 70 220 180 70 220 180 70 220 180 70 40 208 115 40 209 115 40 210 115 40 211 115 40 212 115 40 213 115 40 214 115 40 215 115 40 216 115 40 217 115 40 218 115 40 219 115 40 220 115 40 221 115 40 222 115 40 224 115 40 225 115 40 226 115 40 227 115 40 228 115 40 229 115 40 230 115 40 231 115 40 232 115 40 233 115 40 234 115 40 235 115 40 236 115 40 237 115 40 238 115 40 240 115 40 241 115 40 242 115 40 243 115 40 244 115 40 245 115 40 246 115 40 247 115 40 248 115 40 249 115 40 250 115 40 251 115 40 252 115 40 253 115 40 255 115
40 0 113 40 1 113 40 2 113 40 3 113 40 4 113 40 5 113 40 6 113 40 7 113 40 8 113 40 9 113 40 10 113 40 11 113 40 12 113 40 13 113 40 14 113 40 16 113 40 17 113 40 18 113 40 19 113 40 20 113 40 21 113 40 22 113 40 23 113 40 24 113 40 25 113 40 26 113 40 27 113 40 28 113 40 29 113 40 30 113 40 32 113 40 33 113 40 34 113 40 35 113 40 36 113 40 37 113 40 38 113 40 39 113 40 40 113 40 41 113 40 42 113 40 43 113 40 44 113 40 45 113 40 46 113 40 48 113 220 180 70 220 180 70 220 180 70 220 180 70 220 180 70 220 180 70 220 180 70 220 180 70 220 180 70 220 180 70 220 180 70 220 180 70 220 180 70 220 180 70 220 180 70 220 180 70 220 180 70 220 180 70 220 180 70 220 180 70 220 180 70 220 180 70 220 180 70 220 180 70 220 180 70 220 180 70 220 180 70 220 180 70 220 180 70 220 180 70 220 180 70 220 180 70 220 180 70 220 180 70 220 180 70 220 180 70 220 180 70 220 180 70 220 180 70 220 180 70 220 180 70 220 180 70 220 180 70 220 180 70 220 180 70 220 180 70 220 180 70 220 180 70 220 180 70 220 180 70 220 180 70 220 180 70 220 180 70 220 180 70 220 180 70 220 180 70 220 180 70 220 180 70 220 180 70 220 180 70 220 180 70 220 180 70 220 180 70 220 180 70 220 180 70 220 180 70 220 180 70 220 180 70 220 180 70 220 180 70 220 180 70 220 180 70 220 180 70 220 180 70 220 180 70 220 180 70 220 180 70 220 180 70 220 180 70 220 180 70 220 180 70 220 180 70 220 180 70 220 180 70 220 180 70 220 180 70 220 180 70 220 180 70 220 180 70 220 180 70 220 180 70 220 180 70 220 180 70 220 180 70 220 180 70 220 180 70 220 180 70 220 180 70 220 180 70 220 180 70 220 180 70 220 180 70 220 180 70 220 180 70 220 180 70 220 180 70 220 180 70 220 180 70 220 180 70 220 180 70 220 180 70 220 180 70 220 180 70 220 180 70 220 180 70 220 180 70 220 180 70 220 180 70 220 180 70 220 180 70 220 180 70 220 180 70 220 180 70 220 180 70 220 180 70 220 180 70 220 180 70 220 180 70 220 180 70 220 180 70 220 180 70 220 180 70 220 180 70 220 180 70 220 180 70 220 180 70 220 180 70 220 180 70 220 180 70 220 180 70 220 180 70 220 180 70 220 180 70 220 180 70 220 180 70 220 180 70 220 180 70 220 180 70 220 180 70 40 208 113 40 209 113 40 210 113 40 211 113 40 212 113 40 213 113 40 214 113 40 215 113 40 216 113 40 217 113 40 218 113 40 219 113 40 220 113 40 221 113 40 222 113 40 224 113 40 225 113 40 226 113 40 227 113 40 228 113 40 229 113 40 230 113 40 231 113 40 232 113 40 233 113 40 234 113 40 235 113 40 236 113 40 237 113 40 238 113 40 240 113 40 241 113 40 242 113 40 243 113 40 244 113 40 245 113 40 246 113 40 247 113 40 248 113 40 249 113 40 250 113 40 251 113 40 252 113 40 253 113 40 255 113
40 0 112 40 1 112 40 2 112 40 3 112 40 4 112 40 5 112 40 6 112 40 7 112 40 8 112 40 9 112 40 10 112 40 11 112 40 12 112 40 13 112 40 14 112 40 16 112 40 17 112 40 18 112 40 19 112 40 20 112 40 21 112 40 22 112 40 23 112 40 24 112 40 25 112 40 26 112 40 27 112 40 28 112 40 29 112 40 30 112 40 32 112 40 33 112 40 34 112 40 35 112 40 36 112 40 37 112 40 38 112 40 39 112 40 40 112 40 41 112 40 42 112 40 43 112 40 44 112 40 45 112 40 46 112 40 48 112 220 180 70 220 180 70 220 180 70 220 180 70 220 180 70 220 180 70 220 180 70 220 180 70 220 180 70 220 180 70 220 180 70 220 180 70 220 180 70 220 180 70 220 180 70 220 180 70 220 180 70 220 180 70 220 180 70 220 180 70 220 180 70 220 180 70 220 180 70 220 180 70 220 180 70 220 180 70 220 180 70 220 180 70 220 180 70 220 180 70 220 180 70 220 180 70 220 180 70 220 180 70 220 180 70 220 180 70 220 180 70 220 180 70 220 180 70 220 180 70 220 180 70 220 180 70 220 180 70 220 180 70 220 180 70 220 180 70 220 180 70 220 180 70 220 180 70 220 180 70 220 180 70 220 180 70 220 180 70 220 180 70 220 180 70 220 180 70 220 180 70 220 180 70 220 180 70 220 180 70 220 180 70 220 180 70 220 180 70 220 180 70 220 180 70 220 180 70 220 180 70 220 180 70 220 180 70 220 180 70 220 180 70 220 180 70 220 180 70 220 180 70 220 180 70 220 180 70 220 180 70 220 180 70 220 180 70 220 180 70 220 180 70 220 180 70 220 180 70 220 180 70 220 180 70 220 180 70 220 180 70 220 180 70 220 180 70 220 180 70 220 180 70 220 180 70 220 180 70 220 180 70 220 180 70 220 180 70 220 180 70 220 180 70 220 180 70 220 180 70 220 180 70 220 180 70 220 180 70 220 180 70 220 180 70 220 180 70 220 180 70 220 180 70 220 180 70 220 180 70 220 180 70 220 180 70 220 180 70 220 180 70 220 180 70 220 180 70 220 180 70 220 180 70 220 180 70 220 180 70 220 180 70 220 180 70 220 180 70 220 180 70 220 180 70 220 180 70 220 180 70 220 180 70 220 180 70 220 180 70 220 180 70 220 180 70 220 180 70 220 180 70 220 180 70 220 180 70 220 180 70 220 180 70 220 180 70 220 180 70 220 180 70 220 180 70 220 180 70 220 180 70 220 180 70 220 180 70 220 180 70 220 180 70 220 180 70 40 208 112 40 209 112 40 210 112 40 211 112 40 212 112 40 213 112 40 214 112 40 215 112 40 216 112 40 217 112 40 218 112 40 219 112 40 220 112 40 221 112 40 222 112 40 224 112 40 225 112 40 226 112 40 227 112 40 228 112 40 229 112 40 230 112 40 231 112 40 232 112 40 233 112 40 234 112 40 235 112 40 236 112 40 237 112 40 238 112 40 240 112 40 241 112 40 242 112 40 243 112 40 244 112 40 245 112 40 246 112 40 247 112 40 248 112 40 249 112 40 250 112 40 251 112 40 252 112 40 253 112 40 255 112
40 0 111 40 1 111 40 2 111 40 3 111 40 4 111 40 5 111 40 6 111 40 7 111 40 8 111 40 9 111 40 10 111 40 11 111 40 12 111 40 13 111 40 14 111 40 16 111 40 17 111 40 18 111 40 19 111 40 20 111 40 21 111 40 22 111 40 23 111 40 24 111 40 25 111 40 26 111 40 27 111 40 28 111 40 29 111 40 30 111 40 32 111 40 33 111 40 34 111 40 35 111 40 36 111 40 37 111 40 38 111 40 39 111 40 40 111 40 41 111 40 42 111 40 43 111 40 44 111 40 45 111 40 46 111 40 48 111 220 180 70 220 180 70 220 180 70 220 180 70 220 180 70 220 180 70 220 180 70 220 180 70 220 180 70 220 180 70 220 180 70 220 180 70 220 180 70 220 180 70 220 180 70 220 180 70 220 180 70 220 180 70 220 180 70 220 180 70 220 180 70 220 180 70 220 180 70 220 180 70 220 180 70 220 180 70 220 180 70 220 180 70 220 180 70 220 180 70 220 180 70 220 180 70 220 180 70 220 180 70 220 180 70 220 180 70 220 180 70 220 180 70 220 180 70 220 180 70 220 180 70 220 180 70 220 180 70 220 180 70 220 180 70 220 180 70 220 180 70 220 180 70 220 180 70 220 180 70 220 180 70 220 180 70 220 180 70 220 180 70 220 180 70 220 180 70 220 180 70 220 180 70 220 180 70 220 180 70 220 180 70 220 180 70 220 180 70 220 180 70 220 180 70 220 180 70 220 180 70 220 180 70 220 180 70 220 180 70 220 180 70 220 180 70 220 180 70 220 180 70 220 180 70 220 180 70 220 180 70 220 180 70 220 180 70 220 180 70 220 180 70 220 180 70 220 180 70 220 180 70 220 180 70 220 180 70 220 180 70 220 180 70 220 180 70 220 180 70 220 180 70 220 180 70 220 180 70 220 180 70 220 180 70 220 180 70 220 180 70 220 180 70 220 180 70 220 180 70 220 180 70 220 180 70 220 180 70 220 180 70 220 180 70 220 180 70 220 180 70 220 180 70 220 180 70 220 180 70 220 180 70 220 180 70 220 180 70 220 180 70 220 180 70 220 180 70 220 180 70 220 180 70 220 180 70 220 180 70 220 180 70 220 180 70 220 180 70 220 180 70 220 180 70 220 180 70 220 180 70 220 180 70 220 180 70 220 180 70 220 180 70 220 180 70 220 180 70 220 180 70 220 180 70 220 180 70 220 180 70 220 180 70 220 180 70 220 180 70 220 180 70 220 180 70 220 180 70 220 180 70 220 180 70 220 180 70 220 180 70 220 180 70 220 180 70 40 208 111 40 209 111 40 210 111 40 211 111 40 212 111 40 213 111 40 214 111 40 215 111 40 216 111 40 217 111 40 218 111 40 219 111 40 220 111 40 221 111 40 222 111 40 224 111 40 225 111 40 226 111 40 227 111 40 228 111 40 229 111 40 230 111 40 231 111 40 232 111 40 233 111 40 234 111 40 235 111 40 236 111 40 237 111 40 238 111 40 240 111 40 241 111 40 242 111 40 243 111 40 244 111 40 245 111 40 246 111 40 247 111 40 248 111 40 249 111 40 250 111 40 251 111 40 252 111 40 253 111 40 255 111
40 0 109 40 1 109 40 2 109 40 3 109 40 4 109 40 5 109 40 6 109 40 7 109 40 8 109 40 9 109 40 10 109 40 11 109 40 12 109 40 13 109 40 14 109 40 16 109 40 17 109 40 18 109 40 19 109 40 20 109 40 21 109 40 22 109 40 23 109 40 24 109 40 25 109 40 26 109 40 27 109 40 28 109 40 29 109 40 30 109 40 32 109 40 33 109 40 34 109 40 35 109 40 36 109 40 37 109 40 38 109 40 39 109 40 40 109 40 41 109 40 42 109 40 43 109 40 44 109 40 45 109 40 46 109 40 48 109 220 180 70 220 180 70 220 180 70 220 180 70 220 180 70 220 180 70 220 180 70 220 180 70 220 180 70 220 180 70 220 180 70 220 180 70 220 180 70 220 180 70 220 180 70 220 180 70 220 180 70 220 180 70 220 180 70 220 180 70 220 180 70 220 180 70 220 180 70 220 180 70 220 180 70 220 180 70 220 180 70 220 180 70 220 180 70 220 180 70 220 180 70 220 180 70 220 180 70 220 180 70 220 180 70 220 180 70 220 180 70 220 180 70 220 180 70 220 180 70 220 180 70 220 180 70 220 180 70 220 180 70 220 180 70 220 180 70 220 180 70 220 180 70 220 180 70 220 180 70 220 180 70 220 180 70 220 180 70 220 180 70 220 180 70 220 180 70 220 180 70 220 180 70 220 180 70 220 180 70 220 180 70 220 180 70 220 180 70 220 180 70 220 180 70 220 180 70 220 180 70 220 180 70 220 180 70 220 180 70 220 180 70 220 180 70 220 180 70 220 180 70 220 180 70 220 180 70 220 180 70 220 180 70 220 180 70 220 180 70 220 180 70 220 180 70 220 180 70 220 180 70 220 180 70 220 180 70 220 180 70 220 180 70 220 180 70 220 180 70 220 180 70 220 180 70 220 180 70 220 180 70 220 180 70 220 180 70 220 180 70 220 180 70 220 180 70 220 180 70 220 180 70 220 180 70 220 180 70 220 180 70 220 180 70 220 180 70 220 180 70 220 180 70 220 180 70 220 180 70 220 180 70 220 180 70 220 180 70 220 180 70 220 180 70 220 180 70 220 180 70 220 180 70 220 180 70 220 180 70 220 180 70 220 180 70 220 180 70 220 180 70 220 180 70 220 180 70 220 180 70 220 180 70 220 180 70 220 180 70 220 180 70 220 180 70 220 180 70 220 180 70 220 180 70 220 180 70 220 180 70 220 180 70 220 180 70 220 180 70 220 180 70 220 180 70 220 180 70 220 180 70 220 180 70 220 180 70 220 180 70 220 180 70 220 180 70 40 208 109 40 209 109 40 210 109 40 211 109 40 212 109 40 213 109 40 214 109 40 215 109 40 216 109 40 217 109 40 218 109 40 219 109 40 220 109 40 221 109 40 222 109 40 224 109 40 225 109 40 226 109 40 227 109 40 228 109 40 229 109 40 230 109 40 231 109 40 232 109 40 233 109 40 234 109 40 235 109 40 236 109 40 237 109 40 238 109 40 240 109 40 241 109 40 242 109 40 243 109 40 244 109 40 245 109 40 246 109 40 247 109 40 248 109 40 249 109 40 250 109 40 251 109 40 252 109 40 253 109 40 255 109
40 0 108 40 1 108 40 2 108 40 3 108 40 4 108 40 5 108 40 6 108 40 7 108 40 8 108 40 9 108 40 10 108 40 11 108 40 12 108 40 13 108 40 14 108 40 16 108 40 17 108 40 18 108 40 19 108 40 20 108 40 21 108 40 22 108 40 23 108 40 24 108 40 25 108 40 26 108 40 27 108 40 28 108 40 29 108 40 30 108 40 32 108 40 33 108 40 34 108 40 35 108 40 36 108 40 37 108 40 38 108 40 39 108 40 40 108 40 41 108 40 42 108 40 43 108 40 44 108 40 45 108 40 46 108 40 48 108 220 180 70 220 180 70 220 180 70 220 180 70 220 180 70 220 180 70 220 180 70 220 180 70 220 180 70 220 180 70 220 180 70 220 180 70 220 180 70 220 180 70 220 180 70 220 180 70 220 180 70 220 180 70 220 180 70 220 180 70 220 180 70 220 180 70 220 180 70 220 180 70 220 180 70 220 180 70 220 180 70 220 180 70 220 180 70 220 180 70 220 180 70 220 180 70 220 180 70 220 180 70 220 180 70 220 180 70 220 180 70 220 180 70 220 180 70 220 180 70 220 180 70 220 180 70 220 180 70 220 180 70 220 180 70 220 180 70 220 180 70 220 180 70 220 180 70 220 180 70 220 180 70 220 180 70 220 180 70 220 180 70 220 180 70 220 180 70 220 180 70 220 180 70 220 180 70 220 180 70 220 180 70 220 180 70 220 180 70 220 180 70 220 180 70 220 180 70 220 180 70 220 180 70 220 180 70 220 180 70 220 180 70 220 180 70 220 180 70 220 180 70 220 180 70 220 180 70 220 180 70 220 180 70 220 180 70 220 180 70 220 180 70 220 180 70 220 180 70 220 180 70 220 180 70 220 180 70 220 180 70 220 180 70 220 180 70 220 180 70 220 180 70 220 180 70 220 180 70 220 180 70 220 180 70 220 180 70 220 180 70 220 180 70 220 180 70 220 180 70 220 180 70 220 180 70 220 180 70 220 180 70 220 180 70 220 180 70 220 180 70 220 180 70 220 180 70 220 180 70 220 180 70 220 180 70 220 180 70 220 180 70 220 180 70 220 180 70 220 180 70 220 180 70 220 180 70 220 180 70 220 180 70 220 180 70 220 180 70 220 180 70 220 180 70 220 180 70 220 180 70 220 180 70 220 180 70 220 180 70 220 180 70 220 180 70 220 180 70 220 180 70 220 180 70 220 180 70 220 180 70 220 180 70 220 180 70 220 180 70 220 180 70 220 180 70 220 180 70 220 180 70 220 180 70 220 180 70 220 180 70 220 180 70 220 180 70 40 208 108 40 209 108 40 210 108 40 211 108 40 212 108 40 213 108 40 214 108 40 215 108 40 216 108 40 217 108 40 218 108 40 219 108 40 220 108 40 221 108 40 222 108 40 224 108 40 225 108 40 226 108 40 227 108 40 228 108 40 229 108 40 230 108 40 231 108 40 232 108 40 233 108 40 234 108 40 235 108 40 236 108 40 237 108 40 238 108 40 240 108 40 241 108 40 242 108 40 243 108 40 244 108 40 245 108 40 246 108 40 247 108 40 248 108 40 249 108 40 250 108 40 251 108 40 252 108 40 253 108 40 255 108
40 0 106 40 1 106 40 2 106 40 3 106 40 4 106 40 5 106 40 6 106 40 7 106 40 8 106 40 9 106 40 10 106 40 11 106 40 12 106 40 13 106 40 14 106 40 16 106 40 17 106 40 18 106 40 19 106 40 20 106 40 21 106 40 22 106 40 23 106 40 24 106 40 25 106 40 26 106 40 27 106 40 28 106 40 29 106 40 30 106 40 32 106 40 33 106 40 34 106 40 35 106 40 36 106 40 37 106 40 38 106 40 39 106 40 40 106 40 41 106 40 42 106 40 43 106 40 44 106 40 45 106 40 46 106 40 48 106 220 180 70 220 180 70 220 180 70 220 180 70 220 180 70 220 180 70 220 180 70 220 180 70 220 180 70 220 180 70 220 180 70 220 180 70 220 180 70 220 180 70 220 180 70 220 180 70 220 180 70 220 180 70 220 180 70 220 180 70 220 180 70 220 180 70 220 180 70 220 180 70 220 180 70 220 180 70 220 180 70 220 180 70 220 180 70 220 180 70 220 180 70 220 180 70 220 180 70 220 180 70 220 180 70 220 180 70 220 180 70 220 180 70 220 180 70 220 180 70 220 180 70 220 180 70 220 180 70 220 180 70 220 180 70 220 180 70 220 180 70 220 180 70 220 180 70 220 180 70 220 180 70 220 180 70 220 180 70 220 180 70 220 180 70 220 180 70 220 180 70 220 180 70 220 180 70 220 180 70 220 180 70 220 180 70 220 180 70 220 180 70 220 180 70 220 180 70 220 180 70 220 180 70 220 180 70 220 180 70 220 180 70 220 180 70 220 180 70 220 180 70 220 180 70 220 180 70 220 180 70 220 180 70 220 180 70 220 180 70 220 180 70 220 180 70 220 180 70 220 180 70 220 180 70 220 180 70 220 180 70 220 180 70 220 180 70 220 180 70 220 180 70 220 180 70 220 180 70 220 180 70 220 180 70 220 180 70 220 180 70 220 180 70 220 180 70 220 180 70 220 180 70 220 180 70 220 180 70 220 180 70 220 180 70 220 180 70 220 180 70 220 180 70 220 180 70 220 180 70 220 180 70 220 180 70 220 180 70 220 180 70 220 180 70 220 180 70 220 180 70 220 180 70 220 180 70 220 180 70 220 180 70 220 180 70 220 180 70 220 180 70 220 180 70 220 180 70 220 180 70 220 180 70 220 180 70 220 180 70 220 180 70 220 180 70 220 180 70 220 180 70 220 180 70 220 180 70 220 180 70 220 180 70 220 180 70 220 180 70 220 180 70 220 180 70 220 180 70 220 180 70 220 180 70 220 180 70 220 180 70 220 180 70 220 180 70 40 208 106 40 209 106 40 210 106 40 211 106 40 212 106 40 213 106 40 214 106 40 215 106 40 216 106 40 217 106 40 218 106 40 219 106 40 220 106 40 221 106 40 222 106 40 224 106 40 225 106 40 226 106 40 227 106 40 228 106 40 229 106 40 230 106 40 231 106 40 232 106 40 233 106 40 234 106 40 235 106 40 236 106 40 237 106 40 238 106 40 240 106 40 241 106 40 242 106 40 243 106 40 244 106 40 245 106 40 246 106 40 247 106 40 248 106 40 249 106 40 250 106 40 251 106 40 252 106 40 253 106 40 255 106
40 0 105 40 1 105 40 2 105 40 3 105 40 4 105 40 5 105 40 6 105 40 7 105 40 8 105 40 9 105 40 10 105 40 11 105 40 12 105 40 13 105 40 14 105 40 16 105 40 17 105 40 18 105 40 19 105 40 20 105 40 21 105 40 22 105 40 23 105 40 24 105 40 25 105 40 26 105 40 27 105 40 28 105 40 29 105 40 30 105 40 32 105 40 33 105 40 34 105 40 35 105 40 36 105 40 37 105 40 38 105 40 39 105 40 40 105 40 41 105 40 42 105 40 43 105 40 44 105 40 45 105 40 46 105 40 48 105 220 180 70 220 180 70 220 180 70 220 180 70 220 180 70 220 180 70 220 180 70 220 180 70 220 180 70 220 180 70 220 180 70 220 180 70 220 180 70 220 180 70 220 180 70 220 180 70 220 180 70 220 180 70 220 180 70 220 180 70 220 180 70 220 180 70 220 180 70 220 180 70 220 180 70 220 180 70 220 180 70 220 180 70 220 180 70 220 180 70 220 180 70 220 180 70 220 180 70 220 180 70 220 180 70 220 180 70 220 180 70 220 180 70 220 180 70 220 180 70 220 180 70 220 180 70 220 180 70 220 180 70 220 180 70 220 180 70 220 180 70 220 180 70 220 180 70 220 180 70 220 180 70 220 180 70 220 180 70 220 180 70 220 180 70 220 180 70 220 180 70 220 180 70 220 180 70 220 180 70 220 180 70 220 180 70 220 180 70 220 180 70 220 180 70 220 180 70 220 180 70 220 180 70 220 180 70 220 180 70 220 180 70 220 180 70 220 180 70 220 180 70 220 180 70 220 180 70 220 180 70 220 180 70 220 180 70 220 180 70 220 180 70 220 180 70 220 180 70 220 180 70 220 180 70 220 180 70 220 180 70 220 180 70 220 180 70 220 180 70 220 180 70 220 180 70 220 180 70 220 180 70 220 180 70 220 180 70 220 180 70 220 180 70 220 180 70 220 180 70 220 180 70 220 180 70 220 180 70 220 180 70 220 180 70 220 180 70 220 180 70 220 180 70 220 180 70 220 180 70 220 180 70 220 180 70 220 180 70 220 180 70 220 180 70 220 180 70 220 180 70 220 180 70 220 180 70 220 180 70 220 180 70 220 180 70 220 180 70 220 180 70 220 180 70 220 180 70 220 180 70 220 180 70 220 180 70 220 180 70 220 180 70 220 180 70 220 180 70 220 180 70 220 180 70 220 180 70 220 180 70 220 180 70 220 180 70 220 180 70 220 180 70 220 180 70 220 180 70 220 180 70 220 180 70 220 180 70 220 180 70 220 180 70 220 180 70 40 208 105 40 209 105 40 210 105 40 211 105 40 212 105 40 213 105 40 214 105 40 215 105 40 216 105 40 217 105 40 218 105 40 219 105 40 220 105 40 221 105 40 222 105 40 224 105 40 225 105 40 226 105 40 227 105 40 228 105 40 229 105 40 230 105 40 231 105 40 232 105 40 233 105 40 234 105 40 235 105 40 236 105 40 237 105 40 238 105 40 240 105 40 241 105 40 242 105 40 243 105 40 244 105 40 245 105 40 246 105 40 247 105 40 248 105 40 249 105 40 250 105 40 251 105 40 252 105 40 253 105 40 255 105
40 0 103 40 1 103 40 2 103 40 3 103 40 4 103 40 5 103 40 6 103 40 7 103 40 8 103 40 9 103 40 10 103 40 11 103 40 12 103 40 13 103 40 14 103 40 16 103 40 17 103 40 18 103 40 19 103 40 20 103 40 21 103 40 22 103 40 23 103 40 24 103 40 25 103 40 26 103 40 27 103 40 28 103 40 29 103 40 30 103 40 32 103 40 33 103 40 34 103 40 35 103 40 36 103 40 37 103 40 38 103 40 39 103 40 40 103 40 41 103 40 42 103 40 43 103 40 44 103 40 45 103 40 46 103 40 48 103 220 180 70 220 180 70 220 180 70 220 180 70 220 180 70 220 180 70 220 180 70 220 180 70 220 180 70 220 180 70 220 180 70 220 180 70 220 180 70 220 180 70 220 180 70 220 180 70 220 180 70 220 180 70 220 180 70 220 180 70 220 180 70 220 180 70 220 180 70 220 180 70 220 180 70 220 180 70 220 180 70 220 180 70 220 180 70 220 180 70 220 180 70 220 180 70 220 180 70 220 180 70 220 180 70 220 180 70 220 180 70 220 180 70 220 180 70 220 180 70 220 180 70 220 180 70 220 180 70 220 180 70 220 180 70 220 180 70 220 180 70 220 180 70 220 180 70 220 180 70 220 180 70 220 180 70 220 180 70 220 180 70 220 180 70 220 180 70 220 180 70 220 180 70 220 180 70 220 180 70 220 180 70 220 180 70 220 180 70 220 180 70 220 180 70 220 180 70 220 180 70 220 180 70 220 180 70 220 180 70 220 180 70 220 180 70 220 180 70 220 180 70 220 180 70 220 180 70 220 180 70 220 180 70 220 180 70 220 180 70 220 180 70 220 180 70 220 180 70 220 180 70 220 180 70 220 180 70 220 180 70 220 180 70 220 180 70 220 180 70 220 180 70 220 180 70 220 180 70 220 180 70 220 180 70 220 180 70 220 180 70 220 180 70 220 180 70 220 180 70 220 180 70 220 180 70 220 180 70 220 180 70 220 180 70 220 180 70 220 180 70 220 180 70 220 180 70 220 180 70 220 180 70 220 180 70 220 180 70 220 180 70 220 180 70 220 180 70 220 180 70 220 180 70 220 180 70 220 180 70 220 180 70 220 180 70 220 180 70 220 180 70 220 180 70 220 180 70 220 180 70 220 180 70 220 180 70 220 180 70 220 180 70 220 180 70 220 180 70 220 180 70 220 180 70 220 180 70 220 180 70 220 180 70 220 180 70 220 180 70 220 180 70 220 180 70 220 180 70 220 180 70 220 180 70 220 180 70 220 180 70 220 180 70 220 180 70 40 208 103 40 209 103 40 210 103 40 211 103 40 212 103 40 213 103 40 214 103 40 215 103 40 216 103 40 217 103 40 218 103 40 219 103 40 220 103 40 221 103 40 222 103 40 224 103 40 225 103 40 226 103 40 227 103 40 228 103 40 229 103 40 230 103 40 231 103 40 232 103 40 233 103 40 234 103 40 235 103 40 236 103 40 237 103 40 238 103 40 240 103 40 241 103 40 242 103 40 243 103 40 244 103 40 245 103 40 246 103 40 247 103 40 248 103 40 249 103 40 250 103 40 251 103 40 252 103 40 253 103 40 255 103
40 0 102 40 1 102 40 2 102 40 3 102 40 4 102 40 5 102 40 6 102 40 7 102 40 8 102 40 9 102 40 10 102 40 11 102 40 12 102 40 13 102 40 14 102 40 16 102 40 17 102 40 18 102 40 19 102 40 20 102 40 21 102 40 22 102 40 23 102 40 24 102 40 25 102 40 26 102 40 27 102 40 28 102 40 29 102 40 30 102 40 32 102 40 33 102 40 34 102 40 35 102 40 36 102 40 37 102 40 38 102 40 39 102 40 40 102 40 41 102 40 42 102 40 43 102 40 44 102 40 45 102 40 46 102 40 48 102 220 180 70 220 180 70 220 180 70 220 180 70 220 180 70 220 180 70 220 180 70 220 180 70 220 180 70 220 180 70 220 180 70 220 180 70 220 180 70 220 180 70 220 180 70 220 180 70 220 180 70 220 180 70 220 180 70 220 180 70 220 180 70 220 180 70 220 180 70 220 180 70 220 180 70 220 180 70 220 180 70 220 180 70 220 180 70 220 180 70 220 180 70 220 180 70 220 180 70 220 180 70 220 180 70 220 180 70 220 180 70 220 180 70 220 180 70 220 180 70 220 180 70 220 180 70 220 180 70 220 180 70 220 180 70 220 180 70 220 180 70 220 180 70 220 180 70 220 180 70 220 180 70 220 180 70 220 180 70 220 180 70 220 180 70 220 180 70 220 180 70 220 180 70 220 180 70 220 180 70 220 180 70 220 180 70 220 180 70 220 180 70 220 180 70 220 180 70 220 180 70 220 180 70 220 180 70 220 180 70 220 180 70 220 180 70 220 180 70 220 180 70 220 180 70 220 180 70 220 180 70 220 180 70 220 180 70 220 180 70 220 180 70 220 180 70 220 180 70 220 180 70 220 180 70 220 180 70 220 180 70 220 180 70 220 180 70 220 180 70 220 180 70 220 180 70 220 180 70 220 180 70 220 180 70 220 180 70 220 180 70 220 180 70 220 180 70 220 180 70 220 180 70 220 180 70 220 180 70 220 180 70 220 180 70 220 180 70 220 180 70 220 180 70 220 180 70 220 180 70 220 180 70 220 180 70 220 180 70 220 180 70 220 180 70 220 180 70 220 180 70 220 180 70 220 180 70 220 180 70 220 180 70 220 180 70 220 180 70 220 180 70 220 180 70 220 180 70 220 180 70 220 180 70 220 180 70 220 180 70 220 180 70 220 180 70 220 180 70 220 180 70 220 180 70 220 180 70 220 180 70 220 180 70 220 180 70 220 180 70 220 180 70 220 180 70 220 180 70 220 180 70 220 180 70 220 180 70 220 180 70 220 180 70 220 180 70 40 208 102 40 209 102 40 210 102 40 211 102 40 212 102 40 213 102 40 214 102 40 215 102 40 216 102 40 217 102 40 218 102 40 219 102 40 220 102 40 221 102 40 222 102 40 224 102 40 225 102 40 226 102 40 227 102 40 228 102 40 229 102 40 230 102 40 231 102 40 232 102 40 233 102 40 234 102 40 235 102 40 236 102 40 237 102 40 238 102 40 240 102 40 241 102 40 242 102 40 243 102 40 244 102 40 245 102 40 246 102 40 247 102 40 248 102 40 249 102 40 250 102 40 251 102 40 252 102 40 253 102 40 255 102
40 0 101 40 1 101 40 2 101 40 3 101 40 4 101 40 5 101 40 6 101 40 7 101 40 8 101 40 9 101 40 10 101 40 11 101 40 12 101 40 13 101 40 14 101 40 16 101 40 17 101 40 18 101 40 19 101 40 20 101 40 21 101 40 22 101 40 23 101 40 24 101 40 25 101 40 26 101 40 27 101 40 28 101 40 29 101 40 30 101 40 32 101 40 33 101 40 34 101 40 35 101 40 36 101 40 37 101 40 38 101 40 39 101 40 40 101 40 41 101 40 42 101 40 43 101 40 44 101 40 45 101 40 46 101 40 48 101 220 180 70 220 180 70 220 180 70 220 180 70 220 180 70 220 180 70 220 180 70 220 180 70 220 180 70 220 180 70 220 180 70 220 180 70 220 180 70 220 180 70 220 180 70 220 180 70 220 180 70 220 180 70 220 180 70 220 180 70 220 180 70 220 180 70 220 180 70 220 180 70 220 180 70 220 180 70 220 180 70 220 180 70 220 180 70 220 180 70 220 180 70 220 180 70 220 180 70 220 180 70 220 180 70 220 180 70 220 180 70 220 180 70 220 180 70 220 180 70 220 180 70 220 180 70 220 180 70 220 180 70 220 180 70 220 180 70 220 180 70 220 180 70 220 180 70 220 180 70 220 180 70 220 180 70 220 180 70 220 180 70 220 180 70 220 180 70 220 180 70 220 180 70 220 180 70 220 180 70 220 180 70 220 180 70 220 180 70 220 180 70 220 180 70 220 180 70 220 180 70 220 180 70 220 180 70 220 180 70 220 180 70 220 180 70 220 180 70 220 180 70 220 180 70 220 180 70 220 180 70 220 180 70 220 180 70 220 180 70 220 180 70 220 180 70 220 180 70 220 180 70 220 180 70 220 180 70 220 180 70 220 180 70 220 180 70 220 180 70 220 180 70 220 180 70 220 180 70 220 180 70 220 180 70 220 180 70 220 180 70 220 180 70 220 180 70 220 180 70 220 180 70 220 180 70 220 180 70 220 180 70 220 180 70 220 180 70 220 180 70 220 180 70 220 180 70 220 180 70 220 180 70 220 180 70 220 180 70 220 180 70 220 180 70 220 180 70 220 180 70 220 180 70 220 180 70 220 180 70 220 180 70 220 180 70 220 180 70 220 180 70 220 180 70 220 180 70 220 180 70 220 180 70 220 180 70 220 180 70 220 180 70 220 180 70 220 180 70 220 180 70 220 180 70 220 180 70 220 180 70 220 180 70 220 180 70 220 180 70 220 180 70 220 180 70 220 180 70 220 180 70 220 180 70 220 180 70 220 180 70 220 180 70 220 180 70 40 208 101 40 209 101 40 210 101 40 211 101 40 212 101 40 213 101 40 214 101 40 215 101 40 216 101 40 217 101 40 218 101 40 219 101 40 220 101 40 221 101 40 222 101 40 224 101 40 225 101 40 226 101 40 227 101 40 228 101 40 229 101 40 230 101 40 231 101 40 232 101 40 233 101 40 234 101 40 235 101 40 236 101 40 237 101 40 238 101 40 240 101 40 241 101 40 242 101 40 243 101 40 244 101 40 245 101 40 246 101 40 247 101 40 248 101 40 249 101 40 250 101 40 251 101 40 252 101 40 253 101 40 255 101
40 0 99 40 1 99 40 2 99 40 3 99 40 4 99 40 5 99 40 6 99 40 7 99 40 8 99 40 9 99 40 10 99 40 11 99 40 12 99 40 13 99 40 14 99 40 16 99 40 17 99 40 18 99 40 19 99 40 20 99 40 21 99 40 22 99 40 23 99 40 24 99 40 25 99 40 26 99 40 27 99 40 28 99 40 29 99 40 30 99 40 32 99 40 33 99 40 34 99 40 35 99 40 36 99 40 37 99 40 38 99 40 39 99 40 40 99 40 41 99 40 42 99 40 43 99 40 44 99 40 45 99 40 46 99 40 48 99 220 180 70 220 180 70 220 180 70 220 180 70 220 180 70 220 180 70 220 180 70 220 180 70 220 180 70 220 180 70 220 180 70 220 180 70 220 180 70 220 180 70 220 180 70 220 180 70 220 180 70 220 180 70 220 180 70 220 180 70 220 180 70 220 180 70 220 180 70 220 180 70 220 180 70 220 180 70 220 180 70 220 180 70 220 180 70 220 180 70 220 180 70 220 180 70 220 180 70 220 180 70 220 180 70 220 180 70 220 180 70 220 180 70 220 180 70 220 180 70 220 180 70 220 180 70 220 180 70 220 180 70 220 180 70 220 180 70 220 180 70 220 180 70 220 180 70 220 180 70 220 180 70 220 180 70 220 180 70 220 180 70 220 180 70 220 180 70 220 180 70 220 180 70 220 180 70 220 180 70 220 180 70 220 180 70 220 180 70 220 180 70 220 180 70 220 180 70 220 180 70 220 180 70 220 180 70 220 180 70 220 180 70 220 180 70 220 180 70 220 180 70 220 180 70 220 180 70 220 180 70 220 180 70 220 180 70 220 180 70 220 180 70 220 180 70 220 180 70 220 180 70 220 180 70 220 180 70 220 180 70 220 180 70 220 180 70 220 180 70 220 180 70 220 180 70 220 180 70 220 180 70 220 180 70 220 180 70 220 180 70 220 180 70 220 180 70 220 180 70 220 180 70 220 180 70 220 180 70 220 180 70 220 180 70 220 180 70 220 180 70 220 180 70 220 180 70 220 180 70 220 180 70 220 180 70 220 180 70 220 180 70 220 180 70 220 180 70 220 180 70 220 180 70 220 180 70 220 180 70 220 180 70 220 180 70 220 180 70 220 180 70 220 180 70 220 180 70 220 180 70 220 180 70 220 180 70 220 180 70 220 180 70 220 180 70 220 180 70 220 180 70 220 180 70 220 180 70 220 180 70 220 180 70 220 180 70 220 180 70 220 180 70 220 180 70 220 180 70 220 180 70 220 180 70 220 180 70 220 180 70 220 180 70 220 180 70 40 208 99 40 209 99 40 210 99 40 211 99 40 212 99 40 213 99 40 214 99 40 215 99 40 216 99 40 217 99 40 218 99 40 219 99 40 220 99 40 221 99 40 222 99 40 224 99 40 225 99 40 226 99 40 227 99 40 228 99 40 229 99 40 230 99 40 231 99 40 232 99 40 233 99 40 234 99 40 235 99 40 236 99 40 237 99 40 238 99 40 240 99 40 241 99 40 242 99 40 243 99 40 244 99 40 245 99 40 246 99 40 247 99 40 248 99 40 249 99 40 250 99 40 251 99 40 252 99 40 253 99 40 255 99
40 0 98 40 1 98 40 2 98 40 3 98 40 4 98 40 5 98 40 6 98 40 7 98 40 8 98 40 9 98 40 10 98 40 11 98 40 12 98 40 13 98 40 14 98 40 16 98 40 17 98 40 18 98 40 19 98 40 20 98 40 21 98 40 22 98 40 23 98 40 24 98 40 25 98 40 26 98 40 27 98 40 28 98 40 29 98 40 30 98 40 32 98 40 33 98 40 34 98 40 35 98 40 36 98 40 37 98 40 38 98 40 39 98 40 40 98 40 41 98 40 42 98 40 43 98 40 44 98 40 45 98 40 46 98 40 48 98 220 180 70 220 180 70 220 180 70 220 180 70 220 180 70 220 180 70 220 180 70 220 180 70 220 180 70 220 180 70 220 180 70 220 180 70 220 180 70 220 180 70 220 180 70 220 180 70 220 180 70 220 180 70 220 180 70 220 180 70 220 180 70 220 180 70 220 180 70 220 180 70 220 180 70 220 180 70 220 180 70 220 180 70 220 180 70 220 180 70 220 180 70 220 180 70 220 180 70 220 180 70 220 180 70 220 180 70 220 180 70 220 180 70 220 180 70 220 180 70 220 180 70 220 180 70 220 180 70 220 180 70 220 180 70 220 180 70 220 180 70 220 180 70 220 180 70 220 180 70 220 180 70 220 180 70 220 180 70 220 180 70 220 180 70 220 180 70 220 180 70 220 180 70 220 180 70 220 180 70 220 180 70 220 180 70 220 180 70 220 180 70 220 180 70 220 180 70 220 180 70 220 180 70 220 180 70 220 180 70 220 180 70 220 180 70 220 180 70 220 180 70 220 180 70 220 180 70 220 180 70 220 180 70 220 180 70 220 180 70 220 180 70 220 180 70 220 180 70 220 180 70 220 180 70 220 180 70 220 180 70 220 180 70 220 180 70 220 180 70 220 180 70 220 180 70 220 180 70 220 180 70 220 180 70 220 180 70 220 180 70 220 180 70 220 180 70 220 180 70 220 180 70 220 180 70 220 180 70 220 180 70 220 180 70 220 180 70 220 180 70 220 180 70 220 180 70 220 180 70 220 180 70 220 180 70 220 180 70 220 180 70 220 180 70 220 180 70 220 180 70 220 180 70 220 180 70 220 180 70 220 180 70 220 180 70 220 180 70 220 180 70 220 180 70 220 180 70 220 180 70 220 180 70 220 180 70 220 180 70 220 180 70 220 180 70 220 180 70 220 180 70 220 180 70 220 180 70 220 180 70 220 180 70 220 180 70 220 180 70 220 180 70 220 180 70 220 180 70 220 180 70 220 180 70 220 180 70 220 180 70 220 180 70 220 180 70 40 208 98 40 209 98 40 210 98 40 211 98 40 212 98 40 213 98 40 214 98 40 215 98 40 216 98 40 217 98 40 218 98 40 219 98 40 220 98 40 221 98 40 222 98 40 224 98 40 225 98 40 226 98 40 227 98 40 228 98 40 229 98 40 230 98 40 231 98 40 232 98 40 233 98 40 234 98 40 235 98 40 236 98 40 237 98 40 238 98 40 240 98 40 241 98 40 242 98 40 243 98 40 244 98 40 245 98 40 246 98 40 247 98 40 248 98 40 249 98 40 250 98 40 251 98 40 252 98 40 253 98 40 255 98
40 0 96 40 1 96 40 2 96 40 3 96 40 4 96 40 5 96 40 6 96 40 7 96 40 8 96 40 9 96 40 10 96 40 11 96 40 12 96 40 13 96 40 14 96 40 16 96 40 17 96 40 18 96 40 19 96 40 20 96 40 21 96 40 22 96 40 23 96 40 24 96 40 25 96 40 26 96 40 27 96 40 28 96 40 29 96 40 30 96 40 32 96 40 33 96 40 34 96 40 35 96 40 36 96 40 37 96 40 38 96 40 39 96 40 40 96 40 41 96 40 42 96 40 43 96 40 44 96 40 45 96 40 46 96 40 48 96 220 180 70 220 180 70 220 180 70 220 180 70 220 180 70 220 180 70 220 180 70 220 180 70 220 180 70 220 180 70 220 180 70 220 180 70 220 180 70 220 180 70 220 180 70 220 180 70 220 180 70 220 180 70 220 180 70 220 180 70 220 180 70 220 180 70 220 180 70 220 180 70 220 180 70 220 180 70 220 180 70 220 180 70 220 180 70 220 180 70 220 180 70 220 180 70 220 180 70 220 180 70 220 180 70 220 180 70 220 180 70 220 180 70 220 180 70 220 180 70 220 180 70 220 180 70 220 180 70 220 180 70 220 180 70 220 180 70 220 180 70 220 180 70 220 180 70 220 180 70 220 180 70 220 180 70 220 180 70 220 180 70 220 180 70 220 180 70 220 180 70 220 180 70 220 180 70 220 180 70 220 180 70 220 180 70 220 180 70 220 180 70 220 180 70 220 180 70 220 180 70 220 180 70 220 180 70 220 180 70 220 180 70 220 180 70 220 180 70 220 180 70 220 180 70 220 180 70 220 180 70 220 180 70 220 180 70 220 180 70 220 180 70 220 180 70 220 180 70 220 180 70 220 180 70 220 180 70 220 180 70 220 180 70 220 180 70 220 180 70 220 180 70 220 180 70 220 180 70 220 180 70 220 180 70 220 180 70 220 180 70 220 180 70 220 180 70 220 180 70 220 180 70 220 180 70 220 180 70 220 180 70 220 180 70 220 180 70 220 180 70 220 180 70 220 180 70 220 180 70 220 180 70 220 180 70 220 180 70 220 180 70 220 180 70 220 180 70 220 180 70 220 180 70 220 180 70 220 180 70 220 180 70 220 180 70 220 180 70 220 180 70 220 180 70 220 180 70 220 180 70 220 180 70 220 180 70 220 180 70 220 180 70 220 180 70 220 180 70 220 180 70 220 180 70 220 180 70 220 180 70 220 180 70 220 180 70 220 180 70 220 180 70 220 180 70 220 180 70 220 180 70 220 180 70 220 180 70 220 180 70 220 180 70 220 180 70 40 208 96 40 209 96 40 210 96 40 211 96 40 212 96 40 213 96 40 214 96 40 215 96 40 216 96 40 217 96 40 218 96 40 219 96 40 220 96 40 221 96 40 222 96 40 224 96 40 225 96 40 226 96 40 227 96 40 228 96 40 229 96 40 230 96 40 231 96 40 232 96 40 233 96 40 234 96 40 235 96 40 236 96 40 237 96 40 238 96 40 240 96 40 241 96 40 242 96 40 243 96 40 244 96 40 245 96 40 246 96 40 247 96 40 248 96 40 249 96 40 250 96 40 251 96 40 252 96 40 253 96 40 255 96
40 0 95 40 1 95 40 2 95 40 3 95 40 4 95 40 5 95 40 6 95 40 7 95 40 8 95 40 9 95 40 10 95 40 11 95 40 12 95 40 13 95 40 14 95 40 16 95 40 17 95 40 18 95 40 19 95 40 20 95 40 21 95 40 22 95 40 23 95 40 24 95 40 25 95 40 26 95 40 27 95 40 28 95 40 29 95 40 30 95 40 32 95 40 33 95 40 34 95 40 35 95 40 36 95 40 37 95 40 38 95 40 39 95 40 40 95 40 41 95 40 42 95 40 43 95 40 44 95 40 45 95 40 46 95 40 48 95 220 180 70 220 180 70 220 180 70 220 180 70 220 180 70 220 180 70 220 180 70 220 180 70 220 180 70 220 180 70 220 180 70 220 180 70 220 180 70 220 180 70 220 180 70 220 180 70 220 180 70 220 180 70 220 180 70 220 180 70 220 180 70 220 180 70 220 180 70 220 180 70 220 180 70 220 180 70 220 180 70 220 180 70 220 180 70 220 180 70 220 180 70 220 180 70 220 180 70 220 180 70 220 180 70 220 180 70 220 180 70 220 180 70 220 180 70 220 180 70 220 180 70 220 180 70 220 180 70 220 180 70 220 180 70 220 180 70 220 180 70 220 180 70 220 180 70 220 180 70 220 180 70 220 180 70 220 180 70 220 180 70 220 180 70 220 180 70 220 180 70 220 180 70 220 180 70 220 180 70 220 180 70 220 180 70 220 180 70 220 180 70 220 180 70 220 180 70 220 180 70 220 180 70 220 180 70 220 180 70 220 180 70 220 180 70 220 180 70 220 180 70 220 180 70 220 180 70 220 180 70 220 180 70 220 180 70 220 180 70 220 180 70 220 180 70 220 180 70 220 180 70 220 180 70 220 180 70 220 180 70 220 180 70 220 180 70 220 180 70 220 180 70 220 180 70 220 180 70 220 180 70 220 180 70 220 180 70 220 180 70 220 180 70 220 180 70 220 180 70 220 180 70 220 180 70 220 180 70 220 180 70 220 180 70 220 180 70 220 180 70 220 180 70 220 180 70 220 180 70 220 180 70 220 180 70 220 180 70 220 180 70 220 180 70 220 180 70 220 180 70 220 180 70 220 180 70 220 180 70 220 180 70 220 180 70 220 180 70 220 180 70 220 180 70 220 180 70 220 180 70 220 180 70 220 180 70 220 180 70 220 180 70 220 180 70 220 180 70 220 180 70 220 180 70 220 180 70 220 180 70 220 180 70 220 180 70 220 180 70 220 180 70 220 180 70 220 180 70 220 180 70 220 180 70 220 180 70 220 180 70 220 180 70 220 180 70 40 208 95 40 209 95 40 210 95 40 211 95 40 212 95 40 213 95 40 214 95 40 215 95 40 216 95 40 217 95 40 218 95 40 219 95 40 220 95 40 221 95 40 222 95 40 224 95 40 225 95 40 226 95 40 227 95 40 228 95 40 229 95 40 230 95 40 231 95 40 232 95 40 233 95 40 234 95 40 235 95 40 236 95 40 237 95 40 238 95 40 240 95 40 241 95 40 242 95 40 243 95 40 244 95 40 245 95 40 246 95 40 247 95 40 248 95 40 249 95 40 250 95 40 251 95 40 252 95 40 253 95 40 255 95
40 0 94 40 1 94 40 2 94 40 3 94 40 4 94 40 5 94 40 6 94 40 7 94 40 8 94 40 9 94 40 10 94 40 11 94 40 12 94 40 13 94 40 14 94 40 16 94 40 17 94 40 18 94 40 19 94 40 20 94 40 21 94 40 22 94 40 23 94 40 24 94 40 25 94 40 26 94 40 27 94 40 28 94 40 29 94 40 30 94 40 32 94 40 33 94 40 34 94 40 35 94 40 36 94 40 37 94 40 38 94 40 39 94 40 40 94 40 41 94 40 42 94 40 43 94 40 44 94 40 45 94 40 46 94 40 48 94 220 180 70 220 180 70 220 180 70 220 180 70 220 180 70 220 180 70 220 180 70 220 180 70 220 180 70 220 180 70 220 180 70 220 180 70 220 180 70 220 180 70 220 180 70 220 180 70 220 180 70 220 180 70 220 180 70 220 180 70 220 180 70 220 180 70 220 180 70 220 180 70 220 180 70 220 180 70 220 180 70 220 180 70 220 180 70 220 180 70 220 180 70 220 180 70 220 180 70 220 180 70 220 180 70 220 180 70 220 180 70 220 180 70 220 180 70 220 180 70 220 180 70 220 180 70 220 180 70 220 180 70 220 180 70 220 180 70 220 180 70 220 180 70 220 180 70 220 180 70 220 180 70 220 180 70 220 180 70 220 180 70 220 180 70 220 180 70 220 180 70 220 180 70 220 180 70 220 180 70 220 180 70 220 180 70 220 180 70 220 180 70 220 180 70 220 180 70 220 180 70 220 180 70 220 180 70 220 180 70 220 180 70 220 180 70 220 180 70 220 180 70 220 180 70 220 180 70 220 180 70 220 180 70 220 180 70 220 180 70 220 180 70 220 180 70 220 180 70 220 180 70 220 180 70 220 180 70 220 180 70 220 180 70 220 180 70 220 180 70 220 180 70 220 180 70 220 180 70 220 180 70 220 180 70 220 180 70 220 180 70 220 180 70 220 180 70 220 180 70 220 180 70 220 180 70 220 180 70 220 180 70 220 180 70 220 180 70 220 180 70 220 180 70 220 180 70 220 180 70 220 180 70 220 180 70 220 180 70 220 180 70 220 180 70 220 180 70 220 180 70 220 180 70 220 180 70 220 180 70 220 180 70 220 180 70 220 180 70 220 180 70 220 180 70 220 180 70 220 180 70 220 180 70 220 180 70 220 180 70 220 180 70 220 180 70 220 180 70 220 180 70 220 180 70 220 180 70 220 180 70 220 180 70 220 180 70 220 180 70 220 180 70 220 180 70 220 180 70 220 180 70 220 180 70 220 180 70 220 180 70 220 180 70 220 180 70 40 208 94 40 209 94 40 210 94 40 211 94 40 212 94 40 213 94 40 214 94 40 215 94 40 216 94 40 217 94 40 218 94 40 219 94 40 220 94 40 221 94 40 222 94 40 224 94 40 225 94 40 226 94 40 227 94 40 228 94 40 229 94 40 230 94 40 231 94 40 232 94 40 233 94 40 234 94 40 235 94 40 236 94 40 237 94 40 238 94 40 240 94 40 241 94 40 242 94 40 243 94 40 244 94 40 245 94 40 246 94 40 247 94 40 248 94 40 249 94 40 250 94 40 251 94 40 252 94 40 253 94 40 255 94
40 0 92 40 1 92 40 2 92 40 3 92 40 4 92 40 5 92 40 6 92 40 7 92 40 8 92 40 9 92 40 10 92 40 11 92 40 12 92 40 13 92 40 14 92 40 16 92 40 17 92 40 18 92 40 19 92 40 20 92 40 21 92 40 22 92 40 23 92 40 24 92 40 25 92 40 26 92 40 27 92 40 28 92 40 29 92 40 30 92 40 32 92 40 33 92 40 34 92 40 35 92 40 36 92 40 37 92 40 38 92 40 39 92 40 40 92 40 41 92 40 42 92 40 43 92 40 44 92 40 45 92 40 46 92 40 48 92 220 180 70 220 180 70 220 180 70 220 180 70 220 180 70 220 180 70 220 180 70 220 180 70 220 180 70 220 180 70 220 180 70 220 180 70 220 180 70 220 180 70 220 180 70 220 180 70 220 180 70 220 180 70 220 180 70 220 180 70 220 180 70 220 180 70 220 180 70 220 180 70 220 180 70 220 180 70 220 180 70 220 180 70 220 180 70 220 180 70 220 180 70 220 180 70 220 180 70 220 180 70 220 180 70 220 180 70 220 180 70 220 180 70 220 180 70 220 180 70 220 180 70 220 180 70 220 180 70 220 180 70 220 180 70 220 180 70 220 180 70 220 180 70 220 180 70 220 180 70 220 180 70 220 180 70 220 180 70 220 180 70 220 180 70 220 180 70 220 180 70 220 180 70 220 180 70 220 180 70 220 180 70 220 180 70 220 180 70 220 180 70 220 180 70 220 180 70 220 180 70 220 180 70 220 180 70 220 180 70 220 180 70 220 180 70 220 180 70 220 180 70 220 180 70 220 180 70 220 180 70 220 180 70 220 180 70 220 180 70 220 180 70 220 180 70 220 180 70 220 180 70 220 180 70 220 180 70 220 180 70 220 180 70 220 180 70 220 180 70 220 180 70 220 180 70 220 180 70 220 180 70 220 180 70 220 180 70 220 180 70 220 180 70 220 180 70 220 180 70 220 180 70 220 180 70 220 180 70 220 180 70 220 180 70 220 180 70 220 180 70 220 180 70 220 180 70 220 180 70 220 180 70 220 180 70 220 180 70 220 180 70 220 180 70 220 180 70 220 180 70 220 180 70 220 180 70 220 180 70 220 180 70 220 180 70 220 180 70 220 180 70 220 180 70 220 180 70 220 180 70 220 180 70 220 180 70 220 180 70 220 180 70 220 180 70 220 180 70 220 180 70 220 180 70 220 180 70 220 180 70 220 180 70 220 180 70 220 180 70 220 180 70 220 180 70 220 180 70 220 180 70 220 180 70 220 180 70 220 180 70 220 180 70 220 180 70 40 208 92 40 209 92 40 210 92 40 211 92 40 212 92 40 213 92 40 214 92 40 215 92 40 216 92 40 217 92 40 218 92 40 219 92 40 220 92 40 221 92 40 222 92 40 224 92 40 225 92 40 226 92 40 227 92 40 228 92 40 229 92 40 230 92 40 231 92 40 232 92 40 233 92 40 234 92 40 235 92 40 236 92 40 237 92 40 238 92 40 240 92 40 241 92 40 242 92 40 243 92 40 244 92 40 245 92 40 246 92 40 247 92 40 248 92 40 249 92 40 250 92 40 251 92 40 252 92 40 253 92 40 255 92
40 0 91 40 1 91 40 2 91 40 3 91 40 4 91 40 5 91 40 6 91 40 7 91 40 8 91 40 9 91 40 10 91 40 11 91 40 12 91 40 13 91 40 14 91 40 16 91 40 17 91 40 18 91 40 19 91 40 20 91 40 21 91 40 22 91 40 23 91 40 24 91 40 25 91 40 26 91 40 27 91 40 28 91 40 29 91 40 30 91 40 32 91 40 33 91 40 34 91 40 35 91 40 36 91 40 37 91 40 38 91 40 39 91 40 40 91 40 41 91 40 42 91 40 43 91 40 44 91 40 45 91 40 46 91 40 48 91 220 180 70 220 180 70 220 180 70 220 180 70 220 180 70 220 180 70 220 180 70 220 180 70 220 180 70 220 180 70 220 180 70 220 180 70 220 180 70 220 180 70 220 180 70 220 180 70 220 180 70 220 180 70 220 180 70 220 180 70 220 180 70 220 180 70 220 180 70 220 180 70 220 180 70 220 180 70 220 180 70 220 180 70 220 180 70 220 180 70 220 180 70 220 180 70 220 180 70 220 180 70 220 180 70 220 180 70 220 180 70 220 180 70 220 180 70 220 180 70 220 180 70 220 180 70 220 180 70 220 180 70 220 180 70 220 180 70 220 180 70 220 180 70 220 180 70 220 180 70 220 180 70 220 180 70 220 180 70 220 180 70 220 180 70 220 180 70 220 180 70 220 180 70 220 180 70 220 180 70 220 180 70 220 180 70 220 180 70 220 180 70 220 180 70 220 180 70 220 180 70 220 180 70 220 180 70 220 180 70 220 180 70 220 180 70 220 180 70 220 180 70 220 180 70 220 180 70 220 180 70 220 180 70 220 180 70 220 180 70 220 180 70 220 180 70 220 180 70 220 180 70 220 180 70 220 180 70 220 180 70 220 180 70 220 180 70 220 180 70 220 180 70 220 180 70 220 180 70 220 180 70 220 180 70 220 180 70 220 180 70 220 180 70 220 180 70 220 180 70 220 180 70 220 180 70 220 180 70 220 180 70 220 180 70 220 180 70 220 180 70 220 180 70 220 180 70 220 180 70 220 180 70 220 180 70 220 180 70 220 180 70 220 180 70 220 180 70 220 180 70 220 180 70 220 180 70 220 180 70 220 180 70 220 180 70 220 180 70 220 180 70 220 180 70 220 180 70 220 180 70 220 180 70 220 180 70 220 180 70 220 180 70 220 180 70 220 180 70 220 180 70 220 180 70 220 180 70 220 180 70 220 180 70 220 180 70 220 180 70 220 180 70 220 180 70 220 180 70 220 180 70 220 180 70 220 180 70 220 180 70 220 180 70 220 180 70 40 208 91 40 209 91 40 210 91 40 211 91 40 212 91 40 213 91 40 214 91 40 215 91 40 216 91 40 217 91 40 218 91 40 219 91 40 220 91 40 221 91 40 222 91 40 224 91 40 225 91 40 226 91 40 227 91 40 228 91 40 229 91 40 230 91 40 231 91 40 232 91 40 233 91 40 234 91 40 235 91 40 236 91 40 237 91 40 238 91 40 240 91 40 241 91 40 242 91 40 243 91 40 244 91 40 245 91 40 246 91 40 247 91 40 248 91 40 249 91 40 250 91 40 251 91 40 252 91 40 253 91 40 255 91
40 0 89 40 1 89 40 2 89 40 3 89 40 4 89 40 5 89 40 6 89 40 7 89 40 8 89 40 9 89 40 10 89 40 11 89 40 12 89 40 13 89 40 14 89 40 16 89 40 17 89 40 18 89 40 19 89 40 20 89 40 21 89 40 22 89 40 23 89 40 24 89 40 25 89 40 26 89 40 27 89 40 28 89 40 29 89 40 30 89 40 32 89 40 33 89 40 34 89 40 35 89 40 36 89 40 37 89 40 38 89 40 39 89 40 40 89 40 41 89 40 42 89 40 43 89 40 44 89 40 45 89 40 46 89 40 48 89 220 180 70 220 180 70 220 180 70 220 180 70 220 180 70 220 180 70 220 180 70 220 180 70 220 180 70 220 180 70 220 180 70 220 180 70 220 180 70 220 180 70 220 180 70 220 180 70 220 180 70 220 180 70 220 180 70 220 180 70 220 180 70 220 180 70 220 180 70 220 180 70 220 180 70 220 180 70 220 180 70 220 180 70 220 180 70 220 180 70 220 180 70 220 180 70 220 180 70 220 180 70 220 180 70 220 180 70 220 180 70 220 180 70 220 180 70 220 180 70 220 180 70 220 180 70 220 180 70 220 180 70 220 180 70 220 180 70 220 180 70 220 180 70 220 180 70 220 180 70 220 180 70 220 180 70 220 180 70 220 180 70 220 180 70 220 180 70 220 180 70 220 180 70 220 180 70 220 180 70 220 180 70 220 180 70 220 180 70 220 180 70 220 180 70 220 180 70 220 180 70 220 180 70 220 180 70 220 180 70 220 180 70 220 180 70 220 180 70 220 180 70 220 180 70 220 180 70 220 180 70 220 180 70 220 180 70 220 180 70 220 180 70 220 180 70 220 180 70 220 180 70 220 180 70 220 180 70 220 180 70 220 180 70 220 180 70 220 180 70 220 180 70 220 180 70 220 180 70 220 180 70 220 180 70 220 180 70 220 180 70 220 180 70 220 180 70 220 180 70 220 180 70 220 180 70 220 180 70 220 180 70 220 180 70 220 180 70 220 180 70 220 180 70 220 180 70 220 180 70 220 180 70 220 180 70 220 180 70 220 180 70 220 180 70 220 180 70 220 180 70 220 180 70 220 180 70 220 180 70 220 180 70 220 180 70 220 180 70 220 180 70 220 180 70 220 180 70 220 180 70 220 180 70 220 180 70 220 180 70 220 180 70 220 180 70 220 180 70 220 180 70 220 180 70 220 180 70 220 180 70 220 180 70 220 180 70 220 180 70 220 180 70 220 180 70 220 180 70 220 180 70 220 180 70 220 180 70 220 180 70 220 180 70 220 180 70 40 208 89 40 209 89 40 210 89 40 211 89 40 212 89 40 213 89 40 214 89 40 215 89 40 216 89 40 217 89 40 218 89 40 219 89 40 220 89 40 221 89 40 222 89 40 224 89 40 225 89 40 226 89 40 227 89 40 228 89 40 229 89 40 230 89 40 231 89 40 232 89 40 233 89 40 234 89 40 235 89 40 236 89 40 237 89 40 238 89 40 240 89 40 241 89 40 242 89 40 243 89 40 244 89 40 245 89 40 246 89 40 247 89 40 248 89 40 249 89 40 250 89 40 251 89 40 252 89 40 253 89 40 255 89
40 0 88 40 1 88 40 2 88 40 3 88 40 4 88 40 5 88 40 6 88 40 7 88 40 8 88 40 9 88 40 10 88 40 11 88 40 12 88 40 13 88 40 14 88 40 16 88 40 17 88 40 18 88 40 19 88 40 20 88 40 21 88 40 22 88 40 23 88 40 24 88 40 25 88 40 26 88 40 27 88 40 28 88 40 29 88 40 30 88 40 32 88 40 33 88 40 34 88 40 35 88 40 36 88 40 37 88 40 38 88 40 39 88 40 40 88 40 41 88 40 42 88 40 43 88 40 44 88 40 45 88 40 46 88 40 48 88 220 180 70 220 180 70 220 180 70 220 180 70 220 180 70 220 180 70 220 180 70 220 180 70 220 180 70 220 180 70 220 180 70 220 180 70 220 180 70 220 180 70 220 180 70 220 180 70 220 180 70 220 180 70 220 180 70 220 180 70 220 180 70 220 180 70 220 180 70 220 180 70 220 180 70 220 180 70 220 180 70 220 180 70 220 180 70 220 180 70 220 180 70 220 180 70 220 180 70 220 180 70 220 180 70 220 180 70 220 180 70 220 180 70 220 180 70 220 180 70 220 180 70 220 180 70 220 180 70 220 180 70 220 180 70 220 180 70 220 180 70 220 180 70 220 180 70 220 180 70 220 180 70 220 180 70 220 180 70 220 180 70 220 180 70 220 180 70 220 180 70 220 180 70 220 180 70 220 180 70 220 180 70 220 180 70 220 180 70 220 180 70 220 180 70 220 180 70 220 180 70 220 180 70 220 180 70 220 180 70 220 180 70 220 180 70 220 180 70 220 180 70 220 180 70 220 180 70 220 180 70 220 180 70 220 180 70 220 180 70 220 180 70 220 180 70 220 180 70 220 180 70 220 180 70 220 180 70 220 180 70 220 180 70 220 180 70 220 180 70 220 180 70 220 180 70 220 180 70 220 180 70 220 180 70 220 180 70 220 180 70 220 180 70 220 180 70 220 180 70 220 180 70 220 180 70 220 180 70 220 180 70 220 180 70 220 180 70 220 180 70 220 180 70 220 180 70 220 180 70 220 180 70 220 180 70 220 180 70 220 180 70 220 180 70 220 180 70 220 180 70 220 180 70 220 180 70 220 180 70 220 180 70 220 180 70 220 180 70 220 180 70 220 180 70 220 180 70 220 180 70 220 180 70 220 180 70 220 180 70 220 180 70 220 180 70 220 180 70 220 180 70 220 180 70 220 180 70 220 180 70 220 180 70 220 180 70 220 180 70 220 180 70 220 180 70 220 180 70 220 180 70 220 180 70 220 180 70 220 180 70 220 180 70 220 180 70 40 208 88 40 209 88 40 210 88 40 211 88 40 212 88 40 213 88 40 214 88 40 215 88 40 216 88 40 217 88 40 218 88 40 219 88 40 220 88 40 221 88 40 222 88 40 224 88 40 225 88 40 226 88 40 227 88 40 228 88 40 229 88 40 230 88 40 231 88 40 232 88 40 233 88 40 234 88 40 235 88 40 236 88 40 237 88 40 238 88 40 240 88 40 241 88 40 242 88 40 243 88 40 244 88 40 245 88 40 246 88 40 247 88 40 248 88 40 249 88 40 250 88 40 251 88 40 252 88 40 253 88 40 255 88
40 0 86 40 1 86 40 2 86 40 3 86 40 4 86 40 5 86 40 6 86 40 7 86 40 8 86 40 9 86 40 10 86 40 11 86 40 12 86 40 13 86 40 14 86 40 16 86 40 17 86 40 18 86 40 19 86 40 20 86 40 21 86 40 22 86 40 23 86 40 24 86 40 25 86 40 26 86 40 27 86 40 28 86 40 29 86 40 30 86 40 32 86 40 33 86 40 34 86 40 35 86 40 36 86 40 37 86 40 38 86 40 39 86 40 40 86 40 41 86 40 42 86 40 43 86 40 44 86 40 45 86 40 46 86 40 48 86 220 180 70 220 180 70 220 180 70 220 180 70 220 180 70 220 180 70 220 180 70 220 180 70 220 180 70 220 180 70 220 180 70 220 180 70 220 180 70 220 180 70 220 180 70 220 180 70 220 180 70 220 180 70 220 180 70 220 180 70 220 180 70 220 180 70 220 180 70 220 180 70 220 180 70 220 180 70 220 180 70 220 180 70 220 180 70 220 180 70 220 180 70 220 180 70 220 180 70 220 180 70 220 180 70 220 180 70 220 180 70 220 180 70 220 180 70 220 180 70 220 180 70 220 180 70 220 180 70 220 180 70 220 180 70 220 180 70 220 180 70 220 180 70 220 180 70 220 180 70 220 180 70 220 180 70 220 180 70 220 180 70 220 180 70 220 180 70 220 180 70 220 180 70 220 180 70 220 180 70 220 180 70 220 180 70 220 180 70 220 180 70 220 180 70 220 180 70 220 180 70 220 180 70 220 180 70 220 180 70 220 180 70 220 180 70 220 180 70 220 180 70 220 180 70 220 180 70 220 180 70 220 180 70 220 180 70 220 180 70 220 180 70 220 180 70 220 180 70 220 180 70 220 180 70 220 180 70 220 180 70 220 180 70 220 180 70 220 180 70 220 180 70 220 180 70 220 180 70 220 180 70 220 180 70 220 180 70 220 180 70 220 180 70 220 180 70 220 180 70 220 180 70 220 180 70 220 180 70 220 180 70 220 180 70 220 180 70 220 180 70 220 180 70 220 180 70 220 180 70 220 180 70 220 180 70 220 180 70 220 180 70 220 180 70 220 180 70 220 180 70 220 180 70 220 180 70 220 180 70 220 180 70 220 180 70 220 180 70 220 180 70 220 180 70 220 180 70 220 180 70 220 180 70 220 180 70 220 180 70 220 180 70 220 180 70 220 180 70 220 180 70 220 180 70 220 180 70 220 180 70 220 180 70 220 180 70 220 180 70 220 180 70 220 180 70 220 180 70 220 180 70 220 180 70 220 180 70 220 180 70 220 180 70 220 180 70 40 208 86 40 209 86 40 210 86 40 211 86 40 212 86 40 213 86 40 214 86 40 215 86 40 216 86 40 217 86 40 218 86 40 219 86 40 220 86 40 221 86 40 222 86 40 224 86 40 225 86 40 226 86 40 227 86 40 228 86 40 229 86 40 230 86 40 231 86 40 232 86 40 233 86 40 234 86 40 235 86 40 236 86 40 237 86 40 238 86 40 240 86 40 241 86 40 242 86 40 243 86 40 244 86 40 245 86 40 246 86 40 247 86 40 248 86 40 249 86 40 250 86 40 251 86 40 252 86 40 253 86 40 255 86
40 0 85 40 1 85 40 2 85 40 3 85 40 4 85 40 5 85 40 6 85 40 7 85 40 8 85 40 9 85 40 10 85 40 11 85 40 12 85 40 13 85 40 14 85 40 16 85 40 17 85 40 18 85 40 19 85 40 20 85 40 21 85 40 22 85 40 23 85 40 24 85 40 25 85 40 26 85 40 27 85 40 28 85 40 29 85 40 30 85 40 32 85 40 33 85 40 34 85 40 35 85 40 36 85 40 37 85 40 38 85 40 39 85 40 40 85 40 41 85 40 42 85 40 43 85 40 44 85 40 45 85 40 46 85 40 48 85 220 180 70 220 180 70 220 180 70 220 180 70 220 180 70 220 180 70 220 180 70 220 180 70 220 180 70 220 180 70 220 180 70 220 180 70 220 180 70 220 180 70 220 180 70 220 180 70 220 180 70 220 180 70 220 180 70 220 180 70 220 180 70 220 180 70 220 180 70 220 180 70 220 180 70 220 180 70 220 180 70 220 180 70 220 180 70 220 180 70 220 180 70 220 180 70 220 180 70 220 180 70 220 180 70 220 180 70 220 180 70 220 180 70 220 180 70 220 180 70 220 180 70 220 180 70 220 180 70 220 180 70 220 180 70 220 180 70 220 180 70 220 180 70 220 180 70 220 180 70 220 180 70 220 180 70 220 180 70 220 180 70 220 180 70 220 180 70 220 180 70 220 180 70 220 180 70 220 180 70 220 180 70 220 180 70 220 180 70 220 180 70 220 180 70 220 180 70 220 180 70 220 180 70 220 180 70 220 180 70 220 180 70 220 180 70 220 180 70 220 180 70 220 180 70 220 180 70 220 180 70 220 180 70 220 180 70 220 180 70 220 180 70 220 180 70 220 180 70 220 180 70 220 180 70 220 180 70 220 180 70 220 180 70 220 180 70 220 180 70 220 180 70 220 180 70 220 180 70 220 180 70 220 180 70 220 180 70 220 180 70 220 180 70 220 180 70 220 180 70 220 180 70 220 180 70 220 180 70 220 180 70 220 180 70 220 180 70 220 180 70 220 180 70 220 180 70 220 180 70 220 180 70 220 180 70 220 180 70 220 180 70 220 180 70 220 180 70 220 180 70 220 180 70 220 180 70 220 180 70 220 180 70 220 180 70 220 180 70 220 180 70 220 180 70 220 180 70 220 180 70 220 180 70 220 180 70 220 180 70 220 180 70 220 180 70 220 180 70 220 180 70 220 180 70 220 180 70 220 180 70 220 180 70 220 180 70 220 180 70 220 180 70 220 180 70 220 180 70 220 180 70 220 180 70 220 180 70 220 180 70 220 180 70 220 180 70 40 208 85 40 209 85 40 210 85 40 211 85 40 212 85 40 213 85 40 214 85 40 215 85 40 216 85 40 217 85 40 218 85 40 219 85 40 220 85 40 221 85 40 222 85 40 224 85 40 225 85 40 226 85 40 227 85 40 228 85 40 229 85 40 230 85 40 231 85 40 232 85 40 233 85 40 234 85 40 235 85 40 236 85 40 237 85 40 238 85 40 240 85 40 241 85 40 242 85 40 243 85 40 244 85 40 245 85 40 246 85 40 247 85 40 248 85 40 249 85 40 250 85 40 251 85 40 252 85 40 253 85 40 255 85
40 0 84 40 1 84 40 2 84 40 3 84 40 4 84 40 5 84 40 6 84 40 7 84 40 8 84 40 9 84 40 10 84 40 11 84 40 12 84 40 13 84 40 14 84 40 16 84 40 17 84 40 18 84 40 19 84 40 20 84 40 21 84 40 22 84 40 23 84 40 24 84 40 25 84 40 26 84 40 27 84 40 28 84 40 29 84 40 30 84 40 32 84 40 33 84 40 34 84 40 35 84 40 36 84 40 37 84 40 38 84 40 39 84 40 40 84 40 41 84 40 42 84 40 43 84 40 44 84 40 45 84 40 46 84 40 48 84 220 180 70 220 180 70 220 180 70 220 180 70 220 180 70 220 180 70 220 180 70 220 180 70 220 180 70 220 180 70 220 180 70 220 180 70 220 180 70 220 180 70 220 180 70 220 180 70 220 180 70 220 180 70 220 180 70 220 180 70 220 180 70 220 180 70 220 180 70 220 180 70 220 180 70 220 180 70 220 180 70 220 180 70 220 180 70 220 180 70 220 180 70 220 180 70 220 180 70 220 180 70 220 180 70 220 180 70 220 180 70 220 180 70 220 180 70 220 180 70 220 180 70 220 180 70 220 180 70 220 180 70 220 180 70 220 180 70 220 180 70 220 180 70 220 180 70 220 180 70 220 180 70 220 180 70 220 180 70 220 180 70 220 180 70 220 180 70 220 180 70 220 180 70 220 180 70 220 180 70 220 180 70 220 180 70 220 180 70 220 180 70 220 180 70 220 180 70 220 180 70 220 180 70 220 180 70 220 180 70 220 180 70 220 180 70 220 180 70 220 180 70 220 180 70 220 180 70 220 180 70 220 180 70 220 180 70 220 180 70 220 180 70 220 180 70 220 180 70 220 180 70 220 180 70 220 180 70 220 180 70 220 180 70 220 180 70 220 180 70 220 180 70 220 180 70 220 180 70 220 180 70 220 180 70 220 180 70 220 180 70 220 180 70 220 180 70 220 180 70 220 180 70 220 180 70 220 180 70 220 180 70 220 180 70 220 180 70 220 180 70 220 180 70 220 180 70 220 180 70 220 180 70 220 180 70 220 180 70 220 180 70 220 180 70 220 180 70 220 180 70 220 180 70 220 180 70 220 180 70 220 180 70 220 180 70 220 180 70 220 180 70 220 180 70 220 180 70 220 180 70 220 180 70 220 180 70 220 180 70 220 180 70 220 180 70 220 180 70 220 180 70 220 180 70 220 180 70 220 180 70 220 180 70 220 180 70 220 180 70 220 180 70 220 180 70 220 180 70 220 180 70 220 180 70 220 180 70 220 180 70 220 180 70 220 180 70 40 208 84 40 209 84 40 210 84 40 211 84 40 212 84 40 213 84 40 214 84 40 215 84 40 216 84 40 217 84 40 218 84 40 219 84 40 220 84 40 221 84 40 222 84 40 224 84 40 225 84 40 226 84 40 227 84 40 228 84 40 229 84 40 230 84 40 231 84 40 232 84 40 233 84 40 234 84 40 235 84 40 236 84 40 237 84 40 238 84 40 240 84 40 241 84 40 242 84 40 243 84 40 244 84 40 245 84 40 246 84 40 247 84 40 248 84 40 249 84 40 250 84 40 251 84 40 252 84 40 253 84 40 255 84
40 0 82 40 1 82 40 2 82 40 3 82 40 4 82 40 5 82 40 6 82 40 7 82 40 8 82 40 9 82 40 10 82 40 11 82 40 12 82 40 13 82 40 14 82 40 16 82 40 17 82 40 18 82 40 19 82 40 20 82 40 21 82 40 22 82 40 23 82 40 24 82 40 25 82 40 26 82 40 27 82 40 28 82 40 29 82 40 30 82 40 32 82 40 33 82 40 34 82 40 35 82 40 36 82 40 37 82 40 38 82 40 39 82 40 40 82 40 41 82 40 42 82 40 43 82 40 44 82 40 45 82 40 46 82 40 48 82 220 180 70 220 180 70 220 180 70 220 180 70 220 180 70 220 180 70 220 180 70 220 180 70 220 180 70 220 180 70 220 180 70 220 180 70 220 180 70 220 180 70 220 180 70 220 180 70 220 180 70 220 180 70 220 180 70 220 180 70 220 180 70 220 180 70 220 180 70 220 180 70 220 180 70 220 180 70 220 180 70 220 180 70 220 180 70 220 180 70 220 180 70 220 180 70 220 180 70 220 180 70 220 180 70 220 180 70 220 180 70 220 180 70 220 180 70 220 180 70 220 180 70 220 180 70 220 180 70 220 180 70 220 180 70 220 180 70 220 180 70 220 180 70 220 180 70 220 180 70 220 180 70 220 180 70 220 180 70 220 180 70 220 180 70 220 180 70 220 180 70 220 180 70 220 180 70 220 180 70 220 180 70 220 180 70 220 180 70 220 180 70 220 180 70 220 180 70 220 180 70 220 180 70 220 180 70 220 180 70 220 180 70 220 180 70 220 180 70 220 180 70 220 180 70 220 180 70 220 180 70 220 180 70 220 180 70 220 180 70 220 180 70 220 180 70 220 180 70 220 180 70 220 180 70 220 180 70 220 180 70 220 180 70 220 180 70 220 180 70 220 180 70 220 180 70 220 180 70 220 180 70 220 180 70 220 180 70 220 180 70 220 180 70 220 180 70 220 180 70 220 180 70 220 180 70 220 180 70 220 180 70 220 180 70 220 180 70 220 180 70 220 180 70 220 180 70 220 180 70 220 180 70 220 180 70 220 180 70 220 180 70 220 180 70 220 180 70 220 180 70 220 180 70 220 180 70 220 180 70 220 180 70 220 180 70 220 180 70 220 180 70 220 180 70 220 180 70 220 180 70 220 180 70 220 180 70 220 180 70 220 180 70 220 180 70 220 180 70 220 180 70 220 180 70 220 180 70 220 180 70 220 180 70 220 180 70 220 180 70 220 180 70 220 180 70 220 180 70 220 180 70 220 180 70 220 180 70 220 180 70 220 180 70 220 180 70 40 208 82 40 209 82 40 210 82 40 211 82 40 212 82 40 213 82 40 214 82 40 215 82 40 216 82 40 217 82 40 218 82 40 219 82 40 220 82 40 221 82 40 222 82 40 224 82 40 225 82 40 226 82 40 227 82 40 228 82 40 229 82 40 230 82 40 231 82 40 232 82 40 233 82 40 234 82 40 235 82 40 236 82 40 237 82 40 238 82 40 240 82 40 241 82 40 242 82 40 243 82 40 244 82 40 245 82 40 246 82 40 247 82 40 248 82 40 249 82 40 250 82 40 251 82 40 252 82 40 253 82 40 255 82
40 0 81 40 1 81 40 2 81 40 3 81 40 4 81 40 5 81 40 6 81 40 7 81 40 8 81 40 9 81 40 10 81 40 11 81 40 12 81 40 13 81 40 14 81 40 16 81 40 17 81 40 18 81 40 19 81 40 20 81 40 21 81 40 22 81 40 23 81 40 24 81 40 25 81 40 26 81 40 27 81 40 28 81 40 29 81 40 30 81 40 32 81 40 33 81 40 34 81 40 35 81 40 36 81 40 37 81 40 38 81 40 39 81 40 40 81 40 41 81 40 42 81 40 43 81 40 44 81 40 45 81 40 46 81 40 48 81 220 180 70 220 180 70 220 180 70 220 180 70 220 180 70 220 180 70 220 180 70 220 180 70 220 180 70 220 180 70 220 180 70 220 180 70 220 180 70 220 180 70 220 180 70 220 180 70 220 180 70 220 180 70 220 180 70 220 180 70 220 180 70 220 180 70 220 180 70 220 180 70 220 180 70 220 180 70 220 180 70 220 180 70 220 180 70 220 180 70 220 180 70 220 180 70 220 180 70 220 180 70 220 180 70 220 180 70 220 180 70 220 180 70 220 180 70 220 180 70 220 180 70 220 180 70 220 180 70 220 180 70 220 180 70 220 180 70 220 180 70 220 180 70 220 180 70 220 180 70 220 180 70 220 180 70 220 180 70 220 180 70 220 180 70 220 180 70 220 180 70 220 180 70 220 180 70 220 180 70 220 180 70 220 180 70 220 180 70 220 180 70 220 180 70 220 180 70 220 180 70 220 180 70 220 180 70 220 180 70 220 180 70 220 180 70 220 180 70 220 180 70 220 180 70 220 180 70 220 180 70 220 180 70 220 180 70 220 180 70 220 180 70 220 180 70 220 180 70 220 180 70 220 180 70 220 180 70 220 180 70 220 180 70 220 180 70 220 180 70 220 180 70 220 180 70 220 180 70 220 180 70 220 180 70 220 180 70 220 180 70 220 180 70 220 180 70 220 180 70 220 180 70 220 180 70 220 180 70 220 180 70 220 180 70 220 180 70 220 180 70 220 180 70 220 180 70 220 180 70 220 180 70 220 180 70 220 180 70 220 180 70 220 180 70 220 180 70 220 180 70 220 180 70 220 180 70 220 180 70 220 180 70 220 180 70 220 180 70 220 180 70 220 180 70 220 180 70 220 180 70 220 180 70 220 180 70 220 180 70 220 180 70 220 180 70 220 180 70 220 180 70 220 180 70 220 180 70 220 180 70 220 180 70 220 180 70 220 180 70 220 180 70 220 180 70 220 180 70 220 180 70 220 180 70 220 180 70 220 180 70 220 180 70 220 180 70 40 208 81 40 209 81 40 210 81 40 211 81 40 212 81 40 213 81 40 214 81 40 215 81 40 216 81 40 217 81 40 218 81 40 219 81 40 220 81 40 221 81 40 222 81 40 224 81 40 225 81 40 226 81 40 227 81 40 228 81 40 229 81 40 230 81 40 231 81 40 232 81 40 233 81 40 234 81 40 235 81 40 236 81 40 237 81 40 238 81 40 240 81 40 241 81 40 242 81 40 243 81 40 244 81 40 245 81 40 246 81 40 247 81 40 248 81 40 249 81 40 250 81 40 251 81 40 252 81 40 253 81 40 255 81
40 0 79 40 1 79 40 2 79 40 3 79 40 4 79 40 5 79 40 6 79 40 7 79 40 8 79 40 9 79 40 10 79 40 11 79 40 12 79 40 13 79 40 14 79 40 16 79 40 17 79 40 18 79 40 19 79 40 20 79 40 21 79 40 22 79 40 23 79 40 24 79 40 25 79 40 26 79 40 27 79 40 28 79 40 29 79 40 30 79 40 32 79 40 33 79 40 34 79 40 35 79 40 36 79 40 37 79 40 38 79 40 39 79 40 40 79 40 41 79 40 42 79 40 43 79 40 44 79 40 45 79 40 46 79 40 48 79 220 180 70 220 180 70 220 180 70 220 180 70 220 180 70 220 180 70 220 180 70 220 180 70 220 180 70 220 180 70 220 180 70 220 180 70 220 180 70 220 180 70 220 180 70 220 180 70 220 180 70 220 180 70 220 180 70 220 180 70 220 180 70 220 180 70 220 180 70 220 180 70 220 180 70 220 180 70 220 180 70 220 180 70 220 180 70 220 180 70 220 180 70 220 180 70 220 180 70 220 180 70 220 180 70 220 180 70 220 180 70 220 180 70 220 180 70 220 180 70 220 180 70 220 180 70 220 180 70 220 180 70 220 180 70 220 180 70 220 180 70 220 180 70 220 180 70 220 180 70 220 180 70 220 180 70 220 180 70 220 180 70 220 180 70 220 180 70 220 180 70 220 180 70 220 180 70 220 180 70 220 180 70 220 180 70 220 180 70 220 180 70 220 180 70 220 180 70 220 180 70 220 180 70 220 180 70 220 180 70 220 180 70 220 180 70 220 180 70 220 180 70 220 180 70 220 180 70 220 180 70 220 180 70 220 180 70 220 180 70 220 180 70 220 180 70 220 180 70 220 180 70 220 180 70 220 180 70 220 180 70 220 180 70 220 180 70 220 180 70 220 180 70 220 180 70 220 180 70 220 180 70 220 180 70 220 180 70 220 180 70 220 180 70 220 180 70 220 180 70 220 180 70 220 180 70 220 180 70 220 180 70 220 180 70 220 180 70 220 180 70 220 180 70 220 180 70 220 180 70 220 180 70 220 180 70 220 180 70 220 180 70 220 180 70 220 180 70 220 180 70 220 180 70 220 180 70 220 180 70 220 180 70 220 180 70 220 180 70 220 180 70 220 180 70 220 180 70 220 180 70 220 180 70 220 180 70 220 180 70 220 180 70 220 180 70 220 180 70 220 180 70 220 180 70 220 180 70 220 180 70 220 180 70 220 180 70 220 180 70 220 180 70 220 180 70 220 180 70 220 180 70 220 180 70 220 180 70 220 180 70 220 180 70 220 180 70 40 208 79 40 209 79 40 210 79 40 211 79 40 212 79 40 213 79 40 214 79 40 215 79 40 216 79 40 217 79 40 218 79 40 219 79 40 220 79 40 221 79 40 222 79 40 224 79 40 225 79 40 226 79 40 227 79 40 228 79 40 229 79 40 230 79 40 231 79 40 232 79 40 233 79 40 234 79 40 235 79 40 236 79 40 237 79 40 238 79 40 240 79 40 241 79 40 242 79 40 243 79 40 244 79 40 245 79 40 246 79 40 247 79 40 248 79 40 249 79 40 250 79 40 251 79 40 252 79 40 253 79 40 255 79
40 0 78 40 1 78 40 2 78 40 3 78 40 4 78 40 5 78 40 6 78 40 7 78 40 8 78 40 9 78 40 10 78 40 11 78 40 12 78 40 13 78 40 14 78 40 16 78 40 17 78 40 18 78 40 19 78 40 20 78 40 21 78 40 22 78 40 23 78 40 24 78 40 25 78 40 26 78 40 27 78 40 28 78 40 29 78 40 30 78 40 32 78 40 33 78 40 34 78 40 35 78 40 36 78 40 37 78 40 38 78 40 39 78 40 40 78 40 41 78 40 42 78 40 43 78 40 44 78 40 45 78 40 46 78 40 48 78 220 180 70 220 180 70 220 180 70 220 180 70 220 180 70 220 180 70 220 180 70 220 180 70 220 180 70 220 180 70 220 180 70 220 180 70 220 180 70 220 180 70 220 180 70 220 180 70 220 180 70 220 180 70 220 180 70 220 180 70 220 180 70 220 180 70 220 180 70 220 180 70 220 180 70 220 180 70 220 180 70 220 180 70 220 180 70 220 180 70 220 180 70 220 180 70 220 180 70 220 180 70 220 180 70 220 180 70 220 180 70 220 180 70 220 180 70 220 180 70 220 180 70 220 180 70 220 180 70 220 180 70 220 180 70 220 180 70 220 180 70 220 180 70 220 180 70 220 180 70 220 180 70 220 180 70 220 180 70 220 180 70 220 180 70 220 180 70 220 180 70 220 180 70 220 180 70 220 180 70 220 180 70 220 180 70 220 180 70 220 180 70 220 180 70 220 180 70 220 180 70 220 180 70 220 180 70 220 180 70 220 180 70 220 180 70 220 180 70 220 180 70 220 180 70 220 180 70 220 180 70 220 180 70 220 180 70 220 180 70 220 180 70 220 180 70 220 180 70 220 180 70 220 180 70 220 180 70 220 180 70 220 180 70 220 180 70 220 180 70 220 180 70 220 180 70 220 180 70 220 180 70 220 180 70 220 180 70 220 180 70 220 180 70 220 180 70 220 180 70 220 180 70 220 180 70 220 180 70 220 180 70 220 180 70 220 180 70 220 180 70 220 180 70 220 180 70 220 180 70 220 180 70 220 180 70 220 180 70 220 180 70 220 180 70 220 180 70 220 180 70 220 180 70 220 180 70 220 180 70 220 180 70 220 180 70 220 180 70 220 180 70 220 180 70 220 180 70 220 180 70 220 180 70 220 180 70 220 180 70 220 180 70 220 180 70 220 180 70 220 180 70 220 180 70 220 180 70 220 180 70 220 180 70 220 180 70 220 180 70 220 180 70 220 180 70 220 180 70 220 180 70 220 180 70 220 180 70 220 180 70 220 180 70 220 180 70 40 208 78 40 209 78 40 210 78 40 211 78 40 212 78 40 213 78 40 214 78 40 215 78 40 216 78 40 217 78 40 218 78 40 219 78 40 220 78 40 221 78 40 222 78 40 224 78 40 225 78 40 226 78 40 227 78 40 228 78 40 229 78 40 230 78 40 231 78 40 232 78 40 233 78 40 234 78 40 235 78 40 236 78 40 237 78 40 238 78 40 240 78 40 241 78 40 242 78 40 243 78 40 244 78 40 245 78 40 246 78 40 247 78 40 248 78 40 249 78 40 250 78 40 251 78 40 252 78 40 253 78 40 255 78
40 0 76 40 1 76 40 2 76 40 3 76 40 4 76 40 5 76 40 6 76 40 7 76 40 8 76 40 9 76 40 10 76 40 11 76 40 12 76 40 13 76 40 14 76 40 16 76 40 17 76 40 18 76 40 19 76 40 20 76 40 21 76 40 22 76 40 23 76 40 24 76 40 25 76 40 26 76 40 27 76 40 28 76 40 29 76 40 30 76 40 32 76 40 33 76 40 34 76 40 35 76 40 36 76 40 37 76 40 38 76 40 39 76 40 40 76 40 41 76 40 42 76 40 43 76 40 44 76 40 45 76 40 46 76 40 48 76 40 49 76 40 50 76 40 51 76 40 52 76 40 53 76 40 54 76 40 55 76 40 56 76 40 57 76 40 58 76 40 59 76 40 60 76 40 61 76 40 62 76 40 64 76 40 65 76 40 66 76 40 67 76 40 68 76 40 69 76 40 70 76 40 71 76 40 72 76 40 73 76 40 74 76 40 75 76 40 76 76 40 77 76 40 78 76 40 80 76 40 81 76 40 82 76 40 83 76 40 84 76 40 85 76 40 86 76 40 87 76 40 88 76 40 89 76 40 90 76 40 91 76 40 92 76 40 93 76 40 94 76 40 96 76 40 97 76 40 98 76 40 99 76 40 100 76 40 101 76 40 102 76 40 103 76 40 104 76 40 105 76 40 106 76 40 107 76 40 108 76 40 109 76 40 110 76 40 112 76 40 113 76 40 114 76 40 115 76 40 116 76 40 117 76 40 118 76 40 119 76 40 120 76 40 121 76 40 122 76 40 123 76 40 124 76 40 125 76 40 126 76 40 128 76 40 129 76 40 130 76 40 131 76 40 132 76 40 133 76 40 134 76 40 135 76 40 136 76 40 137 76 40 138 76 40 139 76 40 140 76 40 141 76 40 142 76 40 144 76 40 145 76 40 146 76 40 147 76 40 148 76 40 149 76 40 150 76 40 151 76 40 152 76 40 153 76 40 154 76 40 155 76 40 156 76 40 157 76 40 158 76 40 160 76 40 161 76 40 162 76 40 163 76 40 164 76 40 165 76 40 166 76 40 167 76 40 168 76 40 169 76 40 170 76 40 171 76 40 172 76 40 173 76 40 174 76 40 176 76 40 177 76 40 178 76 40 179 76 40 180 76 40 181 76 40 182 76 40 183 76 40 184 76 40 185 76 40 186 76 40 187 76 40 188 76 40 189 76 40 190 76 40 192 76 40 193 76 40 194 76 40 195 76 40 196 76 40 197 76 40 198 76 40 199 76 40 200 76 40 201 76 40 202 76 40 203 76 40 204 76 40 205 76 40 206 76 40 208 76 40 209 76 40 210 76 40 211 76 40 212 76 40 213 76 40 214 76 40 215 76 40 216 76 40 217 76 40 218 76 40 219 76 40 220 76 40 221 76 40 222 76 40 224 76 40 225 76 40 226 76 40 227 76 40 228 76 40 229 76 40 230 76 40 231 76 40 232 76 40 233 76 40 234 76 40 235 76 40 236 76 40 237 76 40 238 76 40 240 76 40 241 76 40 242 76 40 243 76 40 244 76 40 245 76 40 246 76 40 247 76 40 248 76 40 249 76 40 250 76 40 251 76 40 252 76 40 253 76 40 255 76
40 0 75 40 1 75 40 2 75 40 3 75 40 4 75 40 5 75 40 6 75 40 7 75 40 8 75 40 9 75 40 10 75 40 11 75 40 12 75 40 13 75 40 14 75 40 16 75 40 17 75 40 18 75 40 19 75 40 20 75 40 21 75 40 22 75 40 23 75 40 24 75 40 25 75 40 26 75 40 27 75 40 28 75 40 29 75 40 30 75 40 32 75 40 33 75 40 34 75 40 35 75 40 36 75 40 37 75 40 38 75 40 39 75 40 40 75 40 41 75 40 42 75 40 43 75 40 44 75 40 45 75 40 46 75 40 48 75 40 49 75 40 50 75 40 51 75 40 52 75 40 53 75 40 54 75 40 55 75 40 56 75 40 57 75 40 58 75 40 59 75 40 60 75 40 61 75 40 62 75 40 64 75 40 65 75 40 66 75 40 67 75 40 68 75 40 69 75 40 70 75 40 71 75 40 72 75 40 73 75 40 74 75 40 75 75 40 76 75 40 77 75 40 78 75 40 80 75 40 81 75 40 82 75 40 83 75 40 84 75 40 85 75 40 86 75 40 87 75 40 88 75 40 89 75 40 90 75 40 91 75 40 92 75 40 93 75 40 94 75 40 96 75 40 97 75 40 98 75 40 99 75 40 100 75 40 101 75 40 102 75 40 103 75 40 104 75 40 105 75 40 106 75 40 107 75 40 108 75 40 109 75 40 110 75 40 112 75 40 113 75 40 114 75 40 115 75 40 116 75 40 117 75 40 118 75 40 119 75 40 120 75 40 121 75 40 122 75 40 123 75 40 124 75 40 125 75 40 126 75 40 128 75 40 129 75 40 130 75 40 131 75 40 132 75 40 133 75 40 134 75 40 135 75 40 136 75 40 137 75 40 138 75 40 139 75 40 140 75 40 141 75 40 142 75 40 144 75 40 145 75 40 146 75 40 147 75 40 148 75 40 149 75 40 150 75 40 151 75 40 152 75 40 153 75 40 154 75 40 155 75 40 156 75 40 157 75 40 158 75 40 160 75 40 161 75 40 162 75 40 163 75 40 164 75 40 165 75 40 166 75 40 167 75 40 168 75 40 169 75 40 170 75 40 171 75 40 172 75 40 173 75 40 174 75 40 176 75 40 177 75 40 178 75 40 179 75 40 180 75 40 181 75 40 182 75 40 183 75 40 184 75 40 185 75 40 186 75 40 187 75 40 188 75 40 189 75 40 190 75 40 192 75 40 193 75 40 194 75 40 195 75 40 196 75 40 197 75 40 198 75 40 199 75 40 200 75 40 201 75 40 202 75 40 203 75 40 204 75 40 205 75 40 206 75 40 208 75 40 209 75 40 210 75 40 211 75 40 212 75 40 213 75 40 214 75 40 215 75 40 216 75 40 217 75 40 218 75 40 219 75 40 220 75 40 221 75 40 222 75 40 224 75 40 225 75 40 226 75 40 227 75 40 228 75 40 229 75 40 230 75 40 231 75 40 232 75 40 233 75 40 234 75 40 235 75 40 236 75 40 237 75 40 238 75 40 240 75 40 241 75 40 242 75 40 243 75 40 244 75 40 245 75 40 246 75 40 247 75 40 248 75 40 249 75 40 250 75 40 251 75 40 252 75 40 253 75 40 255 75
40 0 74 40 1 74 40 2 74 40 3 74 40 4 74 40 5 74 40 6 74 40 7 74 40 8 74 40 9 74 40 10 74 40 11 74 40 12 74 40 13 74 40 14 74 40 16 74 40 17 74 40 18 74 40 19 74 40 20 74 40 21 74 40 22 74 40 23 74 40 24 74 40 25 74 40 26 74 40 27 74 40 28 74 40 29 74 40 30 74 40 32 74 40 33 74 40 34 74 40 35 74 40 36 74 40 37 74 40 38 74 40 39 74 40 40 74 40 41 74 40 42 74 40 43 74 40 44 74 40 45 74 40 46 74 40 48 74 40 49 74 40 50 74 40 51 74 40 52 74 40 53 74 40 54 74 40 55 74 40 56 74 40 57 74 40 58 74 40 59 74 40 60 74 40 61 74 40 62 74 40 64 74 40 65 74 40 66 74 40 67 74 40 68 74 40 69 74 40 70 74 40 71 74 40 72 74 40 73 74 40 74 74 40 75 74 40 76 74 40 77 74 40 78 74 40 80 74 40 81 74 40 82 74 40 83 74 40 84 74 40 85 74 40 86 74 40 87 74 40 88 74 40 89 74 40 90 74 40 91 74 40 92 74 40 93 74 40 94 74 40 96 74 40 97 74 40 98 74 40 99 74 40 100 74 40 101 74 40 102 74 40 103 74 40 104 74 40 105 74 40 106 74 40 107 74 40 108 74 40 109 74 40 110 74 40 112 74 40 113 74 40 114 74 40 115 74 40 116 74 40 117 74 40 118 74 40 119 74 40 120 74 40 121 74 40 122 74 40 123 74 40 124 74 40 125 74 40 126 74 40 128 74 40 129 74 40 130 74 40 131 74 40 132 74 40 133 74 40 134 74 40 135 74 40 136 74 40 137 74 40 138 74 40 139 74 40 140 74 40 141 74 40 142 74 40 144 74 40 145 74 40 146 74 40 147 74 40 148 74 40 149 74 40 150 74 40 151 74 40 152 74 40 153 74 40 154 74 40 155 74 40 156 74 40 157 74 40 158 74 40 160 74 40 161 74 40 162 74 40 163 74 40 164 74 40 165 74 40 166 74 40 167 74 40 168 74 40 169 74 40 170 74 40 171 74 40 172 74 40 173 74 40 174 74 40 176 74 40 177 74 40 178 74 40 179 74 40 180 74 40 181 74 40 182 74 40 183 74 40 184 74 40 185 74 40 186 74 40 187 74 40 188 74 40 189 74 40 190 74 40 192 74 40 193 74 40 194 74 40 195 74 40 196 74 40 197 74 40 198 74 40 199 74 40 200 74 40 201 74 40 202 74 40 203 74 40 204 74 40 205 74 40 206 74 40 208 74 40 209 74 40 210 74 40 211 74 40 212 74 40 213 74 40 214 74 40 215 74 40 216 74 40 217 74 40 218 74 40 219 74 40 220 74 40 221 74 40 222 74 40 224 74 40 225 74 40 226 74 40 227 74 40 228 74 40 229 74 40 230 74 40 231 74 40 232 74 40 233 74 40 234 74 40 235 74 40 236 74 40 237 74 40 238 74 40 240 74 40 241 74 40 242 74 40 243 74 40 244 74 40 245 74 40 246 74 40 247 74 40 248 74 40 249 74 40 250 74 40 251 74 40 252 74 40 253 74 40 255 74
40 0 72 40 1 72 40 2 72 40 3 72 40 4 72 40 5 72 40 6 72 40 7 72 40 8 72 40 9 72 40 10 72 40 11 72 40 12 72 40 13 72 40 14 72 40 16 72 40 17 72 40 18 72 40 19 72 40 20 72 40 21 72 40 22 72 40 23 72 40 24 72 40 25 72 40 26 72 40 27 72 40 28 72 40 29 72 40 30 72 40 32 72 40 33 72 40 34 72 40 35 72 40 36 72 40 37 72 40 38 72 40 39 72 40 40 72 40 41 72 40 42 72 40 43 72 40 44 72 40 45 72 40 46 72 40 48 72 40 49 72 40 50 72 40 51 72 40 52 72 40 53 72 40 54 72 40 55 72 40 56 72 40 57 72 40 58 72 40 59 72 40 60 72 40 61 72 40 62 72 40 64 72 40 65 72 40 66 72 40 67 72 40 68 72 40 69 72 40 70 72 40 71 72 40 72 72 40 73 72 40 74 72 40 75 72 40 76 72 40 77 72 40 78 72 40 80 72 40 81 72 40 82 72 40 83 72 40 84 72 40 85 72 40 86 72 40 87 72 40 88 72 40 89 72 40 90 72 40 91 72 40 92 72 40 93 72 40 94 72 40 96 72 40 97 72 40 98 72 40 99 72 40 100 72 40 101 72 40 102 72 40 103 72 40 104 72 40 105 72 40 106 72 40 107 72 40 108 72 40 109 72 40 110 72 40 112 72 40 113 72 40 114 72 40 115 72 40 116 72 40 117 72 40 118 72 40 119 72 40 120 72 40 121 72 40 122 72 40 123 72 40 124 72 40 125 72 40 126 72 40 128 72 40 129 72 40 130 72 40 131 72 40 132 72 40 133 72 40 134 72 40 135 72 40 136 72 40 137 72 40 138 72 40 139 72 40 140 72 40 141 72 40 142 72 40 144 72 40 145 72 40 146 72 40 147 72 40 148 72 40 149 72 40 150 72 40 151 72 40 152 72 40 153 72 40 154 72 40 155 72 40 156 72 40 157 72 40 158 72 40 160 72 40 161 72 40 162 72 40 163 72 40 164 72 40 165 72 40 166 72 40 167 72 40 168 72 40 169 72 40 170 72 40 171 72 40 172 72 40 173 72 40 174 72 40 176 72 40 177 72 40 178 72 40 179 72 40 180 72 40 181 72 40 182 72 40 183 72 40 184 72 40 185 72 40 186 72 40 187 72 40 188 72 40 189 72 40 190 72 40 192 72 40 193 72 40 194 72 40 195 72 40 196 72 40 197 72 40 198 72 40 199 72 40 200 72 40 201 72 40 202 72 40 203 72 40 204 72 40 205 72 40 206 72 40 208 72 40 209 72 40 210 72 40 211 72 40 212 72 40 213 72 40 214 72 40 215 72 40 216 72 40 217 72 40 218 72 40 219 72 40 220 72 40 221 72 40 222 72 40 224 72 40 225 72 40 226 72 40 227 72 40 228 72 40 229 72 40 230 72 40 231 72 40 232 72 40 233 72 40 234 72 40 235 72 40 236 72 40 237 72 40 238 72 40 240 72 40 241 72 40 242 72 40 243 72 40 244 72 40 245 72 40 246 72 40 247 72 40 248 72 40 249 72 40 250 72 40 251 72 40 252 72 40 253 72 40 255 72
40 0 71 40 1 71 40 2 71 40 3 71 40 4 71 40 5 71 40 6 71 40 7 71 40 8 71 40 9 71 40 10 71 40 11 71 40 12 71 40 13 71 40 14 71 40 16 71 40 17 71 40 18 71 40 19 71 40 20 71 40 21 71 40 22 71 40 23 71 40 24 71 40 25 71 40 26 71 40 27 71 40 28 71 40 29 71 40 30 71 40 32 71 40 33 71 40 34 71 40 35 71 40 36 71 40 37 71 40 38 71 40 39 71 40 40 71 40 41 71 40 42 71 40 43 71 40 44 71 40 45 71 40 46 71 40 48 71 40 49 71 40 50 71 40 51 71 40 52 71 40 53 71 40 54 71 40 55 71 40 56 71 40 57 71 40 58 71 40 59 71 40 60 71 40 61 71 40 62 71 40 64 71 40 65 71 40 66 71 40 67 71 40 68 71 40 69 71 40 70 71 40 71 71 40 72 71 40 73 71 40 74 71 40 75 71 40 76 71 40 77 71 40 78 71 40 80 71 40 81 71 40 82 71 40 83 71 40 84 71 40 85 71 40 86 71 40 87 71 40 88 71 40 89 71 40 90 71 40 91 71 40 92 71 40 93 71 40 94 71 40 96 71 40 97 71 40 98 71 40 99 71 40 100 71 40 101 71 40 102 71 40 103 71 40 104 71 40 105 71 40 106 71 40 107 71 40 108 71 40 109 71 40 110 71 40 112 71 40 113 71 40 114 71 40 115 71 40 116 71 40 117 71 40 118 71 40 119 71 40 120 71 40 121 71 40 122 71 40 123 71 40 124 71 40 125 71 40 126 71 40 128 71 40 129 71 40 130 71 40 131 71 40 132 71 40 133 71 40 134 71 40 135 71 40 136 71 40 137 71 40 138 71 40 139 71 40 140 71 40 141 71 40 142 71 40 144 71 40 145 71 40 146 71 40 147 71 40 148 71 40 149 71 40 150 71 40 151 71 40 152 71 40 153 71 40 154 71 40 155 71 40 156 71 40 157 71 40 158 71 40 160 71 40 161 71 40 162 71 40 163 71 40 164 71 40 165 71 40 166 71 40 167 71 40 168 71 40 169 71 40 170 71 40 171 71 40 172 71 40 173 71 40 174 71 40 176 71 40 177 71 40 178 71 40 179 71 40 180 71 40 181 71 40 182 71 40 183 71 40 184 71 40 185 71 40 186 71 40 187 71 40 188 71 40 189 71 40 190 71 40 192 71 40 193 71 40 194 71 40 195 71 40 196 71 40 197 71 40 198 71 40 199 71 40 200 71 40 201 71 40 202 71 40 203 71 40 204 71 40 205 71 40 206 71 40 208 71 40 209 71 40 210 71 40 211 71 40 212 71 40 213 71 40 214 71 40 215 71 40 216 71 40 217 71 40 218 71 40 219 71 40 220 71 40 221 71 40 222 71 40 224 71 40 225 71 40 226 71 40 227 71 40 228 71 40 229 71 40 230 71 40 231 71 40 232 71 40 233 71 40 234 71 40 235 71 40 236 71 40 237 71 40 238 71 40 240 71 40 241 71 40 242 71 40 243 71 40 244 71 40 245 71 40 246 71 40 247 71 40 248 71 40 249 71 40 250 71 40 251 71 40 252 71 40 253 71 40 255 71
40 0 69 40 1 69 40 2 69 40 3 69 40 4 69 40 5 69 40 6 69 40 7 69 40 8 69 40 9 69 40 10 69 40 11 69 40 12 69 40 13 69 40 14 69 40 16 69 40 17 69 40 18 69 40 19 69 40 20 69 40 21 69 40 22 69 40 23 69 40 24 69 40 25 69 40 26 69 40 27 69 40 28 69 40 29 69 40 30 69 40 32 69 40 33 69 40 34 69 40 35 69 40 36 69 40 37 69 40 38 69 40 39 69 40 40 69 40 41 69 40 42 69 40 43 69 40 44 69 40 45 69 40 46 69 40 48 69 40 49 69 40 50 69 40 51 69 40 52 69 40 53 69 40 54 69 40 55 69 40 56 69 40 57 69 40 58 69 40 59 69 40 60 69 40 61 69 40 62 69 40 64 69 40 65 69 40 66 69 40 67 69 40 68 69 40 69 69 40 70 69 40 71 69 40 72 69 40 73 69 40 74 69 40 75 69 40 76 69 40 77 69 40 78 69 40 80 69 40 81 69 40 82 69 40 83 69 40 84 69 40 85 69 40 86 69 40 87 69 40 88 69 40 89 69 40 90 69 40 91 69 40 92 69 40 93 69 40 94 69 40 96 69 40 97 69 40 98 69 40 99 69 40 100 69 40 101 69 40 102 69 40 103 69 40 104 69 40 105 69 40 106 69 40 107 69 40 108 69 40 109 69 40 110 69 40 112 69 40 113 69 40 114 69 40 115 69 40 116 69 40 117 69 40 118 69 40 119 69 40 120 69 40 121 69 40 122 69 40 123 69 40 124 69 40 125 69 40 126 69 40 128 69 40 129 69 40 130 69 40 131 69 40 132 69 40 133 69 40 134 69 40 135 69 40 136 69 40 137 69 40 138 69 40 139 69 40 140 69 40 141 69 40 142 69 40 144 69 40 145 69 40 146 69 40 147 69 40 148 69 40 149 69 40 150 69 40 151 69 40 152 69 40 153 69 40 154 69 40 155 69 40 156 69 40 157 69 40 158 69 40 160 69 40 161 69 40 162 69 40 163 69 40 164 69 40 165 69 40 166 69 40 167 69 40 168 69 40 169 69 40 170 69 40 171 69 40 172 69 40 173 69 40 174 69 40 176 69 40 177 69 40 178 69 40 179 69 40 180 69 40 181 69 40 182 69 40 183 69 40 184 69 40 185 69 40 186 69 40 187 69 40 188 69 40 189 69 40 190 69 40 192 69 40 193 69 40 194 69 40 195 69 40 196 69 40 197 69 40 198 69 40 199 69 40 200 69 40 201 69 40 202 69 40 203 69 40 204 69 40 205 69 40 206 69 40 208 69 40 209 69 40 210 69 40 211 69 40 212 69 40 213 69 40 214 69 40 215 69 40 216 69 40 217 69 40 218 69 40 219 69 40 220 69 40 221 69 40 222 69 40 224 69 40 225 69 40 226 69 40 227 69 40 228 69 40 229 69 40 230 69 40 231 69 40 232 69 40 233 69 40 234 69 40 235 69 40 236 69 40 237 69 40 238 69 40 240 69 40 241 69 40 242 69 40 243 69 40 244 69 40 245 69 40 246 69 40 247 69 40 248 69 40 249 69 40 250 69 40 251 69 40 252 69 40 253 69 40 255 69
40 0 68 40 1 68 40 2 68 40 3 68 40 4 68 40 5 68 40 6 68 40 7 68 40 8 68 40 9 68 40 10 68 40 11 68 40 12 68 40 13 68 40 14 68 40 16 68 40 17 68 40 18 68 40 19 68 40 20 68 40 21 68 40 22 68 40 23 68 40 24 68 40 25 68 40 26 68 40 27 68 40 28 68 40 29 68 40 30 68 40 32 68 40 33 68 40 34 68 40 35 68 40 36 68 40 37 68 40 38 68 40 39 68 40 40 68 40 41 68 40 42 68 40 43 68 40 44 68 40 45 68 40 46 68 40 48 68 40 49 68 40 50 68 40 51 68 40 52 68 40 53 68 40 54 68 40 55 68 40 56 68 40 57 68 40 58 68 40 59 68 40 60 68 40 61 68 40 62 68 40 64 68 40 65 68 40 66 68 40 67 68 40 68 68 40 69 68 40 70 68 40 71 68 40 72 68 40 73 68 40 74 68 40 75 68 40 76 68 40 77 68 40 78 68 40 80 68 40 81 68 40 82 68 40 83 68 40 84 68 40 85 68 40 86 68 40 87 68 40 88 68 40 89 68 40 90 68 40 91 68 40 92 68 40 93 68 40 94 68 40 96 68 40 97 68 40 98 68 40 99 68 40 100 68 40 101 68 40 102 68 40 103 68 40 104 68 40 105 68 40 106 68 40 107 68 40 108 68 40 109 68 40 110 68 40 112 68 40 113 68 40 114 68 40 115 68 40 116 68 40 117 68 40 118 68 40 119 68 40 120 68 40 121 68 40 122 68 40 123 68 40 124 68 40 125 68 40 126 68 40 128 68 40 129 68 40 130 68 40 131 68 40 132 68 40 133 68 40 134 68 40 135 68 40 136 68 40 137 68 40 138 68 40 139 68 40 140 68 40 141 68 40 142 68 40 144 68 40 145 68 40 146 68 40 147 68 40 148 68 40 149 68 40 150 68 40 151 68 40 152 68 40 153 68 40 154 68 40 155 68 40 156 68 40 157 68 40 158 68 40 160 68 40 161 68 40 162 68 40 163 68 40 164 68 40 165 68 40 166 68 40 167 68 40 168 68 40 169 68 40 170 68 40 171 68 40 172 68 40 173 68 40 174 68 40 176 68 40 177 68 40 178 68 40 179 68 40 180 68 40 181 68 40 182 68 40 183 68 40 184 68 40 185 68 40 186 68 40 187 68 40 188 68 40 189 68 40 190 68 40 192 68 40 193 68 40 194 68 40 195 68 40 196 68 40 197 68 40 198 68 40 199 68 40 200 68 40 201 68 40 202 68 40 203 68 40 204 68 40 205 68 40 206 68 40 208 68 40 209 68 40 210 68 40 211 68 40 212 68 40 213 68 40 214 68 40 215 68 40 216 68 40 217 68 40 218 68 40 219 68 40 220 68 40 221 68 40 222 68 40 224 68 40 225 68 40 226 68 40 227 68 40 228 68 40 229 68 40 230 68 40 231 68 40 232 68 40 233 68 40 234 68 40 235 68 40 236 68 40 237 68 40 238 68 40 240 68 40 241 68 40 242 68 40 243 68 40 244 68 40 245 68 40 246 68 40 247 68 40 248 68 40 249 68 40 250 68 40 251 68 40 252 68 40 253 68 40 255 68
40 0 66 40 1 66 40 2 66 40 3 66 40 4 66 40 5 66 40 6 66 40 7 66 40 8 66 40 9 66 40 10 66 40 11 66 40 12 66 40 13 66 40 14 66 40 16 66 40 17 66 40 18 66 40 19 66 40 20 66 40 21 66 40 22 66 40 23 66 40 24 66 40 25 66 40 26 66 40 27 66 40 28 66 40 29 66 40 30 66 40 32 66 40 33 66 40 34 66 40 35 66 40 36 66 40 37 66 40 38 66 40 39 66 40 40 66 40 41 66 40 42 66 40 43 66 40 44 66 40 45 66 40 46 66 40 48 66 40 49 66 40 50 66 40 51 66 40 52 66 40 53 66 40 54 66 40 55 66 40 56 66 40 57 66 40 58 66 40 59 66 40 60 66 40 61 66 40 62 66 40 64 66 40 65 66 40 66 66 40 67 66 40 68 66 40 69 66 40 70 66 40 71 66 40 72 66 40 73 66 40 74 66 40 75 66 40 76 66 40 77 66 40 78 66 40 80 66 40 81 66 40 82 66 40 83 66 40 84 66 40 85 66 40 86 66 40 87 66 40 88 66 40 89 66 40 90 66 40 91 66 40 92 66 40 93 66 40 94 66 40 96 66 40 97 66 40 98 66 40 99 66 40 100 66 40 101 66 40 102 66 40 103 66 40 104 66 40 105 66 40 106 66 40 107 66 40 108 66 40 109 66 40 110 66 40 112 66 40 113 66 40 114 66 40 115 66 40 116 66 40 117 66 40 118 66 40 119 66 40 120 66 40 121 66 40 122 66 40 123 66 40 124 66 40 125 66 40 126 66 40 128 66 40 129 66 40 130 66 40 131 66 40 132 66 40 133 66 40 134 66 40 135 66 40 136 66 40 137 66 40 138 66 40 139 66 40 140 66 40 141 66 40 142 66 40 144 66 40 145 66 40 146 66 40 147 66 40 148 66 40 149 66 40 150 66 40 151 66 40 152 66 40 153 66 40 154 66 40 155 66 40 156 66 40 157 66 40 158 66 40 160 66 40 161 66 40 162 66 40 163 66 40 164 66 40 165 66 40 166 66 40 167 66 40 168 66 40 169 66 40 170 66 40 171 66 40 172 66 40 173 66 40 174 66 40 176 66 40 177 66 40 178 66 40 179 66 40 180 66 40 181 66 40 182 66 40 183 66 40 184 66 40 185 66 40 186 66 40 187 66 40 188 66 40 189 66 40 190 66 40 192 66 40 193 66 40 194 66 40 195 66 40 196 66 40 197 66 40 198 66 40 199 66 40 200 66 40 201 66 40 202 66 40 203 66 40 204 66 40 205 66 40 206 66 40 208 66 40 209 66 40 210 66 40 211 66 40 212 66 40 213 66 40 214 66 40 215 66 40 216 66 40 217 66 40 218 66 40 219 66 40 220 66 40 221 66 40 222 66 40 224 66 40 225 66 40 226 66 40 227 66 40 228 66 40 229 66 40 230 66 40 231 66 40 232 66 40 233 66 40 234 66 40 235 66 40 236 66 40 237 66 40 238 66 40 240 66 40 241 66 40 242 66 40 243 66 40 244 66 40 245 66 40 246 66 40 247 66 40 248 66 40 249 66 40 250 66 40 251 66 40 252 66 40 253 66 40 255 66
40 0 65 40 1 65 40 2 65 40 3 65 40 4 65 40 5 65 40 6 65 40 7 65 40 8 65 40 9 65 40 10 65 40 11 65 40 12 65 40 13 65 40 14 65 40 16 65 40 17 65 40 18 65 40 19 65 40 20 65 40 21 65 40 22 65 40 23 65 40 24 65 40 25 65 40 26 65 40 27 65 40 28 65 40 29 65 40 30 65 40 32 65 40 33 65 40 34 65 40 35 65 40 36 65 40 37 65 40 38 65 40 39 65 40 40 65 40 41 65 40 42 65 40 43 65 40 44 65 40 45 65 40 46 65 40 48 65 40 49 65 40 50 65 40 51 65 40 52 65 40 53 65 40 54 65 40 55 65 40 56 65 40 57 65 40 58 65 40 59 65 40 60 65 40 61 65 40 62 65 40 64 65 40 65 65 40 66 65 40 67 65 40 68 65 40 69 65 40 70 65 40 71 65 40 72 65 40 73 65 40 74 65 40 75 65 40 76 65 40 77 65 40 78 65 40 80 65 40 81 65 40 82 65 40 83 65 40 84 65 40 85 65 40 86 65 40 87 65 40 88 65 40 89 65 40 90 65 40 91 65 40 92 65 40 93 65 40 94 65 40 96 65 40 97 65 40 98 65 40 99 65 40 100 65 40 101 65 40 102 65 40 103 65 40 104 65 40 105 65 40 106 65 40 107 65 40 108 65 40 109 65 40 110 65 40 112 65 40 113 65 40 114 65 40 115 65 40 116 65 40 117 65 40 118 65 40 119 65 40 120 65 40 121 65 40 122 65 40 123 65 40 124 65 40 125 65 40 126 65 40 128 65 40 129 65 40 130 65 40 131 65 40 132 65 40 133 65 40 134 65 40 135 65 40 136 65 40 137 65 40 138 65 40 139 65 40 140 65 40 141 65 40 142 65 40 144 65 40 145 65 40 146 65 40 147 65 40 148 65 40 149 65 40 150 65 40 151 65 40 152 65 40 153 65 40 154 65 40 155 65 40 156 65 40 157 65 40 158 65 40 160 65 40 161 65 40 162 65 40 163 65 40 164 65 40 165 65 40 166 65 40 167 65 40 168 65 40 169 65 40 170 65 40 171 65 40 172 65 40 173 65 40 174 65 40 176 65 40 177 65 40 178 65 40 179 65 40 180 65 40 181 65 40 182 65 40 183 65 40 184 65 40 185 65 40 186 65 40 187 65 40 188 65 40 189 65 40 190 65 40 192 65 40 193 65 40 194 65 40 195 65 40 196 65 40 197 65 40 198 65 40 199 65 40 200 65 40 201 65 40 202 65 40 203 65 40 204 65 40 205 65 40 206 65 40 208 65 40 209 65 40 210 65 40 211 65 40 212 65 40 213 65 40 214 65 40 215 65 40 216 65 40 217 65 40 218 65 40 219 65 40 220 65 40 221 65 40 222 65 40 224 65 40 225 65 40 226 65 40 227 65 40 228 65 40 229 65 40 230 65 40 231 65 40 232 65 40 233 65 40 234 65 40 235 65 40 236 65 40 237 65 40 238 65 40 240 65 40 241 65 40 242 65 40 243 65 40 244 65 40 245 65 40 246 65 40 247 65 40 248 65 40 249 65 40 250 65 40 251 65 40 252 65 40 253 65 40 255 65
40 0 64 40 1 64 40 2 64 40 3 64 40 4 64 40 5 64 40 6 64 40 7 64 40 8 64 40 9 64 40 10 64 40 11 64 40 12 64 40 13 64 40 14 64 40 16 64 40 17 64 40 18 64 40 19 64 40 20 64 40 21 64 40 22 64 40 23 64 40 24 64 40 25 64 40 26 64 40 27 64 40 28 64 40 29 64 40 30 64 40 32 64 40 33 64 40 34 64 40 35 64 40 36 64 40 37 64 40 38 64 40 39 64 40 40 64 40 41 64 40 42 64 40 43 64 40 44 64 40 45 64 40 46 64 40 48 64 40 49 64 40 50 64 40 51 64 40 52 64 40 53 64 40 54 64 40 55 64 40 56 64 40 57 64 40 58 64 40 59 64 40 60 64 40 61 64 40 62 64 40 64 64 40 65 64 40 66 64 40 67 64 40 68 64 40 69 64 40 70 64 40 71 64 40 72 64 40 73 64 40 74 64 40 75 64 40 76 64 40 77 64 40 78 64 40 80 64 40 81 64 40 82 64 40 83 64 40 84 64 40 85 64 40 86 64 40 87 64 40 88 64 40 89 64 40 90 64 40 91 64 40 92 64 40 93 64 40 94 64 40 96 64 40 97 64 40 98 64 40 99 64 40 100 64 40 101 64 40 102 64 40 103 64 40 104 64 40 105 64 40 106 64 40 107 64 40 108 64 40 109 64 40 110 64 40 112 64 40 113 64 40 114 64 40 115 64 40 116 64 40 117 64 40 118 64 40 119 64 40 120 64 40 121 64 40 122 64 40 123 64 40 124 64 40 125 64 40 126 64 40 128 64 40 129 64 40 130 64 40 131 64 40 132 64 40 133 64 40 134 64 40 135 64 40 136 64 40 137 64 40 138 64 40 139 64 40 140 64 40 141 64 40 142 64 40 144 64 40 145 64 40 146 64 40 147 64 40 148 64 40 149 64 40 150 64 40 151 64 40 152 64 40 153 64 40 154 64 40 155 64 40 156 64 40 157 64 40 158 64 40 160 64 40 161 64 40 162 64 40 163 64 40 164 64 40 165 64 40 166 64 40 167 64 40 168 64 40 169 64 40 170 64 40 171 64 40 172 64 40 173 64 40 174 64 40 176 64 40 177 64 40 178 64 40 179 64 40 180 64 40 181 64 40 182 64 40 183 64 40 184 64 40 185 64 40 186 64 40 187 64 40 188 64 40 189 64 40 190 64 40 192 64 40 193 64 40 194 64 40 195 64 40 196 64 40 197 64 40 198 64 40 199 64 40 200 64 40 201 64 40 202 64 40 203 64 40 204 64 40 205 64 40 206 64 40 208 64 40 209 64 40 210 64 40 211 64 40 212 64 40 213 64 40 214 64 40 215 64 40 216 64 40 217 64 40 218 64 40 219 64 40 220 64 40 221 64 40 222 64 40 224 64 40 225 64 40 226 64 40 227 64 40 228 64 40 229 64 40 230 64 40 231 64 40 232 64 40 233 64 40 234 64 40 235 64 40 236 64 40 237 64 40 238 64 40 240 64 40 241 64 40 242 64 40 243 64 40 244 64 40 245 64 40 246 64 40 247 64 40 248 64 40 249 64 40 250 64 40 251 64 40 252 64 40 253 64 40 255 64
40 0 62 40 1 62 40 2 62 40 3 62 40 4 62 40 5 62 40 6 62 40 7 62 40 8 62 40 9 62 40 10 62 40 11 62 40 12 62 40 13 62 40 14 62 40 16 62 40 17 62 40 18 62 40 19 62 40 20 62 40 21 62 40 22 62 40 23 62 40 24 62 40 25 62 40 26 62 40 27 62 40 28 62 40 29 62 40 30 62 40 32 62 40 33 62 40 34 62 40 35 62 40 36 62 40 37 62 40 38 62 40 39 62 40 40 62 40 41 62 40 42 62 40 43 62 40 44 62 40 45 62 40 46 62 40 48 62 40 49 62 40 50 62 40 51 62 40 52 62 40 53 62 40 54 62 40 55 62 40 56 62 40 57 62 40 58 62 40 59 62 40 60 62 40 61 62 40 62 62 40 64 62 40 65 62 40 66 62 40 67 62 40 68 62 40 69 62 40 70 62 40 71 62 40 72 62 40 73 62 40 74 62 40 75 62 40 76 62 40 77 62 40 78 62 40 80 62 40 81 62 40 82 62 40 83 62 40 84 62 40 85 62 40 86 62 40 87 62 40 88 62 40 89 62 40 90 62 40 91 62 40 92 62 40 93 62 40 94 62 40 96 62 40 97 62 40 98 62 40 99 62 40 100 62 40 101 62 40 102 62 40 103 62 40 104 62 40 105 62 40 106 62 40 107 62 40 108 62 40 109 62 40 110 62 40 112 62 40 113 62 40 114 62 40 115 62 40 116 62 40 117 62 40 118 62 40 119 62 40 120 62 40 121 62 40 122 62 40 123 62 40 124 62 40 125 62 40 126 62 40 128 62 40 129 62 40 130 62 40 131 62 40 132 62 40 133 62 40 134 62 40 135 62 40 136 62 40 137 62 40 138 62 40 139 62 40 140 62 40 141 62 40 142 62 40 144 62 40 145 62 40 146 62 40 147 62 40 148 62 40 149 62 40 150 62 40 151 62 40 152 62 40 153 62 40 154 62 40 155 62 40 156 62 40 157 62 40 158 62 40 160 62 40 161 62 40 162 62 40 163 62 40 164 62 40 165 62 40 166 62 40 167 62 40 168 62 40 169 62 40 170 62 40 171 62 40 172 62 40 173 62 40 174 62 40 176 62 40 177 62 40 178 62 40 179 62 40 180 62 40 181 62 40 182 62 40 183 62 40 184 62 40 185 62 40 186 62 40 187 62 40 188 62 40 189 62 40 190 62 40 192 62 40 193 62 40 194 62 40 195 62 40 196 62 40 197 62 40 198 62 40 199 62 40 200 62 40 201 62 40 202 62 40 203 62 40 204 62 40 205 62 40 206 62 40 208 62 40 209 62 40 210 62 40 211 62 40 212 62 40 213 62 40 214 62 40 215 62 40 216 62 40 217 62 40 218 62 40 219 62 40 220 62 40 221 62 40 222 62 40 224 62 40 225 62 40 226 62 40 227 62 40 228 62 40 229 62 40 230 62 40 231 62 40 232 62 40 233 62 40 234 62 40 235 62 40 236 62 40 237 62 40 238 62 40 240 62 40 241 62 40 242 62 40 243 62 40 244 62 40 245 62 40 246 62 40 247 62 40 248 62 40 249 62 40 250 62 40 251 62 40 252 62 40 253 62 40 255 62
40 0 61 40 1 61 40 2 61 40 3 61 40 4 61 40 5 61 40 6 61 40 7 61 40 8 61 40 9 61 40 10 61 40 11 61 40 12 61 40 13 61 40 14 61 40 16 61 40 17 61 40 18 61 40 19 61 40 20 61 40 21 61 40 22 61 40 23 61 40 24 61 40 25 61 40 26 61 40 27 61 40 28 61 40 29 61 40 30 61 40 32 61 40 33 61 40 34 61 40 35 61 40 36 61 40 37 61 40 38 61 40 39 61 40 40 61 40 41 61 40 42 61 40 43 61 40 44 61 40 45 61 40 46 61 40 48 61 40 49 61 40 50 61 40 51 61 40 52 61 40 53 61 40 54 61 40 55 61 40 56 61 40 57 61 40 58 61 40 59 61 40 60 61 40 61 61 40 62 61 40 64 61 40 65 61 40 66 61 40 67 61 40 68 61 40 69 61 40 70 61 40 71 61 40 72 61 40 73 61 40 74 61 40 75 61 40 76 61 40 77 61 40 78 61 40 80 61 40 81 61 40 82 61 40 83 61 40 84 61 40 85 61 40 86 61 40 87 61 40 88 61 40 89 61 40 90 61 40 91 61 40 92 61 40 93 61 40 94 61 40 96 61 40 97 61 40 98 61 40 99 61 40 100 61 40 101 61 40 102 61 40 103 61 40 104 61 40 105 61 40 106 61 40 107 61 40 108 61 40 109 61 40 110 61 40 112 61 40 113 61 40 114 61 40 115 61 40 116 61 40 117 61 40 118 61 40 119 61 40 120 61 40 121 61 40 122 61 40 123 61 40 124 61 40 125 61 40 126 61 40 128 61 40 129 61 40 130 61 40 131 61 40 132 61 40 133 61 40 134 61 40 135 61 40 136 61 40 137 61 40 138 61 40 139 61 40 140 61 40 141 61 40 142 61 40 144 61 40 145 61 40 146 61 40 147 61 40 148 61 40 149 61 40 150 61 40 151 61 40 152 61 40 153 61 40 154 61 40 155 61 40 156 61 40 157 61 40 158 61 40 160 61 40 161 61 40 162 61 40 163 61 40 164 61 40 165 61 40 166 61 40 167 61 40 168 61 40 169 61 40 170 61 40 171 61 40 172 61 40 173 61 40 174 61 40 176 61 40 177 61 40 178 61 40 179 61 40 180 61 40 181 61 40 182 61 40 183 61 40 184 61 40 185 61 40 186 61 40 187 61 40 188 61 40 189 61 40 190 61 40 192 61 40 193 61 40 194 61 40 195 61 40 196 61 40 197 61 40 198 61 40 199 61 40 200 61 40 201 61 40 202 61 40 203 61 40 204 61 40 205 61 40 206 61 40 208 61 40 209 61 40 210 61 40 211 61 40 212 61 40 213 61 40 214 61 40 215 61 40 216 61 40 217 61 40 218 61 40 219 61 40 220 61 40 221 61 40 222 61 40 224 61 40 225 61 40 226 61 40 227 61 40 228 61 40 229 61 40 230 61 40 231 61 40 232 61 40 233 61 40 234 61 40 235 61 40 236 61 40 237 61 40 238 61 40 240 61 40 241 61 40 242 61 40 243 61 40 244 61 40 245 61 40 246 61 40 247 61 40 248 61 40 249 61 40 250 61 40 251 61 40 252 61 40 253 61 40 255 61
40 0 59 40 1 59 40 2 59 40 3 59 40 4 59 40 5 59 40 6 59 40 7 59 40 8 59 40 9 59 40 10 59 40 11 59 40 12 59 40 13 59 40 14 59 40 16 59 40 17 59 40 18 59 40 19 59 40 20 59 40 21 59 40 22 59 40 23 59 40 24 59 40 25 59 40 26 59 40 27 59 40 28 59 40 29 59 40 30 59 40 32 59 40 33 59 40 34 59 40 35 59 40 36 59 40 37 59 40 38 59 40 39 59 40 40 59 40 41 59 40 42 59 40 43 59 40 44 59 40 45 59 40 46 59 40 48 59 40 49 59 40 50 59 40 51 59 40 52 59 40 53 59 40 54 59 40 55 59 40 56 59 40 57 59 40 58 59 40 59 59 40 60 59 40 61 59 40 62 59 40 64 59 40 65 59 40 66 59 40 67 59 40 68 59 40 69 59 40 70 59 40 71 59 40 72 59 40 73 59 40 74 59 40 75 59 40 76 59 40 77 59 40 78 59 40 80 59 40 81 59 40 82 59 40 83 59 40 84 59 40 85 59 40 86 59 40 87 59 40 88 59 40 89 59 40 90 59 40 91 59 40 92 59 40 93 59 40 94 59 40 96 59 40 97 59 40 98 59 40 99 59 40 100 59 40 101 59 40 102 59 40 103 59 40 104 59 40 105 59 40 106 59 40 107 59 40 108 59 40 109 59 40 110 59 40 112 59 40 113 59 40 114 59 40 115 59 40 116 59 40 117 59 40 118 59 40 119 59 40 120 59 40 121 59 40 122 59 40 123 59 40 124 59 40 125 59 40 126 59 40 128 59 40 129 59 40 130 59 40 131 59 40 132 59 40 133 59 40 134 59 40 135 59 40 136 59 40 137 59 40 138 59 40 139 59 40 140 59 40 141 59 40 142 59 40 144 59 40 145 59 40 146 59 40 147 59 40 148 59 40 149 59 40 150 59 40 151 59 40 152 59 40 153 59 40 154 59 40 155 59 40 156 59 40 157 59 40 158 59 40 160 59 40 161 59 40 162 59 40 163 59 40 164 59 40 165 59 40 166 59 40 167 59 40 168 59 40 169 59 40 170 59 40 171 59 40 172 59 40 173 59 40 174 59 40 176 59 40 177 59 40 178 59 40 179 59 40 180 59 40 181 59 40 182 59 40 183 59 40 184 59 40 185 59 40 186 59 40 187 59 40 188 59 40 189 59 40 190 59 40 192 59 40 193 59 40 194 59 40 195 59 40 196 59 40 197 59 40 198 59 40 199 59 40 200 59 40 201 59 40 202 59 40 203 59 40 204 59 40 205 59 40 206 59 40 208 59 40 209 59 40 210 59 40 211 59 40 212 59 40 213 59 40 214 59 40 215 59 40 216 59 40 217 59 40 218 59 40 219 59 40 220 59 40 221 59 40 222 59 40 224 59 40 225 59 40 226 59 40 227 59 40 228 59 40 229 59 40 230 59 40 231 59 40 232 59 40 233 59 40 234 59 40 235 59 40 236 59 40 237 59 40 238 59 40 240 59 40 241 59 40 242 59 40 243 59 40 244 59 40 245 59 40 246 59 40 247 59 40 248 59 40 249 59 40 250 59 40 251 59 40 252 59 40 253 59 40 255 59
40 0 58 40 1 58 40 2 58 40 3 58 40 4 58 40 5 58 40 6 58 40 7 58 40 8 58 40 9 58 40 10 58 40 11 58 40 12 58 40 13 58 40 14 58 40 16 58 40 17 58 40 18 58 40 19 58 40 20 58 40 21 58 40 22 58 40 23 58 40 24 58 40 25 58 40 26 58 40 27 58 40 28 58 40 29 58 40 30 58 40 32 58 40 33 58 40 34 58 40 35 58 40 36 58 40 37 58 40 38 58 40 39 58 40 40 58 40 41 58 40 42 58 40 43 58 40 44 58 40 45 58 40 46 58 40 48 58 40 49 58 40 50 58 40 51 58 40 52 58 40 53 58 40 54 58 40 55 58 40 56 58 40 57 58 40 58 58 40 59 58 40 60 58 40 61 58 40 62 58 40 64 58 40 65 58 40 66 58 40 67 58 40 68 58 40 69 58 40 70 58 40 71 58 40 72 58 40 73 58 40 74 58 40 75 58 40 76 58 40 77 58 40 78 58 40 80 58 40 81 58 40 82 58 40 83 58 40 84 58 40 85 58 40 86 58 40 87 58 40 88 58 40 89 58 40 90 58 40 91 58 40 92 58 40 93 58 40 94 58 40 96 58 40 97 58 40 98 58 40 99 58 40 100 58 40 101 58 40 102 58 40 103 58 40 104 58 40 105 58 40 106 58 40 107 58 40 108 58 40 109 58 40 110 58 40 112 58 40 113 58 40 114 58 40 115 58 40 116 58 40 117 58 40 118 58 40 119 58 40 120 58 40 121 58 40 122 58 40 123 58 40 124 58 40 125 58 40 126 58 40 128 58 40 129 58 40 130 58 40 131 58 40 132 58 40 133 58 40 134 58 40 135 58 40 136 58 40 137 58 40 138 58 40 139 58 40 140 58 40 141 58 40 142 58 40 144 58 40 145 58 40 146 58 40 147 58 40 148 58 40 149 58 40 150 58 40 151 58 40 152 58 40 153 58 40 154 58 40 155 58 40 156 58 40 157 58 40 158 58 40 160 58 40 161 58 40 162 58 40 163 58 40 164 58 40 165 58 40 166 58 40 167 58 40 168 58 40 169 58 40 170 58 40 171 58 40 172 58 40 173 58 40 174 58 40 176 58 40 177 58 40 178 58 40 179 58 40 180 58 40 181 58 40 182 58 40 183 58 40 184 58 40 185 58 40 186 58 40 187 58 40 188 58 40 189 58 40 190 58 40 192 58 40 193 58 40 194 58 40 195 58 40 196 58 40 197 58 40 198 58 40 199 58 40 200 58 40 201 58 40 202 58 40 203 58 40 204 58 40 205 58 40 206 58 40 208 58 40 209 58 40 210 58 40 211 58 40 212 58 40 213 58 40 214 58 40 215 58 40 216 58 40 217 58 40 218 58 40 219 58 40 220 58 40 221 58 40 222 58 40 224 58 40 225 58 40 226 58 40 227 58 40 228 58 40 229 58 40 230 58 40 231 58 40 232 58 40 233 58 40 234 58 40 235 58 40 236 58 40 237 58 40 238 58 40 240 58 40 241 58 40 242 58 40 243 58 40 244 58 40 245 58 40 246 58 40 247 58 40 248 58 40 249 58 40 250 58 40 251 58 40 252 58 40 253 58 40 255 58
40 0 56 40 1 56 40 2 56 40 3 56 40 4 56 40 5 56 40 6 56 40 7 56 40 8 56 40 9 56 40 10 56 40 11 56 40 12 56 40 13 56 40 14 56 40 16 56 40 17 56 40 18 56 40 19 56 40 20 56 40 21 56 40 22 56 40 23 56 40 24 56 40 25 56 40 26 56 40 27 56 40 28 56 40 29 56 40 30 56 40 32 56 40 33 56 40 34 56 40 35 56 40 36 56 40 37 56 40 38 56 40 39 56 40 40 56 40 41 56 40 42 56 40 43 56 40 44 56 40 45 56 40 46 56 40 48 56 40 49 56 40 50 56 40 51 56 40 52 56 40 53 56 40 54 56 40 55 56 40 56 56 40 57 56 40 58 56 40 59 56 40 60 56 40 61 56 40 62 56 40 64 56 40 65 56 40 66 56 40 67 56 40 68 56 40 69 56 40 70 56 40 71 56 40 72 56 40 73 56 40 74 56 40 75 56 40 76 56 40 77 56 40 78 56 40 80 56 40 81 56 40 82 56 40 83 56 40 84 56 40 85 56 40 86 56 40 87 56 40 88 56 40 89 56 40 90 56 40 91 56 40 92 56 40 93 56 40 94 56 40 96 56 40 97 56 40 98 56 40 99 56 40 100 56 40 101 56 40 102 56 40 103 56 40 104 56 40 105 56 40 106 56 40 107 56 40 108 56 40 109 56 40 110 56 40 112 56 40 113 56 40 114 56 40 115 56 40 116 56 40 117 56 40 118 56 40 119 56 40 120 56 40 121 56 40 122 56 40 123 56 40 124 56 40 125 56 40 126 56 40 128 56 40 129 56 40 130 56 40 131 56 40 132 56 40 133 56 40 134 56 40 135 56 40 136 56 40 137 56 40 138 56 40 139 56 40 140 56 40 141 56 40 142 56 40 144 56 40 145 56 40 146 56 40 147 56 40 148 56 40 149 56 40 150 56 40 151 56 40 152 56 40 153 56 40 154 56 40 155 56 40 156 56 40 157 56 40 158 56 40 160 56 40 161 56 40 162 56 40 163 56 40 164 56 40 165 56 40 166 56 40 167 56 40 168 56 40 169 56 40 170 56 40 171 56 40 172 56 40 173 56 40 174 56 40 176 56 40 177 56 40 178 56 40 179 56 40 180 56 40 181 56 40 182 56 40 183 56 40 184 56 40 185 56 40 186 56 40 187 56 40 188 56 40 189 56 40 190 56 40 192 56 40 193 56 40 194 56 40 195 56 40 196 56 40 197 56 40 198 56 40 199 56 40 200 56 40 201 56 40 202 56 40 203 56 40 204 56 40 205 56 40 206 56 40 208 56 40 209 56 40 210 56 40 211 56 40 212 56 40 213 56 40 214 56 40 215 56 40 216 56 40 217 56 40 218 56 40 219 56 40 220 56 40 221 56 40 222 56 40 224 56 40 225 56 40 226 56 40 227 56 40 228 56 40 229 56 40 230 56 40 231 56 40 232 56 40 233 56 40 234 56 40 235 56 40 236 56 40 237 56 40 238 56 40 240 56 40 241 56 40 242 56 40 243 56 40 244 56 40 245 56 40 246 56 40 247 56 40 248 56 40 249 56 40 250 56 40 251 56 40 252 56 40 253 56 40 255 56
40 0 55 40 1 55 40 2 55 40 3 55 40 4 55 40 5 55 40 6 55 40 7 55 40 8 55 40 9 55 40 10 55 40 11 55 40 12 55 40 13 55 40 14 55 40 16 55 40 17 55 40 18 55 40 19 55 40 20 55 40 21 55 40 22 55 40 23 55 40 24 55 40 25 55 40 26 55 40 27 55 40 28 55 40 29 55 40 30 55 40 32 55 40 33 55 40 34 55 40 35 55 40 36 55 40 37 55 40 38 55 40 39 55 40 40 55 40 41 55 40 42 55 40 43 55 40 44 55 40 45 55 40 46 55 40 48 55 40 49 55 40 50 55 40 51 55 40 52 55 40 53 55 40 54 55 40 55 55 40 56 55 40 57 55 40 58 55 40 59 55 40 60 55 40 61 55 40 62 55 40 64 55 40 65 55 40 66 55 40 67 55 40 68 55 40 69 55 40 70 55 40 71 55 40 72 55 40 73 55 40 74 55 40 75 55 40 76 55 40 77 55 40 78 55 40 80 55 40 81 55 40 82 55 40 83 55 40 84 55 40 85 55 40 86 55 40 87 55 40 88 55 40 89 55 40 90 55 40 91 55 40 92 55 40 93 55 40 94 55 40 96 55 40 97 55 40 98 55 40 99 55 40 100 55 40 101 55 40 102 55 40 103 55 40 104 55 40 105 55 40 106 55 40 107 55 40 108 55 40 109 55 40 110 55 40 112 55 40 113 55 40 114 55 40 115 55 40 116 55 40 117 55 40 118 55 40 119 55 40 120 55 40 121 55 40 122 55 40 123 55 40 124 55 40 125 55 40 126 55 40 128 55 40 129 55 40 130 55 40 131 55 40 132 55 40 133 55 40 134 55 40 135 55 40 136 55 40 137 55 40 138 55 40 139 55 40 140 55 40 141 55 40 142 55 40 144 55 40 145 55 40 146 55 40 147 55 40 148 55 40 149 55 40 150 55 40 151 55 40 152 55 40 153 55 40 154 55 40 155 55 40 156 55 40 157 55 40 158 55 40 160 55 40 161 55 40 162 55 40 163 55 40 164 55 40 165 55 40 166 55 40 167 55 40 168 55 40 169 55 40 170 55 40 171 55 40 172 55 40 173 55 40 174 55 40 176 55 40 177 55 40 178 55 40 179 55 40 180 55 40 181 55 40 182 55 40 183 55 40 184 55 40 185 55 40 186 55 40 187 55 40 188 55 40 189 55 40 190 55 40 192 55 40 193 55 40 194 55 40 195 55 40 196 55 40 197 55 40 198 55 40 199 55 40 200 55 40 201 55 40 202 55 40 203 55 40 204 55 40 205 55 40 206 55 40 208 55 40 209 55 40 210 55 40 211 55 40 212 55 40 213 55 40 214 55 40 215 55 40 216 55 40 217 55 40 218 55 40 219 55 40 220 55 40 221 55 40 222 55 40 224 55 40 225 55 40 226 55 40 227 55 40 228 55 40 229 55 40 230 55 40 231 55 40 232 55 40 233 55 40 234 55 40 235 55 40 236 55 40 237 55 40 238 55 40 240 55 40 241 55 40 242 55 40 243 55 40 244 55 40 245 55 40 246 55 40 247 55 40 248 55 40 249 55 40 250 55 40 251 55 40 252 55 40 253 55 40 255 55
40 0 54 40 1 54 40 2 54 40 3 54 40 4 54 40 5 54 40 6 54 40 7 54 40 8 54 40 9 54 40 10 54 40 11 54 40 12 54 40 13 54 40 14 54 40 16 54 40 17 54 40 18 54 40 19 54 40 20 54 40 21 54 40 22 54 40 23 54 40 24 54 40 25 54 40 26 54 40 27 54 40 28 54 40 29 54 40 30 54 40 32 54 40 33 54 40 34 54 40 35 54 40 36 54 40 37 54 40 38 54 40 39 54 40 40 54 40 41 54 40 42 54 40 43 54 40 44 54 40 45 54 40 46 54 40 48 54 40 49 54 40 50 54 40 51 54 40 52 54 40 53 54 40 54 54 40 55 54 40 56 54 40 57 54 40 58 54 40 59 54 40 60 54 40 61 54 40 62 54 40 64 54 40 65 54 40 66 54 40 67 54 40 68 54 40 69 54 40 70 54 40 71 54 40 72 54 40 73 54 40 74 54 40 75 54 40 76 54 40 77 54 40 78 54 40 80 54 40 81 54 40 82 54 40 83 54 40 84 54 40 85 54 40 86 54 40 87 54 40 88 54 40 89 54 40 90 54 40 91 54 40 92 54 40 93 54 40 94 54 40 96 54 40 97 54 40 98 54 40 99 54 40 100 54 40 101 54 40 102 54 40 103 54 40 104 54 40 105 54 40 106 54 40 107 54 40 108 54 40 109 54 40 110 54 40 112 54 40 113 54 40 114 54 40 115 54 40 116 54 40 117 54 40 118 54 40 119 54 40 120 54 40 121 54 40 122 54 40 123 54 40 124 54 40 125 54 40 126 54 40 128 54 40 129 54 40 130 54 40 131 54 40 132 54 40 133 54 40 134 54 40 135 54 40 136 54 40 137 54 40 138 54 40 139 54 40 140 54 40 141 54 40 142 54 40 144 54 40 145 54 40 146 54 40 147 54 40 148 54 40 149 54 40 150 54 40 151 54 40 152 54 40 153 54 40 154 54 40 155 54 40 156 54 40 157 54 40 158 54 40 160 54 40 161 54 40 162 54 40 163 54 40 164 54 40 165 54 40 166 54 40 167 54 40 168 54 40 169 54 40 170 54 40 171 54 40 172 54 40 173 54 40 174 54 40 176 54 40 177 54 40 178 54 40 179 54 40 180 54 40 181 54 40 182 54 40 183 54 40 184 54 40 185 54 40 186 54 40 187 54 40 188 54 40 189 54 40 190 54 40 192 54 40 193 54 40 194 54 40 195 54 40 196 54 40 197 54 40 198 54 40 199 54 40 200 54 40 201 54 40 202 54 40 203 54 40 204 54 40 205 54 40 206 54 40 208 54 40 209 54 40 210 54 40 211 54 40 212 54 40 213 54 40 214 54 40 215 54 40 216 54 40 217 54 40 218 54 40 219 54 40 220 54 40 221 54 40 222 54 40 224 54 40 225 54 40 226 54 40 227 54 40 228 54 40 229 54 40 230 54 40 231 54 40 232 54 40 233 54 40 234 54 40 235 54 40 236 54 40 237 54 40 238 54 40 240 54 40 241 54 40 242 54 40 243 54 40 244 54 40 245 54 40 246 54 40 247 54 40 248 54 40 249 54 40 250 54 40 251 54 40 252 54 40 253 54 40 255 54
40 0 52 40 1 52 40 2 52 40 3 52 40 4 52 40 5 52 40 6 52 40 7 52 40 8 52 40 9 52 40 10 52 40 11 52 40 12 52 40 13 52 40 14 52 40 16 52 40 17 52 40 18 52 40 19 52 40 20 52 40 21 52 40 22 52 40 23 52 40 24 52 40 25 52 40 26 52 40 27 52 40 28 52 40 29 52 40 30 52 40 32 52 40 33 52 40 34 52 40 35 52 40 36 52 40 37 52 40 38 52 40 39 52 40 40 52 40 41 52 40 42 52 40 43 52 40 44 52 40 45 52 40 46 52 40 48 52 40 49 52 40 50 52 40 51 52 40 52 52 40 53 52 40 54 52 40 55 52 40 56 52 40 57 52 40 58 52 40 59 52 40 60 52 40 61 52 40 62 52 40 64 52 40 65 52 40 66 52 40 67 52 40 68 52 40 69 52 40 70 52 40 71 52 40 72 52 40 73 52 40 74 52 40 75 52 40 76 52 40 77 52 40 78 52 40 80 52 40 81 52 40 82 52 40 83 52 40 84 52 40 85 52 40 86 52 40 87 52 40 88 52 40 89 52 40 90 52 40 91 52 40 92 52 40 93 52 40 94 52 40 96 52 40 97 52 40 98 52 40 99 52 40 100 52 40 101 52 40 102 52 40 103 52 40 104 52 40 105 52 40 106 52 40 107 52 40 108 52 40 109 52 40 110 52 40 112 52 40 113 52 40 114 52 40 115 52 40 116 52 40 117 52 40 118 52 40 119 52 40 120 52 40 121 52 40 122 52 40 123 52 40 124 52 40 125 52 40 126 52 40 128 52 40 129 52 40 130 52 40 131 52 40 132 52 40 133 52 40 134 52 40 135 52 40 136 52 40 137 52 40 138 52 40 139 52 40 140 52 40 141 52 40 142 52 40 144 52 40 145 52 40 146 52 40 147 52 40 148 52 40 149 52 40 150 52 40 151 52 40 152 52 40 153 52 40 154 52 40 155 52 40 156 52 40 157 52 40 158 52 40 160 52 40 161 52 40 162 52 40 163 52 40 164 52 40 165 52 40 166 52 40 167 52 40 168 52 40 169 52 40 170 52 40 171 52 40 172 52 40 173 52 40 174 52 40 176 52 40 177 52 40 178 52 40 179 52 40 180 52 40 181 52 40 182 52 40 183 52 40 184 52 40 185 52 40 186 52 40 187 52 40 188 52 40 189 52 40 190 52 40 192 52 40 193 52 40 194 52 40 195 52 40 196 52 40 197 52 40 198 52 40 199 52 40 200 52 40 201 52 40 202 52 40 203 52 40 204 52 40 205 52 40 206 52 40 208 52 40 209 52 40 210 52 40 211 52 40 212 52 40 213 52 40 214 52 40 215 52 40 216 52 40 217 52 40 218 52 40 219 52 40 220 52 40 221 52 40 222 52 40 224 52 40 225 52 40 226 52 40 227 52 40 228 52 40 229 52 40 230 52 40 231 52 40 232 52 40 233 52 40 234 52 40 235 52 40 236 52 40 237 52 40 238 52 40 240 52 40 241 52 40 242 52 40 243 52 40 244 52 40 245 52 40 246 52 40 247 52 40 248 52 40 249 52 40 250 52 40 251 52 40 252 52 40 253 52 40 255 52
40 0 51 40 1 51 40 2 51 40 3 51 40 4 51 40 5 51 40 6 51 40 7 51 40 8 51 40 9 51 40 10 51 40 11 51 40 12 51 40 13 51 40 14 51 40 16 51 40 17 51 40 18 51 40 19 51 40 20 51 40 21 51 40 22 51 40 23 51 40 24 51 40 25 51 40 26 51 40 27 51 40 28 51 40 29 51 40 30 51 40 32 51 40 33 51 40 34 51 40 35 51 40 36 51 40 37 51 40 38 51 40 39 51 40 40 51 40 41 51 40 42 51 40 43 51 40 44 51 40 45 51 40 46 51 40 48 51 40 49 51 40 50 51 40 51 51 40 52 51 40 53 51 40 54 51 40 55 51 40 56 51 40 57 51 40 58 51 40 59 51 40 60 51 40 61 51 40 62 51 40 64 51 40 65 51 40 66 51 40 67 51 40 68 51 40 69 51 40 70 51 40 71 51 40 72 51 40 73 51 40 74 51 40 75 51 40 76 51 40 77 51 40 78 51 40 80 51 40 81 51 40 82 51 40 83 51 40 84 51 40 85 51 40 86 51 40 87 51 40 88 51 40 89 51 40 90 51 40 91 51 40 92 51 40 93 51 40 94 51 40 96 51 40 97 51 40 98 51 40 99 51 40 100 51 40 101 51 40 102 51 40 103 51 40 104 51 40 105 51 40 106 51 40 107 51 40 108 51 40 109 51 40 110 51 40 112 51 40 113 51 40 114 51 40 115 51 40 116 51 40 117 51 40 118 51 40 119 51 40 120 51 40 121 51 40 122 51 40 123 51 40 124 51 40 125 51 40 126 51 40 128 51 40 129 51 40 130 51 40 131 51 40 132 51 40 133 51 40 134 51 40 135 51 40 136 51 40 137 51 40 138 51 40 139 51 40 140 51 40 141 51 40 142 51 40 144 51 40 145 51 40 146 51 40 147 51 40 148 51 40 149 51 40 150 51 40 151 51 40 152 51 40 153 51 40 154 51 40 155 51 40 156 51 40 157 51 40 158 51 40 160 51 40 161 51 40 162 51 40 163 51 40 164 51 40 165 51 40 166 51 40 167 51 40 168 51 40 169 51 40 170 51 40 171 51 40 172 51 40 173 51 40 174 51 40 176 51 40 177 51 40 178 51 40 179 51 40 180 51 40 181 51 40 182 51 40 183 51 40 184 51 40 185 51 40 186 51 40 187 51 40 188 51 40 189 51 40 190 51 40 192 51 40 193 51 40 194 51 40 195 51 40 196 51 40 197 51 40 198 51 40 199 51 40 200 51 40 201 51 40 202 51 40 203 51 40 204 51 40 205 51 40 206 51 40 208 51 40 209 51 40 210 51 40 211 51 40 212 51 40 213 51 40 214 51 40 215 51 40 216 51 40 217 51 40 218 51 40 219 51 40 220 51 40 221 51 40 222 51 40 224 51 40 225 51 40 226 51 40 227 51 40 228 51 40 229 51 40 230 51 40 231 51 40 232 51 40 233 51 40 234 51 40 235 51 40 236 51 40 237 51 40 238 51 40 240 51 40 241 51 40 242 51 40 243 51 40 244 51 40 245 51 40 246 51 40 247 51 40 248 51 40 249 51 40 250 51 40 251 51 40 252 51 40 253 51 40 255 51
40 0 49 40 1 49 40 2 49 40 3 49 40 4 49 40 5 49 40 6 49 40 7 49 40 8 49 40 9 49 40 10 49 40 11 49 40 12 49 40 13 49 40 14 49 40 16 49 40 17 49 40 18 49 40 19 49 40 20 49 40 21 49 40 22 49 40 23 49 40 24 49 40 25 49 40 26 49 40 27 49 40 28 49 40 29 49 40 30 49 40 32 49 40 33 49 40 34 49 40 35 49 40 36 49 40 37 49 40 38 49 40 39 49 40 40 49 40 41 49 40 42 49 40 43 49 40 44 49 40 45 49 40 46 49 40 48 49 40 49 49 40 50 49 40 51 49 40 52 49 40 53 49 40 54 49 40 55 49 40 56 49 40 57 49 40 58 49 40 59 49 40 60 49 40 61 49 40 62 49 40 64 49 40 65 49 40 66 49 40 67 49 40 68 49 40 69 49 40 70 49 40 71 49 40 72 49 40 73 49 40 74 49 40 75 49 40 76 49 40 77 49 40 78 49 40 80 49 40 81 49 40 82 49 40 83 49 40 84 49 40 85 49 40 86 49 40 87 49 40 88 49 40 89 49 40 90 49 40 91 49 40 92 49 40 93 49 40 94 49 40 96 49 40 97 49 40 98 49 40 99 49 40 100 49 40 101 49 40 102 49 40 103 49 40 104 49 40 105 49 40 106 49 40 107 49 40 108 49 40 109 49 40 110 49 40 112 49 40 113 49 40 114 49 40 115 49 40 116 49 40 117 49 40 118 49 40 119 49 40 120 49 40 121 49 40 122 49 40 123 49 40 124 49 40 125 49 40 126 49 40 128 49 40 129 49 40 130 49 40 131 49 40 132 49 40 133 49 40 134 49 40 135 49 40 136 49 40 137 49 40 138 49 40 139 49 40 140 49 40 141 49 40 142 49 40 144 49 40 145 49 40 146 49 40 147 49 40 148 49 40 149 49 40 150 49 40 151 49 40 152 49 40 153 49 40 154 49 40 155 49 40 156 49 40 157 49 40 158 49 40 160 49 40 161 49 40 162 49 40 163 49 40 164 49 40 165 49 40 166 49 40 167 49 40 168 49 40 169 49 40 170 49 40 171 49 40 172 49 40 173 49 40 174 49 40 176 49 40 177 49 40 178 49 40 179 49 40 180 49 40 181 49 40 182 49 40 183 49 40 184 49 40 185 49 40 186 49 40 187 49 40 188 49 40 189 49 40 190 49 40 192 49 40 193 49 40 194 49 40 195 49 40 196 49 40 197 49 40 198 49 40 199 49 40 200 49 40 201 49 40 202 49 40 203 49 40 204 49 40 205 49 40 206 49 40 208 49 40 209 49 40 210 49 40 211 49 40 212 49 40 213 49 40 214 49 40 215 49 40 216 49 40 217 49 40 218 49 40 219 49 40 220 49 40 221 49 40 222 49 40 224 49 40 225 49 40 226 49 40 227 49 40 228 49 40 229 49 40 230 49 40 231 49 40 232 49 40 233 49 40 234 49 40 235 49 40 236 49 40 237 49 40 238 49 40 240 49 40 241 49 40 242 49 40 243 49 40 244 49 40 245 49 40 246 49 40 247 49 40 248 49 40 249 49 40 250 49 40 251 49 40 252 49 40 253 49 40 255 49
40 0 48 40 1 48 40 2 48 40 3 48 40 4 48 40 5 48 40 6 48 40 7 48 40 8 48 40 9 48 40 10 48 40 11 48 40 12 48 40 13 48 40 14 48 40 16 48 40 17 48 40 18 48 40 19 48 40 20 48 40 21 48 40 22 48 40 23 48 40 24 48 40 25 48 40 26 48 40 27 48 40 28 48 40 29 48 40 30 48 40 32 48 40 33 48 40 34 48 40 35 48 40 36 48 40 37 48 40 38 48 40 39 48 40 40 48 40 41 48 40 42 48 40 43 48 40 44 48 40 45 48 40 46 48 40 48 48 40 49 48 40 50 48 40 51 48 40 52 48 40 53 48 40 54 48 40 55 48 40 56 48 40 57 48 40 58 48 40 59 48 40 60 48 40 61 48 40 62 48 40 64 48 40 65 48 40 66 48 40 67 48 40 68 48 40 69 48 40 70 48 40 71 48 40 72 48 40 73 48 40 74 48 40 75 48 40 76 48 40 77 48 40 78 48 40 80 48 40 81 48 40 82 48 40 83 48 40 84 48 40 85 48 40 86 48 40 87 48 40 88 48 40 89 48 40 90 48 40 91 48 40 92 48 40 93 48 40 94 48 40 96 48 40 97 48 40 98 48 40 99 48 40 100 48 40 101 48 40 102 48 40 103 48 40 104 48 40 105 48 40 106 48 40 107 48 40 108 48 40 109 48 40 110 48 40 112 48 40 113 48 40 114 48 40 115 48 40 116 48 40 117 48 40 118 48 40 119 48 40 120 48 40 121 48 40 122 48 40 123 48 40 124 48 40 125 48 40 126 48 40 128 48 40 129 48 40 130 48 40 131 48 40 132 48 40 133 48 40 134 48 40 135 48 40 136 48 40 137 48 40 138 48 40 139 48 40 140 48 40 141 48 40 142 48 40 144 48 40 145 48 40 146 48 40 147 48 40 148 48 40 149 48 40 150 48 40 151 48 40 152 48 40 153 48 40 154 48 40 155 48 40 156 48 40 157 48 40 158 48 40 160 48 40 161 48 40 162 48 40 163 48 40 164 48 40 165 48 40 166 48 40 167 48 40 168 48 40 169 48 40 170 48 40 171 48 40 172 48 40 173 48 40 174 48 40 176 48 40 177 48 40 178 48 40 179 48 40 180 48 40 181 48 40 182 48 40 183 48 40 184 48 40 185 48 40 186 48 40 187 48 40 188 48 40 189 48 40 190 48 40 192 48 40 193 48 40 194 48 40 195 48 40 196 48 40 197 48 40 198 48 40 199 48 40 200 48 40 201 48 40 202 48 40 203 48 40 204 48 40 205 48 40 206 48 40 208 48 40 209 48 40 210 48 40 211 48 40 212 48 40 213 48 40 214 48 40 215 48 40 216 48 40 217 48 40 218 48 40 219 48 40 220 48 40 221 48 40 222 48 40 224 48 40 225 48 40 226 48 40 227 48 40 228 48 40 229 48 40 230 48 40 231 48 40 232 48 40 233 48 40 234 48 40 235 48 40 236 48 40 237 48 40 238 48 40 240 48 40 241 48 40 242 48 40 243 48 40 244 48 40 245 48 40 246 48 40 247 48 40 248 48 40 249 48 40 250 48 40 251 48 40 252 48 40 253 48 40 255 48
40 0 47 40 1 47 40 2 47 40 3 47 40 4 47 40 5 47 40 6 47 40 7 47 40 8 47 40 9 47 40 10 47 40 11 47 40 12 47 40 13 47 40 14 47 40 16 47 40 17 47 40 18 47 40 19 47 40 20 47 40 21 47 40 22 47 40 23 47 40 24 47 40 25 47 40 26 47 40 27 47 40 28 47 40 29 47 40 30 47 40 32 47 40 33 47 40 34 47 40 35 47 40 36 47 40 37 47 40 38 47 40 39 47 40 40 47 40 41 47 40 42 47 40 43 47 40 44 47 40 45 47 40 46 47 40 48 47 40 49 47 40 50 47 40 51 47 40 52 47 40 53 47 40 54 47 40 55 47 40 56 47 40 57 47 40 58 47 40 59 47 40 60 47 40 61 47 40 62 47 40 64 47 40 65 47 40 66 47 40 67 47 40 68 47 40 69 47 40 70 47 40 71 47 40 72 47 40 73 47 40 74 47 40 75 47 40 76 47 40 77 47 40 78 47 40 80 47 40 81 47 40 82 47 40 83 47 40 84 47 40 85 47 40 86 47 40 87 47 40 88 47 40 89 47 40 90 47 40 91 47 40 92 47 40 93 47 40 94 47 40 96 47 40 97 47 40 98 47 40 99 47 40 100 47 40 101 47 40 102 47 40 103 47 40 104 47 40 105 47 40 106 47 40 107 47 40 108 47 40 109 47 40 110 47 40 112 47 40 113 47 40 114 47 40 115 47 40 116 47 40 117 47 40 118 47 40 119 47 40 120 47 40 121 47 40 122 47 40 123 47 40 124 47 40 125 47 40 126 47 40 128 47 40 129 47 40 130 47 40 131 47 40 132 47 40 133 47 40 134 47 40 135 47 40 136 47 40 137 47 40 138 47 40 139 47 40 140 47 40 141 47 40 142 47 40 144 47 40 145 47 40 146 47 40 147 47 40 148 47 40 149 47 40 150 47 40 151 47 40 152 47 40 153 47 40 154 47 40 155 47 40 156 47 40 157 47 40 158 47 40 160 47 40 161 47 40 162 47 40 163 47 40 164 47 40 165 47 40 166 47 40 167 47 40 168 47 40 169 47 40 170 47 40 171 47 40 172 47 40 173 47 40 174 47 40 176 47 40 177 47 40 178 47 40 179 47 40 180 47 40 181 47 40 182 47 40 183 47 40 184 47 40 185 47 40 186 47 40 187 47 40 188 47 40 189 47 40 190 47 40 192 47 40 193 47 40 194 47 40 195 47 40 196 47 40 197 47 40 198 47 40 199 47 40 200 47 40 201 47 40 202 47 40 203 47 40 204 47 40 205 47 40 206 47 40 208 47 40 209 47 40 210 47 40 211 47 40 212 47 40 213 47 40 214 47 40 215 47 40 216 47 40 217 47 40 218 47 40 219 47 40 220 47 40 221 47 40 222 47 40 224 47 40 225 47 40 226 47 40 227 47 40 228 47 40 229 47 40 230 47 40 231 47 40 232 47 40 233 47 40 234 47 40 235 47 40 236 47 40 237 47 40 238 47 40 240 47 40 241 47 40 242 47 40 243 47 40 244 47 40 245 47 40 246 47 40 247 47 40 248 47 40 249 47 40 250 47 40 251 47 40 252 47 40 253 47 40 255 47
40 0 45 40 1 45 40 2 45 40 3 45 40 4 45 40 5 45 40 6 45 40 7 45 40 8 45 40 9 45 40 10 45 40 11 45 40 12 45 40 13 45 40 14 45 40 16 45 40 17 45 40 18 45 40 19 45 40 20 45 40 21 45 40 22 45 40 23 45 40 24 45 40 25 45 40 26 45 40 27 45 40 28 45 40 29 45 40 30 45 40 32 45 40 33 45 40 34 45 40 35 45 40 36 45 40 37 45 40 38 45 40 39 45 40 40 45 40 41 45 40 42 45 40 43 45 40 44 45 40 45 45 40 46 45 40 48 45 40 49 45 40 50 45 40 51 45 40 52 45 40 53 45 40 54 45 40 55 45 40 56 45 40 57 45 40 58 45 40 59 45 40 60 45 40 61 45 40 62 45 40 64 45 40 65 45 40 66 45 40 67 45 40 68 45 40 69 45 40 70 45 40 71 45 40 72 45 40 73 45 40 74 45 40 75 45 40 76 45 40 77 45 40 78 45 40 80 45 40 81 45 40 82 45 40 83 45 40 84 45 40 85 45 40 86 45 40 87 45 40 88 45 40 89 45 40 90 45 40 91 45 40 92 45 40 93 45 40 94 45 40 96 45 40 97 45 40 98 45 40 99 45 40 100 45 40 101 45 40 102 45 40 103 45 40 104 45 40 105 45 40 106 45 40 107 45 40 108 45 40 109 45 40 110 45 40 112 45 40 113 45 40 114 45 40 115 45 40 116 45 40 117 45 40 118 45 40 119 45 40 120 45 40 121 45 40 122 45 40 123 45 40 124 45 40 125 45 40 126 45 40 128 45 40 129 45 40 130 45 40 131 45 40 132 45 40 133 45 40 134 45 40 135 45 40 136 45 40 137 45 40 138 45 40 139 45 40 140 45 40 141 45 40 142 45 40 144 45 40 145 45 40 146 45 40 147 45 40 148 45 40 149 45 40 150 45 40 151 45 40 152 45 40 153 45 40 154 45 40 155 45 40 156 45 40 157 45 40 158 45 40 160 45 40 161 45 40 162 45 40 163 45 40 164 45 40 165 45 40 166 45 40 167 45 40 168 45 40 169 45 40 170 45 40 171 45 40 172 45 40 173 45 40 174 45 40 176 45 40 177 45 40 178 45 40 179 45 40 180 45 40 181 45 40 182 45 40 183 45 40 184 45 40 185 45 40 186 45 40 187 45 40 188 45 40 189 45 40 190 45 40 192 45 40 193 45 40 194 45 40 195 45 40 196 45 40 197 45 40 198 45 40 199 45 40 200 45 40 201 45 40 202 45 40 203 45 40 204 45 40 205 45 40 206 45 40 208 45 40 209 45 40 210 45 40 211 45 40 212 45 40 213 45 40 214 45 40 215 45 40 216 45 40 217 45 40 218 45 40 219 45 40 220 45 40 221 45 40 222 45 40 224 45 40 225 45 40 226 45 40 227 45 40 228 45 40 229 45 40 230 45 40 231 45 40 232 45 40 233 45 40 234 45 40 235 45 40 236 45 40 237 45 40 238 45 40 240 45 40 241 45 40 242 45 40 243 45 40 244 45 40 245 45 40 246 45 40 247 45 40 248 45 40 249 45 40 250 45 40 251 45 40 252 45 40 253 45 40 255 45
40 0 44 40 1 44 40 2 44 40 3 44 40 4 44 40 5 44 40 6 44 40 7 44 40 8 44 40 9 44 40 10 44 40 11 44 40 12 44 40 13 44 40 14 44 40 16 44 40 17 44 40 18 44 40 19 44 40 20 44 40 21 44 40 22 44 40 23 44 40 24 44 40 25 44 40 26 44 40 27 44 40 28 44 40 29 44 40 30 44 40 32 44 40 33 44 40 34 44 40 35 44 40 36 44 40 37 44 40 38 44 40 39 44 40 40 44 40 41 44 40 42 44 40 43 44 40 44 44 40 45 44 40 46 44 40 48 44 40 49 44 40 50 44 40 51 44 40 52 44 40 53 44 40 54 44 40 55 44 40 56 44 40 57 44 40 58 44 40 59 44 40 60 44 40 61 44 40 62 44 40 64 44 40 65 44 40 66 44 40 67 44 40 68 44 40 69 44 40 70 44 40 71 44 40 72 44 40 73 44 40 74 44 40 75 44 40 76 44 40 77 44 40 78 44 40 80 44 40 81 44 40 82 44 40 83 44 40 84 44 40 85 44 40 86 44 40 87 44 40 88 44 40 89 44 40 90 44 40 91 44 40 92 44 40 93 44 40 94 44 40 96 44 40 97 44 40 98 44 40 99 44 40 100 44 40 101 44 40 102 44 40 103 44 40 104 44 40 105 44 40 106 44 40 107 44 40 108 44 40 109 44 40 110 44 40 112 44 40 113 44 40 114 44 40 115 44 40 116 44 40 117 44 40 118 44 40 119 44 40 120 44 40 121 44 40 122 44 40 123 44 40 124 44 40 125 44 40 126 44 40 128 44 40 129 44 40 130 44 40 131 44 40 132 44 40 133 44 40 134 44 40 135 44 40 136 44 40 137 44 40 138 44 40 139 44 40 140 44 40 141 44 40 142 44 40 144 44 40 145 44 40 146 44 40 147 44 40 148 44 40 149 44 40 150 44 40 151 44 40 152 44 40 153 44 40 154 44 40 155 44 40 156 44 40 157 44 40 158 44 40 160 44 40 161 44 40 162 44 40 163 44 40 164 44 40 165 44 40 166 44 40 167 44 40 168 44 40 169 44 40 170 44 40 171 44 40 172 44 40 173 44 40 174 44 40 176 44 40 177 44 40 178 44 40 179 44 40 180 44 40 181 44 40 182 44 40 183 44 40 184 44 40 185 44 40 186 44 40 187 44 40 188 44 40 189 44 40 190 44 40 192 44 40 193 44 40 194 44 40 195 44 40 196 44 40 197 44 40 198 44 40 199 44 40 200 44 40 201 44 40 202 44 40 203 44 40 204 44 40 205 44 40 206 44 40 208 44 40 209 44 40 210 44 40 211 44 40 212 44 40 213 44 40 214 44 40 215 44 40 216 44 40 217 44 40 218 44 40 219 44 40 220 44 40 221 44 40 222 44 40 224 44 40 225 44 40 226 44 40 227 44 40 228 44 40 229 44 40 230 44 40 231 44 40 232 44 40 233 44 40 234 44 40 235 44 40 236 44 40 237 44 40 238 44 40 240 44 40 241 44 40 242 44 40 243 44 40 244 44 40 245 44 40 246 44 40 247 44 40 248 44 40 249 44 40 250 44 40 251 44 40 252 44 40 253 44 40 255 44
40 0 42 40 1 42 40 2 42 40 3 42 40 4 42 40 5 42 40 6 42 40 7 42 40 8 42 40 9 42 40 10 42 40 11 42 40 12 42 40 13 42 40 14 42 40 16 42 40 17 42 40 18 42 40 19 42 40 20 42 40 21 42 40 22 42 40 23 42 40 24 42 40 25 42 40 26 42 40 27 42 40 28 42 40 29 42 40 30 42 40 32 42 40 33 42 40 34 42 40 35 42 40 36 42 40 37 42 40 38 42 40 39 42 40 40 42 40 41 42 40 42 42 40 43 42 40 44 42 40 45 42 40 46 42 40 48 42 40 49 42 40 50 42 40 51 42 40 52 42 40 53 42 40 54 42 40 55 42 40 56 42 40 57 42 40 58 42 40 59 42 40 60 42 40 61 42 40 62 42 40 64 42 40 65 42 40 66 42 40 67 42 40 68 42 40 69 42 40 70 42 40 71 42 40 72 42 40 73 42 40 74 42 40 75 42 40 76 42 40 77 42 40 78 42 40 80 42 40 81 42 40 82 42 40 83 42 40 84 42 40 85 42 40 86 42 40 87 42 40 88 42 40 89 42 40 90 42 40 91 42 40 92 42 40 93 42 40 94 42 40 96 42 40 97 42 40 98 42 40 99 42 40 100 42 40 101 42 40 102 42 40 103 42 40 104 42 40 105 42 40 106 42 40 107 42 40 108 42 40 109 42 40 110 42 40 112 42 40 113 42 40 114 42 40 115 42 40 116 42 40 117 42 40 118 42 40 119 42 40 120 42 40 121 42 40 122 42 40 123 42 40 124 42 40 125 42 40 126 42 40 128 42 40 129 42 40 130 42 40 131 42 40 132 42 40 133 42 40 134 42 40 135 42 40 136 42 40 137 42 40 138 42 40 139 42 40 140 42 40 141 42 40 142 42 40 144 42 40 145 42 40 146 42 40 147 42 40 148 42 40 149 42 40 150 42 40 151 42 40 152 42 40 153 42 40 154 42 40 155 42 40 156 42 40 157 42 40 158 42 40 160 42 40 161 42 40 162 42 40 163 42 40 164 42 40 165 42 40 166 42 40 167 42 40 168 42 40 169 42 40 170 42 40 171 42 40 172 42 40 173 42 40 174 42 40 176 42 40 177 42 40 178 42 40 179 42 40 180 42 40 181 42 40 182 42 40 183 42 40 184 42 40 185 42 40 186 42 40 187 42 40 188 42 40 189 42 40 190 42 40 192 42 40 193 42 40 194 42 40 195 42 40 196 42 40 197 42 40 198 42 40 199 42 40 200 42 40 201 42 40 202 42 40 203 42 40 204 42 40 205 42 40 206 42 40 208 42 40 209 42 40 210 42 40 211 42 40 212 42 40 213 42 40 214 42 40 215 42 40 216 42 40 217 42 40 218 42 40 219 42 40 220 42 40 221 42 40 222 42 40 224 42 40 225 42 40 226 42 40 227 42 40 228 42 40 229 42 40 230 42 40 231 42 40 232 42 40 233 42 40 234 42 40 235 42 40 236 42 40 237 42 40 238 42 40 240 42 40 241 42 40 242 42 40 243 42 40 244 42 40 245 42 40 246 42 40 247 42 40 248 42 40 249 42 40 250 42 40 251 42 40 252 42 40 253 42 40 255 42
40 0 41 40 1 41 40 2 41 40 3 41 40 4 41 40 5 41 40 6 41 40 7 41 40 8 41 40 9 41 40 10 41 40 11 41 40 12 41 40 13 41 40 14 41 40 16 41 40 17 41 40 18 41 40 19 41 40 20 41 40 21 41 40 22 41 40 23 41 40 24 41 40 25 41 40 26 41 40 27 41 40 28 41 40 29 41 40 30 41 40 32 41 40 33 41 40 34 41 40 35 41 40 36 41 40 37 41 40 38 41 40 39 41 40 40 41 40 41 41 40 42 41 40 43 41 40 44 41 40 45 41 40 46 41 40 48 41 40 49 41 40 50 41 40 51 41 40 52 41 40 53 41 40 54 41 40 55 41 40 56 41 40 57 41 40 58 41 40 59 41 40 60 41 40 61 41 40 62 41 40 64 41 40 65 41 40 66 41 40 67 41 40 68 41 40 69 41 40 70 41 40 71 41 40 72 41 40 73 41 40 74 41 40 75 41 40 76 41 40 77 41 40 78 41 40 80 41 40 81 41 40 82 41 40 83 41 40 84 41 40 85 41 40 86 41 40 87 41 40 88 41 40 89 41 40 90 41 40 91 41 40 92 41 40 93 41 40 94 41 40 96 41 40 97 41 40 98 41 40 99 41 40 100 41 40 101 41 40 102 41 40 103 41 40 104 41 40 105 41 40 106 41 40 107 41 40 108 41 40 109 41 40 110 41 40 112 41 40 113 41 40 114 41 40 115 41 40 116 41 40 117 41 40 118 41 40 119 41 40 120 41 40 121 41 40 122 41 40 123 41 40 124 41 40 125 41 40 126 41 40 128 41 40 129 41 40 130 41 40 131 41 40 132 41 40 133 41 40 134 41 40 135 41 40 136 41 40 137 41 40 138 41 40 139 41 40 140 41 40 141 41 40 142 41 40 144 41 40 145 41 40 146 41 40 147 41 40 148 41 40 149 41 40 150 41 40 151 41 40 152 41 40 153 41 40 154 41 40 155 41 40 156 41 40 157 41 40 158 41 40 160 41 40 161 41 40 162 41 40 163 41 40 164 41 40 165 41 40 166 41 40 167 41 40 168 41 40 169 41 40 170 41 40 171 41 40 172 41 40 173 41 40 174 41 40 176 41 40 177 41 40 178 41 40 179 41 40 180 41 40 181 41 40 182 41 40 183 41 40 184 41 40 185 41 40 186 41 40 187 41 40 188 41 40 189 41 40 190 41 40 192 41 40 193 41 40 194 41 40 195 41 40 196 41 40 197 41 40 198 41 40 199 41 40 200 41 40 201 41 40 202 41 40 203 41 40 204 41 40 205 41 40 206 41 40 208 41 40 209 41 40 210 41 40 211 41 40 212 41 40 213 41 40 214 41 40 215 41 40 216 41 40 217 41 40 218 41 40 219 41 40 220 41 40 221 41 40 222 41 40 224 41 40 225 41 40 226 41 40 227 41 40 228 41 40 229 41 40 230 41 40 231 41 40 232 41 40 233 41 40 234 41 40 235 41 40 236 41 40 237 41 40 238 41 40 240 41 40 241 41 40 242 41 40 243 41 40 244 41 40 245 41 40 246 41 40 247 41 40 248 41 40 249 41 40 250 41 40 251 41 40 252 41 40 253 41 40 255 41
40 0 39 40 1 39 40 2 39 40 3 39 40 4 39 40 5 39 40 6 39 40 7 39 40 8 39 40 9 39 40 10 39 40 11 39 40 12 39 40 13 39 40 14 39 40 16 39 40 17 39 40 18 39 40 19 39 40 20 39 40 21 39 40 22 39 40 23 39 40 24 39 40 25 39 40 26 39 40 27 39 40 28 39 40 29 39 40 30 39 40 32 39 40 33 39 40 34 39 40 35 39 40 36 39 40 37 39 40 38 39 40 39 39 40 40 39 40 41 39 40 42 39 40 43 39 40 44 39 40 45 39 40 46 39 40 48 39 40 49 39 40 50 39 40 51 39 40 52 39 40 53 39 40 54 39 40 55 39 40 56 39 40 57 39 40 58 39 40 59 39 40 60 39 40 61 39 40 62 39 40 64 39 40 65 39 40 66 39 40 67 39 40 68 39 40 69 39 40 70 39 40 71 39 40 72 39 40 73 39 40 74 39 40 75 39 40 76 39 40 77 39 40 78 39 40 80 39 40 81 39 40 82 39 40 83 39 40 84 39 40 85 39 40 86 39 40 87 39 40 88 39 40 89 39 40 90 39 40 91 39 40 92 39 40 93 39 40 94 39 40 96 39 40 97 39 40 98 39 40 99 39 40 100 39 40 101 39 40 102 39 40 103 39 40 104 39 40 105 39 40 106 39 40 107 39 40 108 39 40 109 39 40 110 39 40 112 39 40 113 39 40 114 39 40 115 39 40 116 39 40 117 39 40 118 39 40 119 39 40 120 39 40 121 39 40 122 39 40 123 39 40 124 39 40 125 39 40 126 39 40 128 39 40 129 39 40 130 39 40 131 39 40 132 39 40 133 39 40 134 39 40 135 39 40 136 39 40 137 39 40 138 39 40 139 39 40 140 39 40 141 39 40 142 39 40 144 39 40 145 39 40 146 39 40 147 39 40 148 39 40 149 39 40 150 39 40 151 39 40 152 39 40 153 39 40 154 39 40 155 39 40 156 39 40 157 39 40 158 39 40 160 39 40 161 39 40 162 39 40 163 39 40 164 39 40 165 39 40 166 39 40 167 39 40 168 39 40 169 39 40 170 39 40 171 39 40 172 39 40 173 39 40 174 39 40 176 39 40 177 39 40 178 39 40 179 39 40 180 39 40 181 39 40 182 39 40 183 39 40 184 39 40 185 39 40 186 39 40 187 39 40 188 39 40 189 39 40 190 39 40 192 39 40 193 39 40 194 39 40 195 39 40 196 39 40 197 39 40 198 39 40 199 39 40 200 39 40 201 39 40 202 39 40 203 39 40 204 39 40 205 39 40 206 39 40 208 39 40 209 39 40 210 39 40 211 39 40 212 39 40 213 39 40 214 39 40 215 39 40 216 39 40 217 39 40 218 39 40 219 39 40 220 39 40 221 39 40 222 39 40 224 39 40 225 39 40 226 39 40 227 39 40 228 39 40 229 39 40 230 39 40 231 39 40 232 39 40 233 39 40 234 39 40 235 39 40 236 39 40 237 39 40 238 39 40 240 39 40 241 39 40 242 39 40 243 39 40 244 39 40 245 39 40 246 39 40 247 39 40 248 39 40 249 39 40 250 39 40 251 39 40 252 39 40 253 39 40 255 39
40 0 38 40 1 38 40 2 38 40 3 38 40 4 38 40 5 38 40 6 38 40 7 38 40 8 38 40 9 38 40 10 38 40 11 38 40 12 38 40 13 38 40 14 38 40 16 38 40 17 38 40 18 38 40 19 38 40 20 38 40 21 38 40 22 38 40 23 38 40 24 38 40 25 38 40 26 38 40 27 38 40 28 38 40 29 38 40 30 38 40 32 38 40 33 38 40 34 38 40 35 38 40 36 38 40 37 38 40 38 38 40 39 38 40 40 38 40 41 38 40 42 38 40 43 38 40 44 38 40 45 38 40 46 38 40 48 38 40 49 38 40 50 38 40 51 38 40 52 38 40 53 38 40 54 38 40 55 38 40 56 38 40 57 38 40 58 38 40 59 38 40 60 38 40 61 38 40 62 38 40 64 38 40 65 38 40 66 38 40 67 38 40 68 38 40 69 38 40 70 38 40 71 38 40 72 38 40 73 38 40 74 38 40 75 38 40 76 38 40 77 38 40 78 38 40 80 38 40 81 38 40 82 38 40 83 38 40 84 38 40 85 38 40 86 38 40 87 38 40 88 38 40 89 38 40 90 38 40 91 38 40 92 38 40 93 38 40 94 38 40 96 38 40 97 38 40 98 38 40 99 38 40 100 38 40 101 38 40 102 38 40 103 38 40 104 38 40 105 38 40 106 38 40 107 38 40 108 38 40 109 38 40 110 38 40 112 38 40 113 38 40 114 38 40 115 38 40 116 38 40 117 38 40 118 38 40 119 38 40 120 38 40 121 38 40 122 38 40 123 38 40 124 38 40 125 38 40 126 38 40 128 38 40 129 38 40 130 38 40 131 38 40 132 38 40 133 38 40 134 38 40 135 38 40 136 38 40 137 38 40 138 38 40 139 38 40 140 38 40 141 38 40 142 38 40 144 38 40 145 38 40 146 38 40 147 38 40 148 38 40 149 38 40 150 38 40 151 38 40 152 38 40 153 38 40 154 38 40 155 38 40 156 38 40 157 38 40 158 38 40 160 38 40 161 38 40 162 38 40 163 38 40 164 38 40 165 38 40 166 38 40 167 38 40 168 38 40 169 38 40 170 38 40 171 38 40 172 38 40 173 38 40 174 38 40 176 38 40 177 38 40 178 38 40 179 38 40 180 38 40 181 38 40 182 38 40 183 38 40 184 38 40 185 38 40 186 38 40 187 38 40 188 38 40 189 38 40 190 38 40 192 38 40 193 38 40 194 38 40 195 38 40 196 38 40 197 38 40 198 38 40 199 38 40 200 38 40 201 38 40 202 38 40 203 38 40 204 38 40 205 38 40 206 38 40 208 38 40 209 38 40 210 38 40 211 38 40 212 38 40 213 38 40 214 38 40 215 38 40 216 38 40 217 38 40 218 38 40 219 38 40 220 38 40 221 38 40 222 38 40 224 38 40 225 38 40 226 38 40 227 38 40 228 38 40 229 38 40 230 38 40 231 38 40 232 38 40 233 38 40 234 38 40 235 38 40 236 38 40 237 38 40 238 38 40 240 38 40 241 38 40 242 38 40 243 38 40 244 38 40 245 38 40 246 38 40 247 38 40 248 38 40 249 38 40 250 38 40 251 38 40 252 38 40 253 38 40 255 38
40 0 37 40 1 37 40 2 37 40 3 37 40 4 37 40 5 37 40 6 37 40 7 37 40 8 37 40 9 37 40 10 37 40 11 37 40 12 37 40 13 37 40 14 37 40 16 37 40 17 37 40 18 37 40 19 37 40 20 37 40 21 37 40 22 37 40 23 37 40 24 37 40 25 37 40 26 37 40 27 37 40 28 37 40 29 37 40 30 37 40 32 37 40 33 37 40 34 37 40 35 37 40 36 37 40 37 37 40 38 37 40 39 37 40 40 37 40 41 37 40 42 37 40 43 37 40 44 37 40 45 37 40 46 37 40 48 37 40 49 37 40 50 37 40 51 37 40 52 37 40 53 37 40 54 37 40 55 37 40 56 37 40 57 37 40 58 37 40 59 37 40 60 37 40 61 37 40 62 37 40 64 37 40 65 37 40 66 37 40 67 37 40 68 37 40 69 37 40 70 37 40 71 37 40 72 37 40 73 37 40 74 37 40 75 37 40 76 37 40 77 37 40 78 37 40 80 37 40 81 37 40 82 37 40 83 37 40 84 37 40 85 37 40 86 37 40 87 37 40 88 37 40 89 37 40 90 37 40 91 37 40 92 37 40 93 37 40 94 37 40 96 37 40 97 37 40 98 37 40 99 37 40 100 37 40 101 37 40 102 37 40 103 37 40 104 37 40 105 37 40 106 37 40 107 37 40 108 37 40 109 37 40 110 37 40 112 37 40 113 37 40 114 37 40 115 37 40 116 37 40 117 37 40 118 37 40 119 37 40 120 37 40 121 37 40 122 37 40 123 37 40 124 37 40 125 37 40 126 37 40 128 37 40 129 37 40 130 37 40 131 37 40 132 37 40 133 37 40 134 37 40 135 37 40 136 37 40 137 37 40 138 37 40 139 37 40 140 37 40 141 37 40 142 37 40 144 37 40 145 37 40 146 37 40 147 37 40 148 37 40 149 37 40 150 37 40 151 37 40 152 37 40 153 37 40 154 37 40 155 37 40 156 37 40 157 37 40 158 37 40 160 37 40 161 37 40 162 37 40 163 37 40 164 37 40 165 37 40 166 37 40 167 37 40 168 37 40 169 37 40 170 37 40 171 37 40 172 37 40 173 37 40 174 37 40 176 37 40 177 37 40 178 37 40 179 37 40 180 37 40 181 37 40 182 37 40 183 37 40 184 37 40 185 37 40 186 37 40 187 37 40 188 37 40 189 37 40 190 37 40 192 37 40 193 37 40 194 37 40 195 37 40 196 37 40 197 37 40 198 37 40 199 37 40 200 37 40 201 37 40 202 37 40 203 37 40 204 37 40 205 37 40 206 37 40 208 37 40 209 37 40 210 37 40 211 37 40 212 37 40 213 37 40 214 37 40 215 37 40 216 37 40 217 37 40 218 37 40 219 37 40 220 37 40 221 37 40 222 37 40 224 37 40 225 37 40 226 37 40 227 37 40 228 37 40 229 37 40 230 37 40 231 37 40 232 37 40 233 37 40 234 37 40 235 37 40 236 37 40 237 37 40 238 37 40 240 37 40 241 37 40 242 37 40 243 37 40 244 37 40 245 37 40 246 37 40 247 37 40 248 37 40 249 37 40 250 37 40 251 37 40 252 37 40 253 37 40 255 37
40 0 35 40 1 35 40 2 35 40 3 35 40 4 35 40 5 35 40 6 35 40 7 35 40 8 35 40 9 35 40 10 35 40 11 35 40 12 35 40 13 35 40 14 35 40 16 35 40 17 35 40 18 35 40 19 35 40 20 35 40 21 35 40 22 35 40 23 35 40 24 35 40 25 35 40 26 35 40 27 35 40 28 35 40 29 35 40 30 35 40 32 35 40 33 35 40 34 35 40 35 35 40 36 35 40 37 35 40 38 35 40 39 35 40 40 35 40 41 35 40 42 35 40 43 35 40 44 35 40 45 35 40 46 35 40 48 35 40 49 35 40 50 35 40 51 35 40 52 35 40 53 35 40 54 35 40 55 35 40 56 35 40 57 35 40 58 35 40 59 35 40 60 35 40 61 35 40 62 35 40 64 35 40 65 35 40 66 35 40 67 35 40 68 35 40 69 35 40 70 35 40 71 35 40 72 35 40 73 35 40 74 35 40 75 35 40 76 35 40 77 35 40 78 35 40 80 35 40 81 35 40 82 35 40 83 35 40 84 35 40 85 35 40 86 35 40 87 35 40 88 35 40 89 35 40 90 35 40 91 35 40 92 35 40 93 35 40 94 35 40 96 35 40 97 35 40 98 35 40 99 35 40 100 35 40 101 35 40 102 35 40 103 35 40 104 35 40 105 35 40 106 35 40 107 35 40 108 35 40 109 35 40 110 35 40 112 35 40 113 35 40 114 35 40 115 35 40 116 35 40 117 35 40 118 35 40 119 35 40 120 35 40 121 35 40 122 35 40 123 35 40 124 35 40 125 35 40 126 35 40 128 35 40 129 35 40 130 35 40 131 35 40 132 35 40 133 35 40 134 35 40 135 35 40 136 35 40 137 35 40 138 35 40 139 35 40 140 35 40 141 35 40 142 35 40 144 35 40 145 35 40 146 35 40 147 35 40 148 35 40 149 35 40 150 35 40 151 35 40 152 35 40 153 35 40 154 35 40 155 35 40 156 35 40 157 35 40 158 35 40 160 35 40 161 35 40 162 35 40 163 35 40 164 35 40 165 35 40 166 35 40 167 35 40 168 35 40 169 35 40 170 35 40 171 35 40 172 35 40 173 35 40 174 35 40 176 35 40 177 35 40 178 35 40 179 35 40 180 35 40 181 35 40 182 35 40 183 35 40 184 35 40 185 35 40 186 35 40 187 35 40 188 35 40 189 35 40 190 35 40 192 35 40 193 35 40 194 35 40 195 35 40 196 35 40 197 35 40 198 35 40 199 35 40 200 35 40 201 35 40 202 35 40 203 35 40 204 35 40 205 35 40 206 35 40 208 35 40 209 35 40 210 35 40 211 35 40 212 35 40 213 35 40 214 35 40 215 35 40 216 35 40 217 35 40 218 35 40 219 35 40 220 35 40 221 35 40 222 35 40 224 35 40 225 35 40 226 35 40 227 35 40 228 35 40 229 35 40 230 35 40 231 35 40 232 35 40 233 35 40 234 35 40 235 35 40 236 35 40 237 35 40 238 35 40 240 35 40 241 35 40 242 35 40 243 35 40 244 35 40 245 35 40 246 35 40 247 35 40 248 35 40 249 35 40 250 35 40 251 35 40 252 35 40 253 35 40 255 35
40 0 34 40 1 34 40 2 34 40 3 34 40 4 34 40 5 34 40 6 34 40 7 34 40 8 34 40 9 34 40 10 34 40 11 34 40 12 34 40 13 34 40 14 34 40 16 34 40 17 34 40 18 34 40 19 34 40 20 34 40 21 34 40 22 34 40 23 34 40 24 34 40 25 34 40 26 34 40 27 34 40 28 34 40 29 34 40 30 34 40 32 34 40 33 34 40 34 34 40 35 34 40 36 34 40 37 34 40 38 34 40 39 34 40 40 34 40 41 34 40 42 34 40 43 34 40 44 34 40 45 34 40 46 34 40 48 34 40 49 34 40 50 34 40 51 34 40 52 34 40 53 34 40 54 34 40 55 34 40 56 34 40 57 34 40 58 34 40 59 34 40 60 34 40 61 34 40 62 34 40 64 34 40 65 34 40 66 34 40 67 34 40 68 34 40 69 34 40 70 34 40 71 34 40 72 34 40 73 34 40 74 34 40 75 34 40 76 34 40 77 34 40 78 34 40 80 34 40 81 34 40 82 34 40 83 34 40 84 34 40 85 34 40 86 34 40 87 34 40 88 34 40 89 34 40 90 34 40 91 34 40 92 34 40 93 34 40 94 34 40 96 34 40 97 34 40 98 34 40 99 34 40 100 34 40 101 34 40 102 34 40 103 34 40 104 34 40 105 34 40 106 34 40 107 34 40 108 34 40 109 34 40 110 34 40 112 34 40 113 34 40 114 34 40 115 34 40 116 34 40 117 34 40 118 34 40 119 34 40 120 34 40 121 34 40 122 34 40 123 34 40 124 34 40 125 34 40 126 34 40 128 34 40 129 34 40 130 34 40 131 34 40 132 34 40 133 34 40 134 34 40 135 34 40 136 34 40 137 34 40 138 34 40 139 34 40 140 34 40 141 34 40 142 34 40 144 34 40 145 34 40 146 34 40 147 34 40 148 34 40 149 34 40 150 34 40 151 34 40 152 34 40 153 34 40 154 34 40 155 34 40 156 34 40 157 34 40 158 34 40 160 34 40 161 34 40 162 34 40 163 34 40 164 34 40 165 34 40 166 34 40 167 34 40 168 34 40 169 34 40 170 34 40 171 34 40 172 34 40 173 34 40 174 34 40 176 34 40 177 34 40 178 34 40 179 34 40 180 34 40 181 34 40 182 34 40 183 34 40 184 34 40 185 34 40 186 34 40 187 34 40 188 34 40 189 34 40 190 34 40 192 34 40 193 34 40 194 34 40 195 34 40 196 34 40 197 34 40 198 34 40 199 34 40 200 34 40 201 34 40 202 34 40 203 34 40 204 34 40 205 34 40 206 34 40 208 34 40 209 34 40 210 34 40 211 34 40 212 34 40 213 34 40 214 34 40 215 34 40 216 34 40 217 34 40 218 34 40 219 34 40 220 34 40 221 34 40 222 34 40 224 34 40 225 34 40 226 34 40 227 34 40 228 34 40 229 34 40 230 34 40 231 34 40 232 34 40 233 34 40 234 34 40 235 34 40 236 34 40 237 34 40 238 34 40 240 34 40 241 34 40 242 34 40 243 34 40 244 34 40 245 34 40 246 34 40 247 34 40 248 34 40 249 34 40 250 34 40 251 34 40 252 34 40 253 34 40 255 34
40 0 32 40 1 32 40 2 32 40 3 32 40 4 32 40 5 32 40 6 32 40 7 32 40 8 32 40 9 32 40 10 32 40 11 32 40 12 32 40 13 32 40 14 32 40 16 32 40 17 32 40 18 32 40 19 32 40 20 32 40 21 32 40 22 32 40 23 32 40 24 32 40 25 32 40 26 32 40 27 32 40 28 32 40 29 32 40 30 32 40 32 32 40 33 32 40 34 32 40 35 32 40 36 32 40 37 32 40 38 32 40 39 32 40 40 32 40 41 32 40 42 32 40 43 32 40 44 32 40 45 32 40 46 32 40 48 32 40 49 32 40 50 32 40 51 32 40 52 32 40 53 32 40 54 32 40 55 32 40 56 32 40 57 32 40 58 32 40 59 32 40 60 32 40 61 32 40 62 32 40 64 32 40 65 32 40 66 32 40 67 32 40 68 32 40 69 32 40 70 32 40 71 32 40 72 32 40 73 32 40 74 32 40 75 32 40 76 32 40 77 32 40 78 32 40 80 32 40 81 32 40 82 32 40 83 32 40 84 32 40 85 32 40 86 32 40 87 32 40 88 32 40 89 32 40 90 32 40 91 32 40 92 32 40 93 32 40 94 32 40 96 32 40 97 32 40 98 32 40 99 32 40 100 32 40 101 32 40 102 32 40 103 32 40 104 32 40 105 32 40 106 32 40 107 32 40 108 32 40 109 32 40 110 32 40 112 32 40 113 32 40 114 32 40 115 32 40 116 32 40 117 32 40 118 32 40 119 32 40 120 32 40 121 32 40 122 32 40 123 32 40 124 32 40 125 32 40 126 32 40 128 32 40 129 32 40 130 32 40 131 32 40 132 32 40 133 32 40 134 32 40 135 32 40 136 32 40 137 32 40 138 32 40 139 32 40 140 32 40 141 32 40 142 32 40 144 32 40 145 32 40 146 32 40 147 32 40 148 32 40 149 32 40 150 32 40 151 32 40 152 32 40 153 32 40 154 32 40 155 32 40 156 32 40 157 32 40 158 32 40 160 32 40 161 32 40 162 32 40 163 32 40 164 32 40 165 32 40 166 32 40 167 32 40 168 32 40 169 32 40 170 32 40 171 32 40 172 32 40 173 32 40 174 32 40 176 32 40 177 32 40 178 32 40 179 32 40 180 32 40 181 32 40 182 32 40 183 32 40 184 32 40 185 32 40 186 32 40 187 32 40 188 32 40 189 32 40 190 32 40 192 32 40 193 32 40 194 32 40 195 32 40 196 32 40 197 32 40 198 32 40 199 32 40 200 32 40 201 32 40 202 32 40 203 32 40 204 32 40 205 32 40 206 32 40 208 32 40 209 32 40 210 32 40 211 32 40 212 32 40 213 32 40 214 32 40 215 32 40 216 32 40 217 32 40 218 32 40 219 32 40 220 32 40 221 32 40 222 32 40 224 32 40 225 32 40 226 32 40 227 32 40 228 32 40 229 32 40 230 32 40 231 32 40 232 32 40 233 32 40 234 32 40 235 32 40 236 32 40 237 32 40 238 32 40 240 32 40 241 32 40 242 32 40 243 32 40 244 32 40 245 32 40 246 32 40 247 32 40 248 32 40 249 32 40 250 32 40 251 32 40 252 32 40 253 32 40 255 32
40 0 31 40 1 31 40 2 31 40 3 31 40 4 31 40 5 31 40 6 31 40 7 31 40 8 31 40 9 31 40 10 31 40 11 31 40 12 31 40 13 31 40 14 31 40 16 31 40 17 31 40 18 31 40 19 31 40 20 31 40 21 31 40 22 31 40 23 31 40 24 31 40 25 31 40 26 31 40 27 31 40 28 31 40 29 31 40 30 31 40 32 31 40 33 31 40 34 31 40 35 31 40 36 31 40 37 31 40 38 31 40 39 31 40 40 31 40 41 31 40 42 31 40 43 31 40 44 31 40 45 31 40 46 31 40 48 31 40 49 31 40 50 31 40 51 31 40 52 31 40 53 31 40 54 31 40 55 31 40 56 31 40 57 31 40 58 31 40 59 31 40 60 31 40 61 31 40 62 31 40 64 31 40 65 31 40 66 31 40 67 31 40 68 31 40 69 31 40 70 31 40 71 31 40 72 31 40 73 31 40 74 31 40 75 31 40 76 31 40 77 31 40 78 31 40 80 31 40 81 31 40 82 31 40 83 31 40 84 31 40 85 31 40 86 31 40 87 31 40 88 31 40 89 31 40 90 31 40 91 31 40 92 31 40 93 31 40 94 31 40 96 31 40 97 31 40 98 31 40 99 31 40 100 31 40 101 31 40 102 31 40 103 31 40 104 31 40 105 31 40 106 31 40 107 31 40 108 31 40 109 31 40 110 31 40 112 31 40 113 31 40 114 31 40 115 31 40 116 31 40 117 31 40 118 31 40 119 31 40 120 31 40 121 31 40 122 31 40 123 31 40 124 31 40 125 31 40 126 31 40 128 31 40 129 31 40 130 31 40 131 31 40 132 31 40 133 31 40 134 31 40 135 31 40 136 31 40 137 31 40 138 31 40 139 31 40 140 31 40 141 31 40 142 31 40 144 31 40 145 31 40 146 31 40 147 31 40 148 31 40 149 31 40 150 31 40 151 31 40 152 31 40 153 31 40 154 31 40 155 31 40 156 31 40 157 31 40 158 31 40 160 31 40 161 31 40 162 31 40 163 31 40 164 31 40 165 31 40 166 31 40 167 31 40 168 31 40 169 31 40 170 31 40 171 31 40 172 31 40 173 31 40 174 31 40 176 31 40 177 31 40 178 31 40 179 31 40 180 31 40 181 31 40 182 31 40 183 31 40 184 31 40 185 31 40 186 31 40 187 31 40 188 31 40 189 31 40 190 31 40 192 31 40 193 31 40 194 31 40 195 31 40 196 31 40 197 31 40 198 31 40 199 31 40 200 31 40 201 31 40 202 31 40 203 31 40 204 31 40 205 31 40 206 31 40 208 31 40 209 31 40 210 31 40 211 31 40 212 31 40 213 31 40 214 31 40 215 31 40 216 31 40 217 31 40 218 31 40 219 31 40 220 31 40 221 31 40 222 31 40 224 31 40 225 31 40 226 31 40 227 31 40 228 31 40 229 31 40 230 31 40 231 31 40 232 31 40 233 31 40 234 31 40 235 31 40 236 31 40 237 31 40 238 31 40 240 31 40 241 31 40 242 31 40 243 31 40 244 31 40 245 31 40 246 31 40 247 31 40 248 31 40 249 31 40 250 31 40 251 31 40 252 31 40 253 31 40 255 31
40 0 29 40 1 29 40 2 29 40 3 29 40 4 29 40 5 29 40 6 29 40 7 29 40 8 29 40 9 29 40 10 29 40 11 29 40 12 29 40 13 29 40 14 29 40 16 29 40 17 29 40 18 29 40 19 29 40 20 29 40 21 29 40 22 29 40 23 29 40 24 29 40 25 29 40 26 29 40 27 29 40 28 29 40 29 29 40 30 29 40 32 29 40 33 29 40 34 29 40 35 29 40 36 29 40 37 29 40 38 29 40 39 29 40 40 29 40 41 29 40 42 29 40 43 29 40 44 29 40 45 29 40 46 29 40 48 29 40 49 29 40 50 29 40 51 29 40 52 29 40 53 29 40 54 29 40 55 29 40 56 29 40 57 29 40 58 29 40 59 29 40 60 29 40 61 29 40 62 29 40 64 29 40 65 29 40 66 29 40 67 29 40 68 29 40 69 29 40 70 29 40 71 29 40 72 29 40 73 29 40 74 29 40 75 29 40 76 29 40 77 29 40 78 29 40 80 29 40 81 29 40 82 29 40 83 29 40 84 29 40 85 29 40 86 29 40 87 29 40 88 29 40 89 29 40 90 29 40 91 29 40 92 29 40 93 29 40 94 29 40 96 29 40 97 29 40 98 29 40 99 29 40 100 29 40 101 29 40 102 29 40 103 29 40 104 29 40 105 29 40 106 29 40 107 29 40 108 29 40 109 29 40 110 29 40 112 29 40 113 29 40 114 29 40 115 29 40 116 29 40 117 29 40 118 29 40 119 29 40 120 29 40 121 29 40 122 29 40 123 29 40 124 29 40 125 29 40 126 29 40 128 29 40 129 29 40 130 29 40 131 29 40 132 29 40 133 29 40 134 29 40 135 29 40 136 29 40 137 29 40 138 29 40 139 29 40 140 29 40 141 29 40 142 29 40 144 29 40 145 29 40 146 29 40 147 29 40 148 29 40 149 29 40 150 29 40 151 29 40 152 29 40 153 29 40 154 29 40 155 29 40 156 29 40 157 29 40 158 29 40 160 29 40 161 29 40 162 29 40 163 29 40 164 29 40 165 29 40 166 29 40 167 29 40 168 29 40 169 29 40 170 29 40 171 29 40 172 29 40 173 29 40 174 29 40 176 29 40 177 29 40 178 29 40 179 29 40 180 29 40 181 29 40 182 29 40 183 29 40 184 29 40 185 29 40 186 29 40 187 29 40 188 29 40 189 29 40 190 29 40 192 29 40 193 29 40 194 29 40 195 29 40 196 29 40 197 29 40 198 29 40 199 29 40 200 29 40 201 29 40 202 29 40 203 29 40 204 29 40 205 29 40 206 29 40 208 29 40 209 29 40 210 29 40 211 29 40 212 29 40 213 29 40 214 29 40 215 29 40 216 29 40 217 29 40 218 29 40 219 29 40 220 29 40 221 29 40 222 29 40 224 29 40 225 29 40 226 29 40 227 29 40 228 29 40 229 29 40 230 29 40 231 29 40 232 29 40 233 29 40 234 29 40 235 29 40 236 29 40 237 29 40 238 29 40 240 29 40 241 29 40 242 29 40 243 29 40 244 29 40 245 29 40 246 29 40 247 29 40 248 29 40 249 29 40 250 29 40 251 29 40 252 29 40 253 29 40 255 29
40 0 28 40 1 28 40 2 28 40 3 28 40 4 28 40 5 28 40 6 28 40 7 28 40 8 28 40 9 28 40 10 28 40 11 28 40 12 28 40 13 28 40 14 28 40 16 28 40 17 28 40 18 28 40 19 28 40 20 28 40 21 28 40 22 28 40 23 28 40 24 28 40 25 28 40 26 28 40 27 28 40 28 28 40 29 28 40 30 28 40 32 28 40 33 28 40 34 28 40 35 28 40 36 28 40 37 28 40 38 28 40 39 28 40 40 28 40 41 28 40 42 28 40 43 28 40 44 28 40 45 28 40 46 28 40 48 28 40 49 28 40 50 28 40 51 28 40 52 28 40 53 28 40 54 28 40 55 28 40 56 28 40 57 28 40 58 28 40 59 28 40 60 28 40 61 28 40 62 28 40 64 28 40 65 28 40 66 28 40 67 28 40 68 28 40 69 28 40 70 28 40 71 28 40 72 28 40 73 28 40 74 28 40 75 28 40 76 28 40 77 28 40 78 28 40 80 28 40 81 28 40 82 28 40 83 28 40 84 28 40 85 28 40 86 28 40 87 28 40 88 28 40 89 28 40 90 28 40 91 28 40 92 28 40 93 28 40 94 28 40 96 28 40 97 28 40 98 28 40 99 28 40 100 28 40 101 28 40 102 28 40 103 28 40 104 28 40 105 28 40 106 28 40 107 28 40 108 28 40 109 28 40 110 28 40 112 28 40 113 28 40 114 28 40 115 28 40 116 28 40 117 28 40 118 28 40 119 28 40 120 28 40 121 28 40 122 28 40 123 28 40 124 28 40 125 28 40 126 28 40 128 28 40 129 28 40 130 28 40 131 28 40 132 28 40 133 28 40 134 28 40 135 28 40 136 28 40 137 28 40 138 28 40 139 28 40 140 28 40 141 28 40 142 28 40 144 28 40 145 28 40 146 28 40 147 28 40 148 28 40 149 28 40 150 28 40 151 28 40 152 28 40 153 28 40 154 28 40 155 28 40 156 28 40 157 28 40 158 28 40 160 28 40 161 28 40 162 28 40 163 28 40 164 28 40 165 28 40 166 28 40 167 28 40 168 28 40 169 28 40 170 28 40 171 28 40 172 28 40 173 28 40 174 28 40 176 28 40 177 28 40 178 28 40 179 28 40 180 28 40 181 28 40 182 28 40 183 28 40 184 28 40 185 28 40 186 28 40 187 28 40 188 28 40 189 28 40 190 28 40 192 28 40 193 28 40 194 28 40 195 28 40 196 28 40 197 28 40 198 28 40 199 28 40 200 28 40 201 28 40 202 28 40 203 28 40 204 28 40 205 28 40 206 28 40 208 28 40 209 28 40 210 28 40 211 28 40 212 28 40 213 28 40 214 28 40 215 28 40 216 28 40 217 28 40 218 28 40 219 28 40 220 28 40 221 28 40 222 28 40 224 28 40 225 28 40 226 28 40 227 28 40 228 28 40 229 28 40 230 28 40 231 28 40 232 28 40 233 28 40 234 28 40 235 28 40 236 28 40 237 28 40 238 28 40 240 28 40 241 28 40 242 28 40 243 28 40 244 28 40 245 28 40 246 28 40 247 28 40 248 28 40 249 28 40 250 28 40 251 28 40 252 28 40 253 28 40 255 28
40 0 27 40 1 27 40 2 27 40 3 27 40 4 27 40 5 27 40 6 27 40 7 27 40 8 27 40 9 27 40 10 27 40 11 27 40 12 27 40 13 27 40 14 27 40 16 27 40 17 27 40 18 27 40 19 27 40 20 27 40 21 27 40 22 27 40 23 27 40 24 27 40 25 27 40 26 27 40 27 27 40 28 27 40 29 27 40 30 27 40 32 27 40 33 27 40 34 27 40 35 27 40 36 27 40 37 27 40 38 27 40 39 27 40 40 27 40 41 27 40 42 27 40 43 27 40 44 27 40 45 27 40 46 27 40 48 27 40 49 27 40 50 27 40 51 27 40 52 27 40 53 27 40 54 27 40 55 27 40 56 27 40 57 27 40 58 27 40 59 27 40 60 27 40 61 27 40 62 27 40 64 27 40 65 27 40 66 27 40 67 27 40 68 27 40 69 27 40 70 27 40 71 27 40 72 27 40 73 27 40 74 27 40 75 27 40 76 27 40 77 27 40 78 27 40 80 27 40 81 27 40 82 27 40 83 27 40 84 27 40 85 27 40 86 27 40 87 27 40 88 27 40 89 27 40 90 27 40 91 27 40 92 27 40 93 27 40 94 27 40 96 27 40 97 27 40 98 27 40 99 27 40 100 27 40 101 27 40 102 27 40 103 27 40 104 27 40 105 27 40 106 27 40 107 27 40 108 27 40 109 27 40 110 27 40 112 27 40 113 27 40 114 27 40 115 27 40 116 27 40 117 27 40 118 27 40 119 27 40 120 27 40 121 27 40 122 27 40 123 27 40 124 27 40 125 27 40 126 27 40 128 27 40 129 27 40 130 27 40 131 27 40 132 27 40 133 27 40 134 27 40 135 27 40 136 27 40 137 27 40 138 27 40 139 27 40 140 27 40 141 27 40 142 27 40 144 27 40 145 27 40 146 27 40 147 27 40 148 27 40 149 27 40 150 27 40 151 27 40 152 27 40 153 27 40 154 27 40 155 27 40 156 27 40 157 27 40 158 27 40 160 27 40 161 27 40 162 27 40 163 27 40 164 27 40 165 27 40 166 27 40 167 27 40 168 27 40 169 27 40 170 27 40 171 27 40 172 27 40 173 27 40 174 27 40 176 27 40 177 27 40 178 27 40 179 27 40 180 27 40 181 27 40 182 27 40 183 27 40 184 27 40 185 27 40 186 27 40 187 27 40 188 27 40 189 27 40 190 27 40 192 27 40 193 27 40 194 27 40 195 27 40 196 27 40 197 27 40 198 27 40 199 27 40 200 27 40 201 27 40 202 27 40 203 27 40 204 27 40 205 27 40 206 27 40 208 27 40 209 27 40 210 27 40 211 27 40 212 27 40 213 27 40 214 27 40 215 27 40 216 27 40 217 27 40 218 27 40 219 27 40 220 27 40 221 27 40 222 27 40 224 27 40 225 27 40 226 27 40 227 27 40 228 27 40 229 27 40 230 27 40 231 27 40 232 27 40 233 27 40 234 27 40 235 27 40 236 27 40 237 27 40 238 27 40 240 27 40 241 27 40 242 27 40 243 27 40 244 27 40 245 27 40 246 27 40 247 27 40 248 27 40 249 27 40 250 27 40 251 27 40 252 27 40 253 27 40 255 27
40 0 25 40 1 25 40 2 25 40 3 25 40 4 25 40 5 25 40 6 25 40 7 25 40 8 25 40 9 25 40 10 25 40 11 25 40 12 25 40 13 25 40 14 25 40 16 25 40 17 25 40 18 25 40 19 25 40 20 25 40 21 25 40 22 25 40 23 25 40 24 25 40 25 25 40 26 25 40 27 25 40 28 25 40 29 25 40 30 25 40 32 25 40 33 25 40 34 25 40 35 25 40 36 25 40 37 25 40 38 25 40 39 25 40 40 25 40 41 25 40 42 25 40 43 25 40 44 25 40 45 25 40 46 25 40 48 25 40 49 25 40 50 25 40 51 25 40 52 25 40 53 25 40 54 25 40 55 25 40 56 25 40 57 25 40 58 25 40 59 25 40 60 25 40 61 25 40 62 25 40 64 25 40 65 25 40 66 25 40 67 25 40 68 25 40 69 25 40 70 25 40 71 25 40 72 25 40 73 25 40 74 25 40 75 25 40 76 25 40 77 25 40 78 25 40 80 25 40 81 25 40 82 25 40 83 25 40 84 25 40 85 25 40 86 25 40 87 25 40 88 25 40 89 25 40 90 25 40 91 25 40 92 25 40 93 25 40 94 25 40 96 25 40 97 25 40 98 25 40 99 25 40 100 25 40 101 25 40 102 25 40 103 25 40 104 25 40 105 25 40 106 25 40 107 25 40 108 25 40 109 25 40 110 25 40 112 25 40 113 25 40 114 25 40 115 25 40 116 25 40 117 25 40 118 25 40 119 25 40 120 25 40 121 25 40 122 25 40 123 25 40 124 25 40 125 25 40 126 25 40 128 25 40 129 25 40 130 25 40 131 25 40 132 25 40 133 25 40 134 25 40 135 25 40 136 25 40 137 25 40 138 25 40 139 25 40 140 25 40 141 25 40 142 25 40 144 25 40 145 25 40 146 25 40 147 25 40 148 25 40 149 25 40 150 25 40 151 25 40 152 25 40 153 25 40 154 25 40 155 25 40 156 25 40 157 25 40 158 25 40 160 25 40 161 25 40 162 25 40 163 25 40 164 25 40 165 25 40 166 25 40 167 25 40 168 25 40 169 25 40 170 25 40 171 25 40 172 25 40 173 25 40 174 25 40 176 25 40 177 25 40 178 25 40 179 25 40 180 25 40 181 25 40 182 25 40 183 25 40 184 25 40 185 25 40 186 25 40 187 25 40 188 25 40 189 25 40 190 25 40 192 25 40 193 25 40 194 25 40 195 25 40 196 25 40 197 25 40 198 25 40 199 25 40 200 25 40 201 25 40 202 25 40 203 25 40 204 25 40 205 25 40 206 25 40 208 25 40 209 25 40 210 25 40 211 25 40 212 25 40 213 25 40 214 25 40 215 25 40 216 25 40 217 25 40 218 25 40 219 25 40 220 25 40 221 25 40 222 25 40 224 25 40 225 25 40 226 25 40 227 25 40 228 25 40 229 25 40 230 25 40 231 25 40 232 25 40 233 25 40 234 25 40 235 25 40 236 25 40 237 25 40 238 25 40 240 25 40 241 25 40 242 25 40 243 25 40 244 25 40 245 25 40 246 25 40 247 25 40 248 25 40 249 25 40 250 25 40 251 25 40 252 25 40 253 25 40 255 25
40 0 24 40 1 24 40 2 24 40 3 24 40 4 24 40 5 24 40 6 24 40 7 24 40 8 24 40 9 24 40 10 24 40 11 24 40 12 24 40 13 24 40 14 24 40 16 24 40 17 24 40 18 24 40 19 24 40 20 24 40 21 24 40 22 24 40 23 24 40 24 24 40 25 24 40 26 24 40 27 24 40 28 24 40 29 24 40 30 24 40 32 24 40 33 24 40 34 24 40 35 24 40 36 24 40 37 24 40 38 24 40 39 24 40 40 24 40 41 24 40 42 24 40 43 24 40 44 24 40 45 24 40 46 24 40 48 24 40 49 24 40 50 24 40 51 24 40 52 24 40 53 24 40 54 24 40 55 24 40 56 24 40 57 24 40 58 24 40 59 24 40 60 24 40 61 24 40 62 24 40 64 24 40 65 24 40 66 24 40 67 24 40 68 24 40 69 24 40 70 24 40 71 24 40 72 24 40 73 24 40 74 24 40 75 24 40 76 24 40 77 24 40 78 24 40 80 24 40 81 24 40 82 24 40 83 24 40 84 24 40 85 24 40 86 24 40 87 24 40 88 24 40 89 24 40 90 24 40 91 24 40 92 24 40 93 24 40 94 24 40 96 24 40 97 24 40 98 24 40 99 24 40 100 24 40 101 24 40 102 24 40 103 24 40 104 24 40 105 24 40 106 24 40 107 24 40 108 24 40 109 24 40 110 24 40 112 24 40 113 24 40 114 24 40 115 24 40 116 24 40 117 24 40 118 24 40 119 24 40 120 24 40 121 24 40 122 24 40 123 24 40 124 24 40 125 24 40 126 24 40 128 24 40 129 24 40 130 24 40 131 24 40 132 24 40 133 24 40 134 24 40 135 24 40 136 24 40 137 24 40 138 24 40 139 24 40 140 24 40 141 24 40 142 24 40 144 24 40 145 24 40 146 24 40 147 24 40 148 24 40 149 24 40 150 24 40 151 24 40 152 24 40 153 24 40 154 24 40 155 24 40 156 24 40 157 24 40 158 24 40 160 24 40 161 24 40 162 24 40 163 24 40 164 24 40 165 24 40 166 24 40 167 24 40 168 24 40 169 24 40 170 24 40 171 24 40 172 24 40 173 24 40 174 24 40 176 24 40 177 24 40 178 24 40 179 24 40 180 24 40 181 24 40 182 24 40 183 24 40 184 24 40 185 24 40 186 24 40 187 24 40 188 24 40 189 24 40 190 24 40 192 24 40 193 24 40 194 24 40 195 24 40 196 24 40 197 24 40 198 24 40 199 24 40 200 24 40 201 24 40 202 24 40 203 24 40 204 24 40 205 24 40 206 24 40 208 24 40 209 24 40 210 24 40 211 24 40 212 24 40 213 24 40 214 24 40 215 24 40 216 24 40 217 24 40 218 24 40 219 24 40 220 24 40 221 24 40 222 24 40 224 24 40 225 24 40 226 24 40 227 24 40 228 24 40 229 24 40 230 24 40 231 24 40 232 24 40 233 24 40 234 24 40 235 24 40 236 24 40 237 24 40 238 24 40 240 24 40 241 24 40 242 24 40 243 24 40 244 24 40 245 24 40 246 24 40 247 24 40 248 24 40 249 24 40 250 24 40 251 24 40 252 24 40 253 24 40 255 24
40 0 22 40 1 22 40 2 22 40 3 22 40 4 22 40 5 22 40 6 22 40 7 22 40 8 22 40 9 22 40 10 22 40 11 22 40 12 22 40 13 22 40 14 22 40 16 22 40 17 22 40 18 22 40 19 22 40 20 22 40 21 22 40 22 22 40 23 22 40 24 22 40 25 22 40 26 22 40 27 22 40 28 22 40 29 22 40 30 22 40 32 22 40 33 22 40 34 22 40 35 22 40 36 22 40 37 22 40 38 22 40 39 22 40 40 22 40 41 22 40 42 22 40 43 22 40 44 22 40 45 22 40 46 22 40 48 22 40 49 22 40 50 22 40 51 22 40 52 22 40 53 22 40 54 22 40 55 22 40 56 22 40 57 22 40 58 22 40 59 22 40 60 22 40 61 22 40 62 22 40 64 22 40 65 22 40 66 22 40 67 22 40 68 22 40 69 22 40 70 22 40 71 22 40 72 22 40 73 22 40 74 22 40 75 22 40 76 22 40 77 22 40 78 22 40 80 22 40 81 22 40 82 22 40 83 22 40 84 22 40 85 22 40 86 22 40 87 22 40 88 22 40 89 22 40 90 22 40 91 22 40 92 22 40 93 22 40 94 22 40 96 22 40 97 22 40 98 22 40 99 22 40 100 22 40 101 22 40 102 22 40 103 22 40 104 22 40 105 22 40 106 22 40 107 22 40 108 22 40 109 22 40 110 22 40 112 22 40 113 22 40 114 22 40 115 22 40 116 22 40 117 22 40 118 22 40 119 22 40 120 22 40 121 22 40 122 22 40 123 22 40 124 22 40 125 22 40 126 22 40 128 22 40 129 22 40 130 22 40 131 22 40 132 22 40 133 22 40 134 22 40 135 22 40 136 22 40 137 22 40 138 22 40 139 22 40 140 22 40 141 22 40 142 22 40 144 22 40 145 22 40 146 22 40 147 22 40 148 22 40 149 22 40 150 22 40 151 22 40 152 22 40 153 22 40 154 22 40 155 22 40 156 22 40 157 22 40 158 22 40 160 22 40 161 22 40 162 22 40 163 22 40 164 22 40 165 22 40 166 22 40 167 22 40 168 22 40 169 22 40 170 22 40 171 22 40 172 22 40 173 22 40 174 22 40 176 22 40 177 22 40 178 22 40 179 22 40 180 22 40 181 22 40 182 22 40 183 22 40 184 22 40 185 22 40 186 22 40 187 22 40 188 22 40 189 22 40 190 22 40 192 22 40 193 22 40 194 22 40 195 22 40 196 22 40 197 22 40 198 22 40 199 22 40 200 22 40 201 22 40 202 22 40 203 22 40 204 22 40 205 22 40 206 22 40 208 22 40 209 22 40 210 22 40 211 22 40 212 22 40 213 22 40 214 22 40 215 22 40 216 22 40 217 22 40 218 22 40 219 22 40 220 22 40 221 22 40 222 22 40 224 22 40 225 22 40 226 22 40 227 22 40 228 22 40 229 22 40 230 22 40 231 22 40 232 22 40 233 22 40 234 22 40 235 22 40 236 22 40 237 22 40 238 22 40 240 22 40 241 22 40 242 22 40 243 22 40 244 22 40 245 22 40 246 22 40 247 22 40 248 22 40 249 22 40 250 22 40 251 22 40 252 22 40 253 22 40 255 22
40 0 21 40 1 21 40 2 21 40 3 21 40 4 21 40 5 21 40 6 21 40 7 21 40 8 21 40 9 21 40 10 21 40 11 21 40 12 21 40 13 21 40 14 21 40 16 21 40 17 21 40 18 21 40 19 21 40 20 21 40 21 21 40 22 21 40 23 21 40 24 21 40 25 21 40 26 21 40 27 21 40 28 21 40 29 21 40 30 21 40 32 21 40 33 21 40 34 21 40 35 21 40 36 21 40 37 21 40 38 21 40 39 21 40 40 21 40 41 21 40 42 21 40 43 21 40 44 21 40 45 21 40 46 21 40 48 21 40 49 21 40 50 21 40 51 21 40 52 21 40 53 21 40 54 21 40 55 21 40 56 21 40 57 21 40 58 21 40 59 21 40 60 21 40 61 21 40 62 21 40 64 21 40 65 21 40 66 21 40 67 21 40 68 21 40 69 21 40 70 21 40 71 21 40 72 21 40 73 21 40 74 21 40 75 21 40 76 21 40 77 21 40 78 21 40 80 21 40 81 21 40 82 21 40 83 21 40 84 21 40 85 21 40 86 21 40 87 21 40 88 21 40 89 21 40 90 21 40 91 21 40 92 21 40 93 21 40 94 21 40 96 21 40 97 21 40 98 21 40 99 21 40 100 21 40 101 21 40 102 21 40 103 21 40 104 21 40 105 21 40 106 21 40 107 21 40 108 21 40 109 21 40 110 21 40 112 21 40 113 21 40 114 21 40 115 21 40 116 21 40 117 21 40 118 21 40 119 21 40 120 21 40 121 21 40 122 21 40 123 21 40 124 21 40 125 21 40 126 21 40 128 21 40 129 21 40 130 21 40 131 21 40 132 21 40 133 21 40 134 21 40 135 21 40 136 21 40 137 21 40 138 21 40 139 21 40 140 21 40 141 21 40 142 21 40 144 21 40 145 21 40 146 21 40 147 21 40 148 21 40 149 21 40 150 21 40 151 21 40 152 21 40 153 21 40 154 21 40 155 21 40 156 21 40 157 21 40 158 21 40 160 21 40 161 21 40 162 21 40 163 21 40 164 21 40 165 21 40 166 21 40 167 21 40 168 21 40 169 21 40 170 21 40 171 21 40 172 21 40 173 21 40 174 21 40 176 21 40 177 21 40 178 21 40 179 21 40 180 21 40 181 21 40 182 21 40 183 21 40 184 21 40 185 21 40 186 21 40 187 21 40 188 21 40 189 21 40 190 21 40 192 21 40 193 21 40 194 21 40 195 21 40 196 21 40 197 21 40 198 21 40 199 21 40 200 21 40 201 21 40 202 21 40 203 21 40 204 21 40 205 21 40 206 21 40 208 21 40 209 21 40 210 21 40 211 21 40 212 21 40 213 21 40 214 21 40 215 21 40 216 21 40 217 21 40 218 21 40 219 21 40 220 21 40 221 21 40 222 21 40 224 21 40 225 21 40 226 21 40 227 21 40 228 21 40 229 21 40 230 21 40 231 21 40 232 21 40 233 21 40 234 21 40 235 21 40 236 21 40 237 21 40 238 21 40 240 21 40 241 21 40 242 21 40 243 21 40 244 21 40 245 21 40 246 21 40 247 21 40 248 21 40 249 21 40 250 21 40 251 21 40 252 21 40 253 21 40 255 21
40 0 19 40 1 19 40 2 19 40 3 19 40 4 19 40 5 19 40 6 19 40 7 19 40 8 19 40 9 19 40 10 19 40 11 19 40 12 19 40 13 19 40 14 19 40 16 19 40 17 19 40 18 19 40 19 19 40 20 19 40 21 19 40 22 19 40 23 19 40 24 19 40 25 19 40 26 19 40 27 19 40 28 19 40 29 19 40 30 19 40 32 19 40 33 19 40 34 19 40 35 19 40 36 19 40 37 19 40 38 19 40 39 19 40 40 19 40 41 19 40 42 19 40 43 19 40 44 19 40 45 19 40 46 19 40 48 19 40 49 19 40 50 19 40 51 19 40 52 19 40 53 19 40 54 19 40 55 19 40 56 19 40 57 19 40 58 19 40 59 19 40 60 19 40 61 19 40 62 19 40 64 19 40 65 19 40 66 19 40 67 19 40 68 19 40 69 19 40 70 19 40 71 19 40 72 19 40 73 19 40 74 19 40 75 19 40 76 19 40 77 19 40 78 19 40 80 19 40 81 19 40 82 19 40 83 19 40 84 19 40 85 19 40 86 19 40 87 19 40 88 19 40 89 19 40 90 19 40 91 19 40 92 19 40 93 19 40 94 19 40 96 19 40 97 19 40 98 19 40 99 19 40 100 19 40 101 19 40 102 19 40 103 19 40 104 19 40 105 19 40 106 19 40 107 19 40 108 19 40 109 19 40 110 19 40 112 19 40 113 19 40 114 19 40 115 19 40 116 19 40 117 19 40 118 19 40 119 19 40 120 19 40 121 19 40 122 19 40 123 19 40 124 19 40 125 19 40 126 19 40 128 19 40 129 19 40 130 19 40 131 19 40 132 19 40 133 19 40 134 19 40 135 19 40 136 19 40 137 19 40 138 19 40 139 19 40 140 19 40 141 19 40 142 19 40 144 19 40 145 19 40 146 19 40 147 19 40 148 19 40 149 19 40 150 19 40 151 19 40 152 19 40 153 19 40 154 19 40 155 19 40 156 19 40 157 19 40 158 19 40 160 19 40 161 19 40 162 19 40 163 19 40 164 19 40 165 19 40 166 19 40 167 19 40 168 19 40 169 19 40 170 19 40 171 19 40 172 19 40 173 19 40 174 19 40 176 19 40 177 19 40 178 19 40 179 19 40 180 19 40 181 19 40 182 19 40 183 19 40 184 19 40 185 19 40 186 19 40 187 19 40 188 19 40 189 19 40 190 19 40 192 19 40 193 19 40 194 19 40 195 19 40 196 19 40 197 19 40 198 19 40 199 19 40 200 19 40 201 19 40 202 19 40 203 19 40 204 19 40 205 19 40 206 19 40 208 19 40 209 19 40 210 19 40 211 19 40 212 19 40 213 19 40 214 19 40 215 19 40 216 19 40 217 19 40 218 19 40 219 19 40 220 19 40 221 19 40 222 19 40 224 19 40 225 19 40 226 19 40 227 19 40 228 19 40 229 19 40 230 19 40 231 19 40 232 19 40 233 19 40 234 19 40 235 19 40 236 19 40 237 19 40 238 19 40 240 19 40 241 19 40 242 19 40 243 19 40 244 19 40 245 19 40 246 19 40 247 19 40 248 19 40 249 19 40 250 19 40 251 19 40 252 19 40 253 19 40 255 19
40 0 18 40 1 18 40 2 18 40 3 18 40 4 18 40 5 18 40 6 18 40 7 18 40 8 18 40 9 18 40 10 18 40 11 18 40 12 18 40 13 18 40 14 18 40 16 18 40 17 18 40 18 18 40 19 18 40 20 18 40 21 18 40 22 18 40 23 18 40 24 18 40 25 18 40 26 18 40 27 18 40 28 18 40 29 18 40 30 18 40 32 18 40 33 18 40 34 18 40 35 18 40 36 18 40 37 18 40 38 18 40 39 18 40 40 18 40 41 18 40 42 18 40 43 18 40 44 18 40 45 18 40 46 18 40 48 18 40 49 18 40 50 18 40 51 18 40 52 18 40 53 18 40 54 18 40 55 18 40 56 18 40 57 18 40 58 18 40 59 18 40 60 18 40 61 18 40 62 18 40 64 18 40 65 18 40 66 18 40 67 18 40 68 18 40 69 18 40 70 18 40 71 18 40 72 18 40 73 18 40 74 18 40 75 18 40 76 18 40 77 18 40 78 18 40 80 18 40 81 18 40 82 18 40 83 18 40 84 18 40 85 18 40 86 18 40 87 18 40 88 18 40 89 18 40 90 18 40 91 18 40 92 18 40 93 18 40 94 18 40 96 18 40 97 18 40 98 18 40 99 18 40 100 18 40 101 18 40 102 18 40 103 18 40 104 18 40 105 18 40 106 18 40 107 18 40 108 18 40 109 18 40 110 18 40 112 18 40 113 18 40 114 18 40 115 18 40 116 18 40 117 18 40 118 18 40 119 18 40 120 18 40 121 18 40 122 18 40 123 18 40 124 18 40 125 18 40 126 18 40 128 18 40 129 18 40 130 18 40 131 18 40 132 18 40 133 18 40 134 18 40 135 18 40 136 18 40 137 18 40 138 18 40 139 18 40 140 18 40 141 18 40 142 18 40 144 18 40 145 18 40 146 18 40 147 18 40 148 18 40 149 18 40 150 18 40 151 18 40 152 18 40 153 18 40 154 18 40 155 18 40 156 18 40 157 18 40 158 18 40 160 18 40 161 18 40 162 18 40 163 18 40 164 18 40 165 18 40 166 18 40 167 18 40 168 18 40 169 18 40 170 18 40 171 18 40 172 18 40 173 18 40 174 18 40 176 18 40 177 18 40 178 18 40 179 18 40 180 18 40 181 18 40 182 18 40 183 18 40 184 18 40 185 18 40 186 18 40 187 18 40 188 18 40 189 18 40 190 18 40 192 18 40 193 18 40 194 18 40 195 18 40 196 18 40 197 18 40 198 18 40 199 18 40 200 18 40 201 18 40 202 18 40 203 18 40 204 18 40 205 18 40 206 18 40 208 18 40 209 18 40 210 18 40 211 18 40 212 18 40 213 18 40 214 18 40 215 18 40 216 18 40 217 18 40 218 18 40 219 18 40 220 18 40 221 18 40 222 18 40 224 18 40 225 18 40 226 18 40 227 18 40 228 18 40 229 18 40 230 18 40 231 18 40 232 18 40 233 18 40 234 18 40 235 18 40 236 18 40 237 18 40 238 18 40 240 18 40 241 18 40 242 18 40 243 18 40 244 18 40 245 18 40 246 18 40 247 18 40 248 18 40 249 18 40 250 18 40 251 18 40 252 18 40 253 18 40 255 18
40 0 17 40 1 17 40 2 17 40 3 17 40 4 17 40 5 17 40 6 17 40 7 17 40 8 17 40 9 17 40 10 17 40 11 17 40 12 17 40 13 17 40 14 17 40 16 17 40 17 17 40 18 17 40 19 17 40 20 17 40 21 17 40 22 17 40 23 17 40 24 17 40 25 17 40 26 17 40 27 17 40 28 17 40 29 17 40 30 17 40 32 17 40 33 17 40 34 17 40 35 17 40 36 17 40 37 17 40 38 17 40 39 17 40 40 17 40 41 17 40 42 17 40 43 17 40 44 17 40 45 17 40 46 17 40 48 17 40 49 17 40 50 17 40 51 17 40 52 17 40 53 17 40 54 17 40 55 17 40 56 17 40 57 17 40 58 17 40 59 17 40 60 17 40 61 17 40 62 17 40 64 17 40 65 17 40 66 17 40 67 17 40 68 17 40 69 17 40 70 17 40 71 17 40 72 17 40 73 17 40 74 17 40 75 17 40 76 17 40 77 17 40 78 17 40 80 17 40 81 17 40 82 17 40 83 17 40 84 17 40 85 17 40 86 17 40 87 17 40 88 17 40 89 17 40 90 17 40 91 17 40 92 17 40 93 17 40 94 17 40 96 17 40 97 17 40 98 17 40 99 17 40 100 17 40 101 17 40 102 17 40 103 17 40 104 17 40 105 17 40 106 17 40 107 17 40 108 17 40 109 17 40 110 17 40 112 17 40 113 17 40 114 17 40 115 17 40 116 17 40 117 17 40 118 17 40 119 17 40 120 17 40 121 17 40 122 17 40 123 17 40 124 17 40 125 17 40 126 17 40 128 17 40 129 17 40 130 17 40 131 17 40 132 17 40 133 17 40 134 17 40 135 17 40 136 17 40 137 17 40 138 17 40 139 17 40 140 17 40 141 17 40 142 17 40 144 17 40 145 17 40 146 17 40 147 17 40 148 17 40 149 17 40 150 17 40 151 17 40 152 17 40 153 17 40 154 17 40 155 17 40 156 17 40 157 17 40 158 17 40 160 17 40 161 17 40 162 17 40 163 17 40 164 17 40 165 17 40 166 17 40 167 17 40 168 17 40 169 17 40 170 17 40 171 17 40 172 17 40 173 17 40 174 17 40 176 17 40 177 17 40 178 17 40 179 17 40 180 17 40 181 17 40 182 17 40 183 17 40 184 17 40 185 17 40 186 17 40 187 17 40 188 17 40 189 17 40 190 17 40 192 17 40 193 17 40 194 17 40 195 17 40 196 17 40 197 17 40 198 17 40 199 17 40 200 17 40 201 17 40 202 17 40 203 17 40 204 17 40 205 17 40 206 17 40 208 17 40 209 17 40 210 17 40 211 17 40 212 17 40 213 17 40 214 17 40 215 17 40 216 17 40 217 17 40 218 17 40 219 17 40 220 17 40 221 17 40 222 17 40 224 17 40 225 17 40 226 17 40 227 17 40 228 17 40 229 17 40 230 17 40 231 17 40 232 17 40 233 17 40 234 17 40 235 17 40 236 17 40 237 17 40 238 17 40 240 17 40 241 17 40 242 17 40 243 17 40 244 17 40 245 17 40 246 17 40 247 17 40 248 17 40 249 17 40 250 17 40 251 17 40 252 17 40 253 17 40 255 17
40 0 15 40 1 15 40 2 15 40 3 15 40 4 15 40 5 15 40 6 15 40 7 15 40 8 15 40 9 15 40 10 15 40 11 15 40 12 15 40 13 15 40 14 15 40 16 15 40 17 15 40 18 15 40 19 15 40 20 15 40 21 15 40 22 15 40 23 15 40 24 15 40 25 15 40 26 15 40 27 15 40 28 15 40 29 15 40 30 15 40 32 15 40 33 15 40 34 15 40 35 15 40 36 15 40 37 15 40 38 15 40 39 15 40 40 15 40 41 15 40 42 15 40 43 15 40 44 15 40 45 15 40 46 15 40 48 15 40 49 15 40 50 15 40 51 15 40 52 15 40 53 15 40 54 15 40 55 15 40 56 15 40 57 15 40 58 15 40 59 15 40 60 15 40 61 15 40 62 15 40 64 15 40 65 15 40 66 15 40 67 15 40 68 15 40 69 15 40 70 15 40 71 15 40 72 15 40 73 15 40 74 15 40 75 15 40 76 15 40 77 15 40 78 15 40 80 15 40 81 15 40 82 15 40 83 15 40 84 15 40 85 15 40 86 15 40 87 15 40 88 15 40 89 15 40 90 15 40 91 15 40 92 15 40 93 15 40 94 15 40 96 15 40 97 15 40 98 15 40 99 15 40 100 15 40 101 15 40 102 15 40 103 15 40 104 15 40 105 15 40 106 15 40 107 15 40 108 15 40 109 15 40 110 15 40 112 15 40 113 15 40 114 15 40 115 15 40 116 15 40 117 15 40 118 15 40 119 15 40 120 15 40 121 15 40 122 15 40 123 15 40 124 15 40 125 15 40 126 15 40 128 15 40 129 15 40 130 15 40 131 15 40 132 15 40 133 15 40 134 15 40 135 15 40 136 15 40 137 15 40 138 15 40 139 15 40 140 15 40 141 15 40 142 15 40 144 15 40 145 15 40 146 15 40 147 15 40 148 15 40 149 15 40 150 15 40 151 15 40 152 15 40 153 15 40 154 15 40 155 15 40 156 15 40 157 15 40 158 15 40 160 15 40 161 15 40 162 15 40 163 15 40 164 15 40 165 15 40 166 15 40 167 15 40 168 15 40 169 15 40 170 15 40 171 15 40 172 15 40 173 15 40 174 15 40 176 15 40 177 15 40 178 15 40 179 15 40 180 15 40 181 15 40 182 15 40 183 15 40 184 15 40 185 15 40 186 15 40 187 15 40 188 15 40 189 15 40 190 15 40 192 15 40 193 15 40 194 15 40 195 15 40 196 15 40 197 15 40 198 15 40 199 15 40 200 15 40 201 15 40 202 15 40 203 15 40 204 15 40 205 15 40 206 15 40 208 15 40 209 15 40 210 15 40 211 15 40 212 15 40 213 15 40 214 15 40 215 15 40 216 15 40 217 15 40 218 15 40 219 15 40 220 15 40 221 15 40 222 15 40 224 15 40 225 15 40 226 15 40 227 15 40 228 15 40 229 15 40 230 15 40 231 15 40 232 15 40 233 15 40 234 15 40 235 15 40 236 15 40 237 15 40 238 15 40 240 15 40 241 15 40 242 15 40 243 15 40 244 15 40 245 15 40 246 15 40 247 15 40 248 15 40 249 15 40 250 15 40 251 15 40 252 15 40 253 15 40 255 15
40 0 14 40 1 14 40 2 14 40 3 14 40 4 14 40 5 14 40 6 14 40 7 14 40 8 14 40 9 14 40 10 14 40 11 14 40 12 14 40 13 14 40 14 14 40 16 14 40 17 14 40 18 14 40 19 14 40 20 14 40 21 14 40 22 14 40 23 14 40 24 14 40 25 14 40 26 14 40 27 14 40 28 14 40 29 14 40 30 14 40 32 14 40 33 14 40 34 14 40 35 14 40 36 14 40 37 14 40 38 14 40 39 14 40 40 14 40 41 14 40 42 14 40 43 14 40 44 14 40 45 14 40 46 14 40 48 14 40 49 14 40 50 14 40 51 14 40 52 14 40 53 14 40 54 14 40 55 14 40 56 14 40 57 14 40 58 14 40 59 14 40 60 14 40 61 14 40 62 14 40 64 14 40 65 14 40 66 14 40 67 14 40 68 14 40 69 14 40 70 14 40 71 14 40 72 14 40 73 14 40 74 14 40 75 14 40 76 14 40 77 14 40 78 14 40 80 14 40 81 14 40 82 14 40 83 14 40 84 14 40 85 14 40 86 14 40 87 14 40 88 14 40 89 14 40 90 14 40 91 14 40 92 14 40 93 14 40 94 14 40 96 14 40 97 14 40 98 14 40 99 14 40 100 14 40 101 14 40 102 14 40 103 14 40 104 14 40 105 14 40 106 14 40 107 14 40 108 14 40 109 14 40 110 14 40 112 14 40 113 14 40 114 14 40 115 14 40 116 14 40 117 14 40 118 14 40 119 14 40 120 14 40 121 14 40 122 14 40 123 14 40 124 14 40 125 14 40 126 14 40 128 14 40 129 14 40 130 14 40 131 14 40 132 14 40 133 14 40 134 14 40 135 14 40 136 14 40 137 14 40 138 14 40 139 14 40 140 14 40 141 14 40 142 14 40 144 14 40 145 14 40 146 14 40 147 14 40 148 14 40 149 14 40 150 14 40 151 14 40 152 14 40 153 14 40 154 14 40 155 14 40 156 14 40 157 14 40 158 14 40 160 14 40 161 14 40 162 14 40 163 14 40 164 14 40 165 14 40 166 14 40 167 14 40 168 14 40 169 14 40 170 14 40 171 14 40 172 14 40 173 14 40 174 14 40 176 14 40 177 14 40 178 14 40 179 14 40 180 14 40 181 14 40 182 14 40 183 14 40 184 14 40 185 14 40 186 14 40 187 14 40 188 14 40 189 14 40 190 14 40 192 14 40 193 14 40 194 14 40 195 14 40 196 14 40 197 14 40 198 14 40 199 14 40 200 14 40 201 14 40 202 14 40 203 14 40 204 14 40 205 14 40 206 14 40 208 14 40 209 14 40 210 14 40 211 14 40 212 14 40 213 14 40 214 14 40 215 14 40 216 14 40 217 14 40 218 14 40 219 14 40 220 14 40 221 14 40 222 14 40 224 14 40 225 14 40 226 14 40 227 14 40 228 14 40 229 14 40 230 14 40 231 14 40 232 14 40 233 14 40 234 14 40 235 14 40 236 14 40 237 14 40 238 14 40 240 14 40 241 14 40 242 14 40 243 14 40 244 14 40 245 14 40 246 14 40 247 14 40 248 14 40 249 14 40 250 14 40 251 14 40 252 14 40 253 14 40 255 14
40 0 12 40 1 12 40 2 12 40 3 12 40 4 12 40 5 12 40 6 12 40 7 12 40 8 12 40 9 12 40 10 12 40 11 12 40 12 12 40 13 12 40 14 12 40 16 12 40 17 12 40 18 12 40 19 12 40 20 12 40 21 12 40 22 12 40 23 12 40 24 12 40 25 12 40 26 12 40 27 12 40 28 12 40 29 12 40 30 12 40 32 12 40 33 12 40 34 12 40 35 12 40 36 12 40 37 12 40 38 12 40 39 12 40 40 12 40 41 12 40 42 12 40 43 12 40 44 12 40 45 12 40 46 12 40 48 12 40 49 12 40 50 12 40 51 12 40 52 12 40 53 12 40 54 12 40 55 12 40 56 12 40 57 12 40 58 12 40 59 12 40 60 12 40 61 12 40 62 12 40 64 12 40 65 12 40 66 12 40 67 12 40 68 12 40 69 12 40 70 12 40 71 12 40 72 12 40 73 12 40 74 12 40 75 12 40 76 12 40 77 12 40 78 12 40 80 12 40 81 12 40 82 12 40 83 12 40 84 12 40 85 12 40 86 12 40 87 12 40 88 12 40 89 12 40 90 12 40 91 12 40 92 12 40 93 12 40 94 12 40 96 12 40 97 12 40 98 12 40 99 12 40 100 12 40 101 12 40 102 12 40 103 12 40 104 12 40 105 12 40 106 12 40 107 12 40 108 12 40 109 12 40 110 12 40 112 12 40 113 12 40 114 12 40 115 12 40 116 12 40 117 12 40 118 12 40 119 12 40 120 12 40 121 12 40 122 12 40 123 12 40 124 12 40 125 12 40 126 12 40 128 12 40 129 12 40 130 12 40 131 12 40 132 12 40 133 12 40 134 12 40 135 12 40 136 12 40 137 12 40 138 12 40 139 12 40 140 12 40 141 12 40 142 12 40 144 12 40 145 12 40 146 12 40 147 12 40 148 12 40 149 12 40 150 12 40 151 12 40 152 12 40 153 12 40 154 12 40 155 12 40 156 12 40 157 12 40 158 12 40 160 12 40 161 12 40 162 12 40 163 12 40 164 12 40 165 12 40 166 12 40 167 12 40 168 12 40 169 12 40 170 12 40 171 12 40 172 12 40 173 12 40 174 12 40 176 12 40 177 12 40 178 12 40 179 12 40 180 12 40 181 12 40 182 12 40 183 12 40 184 12 40 185 12 40 186 12 40 187 12 40 188 12 40 189 12 40 190 12 40 192 12 40 193 12 40 194 12 40 195 12 40 196 12 40 197 12 40 198 12 40 199 12 40 200 12 40 201 12 40 202 12 40 203 12 40 204 12 40 205 12 40 206 12 40 208 12 40 209 12 40 210 12 40 211 12 40 212 12 40 213 12 40 214 12 40 215 12 40 216 12 40 217 12 40 218 12 40 219 12 40 220 12 40 221 12 40 222 12 40 224 12 40 225 12 40 226 12 40 227 12 40 228 12 40 229 12 40 230 12 40 231 12 40 232 12 40 233 12 40 234 12 40 235 12 40 236 12 40 237 12 40 238 12 40 240 12 40 241 12 40 242 12 40 243 12 40 244 12 40 245 12 40 246 12 40 247 12 40 248 12 40 249 12 40 250 12 40 251 12 40 252 12 40 253 12 40 255 12
40 0 11 40 1 11 40 2 11 40 3 11 40 4 11 40 5 11 40 6 11 40 7 11 40 8 11 40 9 11 40 10 11 40 11 11 40 12 11 40 13 11 40 14 11 40 16 11 40 17 11 40 18 11 40 19 11 40 20 11 40 21 11 40 22 11 40 23 11 40 24 11 40 25 11 40 26 11 40 27 11 40 28 11 40 29 11 40 30 11 40 32 11 40 33 11 40 34 11 40 35 11 40 36 11 40 37 11 40 38 11 40 39 11 40 40 11 40 41 11 40 42 11 40 43 11 40 44 11 40 45 11 40 46 11 40 48 11 40 49 11 40 50 11 40 51 11 40 52 11 40 53 11 40 54 11 40 55 11 40 56 11 40 57 11 40 58 11 40 59 11 40 60 11 40 61 11 40 62 11 40 64 11 40 65 11 40 66 11 40 67 11 40 68 11 40 69 11 40 70 11 40 71 11 40 72 11 40 73 11 40 74 11 40 75 11 40 76 11 40 77 11 40 78 11 40 80 11 40 81 11 40 82 11 40 83 11 40 84 11 40 85 11 40 86 11 40 87 11 40 88 11 40 89 11 40 90 11 40 91 11 40 92 11 40 93 11 40 94 11 40 96 11 40 97 11 40 98 11 40 99 11 40 100 11 40 101 11 40 102 11 40 103 11 40 104 11 40 105 11 40 106 11 40 107 11 40 108 11 40 109 11 40 110 11 40 112 11 40 113 11 40 114 11 40 115 11 40 116 11 40 117 11 40 118 11 40 119 11 40 120 11 40 121 11 40 122 11 40 123 11 40 124 11 40 125 11 40 126 11 40 128 11 40 129 11 40 130 11 40 131 11 40 132 11 40 133 11 40 134 11 40 135 11 40 136 11 40 137 11 40 138 11 40 139 11 40 140 11 40 141 11 40 142 11 40 144 11 40 145 11 40 146 11 40 147 11 40 148 11 40 149 11 40 150 11 40 151 11 40 152 11 40 153 11 40 154 11 40 155 11 40 156 11 40 157 11 40 158 11 40 160 11 40 161 11 40 162 11 40 163 11 40 164 11 40 165 11 40 166 11 40 167 11 40 168 11 40 169 11 40 170 11 40 171 11 40 172 11 40 173 11 40 174 11 40 176 11 40 177 11 40 178 11 40 179 11 40 180 11 40 181 11 40 182 11 40 183 11 40 184 11 40 185 11 40 186 11 40 187 11 40 188 11 40 189 11 40 190 11 40 192 11 40 193 11 40 194 11 40 195 11 40 196 11 40 197 11 40 198 11 40 199 11 40 200 11 40 201 11 40 202 11 40 203 11 40 204 11 40 205 11 40 206 11 40 208 11 40 209 11 40 210 11 40 211 11 40 212 11 40 213 11 40 214 11 40 215 11 40 216 11 40 217 11 40 218 11 40 219 11 40 220 11 40 221 11 40 222 11 40 224 11 40 225 11 40 226 11 40 227 11 40 228 11 40 229 11 40 230 11 40 231 11 40 232 11 40 233 11 40 234 11 40 235 11 40 236 11 40 237 11 40 238 11 40 240 11 40 241 11 40 242 11 40 243 11 40 244 11 40 245 11 40 246 11 40 247 11 40 248 11 40 249 11 40 250 11 40 251 11 40 252 11 40 253 11 40 255 11
40 0 9 40 1 9 40 2 9 40 3 9 40 4 9 40 5 9 40 6 9 40 7 9 40 8 9 40 9 9 40 10 9 40 11 9 40 12 9 40 13 9 40 14 9 40 16 9 40 17 9 40 18 9 40 19 9 40 20 9 40 21 9 40 22 9 40 23 9 40 24 9 40 25 9 40 26 9 40 27 9 40 28 9 40 29 9 40 30 9 40 32 9 40 33 9 40 34 9 40 35 9 40 36 9 40 37 9 40 38 9 40 39 9 40 40 9 40 41 9 40 42 9 40 43 9 40 44 9 40 45 9 40 46 9 40 48 9 40 49 9 40 50 9 40 51 9 40 52 9 40 53 9 40 54 9 40 55 9 40 56 9 40 57 9 40 58 9 40 59 9 40 60 9 40 61 9 40 62 9 40 64 9 40 65 9 40 66 9 40 67 9 40 68 9 40 69 9 40 70 9 40 71 9 40 72 9 40 73 9 40 74 9 40 75 9 40 76 9 40 77 9 40 78 9 40 80 9 40 81 9 40 82 9 40 83 9 40 84 9 40 85 9 40 86 9 40 87 9 40 88 9 40 89 9 40 90 9 40 91 9 40 92 9 40 93 9 40 94 9 40 96 9 40 97 9 40 98 9 40 99 9 40 100 9 40 101 9 40 102 9 40 103 9 40 104 9 40 105 9 40 106 9 40 107 9 40 108 9 40 109 9 40 110 9 40 112 9 40 113 9 40 114 9 40 115 9 40 116 9 40 117 9 40 118 9 40 119 9 40 120 9 40 121 9 40 122 9 40 123 9 40 124 9 40 125 9 40 126 9 40 128 9 40 129 9 40 130 9 40 131 9 40 132 9 40 133 9 40 134 9 40 135 9 40 136 9 40 137 9 40 138 9 40 139 9 40 140 9 40 141 9 40 142 9 40 144 9 40 145 9 40 146 9 40 147 9 40 148 9 40 149 9 40 150 9 40 151 9 40 152 9 40 153 9 40 154 9 40 155 9 40 156 9 40 157 9 40 158 9 40 160 9 40 161 9 40 162 9 40 163 9 40 164 9 40 165 9 40 166 9 40 167 9 40 168 9 40 169 9 40 170 9 40 171 9 40 172 9 40 173 9 40 174 9 40 176 9 40 177 9 40 178 9 40 179 9 40 180 9 40 181 9 40 182 9 40 183 9 40 184 9 40 185 9 40 186 9 40 187 9 40 188 9 40 189 9 40 190 9 40 192 9 40 193 9 40 194 9 40 195 9 40 196 9 40 197 9 40 198 9 40 199 9 40 200 9 40 201 9 40 202 9 40 203 9 40 204 9 40 205 9 40 206 9 40 208 9 40 209 9 40 210 9 40 211 9 40 212 9 40 213 9 40 214 9 40 215 9 40 216 9 40 217 9 40 218 9 40 219 9 40 220 9 40 221 9 40 222 9 40 224 9 40 225 9 40 226 9 40 227 9 40 228 9 40 229 9 40 230 9 40 231 9 40 232 9 40 233 9 40 234 9 40 235 9 40 236 9 40 237 9 40 238 9 40 240 9 40 241 9 40 242 9 40 243 9 40 244 9 40 245 9 40 246 9 40 247 9 40 248 9 40 249 9 40 250 9 40 251 9 40 252 9 40 253 9 40 255 9
40 0 8 40 1 8 40 2 8 40 3 8 40 4 8 40 5 8 40 6 8 40 7 8 40 8 8 40 9 8 40 10 8 40 11 8 40 12 8 40 13 8 40 14 8 40 16 8 40 17 8 40 18 8 40 19 8 40 20 8 40 21 8 40 22 8 40 23 8 40 24 8 40 25 8 40 26 8 40 27 8 40 28 8 40 29 8 40 30 8 40 32 8 40 33 8 40 34 8 40 35 8 40 36 8 40 37 8 40 38 8 40 39 8 40 40 8 40 41 8 40 42 8 40 43 8 40 44 8 40 45 8 40 46 8 40 48 8 40 49 8 40 50 8 40 51 8 40 52 8 40 53 8 40 54 8 40 55 8 40 56 8 40 57 8 40 58 8 40 59 8 40 60 8 40 61 8 40 62 8 40 64 8 40 65 8 40 66 8 40 67 8 40 68 8 40 69 8 40 70 8 40 71 8 40 72 8 40 73 8 40 74 8 40 75 8 40 76 8 40 77 8 40 78 8 40 80 8 40 81 8 40 82 8 40 83 8 40 84 8 40 85 8 40 86 8 40 87 8 40 88 8 40 89 8 40 90 8 40 91 8 40 92 8 40 93 8 40 94 8 40 96 8 40 97 8 40 98 8 40 99 8 40 100 8 40 101 8 40 102 8 40 103 8 40 104 8 40 105 8 40 106 8 40 107 8 40 108 8 40 109 8 40 110 8 40 112 8 40 113 8 40 114 8 40 115 8 40 116 8 40 117 8 40 118 8 40 119 8 40 120 8 40 121 8 40 122 8 40 123 8 40 124 8 40 125 8 40 126 8 40 128 8 40 129 8 40 130 8 40 131 8 40 132 8 40 133 8 40 134 8 40 135 8 40 136 8 40 137 8 40 138 8 40 139 8 40 140 8 40 141 8 40 142 8 40 144 8 40 145 8 40 146 8 40 147 8 40 148 8 40 149 8 40 150 8 40 151 8 40 152 8 40 153 8 40 154 8 40 155 8 40 156 8 40 157 8 40 158 8 40 160 8 40 161 8 40 162 8 40 163 8 40 164 8 40 165 8 40 166 8 40 167 8 40 168 8 40 169 8 40 170 8 40 171 8 40 172 8 40 173 8 40 174 8 40 176 8 40 177 8 40 178 8 40 179 8 40 180 8 40 181 8 40 182 8 40 183 8 40 184 8 40 185 8 40 186 8 40 187 8 40 188 8 40 189 8 40 190 8 40 192 8 40 193 8 40 194 8 40 195 8 40 196 8 40 197 8 40 198 8 40 199 8 40 200 8 40 201 8 40 202 8 40 203 8 40 204 8 40 205 8 40 206 8 40 208 8 40 209 8 40 210 8 40 211 8 40 212 8 40 213 8 40 214 8 40 215 8 40 216 8 40 217 8 40 218 8 40 219 8 40 220 8 40 221 8 40 222 8 40 224 8 40 225 8 40 226 8 40 227 8 40 228 8 40 229 8 40 230 8 40 231 8 40 232 8 40 233 8 40 234 8 40 235 8 40 236 8 40 237 8 40 238 8 40 240 8 40 241 8 40 242 8 40 243 8 40 244 8 40 245 8 40 246 8 40 247 8 40 248 8 40 249 8 40 250 8 40 251 8 40 252 8 40 253 8 40 255 8
40 0 7 40 1 7 40 2 7 40 3 7 40 4 7 40 5 7 40 6 7 40 7 7 40 8 7 40 9 7 40 10 7 40 11 7 40 12 7 40 13 7 40 14 7 40 16 7 40 17 7 40 18 7 40 19 7 40 20 7 40 21 7 40 22 7 40 23 7 40 24 7 40 25 7 40 26 7 40 27 7 40 28 7 40 29 7 40 30 7 40 32 7 40 33 7 40 34 7 40 35 7 40 36 7 40 37 7 40 38 7 40 39 7 40 40 7 40 41 7 40 42 7 40 43 7 40 44 7 40 45 7 40 46 7 40 48 7 40 49 7 40 50 7 40 51 7 40 52 7 40 53 7 40 54 7 40 55 7 40 56 7 40 57 7 40 58 7 40 59 7 40 60 7 40 61 7 40 62 7 40 64 7 40 65 7 40 66 7 40 67 7 40 68 7 40 69 7 40 70 7 40 71 7 40 72 7 40 73 7 40 74 7 40 75 7 40 76 7 40 77 7 40 78 7 40 80 7 40 81 7 40 82 7 40 83 7 40 84 7 40 85 7 40 86 7 40 87 7 40 88 7 40 89 7 40 90 7 40 91 7 40 92 7 40 93 7 40 94 7 40 96 7 40 97 7 40 98 7 40 99 7 40 100 7 40 101 7 40 102 7 40 103 7 40 104 7 40 105 7 40 106 7 40 107 7 40 108 7 40 109 7 40 110 7 40 112 7 40 113 7 40 114 7 40 115 7 40 116 7 40 117 7 40 118 7 40 119 7 40 120 7 40 121 7 40 122 7 40 123 7 40 124 7 40 125 7 40 126 7 40 128 7 40 129 7 40 130 7 40 131 7 40 132 7 40 133 7 40 134 7 40 135 7 40 136 7 40 137 7 40 138 7 40 139 7 40 140 7 40 141 7 40 142 7 40 144 7 40 145 7 40 146 7 40 147 7 40 148 7 40 149 7 40 150 7 40 151 7 40 152 7 40 153 7 40 154 7 40 155 7 40 156 7 40 157 7 40 158 7 40 160 7 40 161 7 40 162 7 40 163 7 40 164 7 40 165 7 40 166 7 40 167 7 40 168 7 40 169 7 40 170 7 40 171 7 40 172 7 40 173 7 40 174 7 40 176 7 40 177 7 40 178 7 40 179 7 40 180 7 40 181 7 40 182 7 40 183 7 40 184 7 40 185 7 40 186 7 40 187 7 40 188 7 40 189 7 40 190 7 40 192 7 40 193 7 40 194 7 40 195 7 40 196 7 40 197 7 40 198 7 40 199 7 40 200 7 40 201 7 40 202 7 40 203 7 40 204 7 40 205 7 40 206 7 40 208 7 40 209 7 40 210 7 40 211 7 40 212 7 40 213 7 40 214 7 40 215 7 40 216 7 40 217 7 40 218 7 40 219 7 40 220 7 40 221 7 40 222 7 40 224 7 40 225 7 40 226 7 40 227 7 40 228 7 40 229 7 40 230 7 40 231 7 40 232 7 40 233 7 40 234 7 40 235 7 40 236 7 40 237 7 40 238 7 40 240 7 40 241 7 40 242 7 40 243 7 40 244 7 40 245 7 40 246 7 40 247 7 40 248 7 40 249 7 40 250 7 40 251 7 40 252 7 40 253 7 40 255 7
40 0 5 40 1 5 40 2 5 40 3 5 40 4 5 40 5 5 40 6 5 40 7 5 40 8 5 40 9 5 40 10 5 40 11 5 40 12 5 40 13 5 40 14 5 40 16 5 40 17 5 40 18 5 40 19 5 40 20 5 40 21 5 40 22 5 40 23 5 40 24 5 40 25 5 40 26 5 40 27 5 40 28 5 40 29 5 40 30 5 40 32 5 40 33 5 40 34 5 40 35 5 40 36 5 40 37 5 40 38 5 40 39 5 40 40 5 40 41 5 40 42 5 40 43 5 40 44 5 40 45 5 40 46 5 40 48 5 40 49 5 40 50 5 40 51 5 40 52 5 40 53 5 40 54 5 40 55 5 40 56 5 40 57 5 40 58 5 40 59 5 40 60 5 40 61 5 40 62 5 40 64 5 40 65 5 40 66 5 40 67 5 40 68 5 40 69 5 40 70 5 40 71 5 40 72 5 40 73 5 40 74 5 40 75 5 40 76 5 40 77 5 40 78 5 40 80 5 40 81 5 40 82 5 40 83 5 40 84 5 40 85 5 40 86 5 40 87 5 40 88 5 40 89 5 40 90 5 40 91 5 40 92 5 40 93 5 40 94 5 40 96 5 40 97 5 40 98 5 40 99 5 40 100 5 40 101 5 40 102 5 40 103 5 40 104 5 40 105 5 40 106 5 40 107 5 40 108 5 40 109 5 40 110 5 40 112 5 40 113 5 40 114 5 40 115 5 40 116 5 40 117 5 40 118 5 40 119 5 40 120 5 40 121 5 40 122 5 40 123 5 40 124 5 40 125 5 40 126 5 40 128 5 40 129 5 40 130 5 40 131 5 40 132 5 40 133 5 40 134 5 40 135 5 40 136 5 40 137 5 40 138 5 40 139 5 40 140 5 40 141 5 40 142 5 40 144 5 40 145 5 40 146 5 40 147 5 40 148 5 40 149 5 40 150 5 40 151 5 40 152 5 40 153 5 40 154 5 40 155 5 40 156 5 40 157 5 40 158 5 40 160 5 40 161 5 40 162 5 40 163 5 40 164 5 40 165 5 40 166 5 40 167 5 40 168 5 40 169 5 40 170 5 40 171 5 40 172 5 40 173 5 40 174 5 40 176 5 40 177 5 40 178 5 40 179 5 40 180 5 40 181 5 40 182 5 40 183 5 40 184 5 40 185 5 40 186 5 40 187 5 40 188 5 40 189 5 40 190 5 40 192 5 40 193 5 40 194 5 40 195 5 40 196 5 40 197 5 40 198 5 40 199 5 40 200 5 40 201 5 40 202 5 40 203 5 40 204 5 40 205 5 40 206 5 40 208 5 40 209 5 40 210 5 40 211 5 40 212 5 40 213 5 40 214 5 40 215 5 40 216 5 40 217 5 40 218 5 40 219 5 40 220 5 40 221 5 40 222 5 40 224 5 40 225 5 40 226 5 40 227 5 40 228 5 40 229 5 40 230 5 40 231 5 40 232 5 40 233 5 40 234 5 40 235 5 40 236 5 40 237 5 40 238 5 40 240 5 40 241 5 40 242 5 40 243 5 40 244 5 40 245 5 40 246 5 40 247 5 40 248 5 40 249 5 40 250 5 40 251 5 40 252 5 40 253 5 40 255 5
40 0 4 40 1 4 40 2 4 40 3 4 40 4 4 40 5 4 40 6 4 40 7 4 40 8 4 40 9 4 40 10 4 40 11 4 40 12 4 40 13 4 40 14 4 40 16 4 40 17 4 40 18 4 40 19 4 40 20 4 40 21 4 40 22 4 40 23 4 40 24 4 40 25 4 40 26 4 40 27 4 40 28 4 40 29 4 40 30 4 40 32 4 40 33 4 40 34 4 40 35 4 40 36 4 40 37 4 40 38 4 40 39 4 40 40 4 40 41 4 40 42 4 40 43 4 40 44 4 40 45 4 40 46 4 40 48 4 40 49 4 40 50 4 40 51 4 40 52 4 40 53 4 40 54 4 40 55 4 40 56 4 40 57 4 40 58 4 40 59 4 40 60 4 40 61 4 40 62 4 40 64 4 40 65 4 40 66 4 40 67 4 40 68 4 40 69 4 40 70 4 40 71 4 40 72 4 40 73 4 40 74 4 40 75 4 40 76 4 40 77 4 40 78 4 40 80 4 40 81 4 40 82 4 40 83 4 40 84 4 40 85 4 40 86 4 40 87 4 40 88 4 40 89 4 40 90 4 40 91 4 40 92 4 40 93 4 40 94 4 40 96 4 40 97 4 40 98 4 40 99 4 40 100 4 40 101 4 40 102 4 40 103 4 40 104 4 40 105 4 40 106 4 40 107 4 40 108 4 40 109 4 40 110 4 40 112 4 40 113 4 40 114 4 40 115 4 40 116 4 40 117 4 40 118 4 40 119 4 40 120 4 40 121 4 40 122 4 40 123 4 40 124 4 40 125 4 40 126 4 40 128 4 40 129 4 40 130 4 40 131 4 40 132 4 40 133 4 40 134 4 40 135 4 40 136 4 40 137 4 40 138 4 40 139 4 40 140 4 40 141 4 40 142 4 40 144 4 40 145 4 40 146 4 40 147 4 40 148 4 40 149 4 40 150 4 40 151 4 40 152 4 40 153 4 40 154 4 40 155 4 40 156 4 40 157 4 40 158 4 40 160 4 40 161 4 40 162 4 40 163 4 40 164 4 40 165 4 40 166 4 40 167 4 40 168 4 40 169 4 40 170 4 40 171 4 40 172 4 40 173 4 40 174 4 40 176 4 40 177 4 40 178 4 40 179 4 40 180 4 40 181 4 40 182 4 40 183 4 40 184 4 40 185 4 40 186 4 40 187 4 40 188 4 40 189 4 40 190 4 40 192 4 40 193 4 40 194 4 40 195 4 40 196 4 40 197 4 40 198 4 40 199 4 40 200 4 40 201 4 40 202 4 40 203 4 40 204 4 40 205 4 40 206 4 40 208 4 40 209 4 40 210 4 40 211 4 40 212 4 40 213 4 40 214 4 40 215 4 40 216 4 40 217 4 40 218 4 40 219 4 40 220 4 40 221 4 40 222 4 40 224 4 40 225 4 40 226 4 40 227 4 40 228 4 40 229 4 40 230 4 40 231 4 40 232 4 40 233 4 40 234 4 40 235 4 40 236 4 40 237 4 40 238 4 40 240 4 40 241 4 40 242 4 40 243 4 40 244 4 40 245 4 40 246 4 40 247 4 40 248 4 40 249 4 40 250 4 40 251 4 40 252 4 40 253 4 40 255 4
40 0 2 40 1 2 40 2 2 40 3 2 40 4 2 40 5 2 40 6 2 40 7 2 40 8 2 40 9 2 40 10 2 40 11 2 40 12 2 40 13 2 40 14 2 40 16 2 40 17 2 40 18 2 40 19 2 40 20 2 40 21 2 40 22 2 40 23 2 40 24 2 40 25 2 40 26 2 40 27 2 40 28 2 40 29 2 40 30 2 40 32 2 40 33 2 40 34 2 40 35 2 40 36 2 40 37 2 40 38 2 40 39 2 40 40 2 40 41 2 40 42 2 40 43 2 40 44 2 40 45 2 40 46 2 40 48 2 40 49 2 40 50 2 40 51 2 40 52 2 40 53 2 40 54 2 40 55 2 40 56 2 40 57 2 40 58 2 40 59 2 40 60 2 40 61 2 40 62 2 40 64 2 40 65 2 40 66 2 40 67 2 40 68 2 40 69 2 40 70 2 40 71 2 40 72 2 40 73 2 40 74 2 40 75 2 40 76 2 40 77 2 40 78 2 40 80 2 40 81 2 40 82 2 40 83 2 40 84 2 40 85 2 40 86 2 40 87 2 40 88 2 40 89 2 40 90 2 40 91 2 40 92 2 40 93 2 40 94 2 40 96 2 40 97 2 40 98 2 40 99 2 40 100 2 40 101 2 40 102 2 40 103 2 40 104 2 40 105 2 40 106 2 40 107 2 40 108 2 40 109 2 40 110 2 40 112 2 40 113 2 40 114 2 40 115 2 40 116 2 40 117 2 40 118 2 40 119 2 40 120 2 40 121 2 40 122 2 40 123 2 40 124 2 40 125 2 40 126 2 40 128 2 40 129 2 40 130 2 40 131 2 40 132 2 40 133 2 40 134 2 40 135 2 40 136 2 40 137 2 40 138 2 40 139 2 40 140 2 40 141 2 40 142 2 40 144 2 40 145 2 40 146 2 40 147 2 40 148 2 40 149 2 40 150 2 40 151 2 40 152 2 40 153 2 40 154 2 40 155 2 40 156 2 40 157 2 40 158 2 40 160 2 40 161 2 40 162 2 40 163 2 40 164 2 40 165 2 40 166 2 40 167 2 40 168 2 40 169 2 40 170 2 40 171 2 40 172 2 40 173 2 40 174 2 40 176 2 40 177 2 40 178 2 40 179 2 40 180 2 40 181 2 40 182 2 40 183 2 40 184 2 40 185 2 40 186 2 40 187 2 40 188 2 40 189 2 40 190 2 40 192 2 40 193 2 40 194 2 40 195 2 40 196 2 40 197 2 40 198 2 40 199 2 40 200 2 40 201 2 40 202 2 40 203 2 40 204 2 40 205 2 40 206 2 40 208 2 40 209 2 40 210 2 40 211 2 40 212 2 40 213 2 40 214 2 40 215 2 40 216 2 40 217 2 40 218 2 40 219 2 40 220 2 40 221 2 40 222 2 40 224 2 40 225 2 40 226 2 40 227 2 40 228 2 40 229 2 40 230 2 40 231 2 40 232 2 40 233 2 40 234 2 40 235 2 40 236 2 40 237 2 40 238 2 40 240 2 40 241 2 40 242 2 40 243 2 40 244 2 40 245 2 40 246 2 40 247 2 40 248 2 40 249 2 40 250 2 40 251 2 40 252 2 40 253 2 40 255 2
40 0 1 40 1 1 40 2 1 40 3 1 40 4 1 40 5 1 40 6 1 40 7 1 40 8 1 40 9 1 40 10 1 40 11 1 40 12 1 40 13 1 40 14 1 40 16 1 40 17 1 40 18 1 40 19 1 40 20 1 40 21 1 40 22 1 40 23 1 40 24 1 40 25 1 40 26 1 40 27 1 40 28 1 40 29 1 40 30 1 40 32 1 40 33 1 40 34 1 40 35 1 40 36 1 40 37 1 40 38 1 40 39 1 40 40 1 40 41 1 40 42 1 40 43 1 40 44 1 40 45 1 40 46 1 40 48 1 40 49 1 40 50 1 40 51 1 40 52 1 40 53 1 40 54 1 40 55 1 40 56 1 40 57 1 40 58 1 40 59 1 40 60 1 40 61 1 40 62 1 40 64 1 40 65 1 40 66 1 40 67 1 40 68 1 40 69 1 40 70 1 40 71 1 40 72 1 40 73 1 40 74 1 40 75 1 40 76 1 40 77 1 40 78 1 40 80 1 40 81 1 40 82 1 40 83 1 40 84 1 40 85 1 40 86 1 40 87 1 40 88 1 40 89 1 40 90 1 40 91 1 40 92 1 40 93 1 40 94 1 40 96 1 40 97 1 40 98 1 40 99 1 40 100 1 40 101 1 40 102 1 40 103 1 40 104 1 40 105 1 40 106 1 40 107 1 40 108 1 40 109 1 40 110 1 40 112 1 40 113 1 40 114 1 40 115 1 40 116 1 40 117 1 40 118 1 40 119 1 40 120 1 40 121 1 40 122 1 40 123 1 40 124 1 40 125 1 40 126 1 40 128 1 40 129 1 40 130 1 40 131 1 40 132 1 40 133 1 40 134 1 40 135 1 40 136 1 40 137 1 40 138 1 40 139 1 40 140 1 40 141 1 40 142 1 40 144 1 40 145 1 40 146 1 40 147 1 40 148 1 40 149 1 40 150 1 40 151 1 40 152 1 40 153 1 40 154 1 40 155 1 40 156 1 40 157 1 40 158 1 40 160 1 40 161 1 40 162 1 40 163 1 40 164 1 40 165 1 40 166 1 40 167 1 40 168 1 40 169 1 40 170 1 40 171 1 40 172 1 40 173 1 40 174 1 40 176 1 40 177 1 40 178 1 40 179 1 40 180 1 40 181 1 40 182 1 40 183 1 40 184 1 40 185 1 40 186 1 40 187 1 40 188 1 40 189 1 40 190 1 40 192 1 40 193 1 40 194 1 40 195 1 40 196 1 40 197 1 40 198 1 40 199 1 40 200 1 40 201 1 40 202 1 40 203 1 40 204 1 40 205 1 40 206 1 40 208 1 40 209 1 40 210 1 40 211 1 40 212 1 40 213 1 40 214 1 40 215 1 40 216 1 40 217 1 40 218 1 40 219 1 40 220 1 40 221 1 40 222 1 40 224 1 40 225 1 40 226 1 40 227 1 40 228 1 40 229 1 40 230 1 40 231 1 40 232 1 40 233 1 40 234 1 40 235 1 40 236 1 40 237 1 40 238 1 40 240 1 40 241 1 40 242 1 40 243 1 40 244 1 40 245 1 40 246 1 40 247 1 40 248 1 40 249 1 40 250 1 40 251 1 40 252 1 40 253 1 40 255 1
40 0 0 40 1 0 40 2 0 40 3 0 40 4 0 40 5 0 40 6 0 40 7 0 40 8 0 40 9 0 40 10 0 40 11 0 40 12 0 40 13 0 40 14 0 40 16 0 40 17 0 40 18 0 40 19 0 40 20 0 40 21 0 40 22 0 40 23 0 40 24 0 40 25 0 40 26 0 40 27 0 40 28 0 40 29 0 40 30 0 40 32 0 40 33 0 40 34 0 40 35 0 40 36 0 40 37 0 40 38 0 40 39 0 40 40 0 40 41 0 40 42 0 40 43 0 40 44 0 40 45 0 40 46 0 40 48 0 40 49 0 40 50 0 40 51 0 40 52 0 40 53 0 40 54 0 40 55 0 40 56 0 40 57 0 40 58 0 40 59 0 40 60 0 40 61 0 40 62 0 40 64 0 40 65 0 40 66 0 40 67 0 40 68 0 40 69 0 40 70 0 40 71 0 40 72 0 40 73 0 40 74 0 40 75 0 40 76 0 40 77 0 40 78 0 40 80 0 40 81 0 40 82 0 40 83 0 40 84 0 40 85 0 40 86 0 40 87 0 40 88 0 40 89 0 40 90 0 40 91 0 40 92 0 40 93 0 40 94 0 40 96 0 40 97 0 40 98 0 40 99 0 40 100 0 40 101 0 40 102 0 40 103 0 40 104 0 40 105 0 40 106 0 40 107 0 40 108 0 40 109 0 40 110 0 40 112 0 40 113 0 40 114 0 40 115 0 40 116 0 40 117 0 40 118 0 40 119 0 40 120 0 40 121 0 40 122 0 40 123 0 40 124 0 40 125 0 40 126 0 40 128 0 40 129 0 40 130 0 40 131 0 40 132 0 40 133 0 40 134 0 40 135 0 40 136 0 40 137 0 40 138 0 40 139 0 40 140 0 40 141 0 40 142 0 40 144 0 40 145 0 40 146 0 40 147 0 40 148 0 40 149 0 40 150 0 40 151 0 40 152 0 40 153 0 40 154 0 40 155 0 40 156 0 40 157 0 40 158 0 40 160 0 40 161 0 40 162 0 40 163 0 40 164 0 40 165 0 40 166 0 40 167 0 40 168 0 40 169 0 40 170 0 40 171 0 40 172 0 40 173 0 40 174 0 40 176 0 40 177 0 40 178 0 40 179 0 40 180 0 40 181 0 40 182 0 40 183 0 40 184 0 40 185 0 40 186 0 40 187 0 40 188 0 40 189 0 40 190 0 40 192 0 40 193 0 40 194 0 40 195 0 40 196 0 40 197 0 40 198 0 40 199 0 40 200 0 40 201 0 40 202 0 40 203 0 40 204 0 40 205 0 40 206 0 40 208 0 40 209 0 40 210 0 40 211 0 40 212 0 40 213 0 40 214 0 40 215 0 40 216 0 40 217 0 40 218 0 40 219 0 40 220 0 40 221 0 40 222 0 40 224 0 40 225 0 40 226 0 40 227 0 40 228 0 40 229 0 40 230 0 40 231 0 40 232 0 40 233 0 40 234 0 40 235 0 40 236 0 40 237 0 40 238 0 40 240 0 40 241 0 40 242 0 40 243 0 40 244 0 40 245 0 40 246 0 40 247 0 40 248 0 40 249 0 40 250 0 40 251 0 40 252 0 40 253 0 40 255 0
