P3
240 180
255
0 0 89 1 0 89 2 0 89 3 0 89 5 0 89 6 0 89 7 0 89 8 0 89 10 0 89 11 0 89 12 0 89 14 0 89 15 0 89 16 0 89 17 0 89 20 0 89 21 0 89 22 0 89 24 0 89 25 0 89 26 0 89 28 0 89 29 0 89 30 0 89 31 0 89 33 0 89 34 0 89 35 0 89 36 0 89 38 0 89 40 0 89 42 0 89 43 0 89 44 0 89 45 0 89 47 0 89 48 0 89 49 0 89 50 0 89 52 0 89 53 0 89 54 0 89 56 0 89 57 0 89 58 0 89 61 0 89 62 0 89 63 0 89 65 0 89 66 0 89 67 0 89 68 0 89 70 0 89 71 0 89 72 0 89 73 0 89 75 0 89 76 0 89 77 0 89 79 0 89 81 0 89 82 0 89 84 0 89 85 0 89 86 0 89 87 0 89 89 0 89 90 0 89 91 0 88 92 0 88 93 0 88 94 0 88 95 0 88 97 0 88 98 0 88 100 0 87 101 0 87 102 0 87 103 0 87 104 0 87 105 0 87 106 0 87 107 0 86 109 0 86 110 0 86 111 0 86 112 0 86 113 0 86 114 0 86 115 0 85 117 0 85 118 0 85 119 0 85 120 0 85 121 0 85 122 0 85 123 0 84 124 0 84 125 0 84 126 0 84 127 0 84 128 0 84 129 0 84 130 0 84 131 0 83 133 0 83 134 0 83 135 0 83 136 0 83 137 0 83 138 0 83 139 0 82 140 0 82 141 0 82 142 0 82 143 0 82 144 0 82 145 0 82 146 0 82 147 0 82 149 0 81 150 0 81 151 0 81 152 0 81 153 0 81 154 0 81 155 0 81 156 0 81 157 0 80 158 0 80 159 0 80 160 0 80 160 0 80 161 0 80 162 0 80 164 0 80 165 0 79 166 0 79 167 0 79 168 0 79 169 0 79 170 0 79 171 0 79 172 0 79 172 0 79 173 0 79 174 0 78 175 0 78 176 0 78 177 0 78 179 0 78 180 0 78 180 0 78 181 0 78 182 0 77 183 0 77 184 0 77 185 0 77 186 0 77 187 0 77 187 0 77 188 0 77 189 0 77 190 0 77 191 0 76 193 0 76 193 0 76 194 0 76 195 0 76 196 0 76 197 0 76 198 0 76 199 0 76 199 0 76 200 0 75 201 0 75 202 0 75 203 0 75 204 0 75 204 0 75 206 0 75 207 0 75 208 0 75 208 0 75 209 0 74 210 0 74 211 0 74 212 0 74 213 0 74 213 0 74 214 0 74 215 0 74 216 0 74 217 0 74 217 0 74 219 0 73 220 0 73 221 0 73 221 0 73 222 0 73 223 0 73 224 0 73 224 0 73 225 0 73 226 0 73 227 0 72 228 0 72 228 0 72 229 0 72 230 0 72 231 0 72 232 0 72 233 0 72 234 0 72 234 0 72 235 0 72 236 0 71 237 0 71 238 0 71 238 0 71 239 0 71 240 0 71 241 0 71 241 0 71 242 0 71 244 0 71 244 0 71 245 0 71 246 0 70 246 0 70 247 0 70 248 0 70 249 0 70 249 0 70 250 0 70 251 0 70 252 0 70 252 0 70 253 0 70 255 0 70
0 1 89 1 1 89 2 1 89 3 1 89 5 1 89 6 1 89 7 1 89 8 1 89 10 1 89 11 1 89 12 1 89 14 1 89 15 1 89 16 1 89 17 1 89 20 1 89 21 1 89 22 1 89 24 1 89 25 1 89 26 1 89 28 1 89 29 1 89 30 1 89 31 1 89 33 1 89 34 1 89 35 1 89 36 1 89 38 1 89 40 1 89 42 1 89 43 1 89 44 1 89 45 1 89 47 1 89 48 1 89 49 1 89 50 1 89 52 1 89 53 1 89 54 1 89 56 1 89 57 1 89 58 1 89 61 1 89 62 1 89 63 1 89 65 1 89 66 1 89 67 1 89 68 1 89 70 1 89 71 1 89 72 1 89 73 1 89 75 1 89 76 1 89 77 1 89 79 1 89 81 1 89 82 1 89 84 1 89 85 1 89 86 1 89 87 1 89 89 1 89 90 1 89 91 1 88 92 1 88 93 1 88 94 1 88 95 1 88 97 1 88 98 1 88 100 1 87 101 1 87 102 1 87 103 1 87 104 1 87 105 1 87 106 1 87 107 1 86 109 1 86 110 1 86 111 1 86 112 1 86 113 1 86 114 1 86 115 1 85 117 1 85 118 1 85 119 1 85 120 1 85 121 1 85 122 1 85 123 1 84 124 1 84 125 1 84 126 1 84 127 1 84 128 1 84 129 1 84 130 1 84 131 1 83 133 1 83 134 1 83 135 1 83 136 1 83 137 1 83 138 1 83 139 1 82 140 1 82 141 1 82 142 1 82 143 1 82 144 1 82 145 1 82 146 1 82 147 1 82 149 1 81 150 1 81 151 1 81 152 1 81 153 1 81 154 1 81 155 1 81 156 1 81 157 1 80 158 1 80 159 1 80 160 1 80 160 1 80 161 1 80 162 1 80 164 1 80 165 1 79 166 1 79 167 1 79 168 1 79 169 1 79 170 1 79 171 1 79 172 1 79 172 1 79 173 1 79 174 1 78 175 1 78 176 1 78 177 1 78 179 1 78 180 1 78 180 1 78 181 1 78 182 1 77 183 1 77 184 1 77 185 1 77 186 1 77 187 1 77 187 1 77 188 1 77 189 1 77 190 1 77 191 1 76 193 1 76 193 1 76 194 1 76 195 1 76 196 1 76 197 1 76 198 1 76 199 1 76 199 1 76 200 1 75 201 1 75 202 1 75 203 1 75 204 1 75 204 1 75 206 1 75 207 1 75 208 1 75 208 1 75 209 1 74 210 1 74 211 1 74 212 1 74 213 1 74 213 1 74 214 1 74 215 1 74 216 1 74 217 1 74 217 1 74 219 1 73 220 1 73 221 1 73 221 1 73 222 1 73 223 1 73 224 1 73 224 1 73 225 1 73 226 1 73 227 1 72 228 1 72 228 1 72 229 1 72 230 1 72 231 1 72 232 1 72 233 1 72 234 1 72 234 1 72 235 1 72 236 1 71 237 1 71 238 1 71 238 1 71 239 1 71 240 1 71 241 1 71 241 1 71 242 1 71 244 1 71 244 1 71 245 1 71 246 1 70 246 1 70 247 1 70 248 1 70 249 1 70 249 1 70 250 1 70 251 1 70 252 1 70 252 1 70 253 1 70 255 0 70
0 2 89 1 2 89 2 2 89 3 2 89 5 2 89 6 2 89 7 2 89 8 2 89 10 2 89 11 2 89 12 2 89 14 2 89 15 2 89 16 2 89 17 2 89 20 2 89 21 2 89 22 2 89 24 2 89 25 2 89 26 2 89 28 2 89 29 2 89 30 2 89 31 2 89 33 2 89 34 2 89 35 2 89 36 2 89 38 2 89 40 2 89 42 2 89 43 2 89 44 2 89 45 2 89 47 2 89 48 2 89 49 2 89 50 2 89 52 2 89 53 2 89 54 2 89 56 2 89 57 2 89 58 2 89 61 2 89 62 2 89 63 2 89 65 2 89 66 2 89 67 2 89 68 2 89 70 2 89 71 2 89 72 2 89 73 2 89 75 2 89 76 2 89 77 2 89 79 2 89 81 2 89 82 2 89 84 2 89 85 2 89 86 2 89 87 2 89 89 2 89 90 2 89 91 2 88 92 2 88 93 2 88 94 2 88 95 2 88 97 2 88 98 2 88 100 2 87 101 2 87 102 2 87 103 2 87 104 2 87 105 2 87 106 2 87 107 2 86 109 2 86 110 2 86 111 2 86 112 2 86 113 2 86 114 2 86 115 2 85 117 2 85 118 2 85 119 2 85 120 2 85 121 2 85 122 2 85 123 2 84 124 2 84 125 2 84 126 2 84 127 2 84 128 2 84 129 2 84 130 2 84 131 2 83 133 2 83 134 2 83 135 2 83 136 2 83 137 2 83 138 2 83 139 2 82 140 2 82 141 2 82 142 2 82 143 2 82 144 2 82 145 2 82 146 2 82 147 2 82 149 2 81 150 2 81 151 2 81 152 2 81 153 2 81 154 2 81 155 2 81 156 2 81 157 2 80 158 2 80 159 2 80 160 2 80 160 2 80 161 2 80 162 2 80 164 2 80 165 2 79 166 2 79 167 2 79 168 2 79 169 2 79 170 2 79 171 2 79 172 2 79 172 2 79 173 2 79 174 2 78 175 2 78 176 2 78 177 2 78 179 2 78 180 2 78 180 2 78 181 2 78 182 2 77 183 2 77 184 2 77 185 2 77 186 2 77 187 2 77 187 2 77 188 2 77 189 2 77 190 2 77 191 2 76 193 2 76 193 2 76 194 2 76 195 2 76 196 2 76 197 2 76 198 2 76 199 2 76 199 2 76 200 2 75 201 2 75 202 2 75 203 2 75 204 2 75 204 2 75 206 2 75 207 2 75 208 2 75 208 2 75 209 2 74 210 2 74 211 2 74 212 2 74 213 2 74 213 2 74 214 2 74 215 2 74 216 2 74 217 2 74 217 2 74 219 2 73 220 2 73 221 2 73 221 2 73 222 2 73 223 2 73 224 2 73 224 2 73 225 2 73 226 2 73 227 2 72 228 2 72 228 2 72 229 2 72 230 2 72 231 2 72 232 2 72 233 2 72 234 2 72 234 2 72 235 2 72 236 2 71 237 2 71 238 2 71 238 2 71 239 2 71 240 2 71 241 2 71 241 2 71 242 2 71 244 2 71 244 2 71 245 2 71 246 2 70 246 2 70 247 2 70 248 2 70 249 2 70 249 2 70 250 2 70 251 2 70 252 2 70 252 2 70 253 2 70 255 1 70
0 5 89 1 5 89 2 5 89 3 5 89 5 5 89 6 5 89 7 5 89 8 5 89 10 5 89 11 5 89 12 5 89 14 5 89 15 5 89 16 5 89 17 5 89 20 5 89 21 5 89 22 5 89 24 5 89 25 5 89 26 5 89 28 5 89 29 5 89 30 5 89 31 5 89 33 5 89 34 5 89 35 5 89 36 5 89 38 5 89 40 5 89 42 5 89 43 5 89 44 5 89 45 5 89 47 5 89 48 5 89 49 5 89 50 5 89 52 5 89 53 5 89 54 5 89 56 5 89 57 5 89 58 5 89 61 5 89 62 5 89 63 5 89 65 5 89 66 5 89 67 5 89 68 5 89 70 5 89 71 5 89 72 5 89 73 5 89 75 5 89 76 5 89 77 5 89 79 5 89 81 5 89 82 5 89 84 5 89 85 5 89 86 5 89 87 5 89 89 5 89 90 5 89 91 5 88 92 5 88 93 5 88 94 5 88 95 5 88 97 5 88 98 5 88 100 5 87 101 5 87 102 5 87 103 4 87 104 4 87 105 4 87 106 4 87 107 4 86 109 4 86 110 4 86 111 4 86 112 4 86 113 4 86 114 4 86 115 4 85 117 4 85 118 4 85 119 4 85 120 4 85 121 4 85 122 4 85 123 4 84 124 4 84 125 4 84 126 4 84 127 4 84 128 4 84 129 4 84 130 4 84 131 4 83 133 4 83 134 4 83 135 4 83 136 4 83 137 4 83 138 4 83 139 4 82 140 4 82 141 4 82 142 4 82 143 4 82 144 4 82 145 4 82 146 4 82 147 4 82 149 4 81 150 4 81 151 4 81 152 4 81 153 4 81 154 4 81 155 4 81 156 4 81 157 4 80 158 4 80 159 4 80 160 4 80 160 4 80 161 4 80 162 4 80 164 4 80 165 4 79 166 4 79 167 4 79 168 4 79 169 4 79 170 4 79 171 4 79 172 4 79 172 4 79 173 4 79 174 4 78 175 4 78 176 4 78 177 4 78 179 4 78 180 4 78 180 4 78 181 4 78 182 4 77 183 4 77 184 4 77 185 4 77 186 4 77 187 4 77 187 4 77 188 4 77 189 4 77 190 4 77 191 4 76 193 4 76 193 4 76 194 4 76 195 4 76 196 4 76 197 4 76 198 4 76 199 4 76 199 4 76 200 4 75 201 4 75 202 4 75 203 4 75 204 4 75 204 4 75 206 4 75 207 4 75 208 4 75 208 4 75 209 4 74 210 4 74 211 4 74 212 4 74 213 4 74 213 4 74 214 4 74 215 4 74 216 4 74 217 4 74 217 4 74 219 4 73 220 4 73 221 4 73 221 4 73 222 4 73 223 4 73 224 4 73 224 4 73 225 4 73 226 4 73 227 4 72 228 4 72 228 4 72 229 4 72 230 4 72 231 4 72 232 4 72 233 4 72 234 4 72 234 4 72 235 4 72 236 4 71 237 4 71 238 4 71 238 4 71 239 4 71 240 4 71 241 4 71 241 4 71 242 4 71 244 4 71 244 4 71 245 4 71 246 4 70 246 4 70 247 4 70 248 4 70 249 4 70 249 4 70 250 4 70 251 4 70 252 4 70 252 4 70 253 4 70 255 3 69
0 6 89 1 6 89 2 6 89 3 6 89 5 6 89 6 6 89 7 6 89 8 6 89 10 6 89 11 6 89 12 6 89 14 6 89 15 6 89 16 6 89 17 6 89 20 6 89 21 6 89 22 6 89 24 6 89 25 6 89 26 6 89 28 6 89 29 6 89 30 6 89 31 6 89 33 6 89 34 6 89 35 6 89 36 6 89 38 6 89 40 6 89 42 6 89 43 6 89 44 6 89 45 6 89 47 6 89 48 6 89 49 6 89 50 6 89 52 6 89 53 6 89 54 6 89 56 6 89 57 6 89 58 6 89 61 6 89 62 6 89 63 6 89 65 6 89 66 6 89 67 6 89 68 6 89 70 6 89 71 6 89 72 6 89 73 6 89 75 6 89 76 6 89 77 6 89 79 6 89 81 6 89 82 6 89 84 6 89 85 6 89 86 6 89 87 6 89 89 6 89 90 6 89 91 6 88 92 6 88 93 6 88 94 6 88 95 6 88 97 6 88 98 6 88 100 6 87 101 6 87 102 6 87 103 6 87 104 6 87 105 6 87 106 6 87 107 6 86 109 6 86 110 6 86 111 6 86 112 6 86 113 6 86 114 6 86 115 6 85 117 6 85 118 6 85 119 6 85 120 6 85 121 6 85 122 6 85 123 6 84 124 6 84 125 6 84 126 6 84 127 6 84 128 6 84 129 6 84 130 6 84 131 5 83 133 5 83 134 5 83 135 5 83 136 5 83 137 5 83 138 5 83 139 5 82 140 5 82 141 5 82 142 5 82 143 5 82 144 5 82 145 5 82 146 5 82 147 5 82 149 5 81 150 5 81 151 5 81 152 5 81 153 5 81 154 5 81 155 5 81 156 5 81 157 5 80 158 5 80 159 5 80 160 5 80 160 5 80 161 5 80 162 5 80 164 5 80 165 5 79 166 5 79 167 5 79 168 5 79 169 5 79 170 5 79 171 5 79 172 5 79 172 5 79 173 5 79 174 5 78 175 5 78 176 5 78 177 5 78 179 5 78 180 5 78 180 5 78 181 5 78 182 5 77 183 5 77 184 5 77 185 5 77 186 5 77 187 5 77 187 5 77 188 5 77 189 5 77 190 5 77 191 5 76 193 5 76 193 5 76 194 5 76 195 5 76 196 5 76 197 5 76 198 5 76 199 5 76 199 5 76 200 5 75 201 5 75 202 5 75 203 5 75 204 5 75 204 5 75 206 5 75 207 5 75 208 5 75 208 5 75 209 5 74 210 5 74 211 5 74 212 5 74 213 5 74 213 5 74 214 5 74 215 5 74 216 5 74 217 5 74 217 5 74 219 5 73 220 5 73 221 5 73 221 5 73 222 5 73 223 5 73 224 5 73 224 5 73 225 5 73 226 5 73 227 5 72 228 5 72 228 5 72 229 5 72 230 5 72 231 5 72 232 5 72 233 5 72 234 5 72 234 5 72 235 5 72 236 5 71 237 5 71 238 5 71 238 5 71 239 5 71 240 5 71 241 5 71 241 5 71 242 5 71 244 5 71 244 5 71 245 5 71 246 5 70 246 5 70 247 5 70 248 5 70 249 5 70 249 5 70 250 5 70 251 5 70 252 5 70 252 5 70 253 5 70 255 5 69
0 8 89 1 8 89 2 8 89 3 8 89 5 8 89 6 8 89 7 8 89 8 8 89 10 8 89 11 8 89 12 8 89 14 8 89 15 8 89 16 8 89 17 8 89 20 8 89 21 8 89 22 8 89 24 8 89 25 8 89 26 8 89 28 8 89 29 8 89 30 8 89 31 8 89 33 8 89 34 8 89 35 8 89 36 8 89 38 8 89 40 8 89 42 8 89 43 8 89 44 8 89 45 8 89 47 8 89 48 8 89 49 8 89 50 8 89 52 8 89 53 8 89 54 8 89 56 8 89 57 8 89 58 8 89 61 8 89 62 8 89 63 8 89 65 8 89 66 8 89 67 8 89 68 8 89 70 8 89 71 8 89 72 8 89 73 8 89 75 8 89 76 8 89 77 8 89 79 8 89 81 8 89 82 8 89 84 8 89 85 8 89 86 8 89 87 8 89 89 8 89 90 8 89 91 8 88 92 8 88 93 8 88 94 8 88 95 8 88 97 8 88 98 8 88 100 8 87 101 8 87 102 8 87 103 8 87 104 8 87 105 8 87 106 8 87 107 8 86 109 8 86 110 8 86 111 8 86 112 8 86 113 8 86 114 8 86 115 8 85 117 8 85 118 8 85 119 8 85 120 8 85 121 8 85 122 8 85 123 8 84 124 8 84 125 8 84 126 8 84 127 8 84 128 8 84 129 8 84 130 8 84 131 8 83 133 8 83 134 8 83 135 8 83 136 8 83 137 8 83 138 8 83 139 8 82 140 8 82 141 8 82 142 8 82 143 8 82 144 8 82 145 8 82 146 8 82 147 8 82 149 8 81 150 8 81 151 8 81 152 8 81 153 8 81 154 8 81 155 8 81 156 8 81 157 8 80 158 8 80 159 8 80 160 8 80 160 8 80 161 8 80 162 8 80 164 8 80 165 7 79 166 7 79 167 7 79 168 7 79 169 7 79 170 7 79 171 7 79 172 7 79 172 7 79 173 7 79 174 7 78 175 7 78 176 7 78 177 7 78 179 7 78 180 7 78 180 7 78 181 7 78 182 7 77 183 7 77 184 7 77 185 7 77 186 7 77 187 7 77 187 7 77 188 7 77 189 7 77 190 7 77 191 7 76 193 7 76 193 7 76 194 7 76 195 7 76 196 7 76 197 7 76 198 7 76 199 7 76 199 7 76 200 7 75 201 7 75 202 7 75 203 7 75 204 7 75 204 7 75 206 7 75 207 7 75 208 7 75 208 7 75 209 7 74 210 7 74 211 7 74 212 7 74 213 7 74 213 7 74 214 7 74 215 7 74 216 7 74 217 7 74 217 7 74 219 7 73 220 7 73 221 7 73 221 7 73 222 7 73 223 7 73 224 7 73 224 7 73 225 7 73 226 7 73 227 7 72 228 7 72 228 7 72 229 7 72 230 7 72 231 7 72 232 7 72 233 7 72 234 7 72 234 7 72 235 7 72 236 7 71 237 7 71 238 7 71 238 7 71 239 7 71 240 7 71 241 7 71 241 7 71 242 7 71 244 7 71 244 7 71 245 7 71 246 7 70 246 7 70 247 7 70 248 7 70 249 7 70 249 7 70 250 7 70 251 7 70 252 7 70 252 7 70 253 7 70 255 7 69
0 10 89 1 10 89 2 10 89 3 10 89 5 10 89 6 10 89 7 10 89 8 10 89 10 10 89 11 10 89 12 10 89 14 10 89 15 10 89 16 10 89 17 10 89 20 10 89 21 10 89 22 10 89 24 10 89 25 10 89 26 10 89 28 10 89 29 10 89 30 10 89 31 10 89 33 10 89 34 10 89 35 10 89 36 10 89 38 10 89 40 10 89 42 10 89 43 10 89 44 10 89 45 10 89 47 10 89 48 10 89 49 10 89 50 10 89 52 10 89 53 10 89 54 10 89 56 10 89 57 10 89 58 10 89 61 10 89 62 10 89 63 10 89 65 10 89 66 10 89 67 10 89 68 10 89 70 10 89 71 10 89 72 10 89 73 10 89 75 10 89 76 10 89 77 10 89 79 10 89 81 10 89 82 10 89 84 10 89 85 10 89 86 10 89 87 10 89 89 10 89 90 10 89 91 10 88 92 10 88 93 10 88 94 10 88 95 10 88 97 10 88 98 10 88 100 10 87 101 10 87 102 10 87 103 9 87 104 9 87 105 9 87 106 9 87 107 9 86 109 9 86 110 9 86 111 9 86 112 9 86 113 9 86 114 9 86 115 9 85 117 9 85 118 9 85 119 9 85 120 9 85 121 9 85 122 9 85 123 9 84 124 9 84 125 9 84 126 9 84 127 9 84 128 9 84 129 9 84 130 9 84 131 9 83 133 9 83 134 9 83 135 9 83 136 9 83 137 9 83 138 9 83 139 9 82 140 9 82 141 9 82 142 9 82 143 9 82 144 9 82 145 9 82 146 9 82 147 9 82 149 9 81 150 9 81 151 9 81 152 9 81 153 9 81 154 9 81 155 9 81 156 9 81 157 9 80 158 9 80 159 9 80 160 9 80 160 9 80 161 9 80 162 9 80 164 9 80 165 9 79 166 9 79 167 9 79 168 9 79 169 9 79 170 9 79 171 9 79 172 9 79 172 9 79 173 9 79 174 9 78 175 9 78 176 8 78 177 8 78 179 8 78 180 8 78 180 8 78 181 8 78 182 8 77 183 8 77 184 8 77 185 8 77 186 8 77 187 8 77 187 8 77 188 8 77 189 8 77 190 8 77 191 8 76 193 8 76 193 8 76 194 8 76 195 8 76 196 8 76 197 8 76 198 8 76 199 8 76 199 8 76 200 8 75 201 8 75 202 8 75 203 8 75 204 8 75 204 8 75 206 8 75 207 8 75 208 8 75 208 8 75 209 8 74 210 8 74 211 8 74 212 8 74 213 8 74 213 8 74 214 8 74 215 8 74 216 8 74 217 8 74 217 8 74 219 8 73 220 8 73 221 8 73 221 8 73 222 8 73 223 8 73 224 8 73 224 8 73 225 8 73 226 8 73 227 8 72 228 8 72 228 8 72 229 8 72 230 8 72 231 8 72 232 8 72 233 8 72 234 8 72 234 8 72 235 8 72 236 8 71 237 8 71 238 8 71 238 8 71 239 8 71 240 8 71 241 8 71 241 8 71 242 8 71 244 8 71 244 8 71 245 8 71 246 8 70 246 8 70 247 8 70 248 8 70 249 8 70 249 8 70 250 8 70 251 8 70 252 8 70 252 8 70 253 8 70 255 8 70
0 11 89 1 11 89 2 11 89 3 11 89 5 11 89 6 11 89 7 11 89 8 11 89 10 11 89 11 11 89 12 11 89 14 11 89 15 11 89 16 11 89 17 11 89 20 11 89 21 11 89 22 11 89 24 11 89 25 11 89 26 11 89 28 11 89 29 11 89 30 11 89 31 11 89 33 11 89 34 11 89 35 11 89 36 11 89 38 11 89 40 11 89 42 11 89 43 11 89 44 11 89 45 11 89 47 11 89 48 11 89 49 11 89 50 11 89 52 11 89 53 11 89 54 11 89 56 11 89 57 11 89 58 11 89 61 11 89 62 11 89 63 11 89 65 11 89 66 11 89 67 11 89 68 11 89 70 11 89 71 11 89 72 11 89 73 11 89 75 11 89 76 11 89 77 11 89 79 11 89 81 11 89 82 11 89 84 11 89 85 11 89 86 11 89 87 11 89 89 11 89 90 11 89 91 11 88 92 11 88 93 11 88 94 11 88 95 11 88 97 11 88 98 11 88 100 11 87 101 11 87 102 11 87 103 11 87 104 11 87 105 11 87 106 11 87 107 11 86 109 11 86 110 11 86 111 11 86 112 11 86 113 11 86 114 11 86 115 11 85 117 11 85 118 11 85 119 10 85 120 10 85 121 10 85 122 10 85 123 10 84 124 10 84 125 10 84 126 10 84 127 10 84 128 10 84 129 10 84 130 10 84 131 10 83 133 10 83 134 10 83 135 10 83 136 10 83 137 10 83 138 10 83 139 10 82 140 10 82 141 10 82 142 10 82 143 10 82 144 10 82 145 10 82 146 10 82 147 10 82 149 10 81 150 10 81 151 10 81 152 10 81 153 10 81 154 10 81 155 10 81 156 10 81 157 10 80 158 10 80 159 10 80 160 10 80 160 10 80 161 10 80 162 10 80 164 10 80 165 10 79 166 10 79 167 10 79 168 10 79 169 10 79 170 10 79 171 10 79 172 10 79 172 10 79 173 10 79 174 10 78 175 10 78 176 10 78 177 10 78 179 10 78 180 10 78 180 10 78 181 10 78 182 10 77 183 10 77 184 10 77 185 9 77 186 9 77 187 9 77 187 9 77 188 9 77 189 9 77 190 9 77 191 9 76 193 9 76 193 9 76 194 9 76 195 9 76 196 9 76 197 9 76 198 9 76 199 9 76 199 9 76 200 9 75 201 9 75 202 9 75 203 9 75 204 9 75 204 9 75 206 9 75 207 9 75 208 9 75 208 9 75 209 9 74 210 9 74 211 9 74 212 9 74 213 9 74 213 9 74 214 9 74 215 9 74 216 9 74 217 9 74 217 9 74 219 9 73 220 9 73 221 9 73 221 9 73 222 9 73 223 9 73 224 9 73 224 9 73 225 9 73 226 9 73 227 9 72 228 9 72 228 9 72 229 9 72 230 9 72 231 9 72 232 9 72 233 9 72 234 9 72 234 9 72 235 9 72 236 9 71 237 9 71 238 9 71 238 9 71 239 9 71 240 9 71 241 9 71 241 9 71 242 9 71 244 9 71 244 9 71 245 9 71 246 9 70 246 9 70 247 9 70 248 9 70 249 9 70 249 9 70 250 9 70 251 9 70 252 9 70 252 9 70 253 9 70 255 8 70
0 14 89 1 14 89 2 14 89 3 14 89 5 14 89 6 14 89 7 14 89 8 14 89 10 14 89 11 14 89 12 14 89 14 14 89 15 14 89 16 14 89 17 14 89 20 14 89 21 14 89 22 14 89 24 14 89 25 14 89 26 14 89 28 14 89 29 14 89 30 14 89 31 14 89 33 14 89 34 14 89 35 14 89 36 14 89 38 14 89 40 14 89 42 14 89 43 14 89 44 14 89 45 14 89 47 14 89 48 14 89 49 14 89 50 14 89 52 14 89 53 14 89 54 14 89 56 14 89 57 14 89 58 14 89 61 14 89 62 14 89 63 14 89 65 14 89 66 14 89 67 14 89 68 14 89 70 14 89 71 14 89 72 14 89 73 14 89 75 14 89 76 14 89 77 14 89 79 14 89 81 14 89 82 14 89 84 14 89 85 14 89 86 14 89 87 14 89 89 14 89 90 14 89 91 13 88 92 13 88 93 13 88 94 13 88 95 13 88 97 13 88 98 13 88 100 13 87 101 13 87 102 13 87 103 13 87 104 13 87 105 13 87 106 13 87 107 13 86 109 13 86 110 13 86 111 13 86 112 13 86 113 13 86 114 13 86 115 13 85 117 13 85 118 13 85 119 13 85 120 13 85 121 13 85 122 13 85 123 13 84 124 13 84 125 13 84 126 13 84 127 13 84 128 13 84 129 13 84 130 13 84 131 13 83 133 13 83 134 13 83 135 13 83 136 13 83 137 13 83 138 13 83 139 13 82 140 13 82 141 13 82 142 12 82 143 12 82 144 12 82 145 12 82 146 12 82 147 12 82 149 12 81 150 12 81 151 12 81 152 12 81 153 12 81 154 12 81 155 12 81 156 12 81 157 12 80 158 12 80 159 12 80 160 12 80 160 12 80 161 12 80 162 12 80 164 12 80 165 12 79 166 12 79 167 12 79 168 12 79 169 12 79 170 12 79 171 12 79 172 12 79 172 12 79 173 12 79 174 12 78 175 12 78 176 12 78 177 12 78 179 12 78 180 12 78 180 12 78 181 12 78 182 12 77 183 12 77 184 12 77 185 12 77 186 12 77 187 12 77 187 12 77 188 12 77 189 12 77 190 12 77 191 12 76 193 12 76 193 12 76 194 12 76 195 12 76 196 12 76 197 11 76 198 11 76 199 11 76 199 11 76 200 11 75 201 11 75 202 11 75 203 11 75 204 11 75 204 11 75 206 11 75 207 11 75 208 11 75 208 11 75 209 11 74 210 11 74 211 11 74 212 11 74 213 11 74 213 11 74 214 11 74 215 11 74 216 11 74 217 11 74 217 11 74 219 11 73 220 11 73 221 11 73 221 11 73 222 11 73 223 11 73 224 11 73 224 11 73 225 11 73 226 11 73 227 11 72 228 11 72 228 11 72 229 11 72 230 11 72 231 11 72 232 11 72 233 11 72 234 11 72 234 11 72 235 11 72 236 11 71 237 11 71 238 11 71 238 11 71 239 11 71 240 11 71 241 11 71 241 11 71 242 11 71 244 11 71 244 11 71 245 11 71 246 11 70 246 11 70 247 11 70 248 11 70 249 11 70 249 11 70 250 11 70 251 11 70 252 11 70 252 11 70 253 11 70 255 10 70
0 15 89 1 15 89 2 15 89 3 15 89 5 15 89 6 15 89 7 15 89 8 15 89 10 15 89 11 15 89 12 15 89 14 15 89 15 15 89 16 15 89 17 15 89 20 15 89 21 15 89 22 15 89 24 15 89 25 15 89 26 15 89 28 15 89 29 15 89 30 15 89 31 15 89 33 15 89 34 15 89 35 15 89 36 15 89 38 15 89 40 15 89 42 15 89 43 15 89 44 15 89 45 15 89 47 15 89 48 15 89 49 15 89 50 15 89 52 15 89 53 15 89 54 15 89 56 15 89 57 15 89 58 15 89 61 15 89 62 15 89 63 15 89 65 15 89 66 15 89 67 15 89 68 15 89 70 15 89 71 15 89 72 15 89 73 15 89 75 15 89 76 15 89 77 15 89 79 15 89 81 15 89 82 15 89 84 15 89 85 15 89 86 15 89 87 15 89 89 15 89 90 15 89 91 15 88 92 15 88 93 15 88 94 15 88 95 15 88 97 15 88 98 15 88 100 15 87 101 15 87 102 15 87 103 14 87 104 14 87 105 14 87 106 14 87 107 14 86 109 14 86 110 14 86 111 14 86 112 14 86 113 14 86 114 14 86 115 14 85 117 14 85 118 14 85 119 14 85 120 14 85 121 14 85 122 14 85 123 14 84 124 14 84 125 14 84 126 14 84 127 14 84 128 14 84 129 14 84 130 14 84 131 14 83 133 14 83 134 14 83 135 14 83 136 14 83 137 14 83 138 14 83 139 14 82 140 14 82 141 14 82 142 14 82 143 14 82 144 14 82 145 14 82 146 14 82 147 14 82 149 14 81 150 14 81 151 13 81 152 13 81 153 13 81 154 13 81 155 13 81 156 13 81 157 13 80 158 13 80 159 13 80 160 13 80 160 13 80 161 13 80 162 13 80 164 13 80 165 13 79 166 13 79 167 13 79 168 13 79 169 13 79 170 13 79 171 13 79 172 13 79 172 13 79 173 13 79 174 13 78 175 13 78 176 13 78 177 13 78 179 13 78 180 13 78 180 13 78 181 13 78 182 13 77 183 13 77 184 13 77 185 13 77 186 13 77 187 13 77 187 13 77 188 13 77 189 13 77 190 13 77 191 13 76 193 13 76 193 13 76 194 13 76 195 13 76 196 13 76 197 13 76 198 13 76 199 13 76 199 13 76 200 13 75 201 13 75 202 12 75 203 12 75 204 12 75 204 12 75 206 12 75 207 12 75 208 12 75 208 12 75 209 12 74 210 12 74 211 12 74 212 12 74 213 12 74 213 12 74 214 12 74 215 12 74 216 12 74 217 12 74 217 12 74 219 12 73 220 12 73 221 12 73 221 12 73 222 12 73 223 12 73 224 12 73 224 12 73 225 12 73 226 12 73 227 12 72 228 12 72 228 12 72 229 12 72 230 12 72 231 12 72 232 12 72 233 12 72 234 12 72 234 12 72 235 12 72 236 12 71 237 12 71 238 12 71 238 12 71 239 12 71 240 12 71 241 12 71 241 12 71 242 12 71 244 12 71 244 12 71 245 12 71 246 12 70 246 12 70 247 12 70 248 12 70 249 12 70 249 12 70 250 12 70 251 12 70 252 12 70 252 12 70 253 12 70 255 12 69
0 17 89 1 17 89 2 17 89 3 17 89 5 17 89 6 17 89 7 17 89 8 17 89 10 17 89 11 17 89 12 17 89 14 17 89 15 17 89 16 17 89 17 17 89 20 17 89 21 17 89 22 17 89 24 17 89 25 17 89 26 17 89 28 17 89 29 17 89 30 17 89 31 17 89 33 17 89 34 17 89 35 17 89 36 17 89 38 17 89 40 17 89 42 17 89 43 17 89 44 17 89 45 17 89 47 17 89 48 17 89 49 17 89 50 17 89 52 17 89 53 17 89 54 17 89 56 17 89 57 17 89 58 17 89 61 17 89 62 17 89 63 17 89 65 17 89 66 17 89 67 17 89 68 17 89 70 17 89 71 17 89 72 17 89 73 17 89 75 17 89 76 17 89 77 17 89 79 17 89 81 17 89 82 17 89 84 17 89 85 17 89 86 17 89 87 17 89 89 17 89 90 17 89 91 17 88 92 17 88 93 17 88 94 17 88 95 17 88 97 17 88 98 17 88 100 17 87 101 17 87 102 17 87 103 17 87 104 17 87 105 17 87 106 17 87 107 17 86 109 17 86 110 17 86 111 17 86 112 17 86 113 17 86 114 17 86 115 17 85 117 17 85 118 17 85 119 17 85 120 17 85 121 17 85 122 17 85 123 16 84 124 16 84 125 16 84 126 16 84 127 16 84 128 16 84 129 16 84 130 16 84 131 16 83 133 16 83 134 16 83 135 16 83 136 16 83 137 16 83 138 16 83 139 16 82 140 16 82 141 16 82 142 16 82 143 16 82 144 16 82 145 16 82 146 16 82 147 16 82 149 16 81 150 16 81 151 16 81 152 16 81 153 16 81 154 16 81 155 16 81 156 16 81 157 16 80 158 16 80 159 16 80 160 16 80 160 16 80 161 16 80 162 16 80 164 16 80 165 15 79 166 15 79 167 15 79 168 15 79 169 15 79 170 15 79 171 15 79 172 15 79 172 15 79 173 15 79 174 15 78 175 15 78 176 15 78 177 15 78 179 15 78 180 15 78 180 15 78 181 15 78 182 15 77 183 15 77 184 15 77 185 15 77 186 15 77 187 15 77 187 15 77 188 15 77 189 15 77 190 15 77 191 15 76 193 15 76 193 15 76 194 15 76 195 15 76 196 15 76 197 15 76 198 15 76 199 15 76 199 15 76 200 15 75 201 15 75 202 15 75 203 15 75 204 15 75 204 15 75 206 15 75 207 15 75 208 15 75 208 15 75 209 14 74 210 14 74 211 14 74 212 14 74 213 14 74 213 14 74 214 14 74 215 14 74 216 14 74 217 14 74 217 14 74 219 14 73 220 14 73 221 14 73 221 14 73 222 14 73 223 14 73 224 14 73 224 14 73 225 14 73 226 14 73 227 14 72 228 14 72 228 14 72 229 14 72 230 14 72 231 14 72 232 14 72 233 14 72 234 14 72 234 14 72 235 14 72 236 14 71 237 14 71 238 14 71 238 14 71 239 14 71 240 14 71 241 14 71 241 14 71 242 14 71 244 14 71 244 14 71 245 14 71 246 14 70 246 14 70 247 14 70 248 14 70 249 14 70 249 14 70 250 14 70 251 14 70 252 14 70 252 14 70 253 14 70 255 14 70
0 19 89 1 19 89 2 19 89 3 19 89 5 19 89 6 19 89 7 19 89 8 19 89 10 19 89 11 19 89 12 19 89 14 19 89 15 19 89 16 19 89 17 19 89 20 19 89 21 19 89 22 19 89 24 19 89 25 19 89 26 19 89 28 19 89 29 19 89 30 19 89 31 19 89 33 19 89 34 19 89 35 19 89 36 19 89 38 19 89 40 19 89 42 19 89 43 19 89 44 19 89 45 19 89 47 19 89 48 19 89 49 19 89 50 19 89 52 19 89 53 19 89 54 19 89 56 19 89 57 19 89 58 19 89 61 19 89 62 19 89 63 19 89 65 19 89 66 19 89 67 19 89 68 19 89 70 19 89 71 19 89 72 19 89 73 19 89 75 19 89 76 19 89 77 19 89 79 19 89 81 19 89 82 19 89 84 19 89 85 19 89 86 19 89 87 19 89 89 19 89 90 19 89 91 19 88 92 19 88 93 19 88 94 18 88 95 18 88 97 18 88 98 18 88 100 18 87 101 18 87 102 18 87 103 18 87 104 18 87 105 18 87 106 18 87 107 18 86 109 18 86 110 18 86 111 18 86 112 18 86 113 18 86 114 18 86 115 18 85 117 18 85 118 18 85 119 18 85 120 18 85 121 18 85 122 18 85 123 18 84 124 18 84 125 18 84 126 18 84 127 18 84 128 18 84 129 18 84 130 18 84 131 17 83 133 17 83 134 17 83 135 17 83 136 17 83 137 17 83 138 17 83 139 17 82 140 17 82 141 17 82 142 17 82 143 17 82 144 17 82 145 17 82 146 17 82 147 17 82 149 17 81 150 17 81 151 17 81 152 17 81 153 17 81 154 17 81 155 17 81 156 17 81 157 17 80 158 17 80 159 17 80 160 17 80 160 17 80 161 17 80 162 17 80 164 17 80 165 17 79 166 17 79 167 17 79 168 17 79 169 17 79 170 17 79 171 16 79 172 16 79 172 16 79 173 16 79 174 16 78 175 16 78 176 16 78 177 16 78 179 16 78 180 16 78 180 16 78 181 16 78 182 16 77 183 16 77 184 16 77 185 16 77 186 16 77 187 16 77 187 16 77 188 16 77 189 16 77 190 16 77 191 16 76 193 16 76 193 16 76 194 16 76 195 16 76 196 16 76 197 16 76 198 16 76 199 16 76 199 16 76 200 16 75 201 16 75 202 16 75 203 16 75 204 16 75 204 16 75 206 16 75 207 16 75 208 16 75 208 16 75 209 16 74 210 16 74 211 16 74 212 15 74 213 15 74 213 15 74 214 15 74 215 15 74 216 15 74 217 15 74 217 15 74 219 15 73 220 15 73 221 15 73 221 15 73 222 15 73 223 15 73 224 15 73 224 15 73 225 15 73 226 15 73 227 15 72 228 15 72 228 15 72 229 15 72 230 15 72 231 15 72 232 15 72 233 15 72 234 15 72 234 15 72 235 15 72 236 15 71 237 15 71 238 15 71 238 15 71 239 15 71 240 15 71 241 15 71 241 15 71 242 15 71 244 15 71 244 15 71 245 15 71 246 15 70 246 15 70 247 15 70 248 15 70 249 15 70 249 15 70 250 15 70 251 15 70 252 15 70 252 15 70 253 15 70 255 15 69
0 21 89 1 21 89 2 21 89 3 21 89 5 21 89 6 21 89 7 21 89 8 21 89 10 21 89 11 21 89 12 21 89 14 21 89 15 21 89 16 21 89 17 21 89 20 21 89 21 21 89 22 21 89 24 21 89 25 21 89 26 21 89 28 21 89 29 21 89 30 21 89 31 21 89 33 21 89 34 21 89 35 21 89 36 21 89 38 21 89 40 21 89 42 21 89 43 21 89 44 21 89 45 21 89 47 21 89 48 21 89 49 21 89 50 21 89 52 21 89 53 21 89 54 21 89 56 21 89 57 21 89 58 21 89 61 21 89 62 21 89 63 21 89 65 21 89 66 21 89 67 21 89 68 21 89 70 21 89 71 21 89 72 21 89 73 21 89 75 21 89 76 21 89 77 21 89 79 21 89 81 21 89 82 21 89 84 21 89 85 21 89 86 21 89 87 21 89 89 21 89 90 21 89 91 21 88 92 21 88 93 21 88 94 21 88 95 21 88 97 21 88 98 21 88 100 21 87 101 21 87 102 21 87 103 21 87 104 21 87 105 21 87 106 21 87 107 21 86 109 21 86 110 21 86 111 21 86 112 20 86 113 20 86 114 20 86 115 20 85 117 20 85 118 20 85 119 20 85 120 20 85 121 20 85 122 20 85 123 20 84 124 20 84 125 20 84 126 20 84 127 20 84 128 20 84 129 20 84 130 20 84 131 20 83 133 20 83 134 20 83 135 20 83 136 20 83 137 20 83 138 20 83 139 20 82 140 20 82 141 20 82 142 20 82 143 20 82 144 20 82 145 19 82 146 19 82 147 19 82 149 19 81 150 19 81 151 19 81 152 19 81 153 19 81 154 19 81 155 19 81 156 19 81 157 19 80 158 19 80 159 19 80 160 19 80 160 19 80 161 19 80 162 19 80 164 19 80 165 19 79 166 19 79 167 19 79 168 19 79 169 19 79 170 19 79 171 19 79 172 19 79 172 19 79 173 19 79 174 19 78 175 19 78 176 19 78 177 19 78 179 19 78 180 19 78 180 18 78 181 18 78 182 18 77 183 18 77 184 18 77 185 18 77 186 18 77 187 18 77 187 18 77 188 18 77 189 18 77 190 18 77 191 18 76 193 18 76 193 18 76 194 18 76 195 18 76 196 18 76 197 18 76 198 18 76 199 18 76 199 18 76 200 18 75 201 18 75 202 18 75 203 18 75 204 18 75 204 18 75 206 18 75 207 18 75 208 18 75 208 18 75 209 18 74 210 18 74 211 18 74 212 18 74 213 18 74 213 18 74 214 18 74 215 18 74 216 18 74 217 17 74 217 17 74 219 17 73 220 17 73 221 17 73 221 17 73 222 17 73 223 17 73 224 17 73 224 17 73 225 17 73 226 17 73 227 17 72 228 17 72 228 17 72 229 17 72 230 17 72 231 17 72 232 17 72 233 17 72 234 17 72 234 17 72 235 17 72 236 17 71 237 17 71 238 17 71 238 17 71 239 17 71 240 17 71 241 17 71 241 17 71 242 17 71 244 17 71 244 17 71 245 17 71 246 17 70 246 17 70 247 17 70 248 17 70 249 17 70 249 17 70 250 17 70 251 17 70 252 17 70 252 17 70 253 17 70 255 16 70
0 22 89 1 22 89 2 22 89 3 22 89 5 22 89 6 22 89 7 22 89 8 22 89 10 22 89 11 22 89 12 22 89 14 22 89 15 22 89 16 22 89 17 22 89 20 22 89 21 22 89 22 22 89 24 22 89 25 22 89 26 22 89 28 22 89 29 22 89 30 22 89 31 22 89 33 22 89 34 22 89 35 22 89 36 22 89 38 22 89 40 22 89 42 22 89 43 22 89 44 22 89 45 22 89 47 22 89 48 22 89 49 22 89 50 22 89 52 22 89 53 22 89 54 22 89 56 22 89 57 22 89 58 22 89 61 22 89 62 22 89 63 22 89 65 22 89 66 22 89 67 22 89 68 22 89 70 22 89 71 22 89 72 22 89 73 22 89 75 22 89 76 22 89 77 22 89 79 22 89 81 22 89 82 22 89 84 22 89 85 22 89 86 22 89 87 22 89 89 22 89 90 22 89 91 22 88 92 22 88 93 22 88 94 22 88 95 22 88 97 22 88 98 22 88 100 22 87 101 22 87 102 22 87 103 22 87 104 22 87 105 22 87 106 22 87 107 22 86 109 22 86 110 22 86 111 22 86 112 22 86 113 22 86 114 22 86 115 22 85 117 22 85 118 22 85 119 21 85 120 21 85 121 21 85 122 21 85 123 21 84 124 21 84 125 21 84 126 21 84 127 21 84 128 21 84 129 21 84 130 21 84 131 21 83 133 21 83 134 21 83 135 21 83 136 21 83 137 21 83 138 21 83 139 21 82 140 21 82 141 21 82 142 21 82 143 21 82 144 21 82 145 21 82 146 21 82 147 21 82 149 21 81 150 21 81 151 20 81 152 20 81 153 20 81 154 20 81 155 20 81 156 20 81 157 20 80 158 20 80 159 20 80 160 20 80 160 20 80 161 20 80 162 20 80 164 20 80 165 20 79 166 20 79 167 20 79 168 20 79 169 20 79 170 20 79 171 20 79 172 20 79 172 20 79 173 20 79 174 20 78 175 20 78 176 20 78 177 20 78 179 20 78 180 20 78 180 20 78 181 20 78 182 20 77 183 20 77 184 20 77 185 19 77 186 19 77 187 19 77 187 19 77 188 19 77 189 19 77 190 19 77 191 19 76 193 19 76 193 19 76 194 19 76 195 19 76 196 19 76 197 19 76 198 19 76 199 19 76 199 19 76 200 19 75 201 19 75 202 19 75 203 19 75 204 19 75 204 19 75 206 19 75 207 19 75 208 19 75 208 19 75 209 19 74 210 19 74 211 19 74 212 19 74 213 19 74 213 19 74 214 19 74 215 19 74 216 19 74 217 19 74 217 19 74 219 18 73 220 18 73 221 18 73 221 18 73 222 18 73 223 18 73 224 18 73 224 18 73 225 18 73 226 18 73 227 18 72 228 18 72 228 18 72 229 18 72 230 18 72 231 18 72 232 18 72 233 18 72 234 18 72 234 18 72 235 18 72 236 18 71 237 18 71 238 18 71 238 18 71 239 18 71 240 18 71 241 18 71 241 18 71 242 18 71 244 18 71 244 18 71 245 18 71 246 18 70 246 18 70 247 18 70 248 18 70 249 18 70 249 18 70 250 18 70 251 18 70 252 18 70 252 18 70 253 18 70 255 17 69
0 24 89 1 24 89 2 24 89 3 24 89 5 24 89 6 24 89 7 24 89 8 24 89 10 24 89 11 24 89 12 24 89 14 24 89 15 24 89 16 24 89 17 24 89 20 24 89 21 24 89 22 24 89 24 24 89 25 24 89 26 24 89 28 24 89 29 24 89 30 24 89 31 24 89 33 24 89 34 24 89 35 24 89 36 24 89 38 24 89 40 24 89 42 24 89 43 24 89 44 24 89 45 24 89 47 24 89 48 24 89 49 24 89 50 24 89 52 24 89 53 24 89 54 24 89 56 24 89 57 24 89 58 24 89 61 24 89 62 24 89 63 24 89 65 24 89 66 24 89 67 24 89 68 24 89 70 24 89 71 24 89 72 24 89 73 24 89 75 24 89 76 24 89 77 24 89 79 24 89 81 24 89 82 24 89 84 24 89 85 24 89 86 24 89 87 24 89 89 24 89 90 24 89 91 24 88 92 24 88 93 24 88 94 24 88 95 23 88 97 23 88 98 23 88 100 23 87 101 23 87 102 23 87 103 23 87 104 23 87 105 23 87 106 23 87 107 23 86 109 23 86 110 23 86 111 23 86 112 23 86 113 23 86 114 23 86 115 23 85 117 23 85 118 23 85 119 23 85 120 23 85 121 23 85 122 23 85 123 23 84 124 23 84 125 22 84 126 22 84 127 22 84 128 22 84 129 22 84 130 22 84 131 22 83 133 22 83 134 22 83 135 22 83 136 22 83 137 22 83 138 22 83 139 22 82 140 22 82 141 22 82 142 22 82 143 22 82 144 22 82 145 22 82 146 22 82 147 22 82 149 22 81 150 22 81 151 22 81 152 22 81 153 22 81 154 22 81 155 22 81 156 21 81 157 21 80 158 21 80 159 21 80 160 21 80 160 21 80 161 21 80 162 21 80 164 21 80 165 21 79 166 21 79 167 21 79 168 21 79 169 21 79 170 21 79 171 21 79 172 21 79 172 21 79 173 21 79 174 21 78 175 21 78 176 21 78 177 21 78 179 21 78 180 21 78 180 21 78 181 21 78 182 21 77 183 21 77 184 21 77 185 21 77 186 21 77 187 21 77 187 21 77 188 20 77 189 20 77 190 20 77 191 20 76 193 20 76 193 20 76 194 20 76 195 20 76 196 20 76 197 20 76 198 20 76 199 20 76 199 20 76 200 20 75 201 20 75 202 20 75 203 20 75 204 20 75 204 20 75 206 20 75 207 20 75 208 20 75 208 20 75 209 20 74 210 20 74 211 20 74 212 20 74 213 20 74 213 20 74 214 20 74 215 20 74 216 20 74 217 20 74 217 20 74 219 20 73 220 20 73 221 19 73 221 19 73 222 19 73 223 19 73 224 19 73 224 19 73 225 19 73 226 19 73 227 19 72 228 19 72 228 19 72 229 19 72 230 19 72 231 19 72 232 19 72 233 19 72 234 19 72 234 19 72 235 19 72 236 19 71 237 19 71 238 19 71 238 19 71 239 19 71 240 19 71 241 19 71 241 19 71 242 19 71 244 19 71 244 19 71 245 19 71 246 19 70 246 19 70 247 19 70 248 19 70 249 19 70 249 19 70 250 19 70 251 19 70 252 19 70 252 19 70 253 19 70 255 18 70
0 26 89 1 26 89 2 26 89 3 26 89 5 26 89 6 26 89 7 26 89 8 26 89 10 26 89 11 26 89 12 26 89 14 26 89 15 26 89 16 26 89 17 26 89 20 26 89 21 26 89 22 26 89 24 26 89 25 26 89 26 26 89 28 26 89 29 26 89 30 26 89 31 26 89 33 26 89 34 26 89 35 26 89 36 26 89 38 26 89 40 26 89 42 26 89 43 26 89 44 26 89 45 26 89 47 26 89 48 26 89 49 26 89 50 26 89 52 26 89 53 26 89 54 26 89 56 26 89 57 26 89 58 26 89 61 26 89 62 26 89 63 26 89 65 26 89 66 26 89 67 26 89 68 26 89 70 26 89 71 26 89 72 26 89 73 26 89 75 26 89 76 26 89 77 26 89 79 26 89 81 26 89 82 26 89 84 26 89 85 26 89 86 26 89 87 26 89 89 26 89 90 26 89 91 26 88 92 26 88 93 26 88 94 26 88 95 26 88 97 26 88 98 26 88 100 26 87 101 26 87 102 26 87 103 26 87 104 26 87 105 26 87 106 26 87 107 26 86 109 26 86 110 25 86 111 25 86 112 25 86 113 25 86 114 25 86 115 25 85 117 25 85 118 25 85 119 25 85 120 25 85 121 25 85 122 25 85 123 25 84 124 25 84 125 25 84 126 25 84 127 25 84 128 25 84 129 25 84 130 25 84 131 25 83 133 25 83 134 25 83 135 25 83 136 25 83 137 24 83 138 24 83 139 24 82 140 24 82 141 24 82 142 24 82 143 24 82 144 24 82 145 24 82 146 24 82 147 24 82 149 24 81 150 24 81 151 24 81 152 24 81 153 24 81 154 24 81 155 24 81 156 24 81 157 24 80 158 24 80 159 24 80 160 24 80 160 24 80 161 24 80 162 24 80 164 24 80 165 23 79 166 23 79 167 23 79 168 23 79 169 23 79 170 23 79 171 23 79 172 23 79 172 23 79 173 23 79 174 23 78 175 23 78 176 23 78 177 23 78 179 23 78 180 23 78 180 23 78 181 23 78 182 23 77 183 23 77 184 23 77 185 23 77 186 23 77 187 23 77 187 23 77 188 23 77 189 23 77 190 23 77 191 23 76 193 23 76 193 23 76 194 22 76 195 22 76 196 22 76 197 22 76 198 22 76 199 22 76 199 22 76 200 22 75 201 22 75 202 22 75 203 22 75 204 22 75 204 22 75 206 22 75 207 22 75 208 22 75 208 22 75 209 22 74 210 22 74 211 22 74 212 22 74 213 22 74 213 22 74 214 22 74 215 22 74 216 22 74 217 22 74 217 22 74 219 22 73 220 22 73 221 22 73 221 22 73 222 22 73 223 22 73 224 21 73 224 21 73 225 21 73 226 21 73 227 21 72 228 21 72 228 21 72 229 21 72 230 21 72 231 21 72 232 21 72 233 21 72 234 21 72 234 21 72 235 21 72 236 21 71 237 21 71 238 21 71 238 21 71 239 21 71 240 21 71 241 21 71 241 21 71 242 21 71 244 21 71 244 21 71 245 21 71 246 21 70 246 21 70 247 21 70 248 21 70 249 21 70 249 21 70 250 21 70 251 21 70 252 21 70 252 21 70 253 21 70 255 21 69
0 28 89 1 28 89 2 28 89 3 28 89 5 28 89 6 28 89 7 28 89 8 28 89 10 28 89 11 28 89 12 28 89 14 28 89 15 28 89 16 28 89 17 28 89 20 28 89 21 28 89 22 28 89 24 28 89 25 28 89 26 28 89 28 28 89 29 28 89 30 28 89 31 28 89 33 28 89 34 28 89 35 28 89 36 28 89 38 28 89 40 28 89 42 28 89 43 28 89 44 28 89 45 28 89 47 28 89 48 28 89 49 28 89 50 28 89 52 28 89 53 28 89 54 28 89 56 28 89 57 28 89 58 28 89 61 28 89 62 28 89 63 28 89 65 28 89 66 28 89 67 28 89 68 28 89 70 28 89 71 28 89 72 28 89 73 28 89 75 28 89 76 28 89 77 28 89 79 28 89 81 28 89 82 28 89 84 28 89 85 28 89 86 28 89 87 28 89 89 28 89 90 28 89 91 27 88 92 27 88 93 27 88 94 27 88 95 27 88 97 27 88 98 27 88 100 27 87 101 27 87 102 27 87 103 27 87 104 27 87 105 27 87 106 27 87 107 27 86 109 27 86 110 27 86 111 27 86 112 27 86 113 27 86 114 27 86 115 27 85 117 26 85 118 26 85 119 26 85 120 26 85 121 26 85 122 26 85 123 26 84 124 26 84 125 26 84 126 26 84 127 26 84 128 26 84 129 26 84 130 26 84 131 26 83 133 26 83 134 26 83 135 26 83 136 26 83 137 26 83 138 26 83 139 26 82 140 26 82 141 26 82 142 25 82 143 25 82 144 25 82 145 25 82 146 25 82 147 25 82 149 25 81 150 25 81 151 25 81 152 25 81 153 25 81 154 25 81 155 25 81 156 25 81 157 25 80 158 25 80 159 25 80 160 25 80 160 25 80 161 25 80 162 25 80 164 25 80 165 25 79 166 25 79 167 25 79 168 25 79 169 24 79 170 24 79 171 24 79 172 24 79 172 24 79 173 24 79 174 24 78 175 24 78 176 24 78 177 24 78 179 24 78 180 24 78 180 24 78 181 24 78 182 24 77 183 24 77 184 24 77 185 24 77 186 24 77 187 24 77 187 24 77 188 24 77 189 24 77 190 24 77 191 24 76 193 24 76 193 24 76 194 24 76 195 24 76 196 24 76 197 23 76 198 23 76 199 23 76 199 23 76 200 23 75 201 23 75 202 23 75 203 23 75 204 23 75 204 23 75 206 23 75 207 23 75 208 23 75 208 23 75 209 23 74 210 23 74 211 23 74 212 23 74 213 23 74 213 23 74 214 23 74 215 23 74 216 23 74 217 23 74 217 23 74 219 23 73 220 23 73 221 23 73 221 23 73 222 23 73 223 23 73 224 23 73 224 23 73 225 22 73 226 22 73 227 22 72 228 22 72 228 22 72 229 22 72 230 22 72 231 22 72 232 22 72 233 22 72 234 22 72 234 22 72 235 22 72 236 22 71 237 22 71 238 22 71 238 22 71 239 22 71 240 22 71 241 22 71 241 22 71 242 22 71 244 22 71 244 22 71 245 22 71 246 22 70 246 22 70 247 22 70 248 22 70 249 22 70 249 22 70 250 22 70 251 22 70 252 22 70 252 22 70 253 22 70 255 22 70
0 30 89 1 30 89 2 30 89 3 30 89 5 30 89 6 30 89 7 30 89 8 30 89 10 30 89 11 30 89 12 30 89 14 30 89 15 30 89 16 30 89 17 30 89 20 30 89 21 30 89 22 30 89 24 30 89 25 30 89 26 30 89 28 30 89 29 30 89 30 30 89 31 30 89 33 30 89 34 30 89 35 30 89 36 30 89 38 30 89 40 30 89 42 30 89 43 30 89 44 30 89 45 30 89 47 30 89 48 30 89 49 30 89 50 30 89 52 30 89 53 30 89 54 30 89 56 30 89 57 30 89 58 30 89 61 30 89 62 30 89 63 30 89 65 30 89 66 30 89 67 30 89 68 30 89 70 30 89 71 30 89 72 30 89 73 30 89 75 30 89 76 30 89 77 30 89 79 30 89 81 30 89 82 30 89 84 30 89 85 30 89 86 30 89 87 30 89 89 30 89 90 30 89 91 30 88 92 30 88 93 30 88 94 30 88 95 30 88 97 30 88 98 30 88 100 30 87 101 30 87 102 30 87 103 29 87 104 29 87 105 29 87 106 29 87 107 29 86 109 29 86 110 29 86 111 29 86 112 29 86 113 29 86 114 29 86 115 29 85 117 29 85 118 29 85 119 29 85 120 29 85 121 29 85 122 29 85 123 29 84 124 29 84 125 29 84 126 28 84 127 28 84 128 28 84 129 28 84 130 28 84 131 28 83 133 28 83 134 28 83 135 28 83 136 28 83 137 28 83 138 28 83 139 28 82 140 28 82 141 28 82 142 28 82 143 28 82 144 28 82 145 28 82 146 28 82 147 28 82 149 28 81 150 28 81 151 27 81 152 27 81 153 27 81 154 27 81 155 27 81 156 27 81 157 27 80 158 27 80 159 27 80 160 27 80 160 27 80 161 27 80 162 27 80 164 27 80 165 27 79 166 27 79 167 27 79 168 27 79 169 27 79 170 27 79 171 27 79 172 27 79 172 27 79 173 27 79 174 27 78 175 27 78 176 26 78 177 26 78 179 26 78 180 26 78 180 26 78 181 26 78 182 26 77 183 26 77 184 26 77 185 26 77 186 26 77 187 26 77 187 26 77 188 26 77 189 26 77 190 26 77 191 26 76 193 26 76 193 26 76 194 26 76 195 26 76 196 26 76 197 26 76 198 26 76 199 26 76 199 26 76 200 26 75 201 26 75 202 25 75 203 25 75 204 25 75 204 25 75 206 25 75 207 25 75 208 25 75 208 25 75 209 25 74 210 25 74 211 25 74 212 25 74 213 25 74 213 25 74 214 25 74 215 25 74 216 25 74 217 25 74 217 25 74 219 25 73 220 25 73 221 25 73 221 25 73 222 25 73 223 25 73 224 25 73 224 25 73 225 25 73 226 25 73 227 25 72 228 24 72 228 24 72 229 24 72 230 24 72 231 24 72 232 24 72 233 24 72 234 24 72 234 24 72 235 24 72 236 24 71 237 24 71 238 24 71 238 24 71 239 24 71 240 24 71 241 24 71 241 24 71 242 24 71 244 24 71 244 24 71 245 24 71 246 24 70 246 24 70 247 24 70 248 24 70 249 24 70 249 24 70 250 24 70 251 24 70 252 24 70 252 24 70 253 24 70 255 24 70
0 31 89 1 31 89 2 31 89 3 31 89 5 31 89 6 31 89 7 31 89 8 31 89 10 31 89 11 31 89 12 31 89 14 31 89 15 31 89 16 31 89 17 31 89 20 31 89 21 31 89 22 31 89 24 31 89 25 31 89 26 31 89 28 31 89 29 31 89 30 31 89 31 31 89 33 31 89 34 31 89 35 31 89 36 31 89 38 31 89 40 31 89 42 31 89 43 31 89 44 31 89 45 31 89 47 31 89 48 31 89 49 31 89 50 31 89 52 31 89 53 31 89 54 31 89 56 31 89 57 31 89 58 31 89 61 31 89 62 31 89 63 31 89 65 31 89 66 31 89 67 31 89 68 31 89 70 31 89 71 31 89 72 31 89 73 31 89 75 31 89 76 31 89 77 31 89 79 31 89 81 31 89 82 31 89 84 31 89 85 31 89 86 31 89 87 31 89 89 31 89 90 31 89 91 31 88 92 31 88 93 31 88 94 31 88 95 31 88 97 31 88 98 31 88 100 31 87 101 31 87 102 31 87 103 31 87 104 31 87 105 31 87 106 31 87 107 31 86 109 30 86 110 30 86 111 30 86 112 30 86 113 30 86 114 30 86 115 30 85 117 30 85 118 30 85 119 30 85 120 30 85 121 30 85 122 30 85 123 30 84 124 30 84 125 30 84 126 30 84 127 30 84 128 30 84 129 30 84 130 30 84 131 29 83 133 29 83 134 29 83 135 29 83 136 29 83 137 29 83 138 29 83 139 29 82 140 29 82 141 29 82 142 29 82 143 29 82 144 29 82 145 29 82 146 29 82 147 29 82 149 29 81 150 29 81 151 29 81 152 29 81 153 29 81 154 29 81 155 28 81 156 28 81 157 28 80 158 28 80 159 28 80 160 28 80 160 28 80 161 28 80 162 28 80 164 28 80 165 28 79 166 28 79 167 28 79 168 28 79 169 28 79 170 28 79 171 28 79 172 28 79 172 28 79 173 28 79 174 28 78 175 28 78 176 28 78 177 28 78 179 27 78 180 27 78 180 27 78 181 27 78 182 27 77 183 27 77 184 27 77 185 27 77 186 27 77 187 27 77 187 27 77 188 27 77 189 27 77 190 27 77 191 27 76 193 27 76 193 27 76 194 27 76 195 27 76 196 27 76 197 27 76 198 27 76 199 27 76 199 27 76 200 27 75 201 27 75 202 27 75 203 27 75 204 26 75 204 26 75 206 26 75 207 26 75 208 26 75 208 26 75 209 26 74 210 26 74 211 26 74 212 26 74 213 26 74 213 26 74 214 26 74 215 26 74 216 26 74 217 26 74 217 26 74 219 26 73 220 26 73 221 26 73 221 26 73 222 26 73 223 26 73 224 26 73 224 26 73 225 26 73 226 26 73 227 26 72 228 26 72 228 26 72 229 25 72 230 25 72 231 25 72 232 25 72 233 25 72 234 25 72 234 25 72 235 25 72 236 25 71 237 25 71 238 25 71 238 25 71 239 25 71 240 25 71 241 25 71 241 25 71 242 25 71 244 25 71 244 25 71 245 25 71 246 25 70 246 25 70 247 25 70 248 25 70 249 25 70 249 25 70 250 25 70 251 25 70 252 25 70 252 25 70 253 25 70 255 24 70
0 34 89 1 34 89 2 34 89 3 34 89 5 34 89 6 34 89 7 34 89 8 34 89 10 34 89 11 34 89 12 34 89 14 34 89 15 34 89 16 34 89 17 34 89 20 34 89 21 34 89 22 34 89 24 34 89 25 34 89 26 34 89 28 34 89 29 34 89 30 34 89 31 34 89 33 34 89 34 34 89 35 34 89 36 34 89 38 34 89 40 34 89 42 34 89 43 34 89 44 34 89 45 34 89 47 34 89 48 34 89 49 34 89 50 34 89 52 34 89 53 34 89 54 34 89 56 34 89 57 34 89 58 34 89 61 34 89 62 34 89 63 34 89 65 34 89 66 34 89 67 34 89 68 34 89 70 34 89 71 34 89 72 34 89 73 34 89 75 34 89 76 34 89 77 34 89 79 34 89 81 34 89 82 34 89 84 34 89 85 34 89 86 34 89 87 34 89 89 34 89 90 34 89 91 34 88 92 34 88 93 34 88 94 34 88 95 34 88 97 34 88 98 33 88 100 33 87 101 33 87 102 33 87 103 33 87 104 33 87 105 33 87 106 33 87 107 33 86 109 33 86 110 33 86 111 33 86 112 33 86 113 33 86 114 33 86 115 33 85 117 33 85 118 33 85 119 32 85 120 32 85 121 32 85 122 32 85 123 32 84 124 32 84 125 32 84 126 32 84 127 32 84 128 32 84 129 32 84 130 32 84 131 32 83 133 32 83 134 32 83 135 32 83 136 32 83 137 32 83 138 32 83 139 32 82 140 31 82 141 31 82 142 31 82 143 31 82 144 31 82 145 31 82 146 31 82 147 31 82 149 31 81 150 31 81 151 31 81 152 31 81 153 31 81 154 31 81 155 31 81 156 31 81 157 31 80 158 31 80 159 31 80 160 31 80 160 31 80 161 31 80 162 30 80 164 30 80 165 30 79 166 30 79 167 30 79 168 30 79 169 30 79 170 30 79 171 30 79 172 30 79 172 30 79 173 30 79 174 30 78 175 30 78 176 30 78 177 30 78 179 30 78 180 30 78 180 30 78 181 30 78 182 30 77 183 30 77 184 30 77 185 29 77 186 29 77 187 29 77 187 29 77 188 29 77 189 29 77 190 29 77 191 29 76 193 29 76 193 29 76 194 29 76 195 29 76 196 29 76 197 29 76 198 29 76 199 29 76 199 29 76 200 29 75 201 29 75 202 29 75 203 29 75 204 29 75 204 29 75 206 29 75 207 29 75 208 28 75 208 28 75 209 28 74 210 28 74 211 28 74 212 28 74 213 28 74 213 28 74 214 28 74 215 28 74 216 28 74 217 28 74 217 28 74 219 28 73 220 28 73 221 28 73 221 28 73 222 28 73 223 28 73 224 28 73 224 28 73 225 28 73 226 28 73 227 28 72 228 28 72 228 28 72 229 28 72 230 28 72 231 27 72 232 27 72 233 27 72 234 27 72 234 27 72 235 27 72 236 27 71 237 27 71 238 27 71 238 27 71 239 27 71 240 27 71 241 27 71 241 27 71 242 27 71 244 27 71 244 27 71 245 27 71 246 27 70 246 27 70 247 27 70 248 27 70 249 27 70 249 27 70 250 27 70 251 27 70 252 27 70 252 27 70 253 27 70 255 26 70
0 35 89 1 35 89 2 35 89 3 35 89 5 35 89 6 35 89 7 35 89 8 35 89 10 35 89 11 35 89 12 35 89 14 35 89 15 35 89 16 35 89 17 35 89 20 35 89 21 35 89 22 35 89 24 35 89 25 35 89 26 35 89 28 35 89 29 35 89 30 35 89 31 35 89 33 35 89 34 35 89 35 35 89 36 35 89 38 35 89 40 35 89 42 35 89 43 35 89 44 35 89 45 35 89 47 35 89 48 35 89 49 35 89 50 35 89 52 35 89 53 35 89 54 35 89 56 35 89 57 35 89 58 35 89 61 35 89 62 35 89 63 35 89 65 35 89 66 35 89 67 35 89 68 35 89 70 35 89 71 35 89 72 35 89 73 35 89 75 35 89 76 35 89 77 35 89 79 35 89 81 35 89 82 35 89 84 35 89 85 35 89 86 35 89 87 35 89 89 35 89 90 35 89 91 35 88 92 35 88 93 35 88 94 35 88 95 35 88 97 35 88 98 35 88 100 35 87 101 35 87 102 35 87 103 34 87 104 34 87 105 34 87 106 34 87 107 34 86 109 34 86 110 34 86 111 34 86 112 34 86 113 34 86 114 34 86 115 34 85 117 34 85 118 34 85 119 34 85 120 34 85 121 34 85 122 34 85 123 33 84 124 33 84 125 33 84 126 33 84 127 33 84 128 33 84 129 33 84 130 33 84 131 33 83 133 33 83 134 33 83 135 33 83 136 33 83 137 33 83 138 33 83 139 33 82 140 33 82 141 33 82 142 33 82 143 33 82 144 32 82 145 32 82 146 32 82 147 32 82 149 32 81 150 32 81 151 32 81 152 32 81 153 32 81 154 32 81 155 32 81 156 32 81 157 32 80 158 32 80 159 32 80 160 32 80 160 32 80 161 32 80 162 32 80 164 32 80 165 31 79 166 31 79 167 31 79 168 31 79 169 31 79 170 31 79 171 31 79 172 31 79 172 31 79 173 31 79 174 31 78 175 31 78 176 31 78 177 31 78 179 31 78 180 31 78 180 31 78 181 31 78 182 31 77 183 31 77 184 31 77 185 31 77 186 31 77 187 30 77 187 30 77 188 30 77 189 30 77 190 30 77 191 30 76 193 30 76 193 30 76 194 30 76 195 30 76 196 30 76 197 30 76 198 30 76 199 30 76 199 30 76 200 30 75 201 30 75 202 30 75 203 30 75 204 30 75 204 30 75 206 30 75 207 30 75 208 30 75 208 30 75 209 29 74 210 29 74 211 29 74 212 29 74 213 29 74 213 29 74 214 29 74 215 29 74 216 29 74 217 29 74 217 29 74 219 29 73 220 29 73 221 29 73 221 29 73 222 29 73 223 29 73 224 29 73 224 29 73 225 29 73 226 29 73 227 29 72 228 29 72 228 29 72 229 29 72 230 29 72 231 28 72 232 28 72 233 28 72 234 28 72 234 28 72 235 28 72 236 28 71 237 28 71 238 28 71 238 28 71 239 28 71 240 28 71 241 28 71 241 28 71 242 28 71 244 28 71 244 28 71 245 28 71 246 28 70 246 28 70 247 28 70 248 28 70 249 28 70 249 28 70 250 28 70 251 28 70 252 28 70 252 28 70 253 28 70 255 28 70
0 36 89 1 36 89 2 36 89 3 36 89 5 36 89 6 36 89 7 36 89 8 36 89 10 36 89 11 36 89 12 36 89 14 36 89 15 36 89 16 36 89 17 36 89 20 36 89 21 36 89 22 36 89 24 36 89 25 36 89 26 36 89 28 36 89 29 36 89 30 36 89 31 36 89 33 36 89 34 36 89 35 36 89 36 36 89 38 36 89 40 36 89 42 36 89 43 36 89 44 36 89 45 36 89 47 36 89 48 36 89 49 36 89 50 36 89 52 36 89 53 36 89 54 36 89 56 36 89 57 36 89 58 36 89 61 36 89 62 36 89 63 36 89 65 36 89 66 36 89 67 36 89 68 36 89 70 36 89 71 36 89 72 36 89 73 36 89 75 36 89 76 36 89 77 36 89 79 36 89 81 36 89 82 36 89 84 36 89 85 36 89 86 36 89 87 36 89 89 36 89 90 36 89 91 36 88 92 36 88 93 36 88 94 36 88 95 36 88 97 36 88 98 36 88 100 36 87 101 36 87 102 36 87 103 36 87 104 36 87 105 36 87 106 36 87 107 35 86 109 35 86 110 35 86 111 35 86 112 35 86 113 35 86 114 35 86 115 35 85 117 35 85 118 35 85 119 35 85 120 35 85 121 35 85 122 35 85 123 35 84 124 35 84 125 35 84 126 35 84 127 34 84 128 34 84 129 34 84 130 34 84 131 34 83 133 34 83 134 34 83 135 34 83 136 34 83 137 34 83 138 34 83 139 34 82 140 34 82 141 34 82 142 34 82 143 34 82 144 34 82 145 34 82 146 34 82 147 33 82 149 33 81 150 33 81 151 33 81 152 33 81 153 33 81 154 33 81 155 33 81 156 33 81 157 33 80 158 33 80 159 33 80 160 33 80 160 33 80 161 33 80 162 33 80 164 33 80 165 33 79 166 33 79 167 33 79 168 32 79 169 32 79 170 32 79 171 32 79 172 32 79 172 32 79 173 32 79 174 32 78 175 32 78 176 32 78 177 32 78 179 32 78 180 32 78 180 32 78 181 32 78 182 32 77 183 32 77 184 32 77 185 32 77 186 32 77 187 32 77 187 32 77 188 32 77 189 31 77 190 31 77 191 31 76 193 31 76 193 31 76 194 31 76 195 31 76 196 31 76 197 31 76 198 31 76 199 31 76 199 31 76 200 31 75 201 31 75 202 31 75 203 31 75 204 31 75 204 31 75 206 31 75 207 31 75 208 31 75 208 31 75 209 31 74 210 30 74 211 30 74 212 30 74 213 30 74 213 30 74 214 30 74 215 30 74 216 30 74 217 30 74 217 30 74 219 30 73 220 30 73 221 30 73 221 30 73 222 30 73 223 30 73 224 30 73 224 30 73 225 30 73 226 30 73 227 30 72 228 30 72 228 30 72 229 30 72 230 30 72 231 30 72 232 29 72 233 29 72 234 29 72 234 29 72 235 29 72 236 29 71 237 29 71 238 29 71 238 29 71 239 29 71 240 29 71 241 29 71 241 29 71 242 29 71 244 29 71 244 29 71 245 29 71 246 29 70 246 29 70 247 29 70 248 29 70 249 29 70 249 29 70 250 29 70 251 29 70 252 29 70 252 29 70 253 29 70 255 29 69
0 39 89 1 39 89 2 39 89 3 39 89 5 39 89 6 39 89 7 39 89 8 39 89 10 39 89 11 39 89 12 39 89 14 39 89 15 39 89 16 39 89 17 39 89 20 39 89 21 39 89 22 39 89 24 39 89 25 39 89 26 39 89 28 39 89 29 39 89 30 39 89 31 39 89 33 39 89 34 39 89 35 39 89 36 39 89 38 39 89 40 39 89 42 39 89 43 39 89 44 39 89 45 39 89 47 39 89 48 39 89 49 39 89 50 39 89 52 39 89 53 39 89 54 39 89 56 39 89 57 39 89 58 39 89 61 39 89 62 39 89 63 39 89 65 39 89 66 39 89 67 39 89 68 39 89 70 39 89 71 39 89 72 39 89 73 39 89 75 39 89 76 39 89 77 39 89 79 39 89 81 39 89 82 39 89 84 39 89 85 39 89 86 39 89 87 39 89 89 39 89 90 39 89 91 39 88 92 39 88 93 39 88 94 39 88 95 39 88 97 39 88 98 39 88 100 38 87 101 38 87 102 38 87 103 38 87 104 38 87 105 38 87 106 38 87 107 38 86 109 38 86 110 38 86 111 38 86 112 38 86 113 38 86 114 38 86 115 38 85 117 37 85 118 37 85 119 37 85 120 37 85 121 37 85 122 37 85 123 37 84 124 37 84 125 37 84 126 37 84 127 37 84 128 37 84 129 37 84 130 37 84 131 37 83 133 37 83 134 37 83 135 36 83 136 36 83 137 36 83 138 36 83 139 36 82 140 36 82 141 36 82 142 36 82 143 36 82 144 36 82 145 36 82 146 36 82 147 36 82 149 36 81 150 36 81 151 36 81 152 36 81 153 36 81 154 35 81 155 35 81 156 35 81 157 35 80 158 35 80 159 35 80 160 35 80 160 35 80 161 35 80 162 35 80 164 35 80 165 35 79 166 35 79 167 35 79 168 35 79 169 35 79 170 35 79 171 35 79 172 35 79 172 35 79 173 34 79 174 34 78 175 34 78 176 34 78 177 34 78 179 34 78 180 34 78 180 34 78 181 34 78 182 34 77 183 34 77 184 34 77 185 34 77 186 34 77 187 34 77 187 34 77 188 34 77 189 34 77 190 34 77 191 34 76 193 34 76 193 33 76 194 33 76 195 33 76 196 33 76 197 33 76 198 33 76 199 33 76 199 33 76 200 33 75 201 33 75 202 33 75 203 33 75 204 33 75 204 33 75 206 33 75 207 33 75 208 33 75 208 33 75 209 33 74 210 33 74 211 33 74 212 33 74 213 33 74 213 32 74 214 32 74 215 32 74 216 32 74 217 32 74 217 32 74 219 32 73 220 32 73 221 32 73 221 32 73 222 32 73 223 32 73 224 32 73 224 32 73 225 32 73 226 32 73 227 32 72 228 32 72 228 32 72 229 32 72 230 32 72 231 32 72 232 32 72 233 32 72 234 31 72 234 31 72 235 31 72 236 31 71 237 31 71 238 31 71 238 31 71 239 31 71 240 31 71 241 31 71 241 31 71 242 31 71 244 31 71 244 31 71 245 31 71 246 31 70 246 31 70 247 31 70 248 31 70 249 31 70 249 31 70 250 31 70 251 31 70 252 31 70 252 31 70 253 31 70 255 31 70
0 40 89 1 40 89 2 40 89 3 40 89 5 40 89 6 40 89 7 40 89 8 40 89 10 40 89 11 40 89 12 40 89 14 40 89 15 40 89 16 40 89 17 40 89 20 40 89 21 40 89 22 40 89 24 40 89 25 40 89 26 40 89 28 40 89 29 40 89 30 40 89 31 40 89 33 40 89 34 40 89 35 40 89 36 40 89 38 40 89 40 40 89 42 40 89 43 40 89 44 40 89 45 40 89 47 40 89 48 40 89 49 40 89 50 40 89 52 40 89 53 40 89 54 40 89 56 40 89 57 40 89 58 40 89 61 40 89 62 40 89 63 40 89 65 40 89 66 40 89 67 40 89 68 40 89 70 40 89 71 40 89 72 40 89 73 40 89 75 40 89 76 40 89 77 40 89 79 40 89 81 40 89 82 40 89 84 40 89 85 40 89 86 40 89 87 40 89 89 40 89 90 40 89 91 40 88 92 40 88 93 40 88 94 40 88 95 40 88 97 40 88 98 40 88 100 40 87 101 40 87 102 40 87 103 39 87 104 39 87 105 39 87 106 39 87 107 39 86 109 39 86 110 39 86 111 39 86 112 39 86 113 39 86 114 39 86 115 39 85 117 39 85 118 39 85 119 39 85 120 39 85 121 38 85 122 38 85 123 38 84 124 38 84 125 38 84 126 38 84 127 38 84 128 38 84 129 38 84 130 38 84 131 38 83 133 38 83 134 38 83 135 38 83 136 38 83 137 38 83 138 37 83 139 37 82 140 37 82 141 37 82 142 37 82 143 37 82 144 37 82 145 37 82 146 37 82 147 37 82 149 37 81 150 37 81 151 37 81 152 37 81 153 37 81 154 37 81 155 37 81 156 37 81 157 37 80 158 36 80 159 36 80 160 36 80 160 36 80 161 36 80 162 36 80 164 36 80 165 36 79 166 36 79 167 36 79 168 36 79 169 36 79 170 36 79 171 36 79 172 36 79 172 36 79 173 36 79 174 36 78 175 36 78 176 35 78 177 35 78 179 35 78 180 35 78 180 35 78 181 35 78 182 35 77 183 35 77 184 35 77 185 35 77 186 35 77 187 35 77 187 35 77 188 35 77 189 35 77 190 35 77 191 35 76 193 35 76 193 35 76 194 35 76 195 34 76 196 34 76 197 34 76 198 34 76 199 34 76 199 34 76 200 34 75 201 34 75 202 34 75 203 34 75 204 34 75 204 34 75 206 34 75 207 34 75 208 34 75 208 34 75 209 34 74 210 34 74 211 34 74 212 34 74 213 34 74 213 34 74 214 34 74 215 33 74 216 33 74 217 33 74 217 33 74 219 33 73 220 33 73 221 33 73 221 33 73 222 33 73 223 33 73 224 33 73 224 33 73 225 33 73 226 33 73 227 33 72 228 33 72 228 33 72 229 33 72 230 33 72 231 33 72 232 33 72 233 33 72 234 33 72 234 32 72 235 32 72 236 32 71 237 32 71 238 32 71 238 32 71 239 32 71 240 32 71 241 32 71 241 32 71 242 32 71 244 32 71 244 32 71 245 32 71 246 32 70 246 32 70 247 32 70 248 32 70 249 32 70 249 32 70 250 32 70 251 32 70 252 32 70 252 32 70 253 32 70 255 32 70
0 43 89 1 43 89 2 43 89 3 43 89 5 43 89 6 43 89 7 43 89 8 43 89 10 43 89 11 43 89 12 43 89 14 43 89 15 43 89 16 43 89 17 43 89 20 43 89 21 43 89 22 43 89 24 43 89 25 43 89 26 43 89 28 43 89 29 43 89 30 43 89 31 43 89 33 43 89 34 43 89 35 43 89 36 43 89 38 43 89 40 43 89 42 43 89 43 43 89 44 43 89 45 43 89 47 43 89 48 43 89 49 43 89 50 43 89 52 43 89 53 43 89 54 43 89 56 43 89 57 43 89 58 43 89 61 43 89 62 43 89 63 43 89 65 43 89 66 43 89 67 43 89 68 43 89 70 43 89 71 43 89 72 43 89 73 43 89 75 43 89 76 43 89 77 43 89 79 43 89 81 43 89 82 43 89 84 43 89 85 43 89 86 43 89 87 43 89 89 43 89 90 43 89 91 43 88 92 43 88 93 43 88 94 42 88 95 42 88 97 42 88 98 42 88 100 42 87 101 42 87 102 42 87 103 42 87 104 42 87 105 42 87 106 42 87 107 42 86 109 42 86 110 42 86 111 42 86 112 41 86 113 41 86 114 41 86 115 41 85 117 41 85 118 41 85 119 41 85 120 41 85 121 41 85 122 41 85 123 41 84 124 41 84 125 41 84 126 41 84 127 41 84 128 40 84 129 40 84 130 40 84 131 40 83 133 40 83 134 40 83 135 40 83 136 40 83 137 40 83 138 40 83 139 40 82 140 40 82 141 40 82 142 40 82 143 40 82 144 40 82 145 39 82 146 39 82 147 39 82 149 39 81 150 39 81 151 39 81 152 39 81 153 39 81 154 39 81 155 39 81 156 39 81 157 39 80 158 39 80 159 39 80 160 39 80 160 39 80 161 39 80 162 38 80 164 38 80 165 38 79 166 38 79 167 38 79 168 38 79 169 38 79 170 38 79 171 38 79 172 38 79 172 38 79 173 38 79 174 38 78 175 38 78 176 38 78 177 38 78 179 38 78 180 38 78 180 37 78 181 37 78 182 37 77 183 37 77 184 37 77 185 37 77 186 37 77 187 37 77 187 37 77 188 37 77 189 37 77 190 37 77 191 37 76 193 37 76 193 37 76 194 37 76 195 37 76 196 37 76 197 37 76 198 37 76 199 36 76 199 36 76 200 36 75 201 36 75 202 36 75 203 36 75 204 36 75 204 36 75 206 36 75 207 36 75 208 36 75 208 36 75 209 36 74 210 36 74 211 36 74 212 36 74 213 36 74 213 36 74 214 36 74 215 36 74 216 36 74 217 35 74 217 35 74 219 35 73 220 35 73 221 35 73 221 35 73 222 35 73 223 35 73 224 35 73 224 35 73 225 35 73 226 35 73 227 35 72 228 35 72 228 35 72 229 35 72 230 35 72 231 35 72 232 35 72 233 35 72 234 35 72 234 35 72 235 35 72 236 34 71 237 34 71 238 34 71 238 34 71 239 34 71 240 34 71 241 34 71 241 34 71 242 34 71 244 34 71 244 34 71 245 34 71 246 34 70 246 34 70 247 34 70 248 34 70 249 34 70 249 34 70 250 34 70 251 34 70 252 34 70 252 34 70 253 34 70 255 33 70
0 44 89 1 44 89 2 44 89 3 44 89 5 44 89 6 44 89 7 44 89 8 44 89 10 44 89 11 44 89 12 44 89 14 44 89 15 44 89 16 44 89 17 44 89 20 44 89 21 44 89 22 44 89 24 44 89 25 44 89 26 44 89 28 44 89 29 44 89 30 44 89 31 44 89 33 44 89 34 44 89 35 44 89 36 44 89 38 44 89 40 44 89 42 44 89 43 44 89 44 44 89 45 44 89 47 44 89 48 44 89 49 44 89 50 44 89 52 44 89 53 44 89 54 44 89 56 44 89 57 44 89 58 44 89 61 44 89 62 44 89 63 44 89 65 44 89 66 44 89 67 44 89 68 44 89 70 44 89 71 44 89 72 44 89 73 44 89 75 44 89 76 44 89 77 44 89 79 44 89 81 44 89 82 44 89 84 44 89 85 44 89 86 44 89 87 44 89 89 44 89 90 44 89 91 44 88 92 44 88 93 44 88 94 44 88 95 44 88 97 44 88 98 44 88 100 43 87 101 43 87 102 43 87 103 43 87 104 43 87 105 43 87 106 43 87 107 43 86 109 43 86 110 43 86 111 43 86 112 43 86 113 43 86 114 43 86 115 42 85 117 42 85 118 42 85 119 42 85 120 42 85 121 42 85 122 42 85 123 42 84 124 42 84 125 42 84 126 42 84 127 42 84 128 42 84 129 42 84 130 42 84 131 41 83 133 41 83 134 41 83 135 41 83 136 41 83 137 41 83 138 41 83 139 41 82 140 41 82 141 41 82 142 41 82 143 41 82 144 41 82 145 41 82 146 41 82 147 41 82 149 40 81 150 40 81 151 40 81 152 40 81 153 40 81 154 40 81 155 40 81 156 40 81 157 40 80 158 40 80 159 40 80 160 40 80 160 40 80 161 40 80 162 40 80 164 40 80 165 39 79 166 39 79 167 39 79 168 39 79 169 39 79 170 39 79 171 39 79 172 39 79 172 39 79 173 39 79 174 39 78 175 39 78 176 39 78 177 39 78 179 39 78 180 39 78 180 39 78 181 39 78 182 38 77 183 38 77 184 38 77 185 38 77 186 38 77 187 38 77 187 38 77 188 38 77 189 38 77 190 38 77 191 38 76 193 38 76 193 38 76 194 38 76 195 38 76 196 38 76 197 38 76 198 38 76 199 38 76 199 38 76 200 37 75 201 37 75 202 37 75 203 37 75 204 37 75 204 37 75 206 37 75 207 37 75 208 37 75 208 37 75 209 37 74 210 37 74 211 37 74 212 37 74 213 37 74 213 37 74 214 37 74 215 37 74 216 37 74 217 37 74 217 37 74 219 36 73 220 36 73 221 36 73 221 36 73 222 36 73 223 36 73 224 36 73 224 36 73 225 36 73 226 36 73 227 36 72 228 36 72 228 36 72 229 36 72 230 36 72 231 36 72 232 36 72 233 36 72 234 36 72 234 36 72 235 36 72 236 35 71 237 35 71 238 35 71 238 35 71 239 35 71 240 35 71 241 35 71 241 35 71 242 35 71 244 35 71 244 35 71 245 35 71 246 35 70 246 35 70 247 35 70 248 35 70 249 35 70 249 35 70 250 35 70 251 35 70 252 35 70 252 35 70 253 35 70 255 34 70
0 47 89 1 47 89 2 47 89 3 47 89 5 47 89 6 47 89 7 47 89 8 47 89 10 47 89 11 47 89 12 47 89 14 47 89 15 47 89 16 47 89 17 47 89 20 47 89 21 47 89 22 47 89 24 47 89 25 47 89 26 47 89 28 47 89 29 47 89 30 47 89 31 47 89 33 47 89 34 47 89 35 47 89 36 47 89 38 47 89 40 47 89 42 47 89 43 47 89 44 47 89 45 47 89 47 47 89 48 47 89 49 47 89 50 47 89 52 47 89 53 47 89 54 47 89 56 47 89 57 47 89 58 47 89 61 47 89 62 47 89 63 47 89 65 47 89 66 47 89 67 47 89 68 47 89 70 47 89 71 47 89 72 47 89 73 47 89 75 47 89 76 47 89 77 47 89 79 47 89 81 47 89 82 47 89 84 47 89 85 47 89 86 47 89 87 47 89 89 47 89 90 47 89 91 47 88 92 46 88 93 46 88 94 46 88 95 46 88 97 46 88 98 46 88 100 46 87 101 46 87 102 46 87 103 46 87 104 46 87 105 46 87 106 45 87 107 45 86 109 45 86 110 45 86 111 45 86 112 45 86 113 45 86 114 45 86 115 45 85 117 45 85 118 45 85 119 45 85 120 45 85 121 45 85 122 44 85 123 44 84 124 44 84 125 44 84 126 44 84 127 44 84 128 44 84 129 44 84 130 44 84 131 44 83 133 44 83 134 44 83 135 44 83 136 44 83 137 43 83 138 43 83 139 43 82 140 43 82 141 43 82 142 43 82 143 43 82 144 43 82 145 43 82 146 43 82 147 43 82 149 43 81 150 43 81 151 43 81 152 43 81 153 43 81 154 42 81 155 42 81 156 42 81 157 42 80 158 42 80 159 42 80 160 42 80 160 42 80 161 42 80 162 42 80 164 42 80 165 42 79 166 42 79 167 42 79 168 42 79 169 42 79 170 41 79 171 41 79 172 41 79 172 41 79 173 41 79 174 41 78 175 41 78 176 41 78 177 41 78 179 41 78 180 41 78 180 41 78 181 41 78 182 41 77 183 41 77 184 41 77 185 41 77 186 41 77 187 40 77 187 40 77 188 40 77 189 40 77 190 40 77 191 40 76 193 40 76 193 40 76 194 40 76 195 40 76 196 40 76 197 40 76 198 40 76 199 40 76 199 40 76 200 40 75 201 40 75 202 40 75 203 39 75 204 39 75 204 39 75 206 39 75 207 39 75 208 39 75 208 39 75 209 39 74 210 39 74 211 39 74 212 39 74 213 39 74 213 39 74 214 39 74 215 39 74 216 39 74 217 39 74 217 39 74 219 39 73 220 38 73 221 38 73 221 38 73 222 38 73 223 38 73 224 38 73 224 38 73 225 38 73 226 38 73 227 38 72 228 38 72 228 38 72 229 38 72 230 38 72 231 38 72 232 38 72 233 38 72 234 38 72 234 38 72 235 38 72 236 38 71 237 38 71 238 37 71 238 37 71 239 37 71 240 37 71 241 37 71 241 37 71 242 37 71 244 37 71 244 37 71 245 37 71 246 37 70 246 37 70 247 37 70 248 37 70 249 37 70 249 37 70 250 37 70 251 37 70 252 37 70 252 37 70 253 37 70 255 37 69
0 48 89 1 48 89 2 48 89 3 48 89 5 48 89 6 48 89 7 48 89 8 48 89 10 48 89 11 48 89 12 48 89 14 48 89 15 48 89 16 48 89 17 48 89 20 48 89 21 48 89 22 48 89 24 48 89 25 48 89 26 48 89 28 48 89 29 48 89 30 48 89 31 48 89 33 48 89 34 48 89 35 48 89 36 48 89 38 48 89 40 48 89 42 48 89 43 48 89 44 48 89 45 48 89 47 48 89 48 48 89 49 48 89 50 48 89 52 48 89 53 48 89 54 48 89 56 48 89 57 48 89 58 48 89 61 48 89 62 48 89 63 48 89 65 48 89 66 48 89 67 48 89 68 48 89 70 48 89 71 48 89 72 48 89 73 48 89 75 48 89 76 48 89 77 48 89 79 48 89 81 48 89 82 48 89 84 48 89 85 48 89 86 48 89 87 48 89 89 48 89 90 48 89 91 48 88 92 48 88 93 48 88 94 48 88 95 47 88 97 47 88 98 47 88 100 47 87 101 47 87 102 47 87 103 47 87 104 47 87 105 47 87 106 47 87 107 47 86 109 47 86 110 47 86 111 46 86 112 46 86 113 46 86 114 46 86 115 46 85 117 46 85 118 46 85 119 46 85 120 46 85 121 46 85 122 46 85 123 46 84 124 46 84 125 45 84 126 45 84 127 45 84 128 45 84 129 45 84 130 45 84 131 45 83 133 45 83 134 45 83 135 45 83 136 45 83 137 45 83 138 45 83 139 45 82 140 44 82 141 44 82 142 44 82 143 44 82 144 44 82 145 44 82 146 44 82 147 44 82 149 44 81 150 44 81 151 44 81 152 44 81 153 44 81 154 44 81 155 44 81 156 43 81 157 43 80 158 43 80 159 43 80 160 43 80 160 43 80 161 43 80 162 43 80 164 43 80 165 43 79 166 43 79 167 43 79 168 43 79 169 43 79 170 43 79 171 43 79 172 43 79 172 42 79 173 42 79 174 42 78 175 42 78 176 42 78 177 42 78 179 42 78 180 42 78 180 42 78 181 42 78 182 42 77 183 42 77 184 42 77 185 42 77 186 42 77 187 42 77 187 42 77 188 41 77 189 41 77 190 41 77 191 41 76 193 41 76 193 41 76 194 41 76 195 41 76 196 41 76 197 41 76 198 41 76 199 41 76 199 41 76 200 41 75 201 41 75 202 41 75 203 41 75 204 41 75 204 40 75 206 40 75 207 40 75 208 40 75 208 40 75 209 40 74 210 40 74 211 40 74 212 40 74 213 40 74 213 40 74 214 40 74 215 40 74 216 40 74 217 40 74 217 40 74 219 40 73 220 40 73 221 39 73 221 39 73 222 39 73 223 39 73 224 39 73 224 39 73 225 39 73 226 39 73 227 39 72 228 39 72 228 39 72 229 39 72 230 39 72 231 39 72 232 39 72 233 39 72 234 39 72 234 39 72 235 39 72 236 39 71 237 39 71 238 38 71 238 38 71 239 38 71 240 38 71 241 38 71 241 38 71 242 38 71 244 38 71 244 38 71 245 38 71 246 38 70 246 38 70 247 38 70 248 38 70 249 38 70 249 38 70 250 38 70 251 38 70 252 38 70 252 38 70 253 38 70 255 38 70
0 49 89 1 49 89 2 49 89 3 49 89 5 49 89 6 49 89 7 49 89 8 49 89 10 49 89 11 49 89 12 49 89 14 49 89 15 49 89 16 49 89 17 49 89 20 49 89 21 49 89 22 49 89 24 49 89 25 49 89 26 49 89 28 49 89 29 49 89 30 49 89 31 49 89 33 49 89 34 49 89 35 49 89 36 49 89 38 49 89 40 49 89 42 49 89 43 49 89 44 49 89 45 49 89 47 49 89 48 49 89 49 49 89 50 49 89 52 49 89 53 49 89 54 49 89 56 49 89 57 49 89 58 49 89 61 49 89 62 49 89 63 49 89 65 49 89 66 49 89 67 49 89 68 49 89 70 49 89 71 49 89 72 49 89 73 49 89 75 49 89 76 49 89 77 49 89 79 49 89 81 49 89 82 49 89 84 49 89 85 49 89 86 49 89 87 49 89 89 49 89 90 49 89 91 49 88 92 49 88 93 49 88 94 49 88 95 49 88 97 49 88 98 49 88 100 48 87 101 48 87 102 48 87 103 48 87 104 48 87 105 48 87 106 48 87 107 48 86 109 48 86 110 48 86 111 48 86 112 48 86 113 48 86 114 47 86 115 47 85 117 47 85 118 47 85 119 47 85 120 47 85 121 47 85 122 47 85 123 47 84 124 47 84 125 47 84 126 47 84 127 47 84 128 46 84 129 46 84 130 46 84 131 46 83 133 46 83 134 46 83 135 46 83 136 46 83 137 46 83 138 46 83 139 46 82 140 46 82 141 46 82 142 46 82 143 45 82 144 45 82 145 45 82 146 45 82 147 45 82 149 45 81 150 45 81 151 45 81 152 45 81 153 45 81 154 45 81 155 45 81 156 45 81 157 45 80 158 45 80 159 44 80 160 44 80 160 44 80 161 44 80 162 44 80 164 44 80 165 44 79 166 44 79 167 44 79 168 44 79 169 44 79 170 44 79 171 44 79 172 44 79 172 44 79 173 44 79 174 43 78 175 43 78 176 43 78 177 43 78 179 43 78 180 43 78 180 43 78 181 43 78 182 43 77 183 43 77 184 43 77 185 43 77 186 43 77 187 43 77 187 43 77 188 43 77 189 43 77 190 42 77 191 42 76 193 42 76 193 42 76 194 42 76 195 42 76 196 42 76 197 42 76 198 42 76 199 42 76 199 42 76 200 42 75 201 42 75 202 42 75 203 42 75 204 42 75 204 42 75 206 41 75 207 41 75 208 41 75 208 41 75 209 41 74 210 41 74 211 41 74 212 41 74 213 41 74 213 41 74 214 41 74 215 41 74 216 41 74 217 41 74 217 41 74 219 41 73 220 41 73 221 41 73 221 40 73 222 40 73 223 40 73 224 40 73 224 40 73 225 40 73 226 40 73 227 40 72 228 40 72 228 40 72 229 40 72 230 40 72 231 40 72 232 40 72 233 40 72 234 40 72 234 40 72 235 40 72 236 40 71 237 40 71 238 40 71 238 39 71 239 39 71 240 39 71 241 39 71 241 39 71 242 39 71 244 39 71 244 39 71 245 39 71 246 39 70 246 39 70 247 39 70 248 39 70 249 39 70 249 39 70 250 39 70 251 39 70 252 39 70 252 39 70 253 39 70 255 39 69
0 52 89 1 52 89 2 52 89 3 52 89 5 52 89 6 52 89 7 52 89 8 52 89 10 52 89 11 52 89 12 52 89 14 52 89 15 52 89 16 52 89 17 52 89 20 52 89 21 52 89 22 52 89 24 52 89 25 52 89 26 52 89 28 52 89 29 52 89 30 52 89 31 52 89 33 52 89 34 52 89 35 52 89 36 52 89 38 52 89 40 52 89 42 52 89 43 52 89 44 52 89 45 52 89 47 52 89 48 52 89 49 52 89 50 52 89 52 52 89 53 52 89 54 52 89 56 52 89 57 52 89 58 52 89 61 52 89 62 52 89 63 52 89 65 52 89 66 52 89 67 52 89 68 52 89 70 52 89 71 52 89 72 52 89 73 52 89 75 52 89 76 52 89 77 52 89 79 52 89 81 52 89 82 52 89 84 52 89 85 52 89 86 52 89 87 52 89 89 52 89 90 52 89 91 52 88 92 52 88 93 51 88 94 51 88 95 51 88 97 51 88 98 51 88 100 51 87 101 51 87 102 51 87 103 51 87 104 51 87 105 51 87 106 50 87 107 50 86 109 50 86 110 50 86 111 50 86 112 50 86 113 50 86 114 50 86 115 50 85 117 50 85 118 50 85 119 50 85 120 49 85 121 49 85 122 49 85 123 49 84 124 49 84 125 49 84 126 49 84 127 49 84 128 49 84 129 49 84 130 49 84 131 49 83 133 49 83 134 48 83 135 48 83 136 48 83 137 48 83 138 48 83 139 48 82 140 48 82 141 48 82 142 48 82 143 48 82 144 48 82 145 48 82 146 48 82 147 48 82 149 47 81 150 47 81 151 47 81 152 47 81 153 47 81 154 47 81 155 47 81 156 47 81 157 47 80 158 47 80 159 47 80 160 47 80 160 47 80 161 47 80 162 47 80 164 46 80 165 46 79 166 46 79 167 46 79 168 46 79 169 46 79 170 46 79 171 46 79 172 46 79 172 46 79 173 46 79 174 46 78 175 46 78 176 46 78 177 46 78 179 45 78 180 45 78 180 45 78 181 45 78 182 45 77 183 45 77 184 45 77 185 45 77 186 45 77 187 45 77 187 45 77 188 45 77 189 45 77 190 45 77 191 45 76 193 44 76 193 44 76 194 44 76 195 44 76 196 44 76 197 44 76 198 44 76 199 44 76 199 44 76 200 44 75 201 44 75 202 44 75 203 44 75 204 44 75 204 44 75 206 44 75 207 44 75 208 43 75 208 43 75 209 43 74 210 43 74 211 43 74 212 43 74 213 43 74 213 43 74 214 43 74 215 43 74 216 43 74 217 43 74 217 43 74 219 43 73 220 43 73 221 43 73 221 43 73 222 43 73 223 42 73 224 42 73 224 42 73 225 42 73 226 42 73 227 42 72 228 42 72 228 42 72 229 42 72 230 42 72 231 42 72 232 42 72 233 42 72 234 42 72 234 42 72 235 42 72 236 42 71 237 42 71 238 42 71 238 42 71 239 41 71 240 41 71 241 41 71 241 41 71 242 41 71 244 41 71 244 41 71 245 41 71 246 41 70 246 41 70 247 41 70 248 41 70 249 41 70 249 41 70 250 41 70 251 41 70 252 41 70 252 41 70 253 41 70 255 40 69
0 53 89 1 53 89 2 53 89 3 53 89 5 53 89 6 53 89 7 53 89 8 53 89 10 53 89 11 53 89 12 53 89 14 53 89 15 53 89 16 53 89 17 53 89 20 53 89 21 53 89 22 53 89 24 53 89 25 53 89 26 53 89 28 53 89 29 53 89 30 53 89 31 53 89 33 53 89 34 53 89 35 53 89 36 53 89 38 53 89 40 53 89 42 53 89 43 53 89 44 53 89 45 53 89 47 53 89 48 53 89 49 53 89 50 53 89 52 53 89 53 53 89 54 53 89 56 53 89 57 53 89 58 53 89 61 53 89 62 53 89 63 53 89 65 53 89 66 53 89 67 53 89 68 53 89 70 53 89 71 53 89 72 53 89 73 53 89 75 53 89 76 53 89 77 53 89 79 53 89 81 53 89 82 53 89 84 53 89 85 53 89 86 53 89 87 53 89 89 53 89 90 53 89 91 53 88 92 53 88 93 53 88 94 53 88 95 53 88 97 52 88 98 52 88 100 52 87 101 52 87 102 52 87 103 52 87 104 52 87 105 52 87 106 52 87 107 52 86 109 52 86 110 51 86 111 51 86 112 51 86 113 51 86 114 51 86 115 51 85 117 51 85 118 51 85 119 51 85 120 51 85 121 51 85 122 51 85 123 50 84 124 50 84 125 50 84 126 50 84 127 50 84 128 50 84 129 50 84 130 50 84 131 50 83 133 50 83 134 50 83 135 50 83 136 50 83 137 49 83 138 49 83 139 49 82 140 49 82 141 49 82 142 49 82 143 49 82 144 49 82 145 49 82 146 49 82 147 49 82 149 49 81 150 49 81 151 48 81 152 48 81 153 48 81 154 48 81 155 48 81 156 48 81 157 48 80 158 48 80 159 48 80 160 48 80 160 48 80 161 48 80 162 48 80 164 48 80 165 47 79 166 47 79 167 47 79 168 47 79 169 47 79 170 47 79 171 47 79 172 47 79 172 47 79 173 47 79 174 47 78 175 47 78 176 47 78 177 47 78 179 47 78 180 46 78 180 46 78 181 46 78 182 46 77 183 46 77 184 46 77 185 46 77 186 46 77 187 46 77 187 46 77 188 46 77 189 46 77 190 46 77 191 46 76 193 46 76 193 46 76 194 45 76 195 45 76 196 45 76 197 45 76 198 45 76 199 45 76 199 45 76 200 45 75 201 45 75 202 45 75 203 45 75 204 45 75 204 45 75 206 45 75 207 45 75 208 45 75 208 45 75 209 44 74 210 44 74 211 44 74 212 44 74 213 44 74 213 44 74 214 44 74 215 44 74 216 44 74 217 44 74 217 44 74 219 44 73 220 44 73 221 44 73 221 44 73 222 44 73 223 44 73 224 43 73 224 43 73 225 43 73 226 43 73 227 43 72 228 43 72 228 43 72 229 43 72 230 43 72 231 43 72 232 43 72 233 43 72 234 43 72 234 43 72 235 43 72 236 43 71 237 43 71 238 43 71 238 43 71 239 42 71 240 42 71 241 42 71 241 42 71 242 42 71 244 42 71 244 42 71 245 42 71 246 42 70 246 42 70 247 42 70 248 42 70 249 42 70 249 42 70 250 42 70 251 42 70 252 42 70 252 42 70 253 42 70 255 41 70
0 56 89 1 56 89 2 56 89 3 56 89 5 56 89 6 56 89 7 56 89 8 56 89 10 56 89 11 56 89 12 56 89 14 56 89 15 56 89 16 56 89 17 56 89 20 56 89 21 56 89 22 56 89 24 56 89 25 56 89 26 56 89 28 56 89 29 56 89 30 56 89 31 56 89 33 56 89 34 56 89 35 56 89 36 56 89 38 56 89 40 56 89 42 56 89 43 56 89 44 56 89 45 56 89 47 56 89 48 56 89 49 56 89 50 56 89 52 56 89 53 56 89 54 56 89 56 56 89 57 56 89 58 56 89 61 56 89 62 56 89 63 56 89 65 56 89 66 56 89 67 56 89 68 56 89 70 56 89 71 56 89 72 56 89 73 56 89 75 56 89 76 56 89 77 56 89 79 56 89 81 56 89 82 56 89 84 56 89 85 56 89 86 56 89 87 56 89 89 56 89 90 56 89 91 55 88 92 55 88 93 55 88 94 55 88 95 55 88 97 55 88 98 55 88 100 55 87 101 55 87 102 55 87 103 54 87 104 54 87 105 54 87 106 54 87 107 54 86 109 54 86 110 54 86 111 54 86 112 54 86 113 54 86 114 54 86 115 54 85 117 53 85 118 53 85 119 53 85 120 53 85 121 53 85 122 53 85 123 53 84 124 53 84 125 53 84 126 53 84 127 53 84 128 53 84 129 52 84 130 52 84 131 52 83 133 52 83 134 52 83 135 52 83 136 52 83 137 52 83 138 52 83 139 52 82 140 52 82 141 52 82 142 51 82 143 51 82 144 51 82 145 51 82 146 51 82 147 51 82 149 51 81 150 51 81 151 51 81 152 51 81 153 51 81 154 51 81 155 51 81 156 50 81 157 50 80 158 50 80 159 50 80 160 50 80 160 50 80 161 50 80 162 50 80 164 50 80 165 50 79 166 50 79 167 50 79 168 50 79 169 49 79 170 49 79 171 49 79 172 49 79 172 49 79 173 49 79 174 49 78 175 49 78 176 49 78 177 49 78 179 49 78 180 49 78 180 49 78 181 49 78 182 49 77 183 48 77 184 48 77 185 48 77 186 48 77 187 48 77 187 48 77 188 48 77 189 48 77 190 48 77 191 48 76 193 48 76 193 48 76 194 48 76 195 48 76 196 48 76 197 47 76 198 47 76 199 47 76 199 47 76 200 47 75 201 47 75 202 47 75 203 47 75 204 47 75 204 47 75 206 47 75 207 47 75 208 47 75 208 47 75 209 47 74 210 47 74 211 46 74 212 46 74 213 46 74 213 46 74 214 46 74 215 46 74 216 46 74 217 46 74 217 46 74 219 46 73 220 46 73 221 46 73 221 46 73 222 46 73 223 46 73 224 46 73 224 46 73 225 45 73 226 45 73 227 45 72 228 45 72 228 45 72 229 45 72 230 45 72 231 45 72 232 45 72 233 45 72 234 45 72 234 45 72 235 45 72 236 45 71 237 45 71 238 45 71 238 45 71 239 45 71 240 44 71 241 44 71 241 44 71 242 44 71 244 44 71 244 44 71 245 44 71 246 44 70 246 44 70 247 44 70 248 44 70 249 44 70 249 44 70 250 44 70 251 44 70 252 44 70 252 44 70 253 44 70 255 44 70
0 57 89 1 57 89 2 57 89 3 57 89 5 57 89 6 57 89 7 57 89 8 57 89 10 57 89 11 57 89 12 57 89 14 57 89 15 57 89 16 57 89 17 57 89 20 57 89 21 57 89 22 57 89 24 57 89 25 57 89 26 57 89 28 57 89 29 57 89 30 57 89 31 57 89 33 57 89 34 57 89 35 57 89 36 57 89 38 57 89 40 57 89 42 57 89 43 57 89 44 57 89 45 57 89 47 57 89 48 57 89 49 57 89 50 57 89 52 57 89 53 57 89 54 57 89 56 57 89 57 57 89 58 57 89 61 57 89 62 57 89 63 57 89 65 57 89 66 57 89 67 57 89 68 57 89 70 57 89 71 57 89 72 57 89 73 57 89 75 57 89 76 57 89 77 57 89 79 57 89 81 57 89 82 57 89 84 57 89 85 57 89 86 57 89 87 57 89 89 57 89 90 57 89 91 57 88 92 57 88 93 57 88 94 56 88 95 56 88 97 56 88 98 56 88 100 56 87 101 56 87 102 56 87 103 56 87 104 56 87 105 56 87 106 55 87 107 55 86 109 55 86 110 55 86 111 55 86 112 55 86 113 55 86 114 55 86 115 55 85 117 55 85 118 55 85 119 54 85 120 54 85 121 54 85 122 54 85 123 54 84 124 54 84 125 54 84 126 54 84 127 54 84 128 54 84 129 54 84 130 54 84 131 53 83 133 53 83 134 53 83 135 53 83 136 53 83 137 53 83 138 53 83 139 53 82 140 53 82 141 53 82 142 53 82 143 53 82 144 52 82 145 52 82 146 52 82 147 52 82 149 52 81 150 52 81 151 52 81 152 52 81 153 52 81 154 52 81 155 52 81 156 52 81 157 52 80 158 51 80 159 51 80 160 51 80 160 51 80 161 51 80 162 51 80 164 51 80 165 51 79 166 51 79 167 51 79 168 51 79 169 51 79 170 51 79 171 50 79 172 50 79 172 50 79 173 50 79 174 50 78 175 50 78 176 50 78 177 50 78 179 50 78 180 50 78 180 50 78 181 50 78 182 50 77 183 50 77 184 50 77 185 49 77 186 49 77 187 49 77 187 49 77 188 49 77 189 49 77 190 49 77 191 49 76 193 49 76 193 49 76 194 49 76 195 49 76 196 49 76 197 49 76 198 48 76 199 48 76 199 48 76 200 48 75 201 48 75 202 48 75 203 48 75 204 48 75 204 48 75 206 48 75 207 48 75 208 48 75 208 48 75 209 48 74 210 48 74 211 48 74 212 47 74 213 47 74 213 47 74 214 47 74 215 47 74 216 47 74 217 47 74 217 47 74 219 47 73 220 47 73 221 47 73 221 47 73 222 47 73 223 47 73 224 47 73 224 47 73 225 47 73 226 46 73 227 46 72 228 46 72 228 46 72 229 46 72 230 46 72 231 46 72 232 46 72 233 46 72 234 46 72 234 46 72 235 46 72 236 46 71 237 46 71 238 46 71 238 46 71 239 46 71 240 46 71 241 45 71 241 45 71 242 45 71 244 45 71 244 45 71 245 45 71 246 45 70 246 45 70 247 45 70 248 45 70 249 45 70 249 45 70 250 45 70 251 45 70 252 45 70 252 45 70 253 45 70 255 45 70
0 59 89 1 59 89 2 59 89 3 59 89 5 59 89 6 59 89 7 59 89 8 59 89 10 59 89 11 59 89 12 59 89 14 59 89 15 59 89 16 59 89 17 59 89 20 59 89 21 59 89 22 59 89 24 59 89 25 59 89 26 59 89 28 59 89 29 59 89 30 59 89 31 59 89 33 59 89 34 59 89 35 59 89 36 59 89 38 59 89 40 59 89 42 59 89 43 59 89 44 59 89 45 59 89 47 59 89 48 59 89 49 59 89 50 59 89 52 59 89 53 59 89 54 59 89 56 59 89 57 59 89 58 59 89 61 59 89 62 59 89 63 59 89 65 59 89 66 59 89 67 59 89 68 59 89 70 59 89 71 59 89 72 59 89 73 59 89 75 59 89 76 59 89 77 59 89 79 59 89 81 59 89 82 59 89 84 59 89 85 59 89 86 59 89 87 59 89 89 59 89 90 59 89 91 59 88 92 59 88 93 59 88 94 59 88 95 59 88 97 59 88 98 59 88 100 58 87 101 58 87 102 58 87 103 58 87 104 58 87 105 58 87 106 58 87 107 58 86 109 58 86 110 58 86 111 58 86 112 57 86 113 57 86 114 57 86 115 57 85 117 57 85 118 57 85 119 57 85 120 57 85 121 57 85 122 57 85 123 57 84 124 56 84 125 56 84 126 56 84 127 56 84 128 56 84 129 56 84 130 56 84 131 56 83 133 56 83 134 56 83 135 56 83 136 55 83 137 55 83 138 55 83 139 55 82 140 55 82 141 55 82 142 55 82 143 55 82 144 55 82 145 55 82 146 55 82 147 55 82 149 54 81 150 54 81 151 54 81 152 54 81 153 54 81 154 54 81 155 54 81 156 54 81 157 54 80 158 54 80 159 54 80 160 54 80 160 54 80 161 53 80 162 53 80 164 53 80 165 53 79 166 53 79 167 53 79 168 53 79 169 53 79 170 53 79 171 53 79 172 53 79 172 53 79 173 53 79 174 52 78 175 52 78 176 52 78 177 52 78 179 52 78 180 52 78 180 52 78 181 52 78 182 52 77 183 52 77 184 52 77 185 52 77 186 52 77 187 52 77 187 51 77 188 51 77 189 51 77 190 51 77 191 51 76 193 51 76 193 51 76 194 51 76 195 51 76 196 51 76 197 51 76 198 51 76 199 51 76 199 51 76 200 50 75 201 50 75 202 50 75 203 50 75 204 50 75 204 50 75 206 50 75 207 50 75 208 50 75 208 50 75 209 50 74 210 50 74 211 50 74 212 50 74 213 50 74 213 49 74 214 49 74 215 49 74 216 49 74 217 49 74 217 49 74 219 49 73 220 49 73 221 49 73 221 49 73 222 49 73 223 49 73 224 49 73 224 49 73 225 49 73 226 49 73 227 49 72 228 48 72 228 48 72 229 48 72 230 48 72 231 48 72 232 48 72 233 48 72 234 48 72 234 48 72 235 48 72 236 48 71 237 48 71 238 48 71 238 48 71 239 48 71 240 48 71 241 48 71 241 47 71 242 47 71 244 47 71 244 47 71 245 47 71 246 47 70 246 47 70 247 47 70 248 47 70 249 47 70 249 47 70 250 47 70 251 47 70 252 47 70 252 47 70 253 47 70 255 47 70
0 61 89 1 61 89 2 61 89 3 61 89 5 61 89 6 61 89 7 61 89 8 61 89 10 61 89 11 61 89 12 61 89 14 61 89 15 61 89 16 61 89 17 61 89 20 61 89 21 61 89 22 61 89 24 61 89 25 61 89 26 61 89 28 61 89 29 61 89 30 61 89 31 61 89 33 61 89 34 61 89 35 61 89 36 61 89 38 61 89 40 61 89 42 61 89 43 61 89 44 61 89 45 61 89 47 61 89 48 61 89 49 61 89 50 61 89 52 61 89 53 61 89 54 61 89 56 61 89 57 61 89 58 61 89 61 61 89 62 61 89 63 61 89 65 61 89 66 61 89 67 61 89 68 61 89 70 61 89 71 61 89 72 61 89 73 61 89 75 61 89 76 61 89 77 61 89 79 61 89 81 61 89 82 61 89 84 61 89 85 61 89 86 61 89 87 61 89 89 61 89 90 61 89 91 60 88 92 60 88 93 60 88 94 60 88 95 60 88 97 60 88 98 60 88 100 60 87 101 60 87 102 60 87 103 59 87 104 59 87 105 59 87 106 59 87 107 59 86 109 59 86 110 59 86 111 59 86 112 59 86 113 59 86 114 59 86 115 58 85 117 58 85 118 58 85 119 58 85 120 58 85 121 58 85 122 58 85 123 58 84 124 58 84 125 58 84 126 57 84 127 57 84 128 57 84 129 57 84 130 57 84 131 57 83 133 57 83 134 57 83 135 57 83 136 57 83 137 57 83 138 56 83 139 56 82 140 56 82 141 56 82 142 56 82 143 56 82 144 56 82 145 56 82 146 56 82 147 56 82 149 56 81 150 56 81 151 55 81 152 55 81 153 55 81 154 55 81 155 55 81 156 55 81 157 55 80 158 55 80 159 55 80 160 55 80 160 55 80 161 55 80 162 55 80 164 54 80 165 54 79 166 54 79 167 54 79 168 54 79 169 54 79 170 54 79 171 54 79 172 54 79 172 54 79 173 54 79 174 54 78 175 54 78 176 53 78 177 53 78 179 53 78 180 53 78 180 53 78 181 53 78 182 53 77 183 53 77 184 53 77 185 53 77 186 53 77 187 53 77 187 53 77 188 52 77 189 52 77 190 52 77 191 52 76 193 52 76 193 52 76 194 52 76 195 52 76 196 52 76 197 52 76 198 52 76 199 52 76 199 52 76 200 52 75 201 52 75 202 51 75 203 51 75 204 51 75 204 51 75 206 51 75 207 51 75 208 51 75 208 51 75 209 51 74 210 51 74 211 51 74 212 51 74 213 51 74 213 51 74 214 51 74 215 50 74 216 50 74 217 50 74 217 50 74 219 50 73 220 50 73 221 50 73 221 50 73 222 50 73 223 50 73 224 50 73 224 50 73 225 50 73 226 50 73 227 50 72 228 49 72 228 49 72 229 49 72 230 49 72 231 49 72 232 49 72 233 49 72 234 49 72 234 49 72 235 49 72 236 49 71 237 49 71 238 49 71 238 49 71 239 49 71 240 49 71 241 49 71 241 48 71 242 48 71 244 48 71 244 48 71 245 48 71 246 48 70 246 48 70 247 48 70 248 48 70 249 48 70 249 48 70 250 48 70 251 48 70 252 48 70 252 48 70 253 48 70 255 48 69
0 62 89 1 62 89 2 62 89 3 62 89 5 62 89 6 62 89 7 62 89 8 62 89 10 62 89 11 62 89 12 62 89 14 62 89 15 62 89 16 62 89 17 62 89 20 62 89 21 62 89 22 62 89 24 62 89 25 62 89 26 62 89 28 62 89 29 62 89 30 62 89 31 62 89 33 62 89 34 62 89 35 62 89 36 62 89 38 62 89 40 62 89 42 62 89 43 62 89 44 62 89 45 62 89 47 62 89 48 62 89 49 62 89 50 62 89 52 62 89 53 62 89 54 62 89 56 62 89 57 62 89 58 62 89 61 62 89 62 62 89 63 62 89 65 62 89 66 62 89 67 62 89 68 62 89 70 62 89 71 62 89 72 62 89 73 62 89 75 62 89 76 62 89 77 62 89 79 62 89 81 62 89 82 62 89 84 62 89 85 62 89 86 62 89 87 62 89 89 62 89 90 62 89 91 62 88 92 62 88 93 62 88 94 61 88 95 61 88 97 61 88 98 61 88 100 61 87 101 61 87 102 61 87 103 61 87 104 61 87 105 61 87 106 60 87 107 60 86 109 60 86 110 60 86 111 60 86 112 60 86 113 60 86 114 60 86 115 60 85 117 59 85 118 59 85 119 59 85 120 59 85 121 59 85 122 59 85 123 59 84 124 59 84 125 59 84 126 59 84 127 59 84 128 59 84 129 58 84 130 58 84 131 58 83 133 58 83 134 58 83 135 58 83 136 58 83 137 58 83 138 58 83 139 58 82 140 58 82 141 57 82 142 57 82 143 57 82 144 57 82 145 57 82 146 57 82 147 57 82 149 57 81 150 57 81 151 57 81 152 57 81 153 56 81 154 56 81 155 56 81 156 56 81 157 56 80 158 56 80 159 56 80 160 56 80 160 56 80 161 56 80 162 56 80 164 56 80 165 55 79 166 55 79 167 55 79 168 55 79 169 55 79 170 55 79 171 55 79 172 55 79 172 55 79 173 55 79 174 55 78 175 55 78 176 55 78 177 55 78 179 54 78 180 54 78 180 54 78 181 54 78 182 54 77 183 54 77 184 54 77 185 54 77 186 54 77 187 54 77 187 54 77 188 54 77 189 54 77 190 53 77 191 53 76 193 53 76 193 53 76 194 53 76 195 53 76 196 53 76 197 53 76 198 53 76 199 53 76 199 53 76 200 53 75 201 53 75 202 53 75 203 52 75 204 52 75 204 52 75 206 52 75 207 52 75 208 52 75 208 52 75 209 52 74 210 52 74 211 52 74 212 52 74 213 52 74 213 52 74 214 52 74 215 52 74 216 51 74 217 51 74 217 51 74 219 51 73 220 51 73 221 51 73 221 51 73 222 51 73 223 51 73 224 51 73 224 51 73 225 51 73 226 51 73 227 51 72 228 51 72 228 50 72 229 50 72 230 50 72 231 50 72 232 50 72 233 50 72 234 50 72 234 50 72 235 50 72 236 50 71 237 50 71 238 50 71 238 50 71 239 50 71 240 50 71 241 50 71 241 49 71 242 49 71 244 49 71 244 49 71 245 49 71 246 49 70 246 49 70 247 49 70 248 49 70 249 49 70 249 49 70 250 49 70 251 49 70 252 49 70 252 49 70 253 49 70 255 48 69
0 65 89 1 65 89 2 65 89 3 65 89 5 65 89 6 65 89 7 65 89 8 65 89 10 65 89 11 65 89 12 65 89 14 65 89 15 65 89 16 65 89 17 65 89 20 65 89 21 65 89 22 65 89 24 65 89 25 65 89 26 65 89 28 65 89 29 65 89 30 65 89 31 65 89 33 65 89 34 65 89 35 65 89 36 65 89 38 65 89 40 65 89 42 65 89 43 65 89 44 65 89 45 65 89 47 65 89 48 65 89 49 65 89 50 65 89 52 65 89 53 65 89 54 65 89 56 65 89 57 65 89 58 65 89 61 65 89 62 65 89 63 65 89 65 65 89 66 65 89 67 65 89 68 65 89 70 65 89 71 65 89 72 65 89 73 65 89 75 65 89 76 65 89 77 65 89 79 65 89 81 65 89 82 65 89 84 65 89 85 65 89 86 65 89 87 65 89 89 65 89 90 64 89 91 64 88 92 64 88 93 64 88 94 64 88 95 64 88 97 64 88 98 64 88 100 63 87 101 63 87 102 63 87 103 63 87 104 63 87 105 63 87 106 63 87 107 63 86 109 63 86 110 63 86 111 63 86 112 62 86 113 62 86 114 62 86 115 62 85 117 62 85 118 62 85 119 62 85 120 62 85 121 62 85 122 61 85 123 61 84 124 61 84 125 61 84 126 61 84 127 61 84 128 61 84 129 61 84 130 61 84 131 61 83 133 60 83 134 60 83 135 60 83 136 60 83 137 60 83 138 60 83 139 60 82 140 60 82 141 60 82 142 60 82 143 60 82 144 60 82 145 59 82 146 59 82 147 59 82 149 59 81 150 59 81 151 59 81 152 59 81 153 59 81 154 59 81 155 59 81 156 59 81 157 58 80 158 58 80 159 58 80 160 58 80 160 58 80 161 58 80 162 58 80 164 58 80 165 58 79 166 58 79 167 58 79 168 58 79 169 57 79 170 57 79 171 57 79 172 57 79 172 57 79 173 57 79 174 57 78 175 57 78 176 57 78 177 57 78 179 57 78 180 57 78 180 56 78 181 56 78 182 56 77 183 56 77 184 56 77 185 56 77 186 56 77 187 56 77 187 56 77 188 56 77 189 56 77 190 56 77 191 56 76 193 55 76 193 55 76 194 55 76 195 55 76 196 55 76 197 55 76 198 55 76 199 55 76 199 55 76 200 55 75 201 55 75 202 55 75 203 55 75 204 55 75 204 54 75 206 54 75 207 54 75 208 54 75 208 54 75 209 54 74 210 54 74 211 54 74 212 54 74 213 54 74 213 54 74 214 54 74 215 54 74 216 54 74 217 53 74 217 53 74 219 53 73 220 53 73 221 53 73 221 53 73 222 53 73 223 53 73 224 53 73 224 53 73 225 53 73 226 53 73 227 53 72 228 53 72 228 53 72 229 52 72 230 52 72 231 52 72 232 52 72 233 52 72 234 52 72 234 52 72 235 52 72 236 52 71 237 52 71 238 52 71 238 52 71 239 52 71 240 52 71 241 52 71 241 52 71 242 51 71 244 51 71 244 51 71 245 51 71 246 51 70 246 51 70 247 51 70 248 51 70 249 51 70 249 51 70 250 51 70 251 51 70 252 51 70 252 51 70 253 51 70 255 50 70
0 66 89 1 66 89 2 66 89 3 66 89 5 66 89 6 66 89 7 66 89 8 66 89 10 66 89 11 66 89 12 66 89 14 66 89 15 66 89 16 66 89 17 66 89 20 66 89 21 66 89 22 66 89 24 66 89 25 66 89 26 66 89 28 66 89 29 66 89 30 66 89 31 66 89 33 66 89 34 66 89 35 66 89 36 66 89 38 66 89 40 66 89 42 66 89 43 66 89 44 66 89 45 66 89 47 66 89 48 66 89 49 66 89 50 66 89 52 66 89 53 66 89 54 66 89 56 66 89 57 66 89 58 66 89 61 66 89 62 66 89 63 66 89 65 66 89 66 66 89 67 66 89 68 66 89 70 66 89 71 66 89 72 66 89 73 66 89 75 66 89 76 66 89 77 66 89 79 66 89 81 66 89 82 66 89 84 66 89 85 66 89 86 66 89 87 66 89 89 66 89 90 66 89 91 66 88 92 65 88 93 65 88 94 65 88 95 65 88 97 65 88 98 65 88 100 65 87 101 65 87 102 65 87 103 64 87 104 64 87 105 64 87 106 64 87 107 64 86 109 64 86 110 64 86 111 64 86 112 64 86 113 64 86 114 63 86 115 63 85 117 63 85 118 63 85 119 63 85 120 63 85 121 63 85 122 63 85 123 63 84 124 63 84 125 62 84 126 62 84 127 62 84 128 62 84 129 62 84 130 62 84 131 62 83 133 62 83 134 62 83 135 62 83 136 61 83 137 61 83 138 61 83 139 61 82 140 61 82 141 61 82 142 61 82 143 61 82 144 61 82 145 61 82 146 61 82 147 60 82 149 60 81 150 60 81 151 60 81 152 60 81 153 60 81 154 60 81 155 60 81 156 60 81 157 60 80 158 60 80 159 59 80 160 59 80 160 59 80 161 59 80 162 59 80 164 59 80 165 59 79 166 59 79 167 59 79 168 59 79 169 59 79 170 59 79 171 58 79 172 58 79 172 58 79 173 58 79 174 58 78 175 58 78 176 58 78 177 58 78 179 58 78 180 58 78 180 58 78 181 58 78 182 57 77 183 57 77 184 57 77 185 57 77 186 57 77 187 57 77 187 57 77 188 57 77 189 57 77 190 57 77 191 57 76 193 57 76 193 56 76 194 56 76 195 56 76 196 56 76 197 56 76 198 56 76 199 56 76 199 56 76 200 56 75 201 56 75 202 56 75 203 56 75 204 56 75 204 56 75 206 55 75 207 55 75 208 55 75 208 55 75 209 55 74 210 55 74 211 55 74 212 55 74 213 55 74 213 55 74 214 55 74 215 55 74 216 55 74 217 55 74 217 54 74 219 54 73 220 54 73 221 54 73 221 54 73 222 54 73 223 54 73 224 54 73 224 54 73 225 54 73 226 54 73 227 54 72 228 54 72 228 54 72 229 54 72 230 53 72 231 53 72 232 53 72 233 53 72 234 53 72 234 53 72 235 53 72 236 53 71 237 53 71 238 53 71 238 53 71 239 53 71 240 53 71 241 53 71 241 53 71 242 52 71 244 52 71 244 52 71 245 52 71 246 52 70 246 52 70 247 52 70 248 52 70 249 52 70 249 52 70 250 52 70 251 52 70 252 52 70 252 52 70 253 52 70 255 51 70
0 68 89 1 68 89 2 68 89 3 68 89 5 68 89 6 68 89 7 68 89 8 68 89 10 68 89 11 68 89 12 68 89 14 68 89 15 68 89 16 68 89 17 68 89 20 68 89 21 68 89 22 68 89 24 68 89 25 68 89 26 68 89 28 68 89 29 68 89 30 68 89 31 68 89 33 68 89 34 68 89 35 68 89 36 68 89 38 68 89 40 68 89 42 68 89 43 68 89 44 68 89 45 68 89 47 68 89 48 68 89 49 68 89 50 68 89 52 68 89 53 68 89 54 68 89 56 68 89 57 68 89 58 68 89 61 68 89 62 68 89 63 68 89 65 68 89 66 68 89 67 68 89 68 68 89 70 68 89 71 68 89 72 68 89 73 68 89 75 68 89 76 68 89 77 68 89 79 68 89 81 68 89 82 68 89 84 68 89 85 68 89 86 68 89 87 68 89 89 68 89 90 68 89 91 68 88 92 68 88 93 68 88 94 68 88 95 68 88 97 68 88 98 67 88 100 67 87 101 67 87 102 67 87 103 67 87 104 67 87 105 67 87 106 67 87 107 67 86 109 66 86 110 66 86 111 66 86 112 66 86 113 66 86 114 66 86 115 66 85 117 66 85 118 66 85 119 65 85 120 65 85 121 65 85 122 65 85 123 65 84 124 65 84 125 65 84 126 65 84 127 65 84 128 65 84 129 64 84 130 64 84 131 64 83 133 64 83 134 64 83 135 64 83 136 64 83 137 64 83 138 64 83 139 64 82 140 63 82 141 63 82 142 63 82 143 63 82 144 63 82 145 63 82 146 63 82 147 63 82 149 63 81 150 63 81 151 62 81 152 62 81 153 62 81 154 62 81 155 62 81 156 62 81 157 62 80 158 62 80 159 62 80 160 62 80 160 62 80 161 62 80 162 61 80 164 61 80 165 61 79 166 61 79 167 61 79 168 61 79 169 61 79 170 61 79 171 61 79 172 61 79 172 61 79 173 60 79 174 60 78 175 60 78 176 60 78 177 60 78 179 60 78 180 60 78 180 60 78 181 60 78 182 60 77 183 60 77 184 60 77 185 59 77 186 59 77 187 59 77 187 59 77 188 59 77 189 59 77 190 59 77 191 59 76 193 59 76 193 59 76 194 59 76 195 59 76 196 58 76 197 58 76 198 58 76 199 58 76 199 58 76 200 58 75 201 58 75 202 58 75 203 58 75 204 58 75 204 58 75 206 58 75 207 58 75 208 57 75 208 57 75 209 57 74 210 57 74 211 57 74 212 57 74 213 57 74 213 57 74 214 57 74 215 57 74 216 57 74 217 57 74 217 57 74 219 56 73 220 56 73 221 56 73 221 56 73 222 56 73 223 56 73 224 56 73 224 56 73 225 56 73 226 56 73 227 56 72 228 56 72 228 56 72 229 56 72 230 56 72 231 55 72 232 55 72 233 55 72 234 55 72 234 55 72 235 55 72 236 55 71 237 55 71 238 55 71 238 55 71 239 55 71 240 55 71 241 55 71 241 55 71 242 55 71 244 54 71 244 54 71 245 54 71 246 54 70 246 54 70 247 54 70 248 54 70 249 54 70 249 54 70 250 54 70 251 54 70 252 54 70 252 54 70 253 54 70 255 54 69
0 70 89 1 70 89 2 70 89 3 70 89 5 70 89 6 70 89 7 70 89 8 70 89 10 70 89 11 70 89 12 70 89 14 70 89 15 70 89 16 70 89 17 70 89 20 70 89 21 70 89 22 70 89 24 70 89 25 70 89 26 70 89 28 70 89 29 70 89 30 70 89 31 70 89 33 70 89 34 70 89 35 70 89 36 70 89 38 70 89 40 70 89 42 70 89 43 70 89 44 70 89 45 70 89 47 70 89 48 70 89 49 70 89 50 70 89 52 70 89 53 70 89 54 70 89 56 70 89 57 70 89 58 70 89 61 70 89 62 70 89 63 70 89 65 70 89 66 70 89 67 70 89 68 70 89 70 70 89 71 70 89 72 70 89 73 70 89 75 70 89 76 70 89 77 70 89 79 70 89 81 70 89 82 70 89 84 70 89 85 70 89 86 70 89 87 70 89 89 70 89 90 70 89 91 69 88 92 69 88 93 69 88 94 69 88 95 69 88 97 69 88 98 69 88 100 69 87 101 68 87 102 68 87 103 68 87 104 68 87 105 68 87 106 68 87 107 68 86 109 68 86 110 68 86 111 67 86 112 67 86 113 67 86 114 67 86 115 67 85 117 67 85 118 67 85 119 67 85 120 67 85 121 66 85 122 66 85 123 66 84 124 66 84 125 66 84 126 66 84 127 66 84 128 66 84 129 66 84 130 66 84 131 65 83 133 65 83 134 65 83 135 65 83 136 65 83 137 65 83 138 65 83 139 65 82 140 65 82 141 65 82 142 64 82 143 64 82 144 64 82 145 64 82 146 64 82 147 64 82 149 64 81 150 64 81 151 64 81 152 64 81 153 63 81 154 63 81 155 63 81 156 63 81 157 63 80 158 63 80 159 63 80 160 63 80 160 63 80 161 63 80 162 63 80 164 62 80 165 62 79 166 62 79 167 62 79 168 62 79 169 62 79 170 62 79 171 62 79 172 62 79 172 62 79 173 62 79 174 61 78 175 61 78 176 61 78 177 61 78 179 61 78 180 61 78 180 61 78 181 61 78 182 61 77 183 61 77 184 61 77 185 61 77 186 60 77 187 60 77 187 60 77 188 60 77 189 60 77 190 60 77 191 60 76 193 60 76 193 60 76 194 60 76 195 60 76 196 60 76 197 59 76 198 59 76 199 59 76 199 59 76 200 59 75 201 59 75 202 59 75 203 59 75 204 59 75 204 59 75 206 59 75 207 59 75 208 59 75 208 58 75 209 58 74 210 58 74 211 58 74 212 58 74 213 58 74 213 58 74 214 58 74 215 58 74 216 58 74 217 58 74 217 58 74 219 58 73 220 57 73 221 57 73 221 57 73 222 57 73 223 57 73 224 57 73 224 57 73 225 57 73 226 57 73 227 57 72 228 57 72 228 57 72 229 57 72 230 57 72 231 56 72 232 56 72 233 56 72 234 56 72 234 56 72 235 56 72 236 56 71 237 56 71 238 56 71 238 56 71 239 56 71 240 56 71 241 56 71 241 56 71 242 56 71 244 55 71 244 55 71 245 55 71 246 55 70 246 55 70 247 55 70 248 55 70 249 55 70 249 55 70 250 55 70 251 55 70 252 55 70 252 55 70 253 55 70 255 55 69
0 71 89 1 71 89 2 71 89 3 71 89 5 71 89 6 71 89 7 71 89 8 71 89 10 71 89 11 71 89 12 71 89 14 71 89 15 71 89 16 71 89 17 71 89 20 71 89 21 71 89 22 71 89 24 71 89 25 71 89 26 71 89 28 71 89 29 71 89 30 71 89 31 71 89 33 71 89 34 71 89 35 71 89 36 71 89 38 71 89 40 71 89 42 71 89 43 71 89 44 71 89 45 71 89 47 71 89 48 71 89 49 71 89 50 71 89 52 71 89 53 71 89 54 71 89 56 71 89 57 71 89 58 71 89 61 71 89 62 71 89 63 71 89 65 71 89 66 71 89 67 71 89 68 71 89 70 71 89 71 71 89 72 71 89 73 71 89 75 71 89 76 71 89 77 71 89 79 71 89 81 71 89 82 71 89 84 71 89 85 71 89 86 71 89 87 71 89 89 71 89 90 71 89 91 71 88 92 71 88 93 70 88 94 70 88 95 70 88 97 70 88 98 70 88 100 70 87 101 70 87 102 70 87 103 69 87 104 69 87 105 69 87 106 69 87 107 69 86 109 69 86 110 69 86 111 69 86 112 69 86 113 68 86 114 68 86 115 68 85 117 68 85 118 68 85 119 68 85 120 68 85 121 68 85 122 68 85 123 67 84 124 67 84 125 67 84 126 67 84 127 67 84 128 67 84 129 67 84 130 67 84 131 67 83 133 66 83 134 66 83 135 66 83 136 66 83 137 66 83 138 66 83 139 66 82 140 66 82 141 66 82 142 66 82 143 66 82 144 65 82 145 65 82 146 65 82 147 65 82 149 65 81 150 65 81 151 65 81 152 65 81 153 65 81 154 65 81 155 64 81 156 64 81 157 64 80 158 64 80 159 64 80 160 64 80 160 64 80 161 64 80 162 64 80 164 64 80 165 63 79 166 63 79 167 63 79 168 63 79 169 63 79 170 63 79 171 63 79 172 63 79 172 63 79 173 63 79 174 63 78 175 63 78 176 62 78 177 62 78 179 62 78 180 62 78 180 62 78 181 62 78 182 62 77 183 62 77 184 62 77 185 62 77 186 62 77 187 61 77 187 61 77 188 61 77 189 61 77 190 61 77 191 61 76 193 61 76 193 61 76 194 61 76 195 61 76 196 61 76 197 61 76 198 60 76 199 60 76 199 60 76 200 60 75 201 60 75 202 60 75 203 60 75 204 60 75 204 60 75 206 60 75 207 60 75 208 60 75 208 60 75 209 59 74 210 59 74 211 59 74 212 59 74 213 59 74 213 59 74 214 59 74 215 59 74 216 59 74 217 59 74 217 59 74 219 59 73 220 59 73 221 58 73 221 58 73 222 58 73 223 58 73 224 58 73 224 58 73 225 58 73 226 58 73 227 58 72 228 58 72 228 58 72 229 58 72 230 58 72 231 57 72 232 57 72 233 57 72 234 57 72 234 57 72 235 57 72 236 57 71 237 57 71 238 57 71 238 57 71 239 57 71 240 57 71 241 57 71 241 57 71 242 57 71 244 56 71 244 56 71 245 56 71 246 56 70 246 56 70 247 56 70 248 56 70 249 56 70 249 56 70 250 56 70 251 56 70 252 56 70 252 56 70 253 56 70 255 56 69
0 73 89 1 73 89 2 73 89 3 73 89 5 73 89 6 73 89 7 73 89 8 73 89 10 73 89 11 73 89 12 73 89 14 73 89 15 73 89 16 73 89 17 73 89 20 73 89 21 73 89 22 73 89 24 73 89 25 73 89 26 73 89 28 73 89 29 73 89 30 73 89 31 73 89 33 73 89 34 73 89 35 73 89 36 73 89 38 73 89 40 73 89 42 73 89 43 73 89 44 73 89 45 73 89 47 73 89 48 73 89 49 73 89 50 73 89 52 73 89 53 73 89 54 73 89 56 73 89 57 73 89 58 73 89 61 73 89 62 73 89 63 73 89 65 73 89 66 73 89 67 73 89 68 73 89 70 73 89 71 73 89 72 73 89 73 73 89 75 73 89 76 73 89 77 73 89 79 73 89 81 73 89 82 73 89 84 73 89 85 73 89 86 73 89 87 73 89 89 73 89 90 73 89 91 73 88 92 73 88 93 73 88 94 73 88 95 73 88 97 73 88 98 73 88 100 72 87 101 72 87 102 72 87 103 72 87 104 72 87 105 72 87 106 72 87 107 71 86 109 71 86 110 71 86 111 71 86 112 71 86 113 71 86 114 71 86 115 71 85 117 71 85 118 70 85 119 70 85 120 70 85 121 70 85 122 70 85 123 70 84 124 70 84 125 70 84 126 70 84 127 69 84 128 69 84 129 69 84 130 69 84 131 69 83 133 69 83 134 69 83 135 69 83 136 69 83 137 68 83 138 68 83 139 68 82 140 68 82 141 68 82 142 68 82 143 68 82 144 68 82 145 68 82 146 68 82 147 67 82 149 67 81 150 67 81 151 67 81 152 67 81 153 67 81 154 67 81 155 67 81 156 67 81 157 67 80 158 66 80 159 66 80 160 66 80 160 66 80 161 66 80 162 66 80 164 66 80 165 66 79 166 66 79 167 66 79 168 65 79 169 65 79 170 65 79 171 65 79 172 65 79 172 65 79 173 65 79 174 65 78 175 65 78 176 65 78 177 65 78 179 64 78 180 64 78 180 64 78 181 64 78 182 64 77 183 64 77 184 64 77 185 64 77 186 64 77 187 64 77 187 64 77 188 64 77 189 63 77 190 63 77 191 63 76 193 63 76 193 63 76 194 63 76 195 63 76 196 63 76 197 63 76 198 63 76 199 63 76 199 62 76 200 62 75 201 62 75 202 62 75 203 62 75 204 62 75 204 62 75 206 62 75 207 62 75 208 62 75 208 62 75 209 62 74 210 61 74 211 61 74 212 61 74 213 61 74 213 61 74 214 61 74 215 61 74 216 61 74 217 61 74 217 61 74 219 61 73 220 61 73 221 61 73 221 60 73 222 60 73 223 60 73 224 60 73 224 60 73 225 60 73 226 60 73 227 60 72 228 60 72 228 60 72 229 60 72 230 60 72 231 60 72 232 59 72 233 59 72 234 59 72 234 59 72 235 59 72 236 59 71 237 59 71 238 59 71 238 59 71 239 59 71 240 59 71 241 59 71 241 59 71 242 59 71 244 58 71 244 58 71 245 58 71 246 58 70 246 58 70 247 58 70 248 58 70 249 58 70 249 58 70 250 58 70 251 58 70 252 58 70 252 58 70 253 58 70 255 57 69
0 75 89 1 75 89 2 75 89 3 75 89 5 75 89 6 75 89 7 75 89 8 75 89 10 75 89 11 75 89 12 75 89 14 75 89 15 75 89 16 75 89 17 75 89 20 75 89 21 75 89 22 75 89 24 75 89 25 75 89 26 75 89 28 75 89 29 75 89 30 75 89 31 75 89 33 75 89 34 75 89 35 75 89 36 75 89 38 75 89 40 75 89 42 75 89 43 75 89 44 75 89 45 75 89 47 75 89 48 75 89 49 75 89 50 75 89 52 75 89 53 75 89 54 75 89 56 75 89 57 75 89 58 75 89 61 75 89 62 75 89 63 75 89 65 75 89 66 75 89 67 75 89 68 75 89 70 75 89 71 75 89 72 75 89 73 75 89 75 75 89 76 75 89 77 75 89 79 75 89 81 75 89 82 75 89 84 75 89 85 75 89 86 75 89 87 75 89 89 75 89 90 75 89 91 74 88 92 74 88 93 74 88 94 74 88 95 74 88 97 74 88 98 74 88 100 74 87 101 73 87 102 73 87 103 73 87 104 73 87 105 73 87 106 73 87 107 73 86 109 73 86 110 73 86 111 72 86 112 72 86 113 72 86 114 72 86 115 72 85 117 72 85 118 72 85 119 72 85 120 71 85 121 71 85 122 71 85 123 71 84 124 71 84 125 71 84 126 71 84 127 71 84 128 71 84 129 70 84 130 70 84 131 70 83 133 70 83 134 70 83 135 70 83 136 70 83 137 70 83 138 70 83 139 69 82 140 69 82 141 69 82 142 69 82 143 69 82 144 69 82 145 69 82 146 69 82 147 69 82 149 68 81 150 68 81 151 68 81 152 68 81 153 68 81 154 68 81 155 68 81 156 68 81 157 68 80 158 68 80 159 68 80 160 67 80 160 67 80 161 67 80 162 67 80 164 67 80 165 67 79 166 67 79 167 67 79 168 67 79 169 67 79 170 66 79 171 66 79 172 66 79 172 66 79 173 66 79 174 66 78 175 66 78 176 66 78 177 66 78 179 66 78 180 65 78 180 65 78 181 65 78 182 65 77 183 65 77 184 65 77 185 65 77 186 65 77 187 65 77 187 65 77 188 65 77 189 65 77 190 64 77 191 64 76 193 64 76 193 64 76 194 64 76 195 64 76 196 64 76 197 64 76 198 64 76 199 64 76 199 64 76 200 64 75 201 63 75 202 63 75 203 63 75 204 63 75 204 63 75 206 63 75 207 63 75 208 63 75 208 63 75 209 63 74 210 63 74 211 62 74 212 62 74 213 62 74 213 62 74 214 62 74 215 62 74 216 62 74 217 62 74 217 62 74 219 62 73 220 62 73 221 62 73 221 62 73 222 61 73 223 61 73 224 61 73 224 61 73 225 61 73 226 61 73 227 61 72 228 61 72 228 61 72 229 61 72 230 61 72 231 61 72 232 61 72 233 60 72 234 60 72 234 60 72 235 60 72 236 60 71 237 60 71 238 60 71 238 60 71 239 60 71 240 60 71 241 60 71 241 60 71 242 60 71 244 59 71 244 59 71 245 59 71 246 59 70 246 59 70 247 59 70 248 59 70 249 59 70 249 59 70 250 59 70 251 59 70 252 59 70 252 59 70 253 59 70 255 59 69
0 77 89 1 77 89 2 77 89 3 77 89 5 77 89 6 77 89 7 77 89 8 77 89 10 77 89 11 77 89 12 77 89 14 77 89 15 77 89 16 77 89 17 77 89 20 77 89 21 77 89 22 77 89 24 77 89 25 77 89 26 77 89 28 77 89 29 77 89 30 77 89 31 77 89 33 77 89 34 77 89 35 77 89 36 77 89 38 77 89 40 77 89 42 77 89 43 77 89 44 77 89 45 77 89 47 77 89 48 77 89 49 77 89 50 77 89 52 77 89 53 77 89 54 77 89 56 77 89 57 77 89 58 77 89 61 77 89 62 77 89 63 77 89 65 77 89 66 77 89 67 77 89 68 77 89 70 77 89 71 77 89 72 77 89 73 77 89 75 77 89 76 77 89 77 77 89 79 77 89 81 77 89 82 77 89 84 77 89 85 77 89 86 77 89 87 77 89 89 77 89 90 77 89 91 77 88 92 77 88 93 77 88 94 77 88 95 77 88 97 76 88 98 76 88 100 76 87 101 76 87 102 76 87 103 76 87 104 76 87 105 75 87 106 75 87 107 75 86 109 75 86 110 75 86 111 75 86 112 75 86 113 75 86 114 75 86 115 74 85 117 74 85 118 74 85 119 74 85 120 74 85 121 74 85 122 74 85 123 74 84 124 73 84 125 73 84 126 73 84 127 73 84 128 73 84 129 73 84 130 73 84 131 73 83 133 72 83 134 72 83 135 72 83 136 72 83 137 72 83 138 72 83 139 72 82 140 72 82 141 72 82 142 72 82 143 71 82 144 71 82 145 71 82 146 71 82 147 71 82 149 71 81 150 71 81 151 71 81 152 71 81 153 70 81 154 70 81 155 70 81 156 70 81 157 70 80 158 70 80 159 70 80 160 70 80 160 70 80 161 70 80 162 69 80 164 69 80 165 69 79 166 69 79 167 69 79 168 69 79 169 69 79 170 69 79 171 69 79 172 69 79 172 68 79 173 68 79 174 68 78 175 68 78 176 68 78 177 68 78 179 68 78 180 68 78 180 68 78 181 68 78 182 67 77 183 67 77 184 67 77 185 67 77 186 67 77 187 67 77 187 67 77 188 67 77 189 67 77 190 67 77 191 67 76 193 66 76 193 66 76 194 66 76 195 66 76 196 66 76 197 66 76 198 66 76 199 66 76 199 66 76 200 66 75 201 66 75 202 66 75 203 65 75 204 65 75 204 65 75 206 65 75 207 65 75 208 65 75 208 65 75 209 65 74 210 65 74 211 65 74 212 65 74 213 64 74 213 64 74 214 64 74 215 64 74 216 64 74 217 64 74 217 64 74 219 64 73 220 64 73 221 64 73 221 64 73 222 64 73 223 63 73 224 63 73 224 63 73 225 63 73 226 63 73 227 63 72 228 63 72 228 63 72 229 63 72 230 63 72 231 63 72 232 63 72 233 63 72 234 62 72 234 62 72 235 62 72 236 62 71 237 62 71 238 62 71 238 62 71 239 62 71 240 62 71 241 62 71 241 62 71 242 62 71 244 62 71 244 61 71 245 61 71 246 61 70 246 61 70 247 61 70 248 61 70 249 61 70 249 61 70 250 61 70 251 61 70 252 61 70 252 61 70 253 61 70 255 61 69
0 79 89 1 79 89 2 79 89 3 79 89 5 79 89 6 79 89 7 79 89 8 79 89 10 79 89 11 79 89 12 79 89 14 79 89 15 79 89 16 79 89 17 79 89 20 79 89 21 79 89 22 79 89 24 79 89 25 79 89 26 79 89 28 79 89 29 79 89 30 79 89 31 79 89 33 79 89 34 79 89 35 79 89 36 79 89 38 79 89 40 79 89 42 79 89 43 79 89 44 79 89 45 79 89 47 79 89 48 79 89 49 79 89 50 79 89 52 79 89 53 79 89 54 79 89 56 79 89 57 79 89 58 79 89 61 79 89 62 79 89 63 79 89 65 79 89 66 79 89 67 79 89 68 79 89 70 79 89 71 79 89 72 79 89 73 79 89 75 79 89 76 79 89 77 79 89 79 79 89 81 79 89 82 79 89 84 79 89 85 79 89 86 79 89 87 79 89 89 79 89 90 78 89 91 78 88 92 78 88 93 78 88 94 78 88 95 78 88 97 78 88 98 78 88 100 77 87 101 77 87 102 77 87 103 77 87 104 77 87 105 77 87 106 77 87 107 76 86 109 76 86 110 76 86 111 76 86 112 76 86 113 76 86 114 76 86 115 76 85 117 75 85 118 75 85 119 75 85 120 75 85 121 75 85 122 75 85 123 75 84 124 75 84 125 75 84 126 74 84 127 74 84 128 74 84 129 74 84 130 74 84 131 74 83 133 74 83 134 74 83 135 73 83 136 73 83 137 73 83 138 73 83 139 73 82 140 73 82 141 73 82 142 73 82 143 73 82 144 72 82 145 72 82 146 72 82 147 72 82 149 72 81 150 72 81 151 72 81 152 72 81 153 72 81 154 71 81 155 71 81 156 71 81 157 71 80 158 71 80 159 71 80 160 71 80 160 71 80 161 71 80 162 71 80 164 70 80 165 70 79 166 70 79 167 70 79 168 70 79 169 70 79 170 70 79 171 70 79 172 70 79 172 70 79 173 69 79 174 69 78 175 69 78 176 69 78 177 69 78 179 69 78 180 69 78 180 69 78 181 69 78 182 69 77 183 68 77 184 68 77 185 68 77 186 68 77 187 68 77 187 68 77 188 68 77 189 68 77 190 68 77 191 68 76 193 68 76 193 67 76 194 67 76 195 67 76 196 67 76 197 67 76 198 67 76 199 67 76 199 67 76 200 67 75 201 67 75 202 67 75 203 67 75 204 66 75 204 66 75 206 66 75 207 66 75 208 66 75 208 66 75 209 66 74 210 66 74 211 66 74 212 66 74 213 66 74 213 65 74 214 65 74 215 65 74 216 65 74 217 65 74 217 65 74 219 65 73 220 65 73 221 65 73 221 65 73 222 65 73 223 65 73 224 64 73 224 64 73 225 64 73 226 64 73 227 64 72 228 64 72 228 64 72 229 64 72 230 64 72 231 64 72 232 64 72 233 64 72 234 63 72 234 63 72 235 63 72 236 63 71 237 63 71 238 63 71 238 63 71 239 63 71 240 63 71 241 63 71 241 63 71 242 63 71 244 63 71 244 62 71 245 62 71 246 62 70 246 62 70 247 62 70 248 62 70 249 62 70 249 62 70 250 62 70 251 62 70 252 62 70 252 62 70 253 62 70 255 62 70
0 81 89 1 81 89 2 81 89 3 81 89 5 81 89 6 81 89 7 81 89 8 81 89 10 81 89 11 81 89 12 81 89 14 81 89 15 81 89 16 81 89 17 81 89 20 81 89 21 81 89 22 81 89 24 81 89 25 81 89 26 81 89 28 81 89 29 81 89 30 81 89 31 81 89 33 81 89 34 81 89 35 81 89 36 81 89 38 81 89 40 81 89 42 81 89 43 81 89 44 81 89 45 81 89 47 81 89 48 81 89 49 81 89 50 81 89 52 81 89 53 81 89 54 81 89 56 81 89 57 81 89 58 81 89 61 81 89 62 81 89 63 81 89 65 81 89 66 81 89 67 81 89 68 81 89 70 81 89 71 81 89 72 81 89 73 81 89 75 81 89 76 81 89 77 81 89 79 81 89 81 81 89 82 81 89 84 81 89 85 81 89 86 81 89 87 81 89 89 81 89 90 81 89 91 81 88 92 81 88 93 81 88 94 80 88 95 80 88 97 80 88 98 80 88 100 80 87 101 80 87 102 80 87 103 79 87 104 79 87 105 79 87 106 79 87 107 79 86 109 79 86 110 79 86 111 79 86 112 78 86 113 78 86 114 78 86 115 78 85 117 78 85 118 78 85 119 78 85 120 78 85 121 77 85 122 77 85 123 77 84 124 77 84 125 77 84 126 77 84 127 77 84 128 77 84 129 76 84 130 76 84 131 76 83 133 76 83 134 76 83 135 76 83 136 76 83 137 76 83 138 75 83 139 75 82 140 75 82 141 75 82 142 75 82 143 75 82 144 75 82 145 75 82 146 75 82 147 75 82 149 74 81 150 74 81 151 74 81 152 74 81 153 74 81 154 74 81 155 74 81 156 74 81 157 74 80 158 73 80 159 73 80 160 73 80 160 73 80 161 73 80 162 73 80 164 73 80 165 73 79 166 73 79 167 72 79 168 72 79 169 72 79 170 72 79 171 72 79 172 72 79 172 72 79 173 72 79 174 72 78 175 72 78 176 71 78 177 71 78 179 71 78 180 71 78 180 71 78 181 71 78 182 71 77 183 71 77 184 71 77 185 71 77 186 70 77 187 70 77 187 70 77 188 70 77 189 70 77 190 70 77 191 70 76 193 70 76 193 70 76 194 70 76 195 69 76 196 69 76 197 69 76 198 69 76 199 69 76 199 69 76 200 69 75 201 69 75 202 69 75 203 69 75 204 69 75 204 68 75 206 68 75 207 68 75 208 68 75 208 68 75 209 68 74 210 68 74 211 68 74 212 68 74 213 68 74 213 68 74 214 68 74 215 67 74 216 67 74 217 67 74 217 67 74 219 67 73 220 67 73 221 67 73 221 67 73 222 67 73 223 67 73 224 67 73 224 66 73 225 66 73 226 66 73 227 66 72 228 66 72 228 66 72 229 66 72 230 66 72 231 66 72 232 66 72 233 66 72 234 66 72 234 65 72 235 65 72 236 65 71 237 65 71 238 65 71 238 65 71 239 65 71 240 65 71 241 65 71 241 65 71 242 65 71 244 65 71 244 64 71 245 64 71 246 64 70 246 64 70 247 64 70 248 64 70 249 64 70 249 64 70 250 64 70 251 64 70 252 64 70 252 64 70 253 64 70 255 64 69
0 82 89 1 82 89 2 82 89 3 82 89 5 82 89 6 82 89 7 82 89 8 82 89 10 82 89 11 82 89 12 82 89 14 82 89 15 82 89 16 82 89 17 82 89 20 82 89 21 82 89 22 82 89 24 82 89 25 82 89 26 82 89 28 82 89 29 82 89 30 82 89 31 82 89 33 82 89 34 82 89 35 82 89 36 82 89 38 82 89 40 82 89 42 82 89 43 82 89 44 82 89 45 82 89 47 82 89 48 82 89 49 82 89 50 82 89 52 82 89 53 82 89 54 82 89 56 82 89 57 82 89 58 82 89 61 82 89 62 82 89 63 82 89 65 82 89 66 82 89 67 82 89 68 82 89 70 82 89 71 82 89 72 82 89 73 82 89 75 82 89 76 82 89 77 82 89 79 82 89 81 82 89 82 82 89 84 82 89 85 82 89 86 82 89 87 82 89 89 82 89 90 82 89 91 82 88 92 82 88 93 82 88 94 82 88 95 82 88 97 81 88 98 81 88 100 81 87 101 81 87 102 81 87 103 81 87 104 81 87 105 80 87 106 80 87 107 80 86 109 80 86 110 80 86 111 80 86 112 80 86 113 80 86 114 79 86 115 79 85 117 79 85 118 79 85 119 79 85 120 79 85 121 79 85 122 78 85 123 78 84 124 78 84 125 78 84 126 78 84 127 78 84 128 78 84 129 78 84 130 78 84 131 77 83 133 77 83 134 77 83 135 77 83 136 77 83 137 77 83 138 77 83 139 77 82 140 76 82 141 76 82 142 76 82 143 76 82 144 76 82 145 76 82 146 76 82 147 76 82 149 75 81 150 75 81 151 75 81 152 75 81 153 75 81 154 75 81 155 75 81 156 75 81 157 75 80 158 75 80 159 74 80 160 74 80 160 74 80 161 74 80 162 74 80 164 74 80 165 74 79 166 74 79 167 74 79 168 73 79 169 73 79 170 73 79 171 73 79 172 73 79 172 73 79 173 73 79 174 73 78 175 73 78 176 73 78 177 72 78 179 72 78 180 72 78 180 72 78 181 72 78 182 72 77 183 72 77 184 72 77 185 72 77 186 72 77 187 71 77 187 71 77 188 71 77 189 71 77 190 71 77 191 71 76 193 71 76 193 71 76 194 71 76 195 71 76 196 70 76 197 70 76 198 70 76 199 70 76 199 70 76 200 70 75 201 70 75 202 70 75 203 70 75 204 70 75 204 70 75 206 69 75 207 69 75 208 69 75 208 69 75 209 69 74 210 69 74 211 69 74 212 69 74 213 69 74 213 69 74 214 69 74 215 68 74 216 68 74 217 68 74 217 68 74 219 68 73 220 68 73 221 68 73 221 68 73 222 68 73 223 68 73 224 68 73 224 68 73 225 67 73 226 67 73 227 67 72 228 67 72 228 67 72 229 67 72 230 67 72 231 67 72 232 67 72 233 67 72 234 67 72 234 66 72 235 66 72 236 66 71 237 66 71 238 66 71 238 66 71 239 66 71 240 66 71 241 66 71 241 66 71 242 66 71 244 66 71 244 66 71 245 65 71 246 65 70 246 65 70 247 65 70 248 65 70 249 65 70 249 65 70 250 65 70 251 65 70 252 65 70 252 65 70 253 65 70 255 65 69
0 84 89 1 84 89 2 84 89 3 84 89 5 84 89 6 84 89 7 84 89 8 84 89 10 84 89 11 84 89 12 84 89 14 84 89 15 84 89 16 84 89 17 84 89 20 84 89 21 84 89 22 84 89 24 84 89 25 84 89 26 84 89 28 84 89 29 84 89 30 84 89 31 84 89 33 84 89 34 84 89 35 84 89 36 84 89 38 84 89 40 84 89 42 84 89 43 84 89 44 84 89 45 84 89 47 84 89 48 84 89 49 84 89 50 84 89 52 84 89 53 84 89 54 84 89 56 84 89 57 84 89 58 84 89 61 84 89 62 84 89 63 84 89 65 84 89 66 84 89 67 84 89 68 84 89 70 84 89 71 84 89 72 84 89 73 84 89 75 84 89 76 84 89 77 84 89 79 84 89 81 84 89 82 84 89 84 84 89 85 84 89 86 84 89 87 84 89 89 84 89 90 84 89 91 83 88 92 83 88 93 83 88 94 83 88 95 83 88 97 83 88 98 83 88 100 82 87 101 82 87 102 82 87 103 82 87 104 82 87 105 82 87 106 82 87 107 81 86 109 81 86 110 81 86 111 81 86 112 81 86 113 81 86 114 81 86 115 81 85 117 80 85 118 80 85 119 80 85 120 80 85 121 80 85 122 80 85 123 80 84 124 79 84 125 79 84 126 79 84 127 79 84 128 79 84 129 79 84 130 79 84 131 79 83 133 78 83 134 78 83 135 78 83 136 78 83 137 78 83 138 78 83 139 78 82 140 78 82 141 78 82 142 77 82 143 77 82 144 77 82 145 77 82 146 77 82 147 77 82 149 77 81 150 77 81 151 76 81 152 76 81 153 76 81 154 76 81 155 76 81 156 76 81 157 76 80 158 76 80 159 76 80 160 76 80 160 75 80 161 75 80 162 75 80 164 75 80 165 75 79 166 75 79 167 75 79 168 75 79 169 74 79 170 74 79 171 74 79 172 74 79 172 74 79 173 74 79 174 74 78 175 74 78 176 74 78 177 74 78 179 73 78 180 73 78 180 73 78 181 73 78 182 73 77 183 73 77 184 73 77 185 73 77 186 73 77 187 73 77 187 72 77 188 72 77 189 72 77 190 72 77 191 72 76 193 72 76 193 72 76 194 72 76 195 72 76 196 72 76 197 71 76 198 71 76 199 71 76 199 71 76 200 71 75 201 71 75 202 71 75 203 71 75 204 71 75 204 71 75 206 70 75 207 70 75 208 70 75 208 70 75 209 70 74 210 70 74 211 70 74 212 70 74 213 70 74 213 70 74 214 70 74 215 70 74 216 69 74 217 69 74 217 69 74 219 69 73 220 69 73 221 69 73 221 69 73 222 69 73 223 69 73 224 69 73 224 69 73 225 68 73 226 68 73 227 68 72 228 68 72 228 68 72 229 68 72 230 68 72 231 68 72 232 68 72 233 68 72 234 68 72 234 68 72 235 67 72 236 67 71 237 67 71 238 67 71 238 67 71 239 67 71 240 67 71 241 67 71 241 67 71 242 67 71 244 67 71 244 67 71 245 66 71 246 66 70 246 66 70 247 66 70 248 66 70 249 66 70 249 66 70 250 66 70 251 66 70 252 66 70 252 66 70 253 66 70 255 65 70
0 86 89 1 86 89 2 86 89 3 86 89 5 86 89 6 86 89 7 86 89 8 86 89 10 86 89 11 86 89 12 86 89 14 86 89 15 86 89 16 86 89 17 86 89 20 86 89 21 86 89 22 86 89 24 86 89 25 86 89 26 86 89 28 86 89 29 86 89 30 86 89 31 86 89 33 86 89 34 86 89 35 86 89 36 86 89 38 86 89 40 86 89 42 86 89 43 86 89 44 86 89 45 86 89 47 86 89 48 86 89 49 86 89 50 86 89 52 86 89 53 86 89 54 86 89 56 86 89 57 86 89 58 86 89 61 86 89 62 86 89 63 86 89 65 86 89 66 86 89 67 86 89 68 86 89 70 86 89 71 86 89 72 86 89 73 86 89 75 86 89 76 86 89 77 86 89 79 86 89 81 86 89 82 86 89 84 86 89 85 86 89 86 86 89 87 86 89 89 86 89 90 86 89 91 86 88 92 86 88 93 86 88 94 85 88 95 85 88 97 85 88 98 85 88 100 85 87 101 85 87 102 85 87 103 84 87 104 84 87 105 84 87 106 84 87 107 84 86 109 84 86 110 84 86 111 84 86 112 83 86 113 83 86 114 83 86 115 83 85 117 83 85 118 83 85 119 83 85 120 82 85 121 82 85 122 82 85 123 82 84 124 82 84 125 82 84 126 82 84 127 82 84 128 81 84 129 81 84 130 81 84 131 81 83 133 81 83 134 81 83 135 81 83 136 80 83 137 80 83 138 80 83 139 80 82 140 80 82 141 80 82 142 80 82 143 80 82 144 80 82 145 79 82 146 79 82 147 79 82 149 79 81 150 79 81 151 79 81 152 79 81 153 79 81 154 78 81 155 78 81 156 78 81 157 78 80 158 78 80 159 78 80 160 78 80 160 78 80 161 78 80 162 77 80 164 77 80 165 77 79 166 77 79 167 77 79 168 77 79 169 77 79 170 77 79 171 77 79 172 76 79 172 76 79 173 76 79 174 76 78 175 76 78 176 76 78 177 76 78 179 76 78 180 76 78 180 75 78 181 75 78 182 75 77 183 75 77 184 75 77 185 75 77 186 75 77 187 75 77 187 75 77 188 75 77 189 74 77 190 74 77 191 74 76 193 74 76 193 74 76 194 74 76 195 74 76 196 74 76 197 74 76 198 74 76 199 73 76 199 73 76 200 73 75 201 73 75 202 73 75 203 73 75 204 73 75 204 73 75 206 73 75 207 73 75 208 72 75 208 72 75 209 72 74 210 72 74 211 72 74 212 72 74 213 72 74 213 72 74 214 72 74 215 72 74 216 72 74 217 71 74 217 71 74 219 71 73 220 71 73 221 71 73 221 71 73 222 71 73 223 71 73 224 71 73 224 71 73 225 71 73 226 70 73 227 70 72 228 70 72 228 70 72 229 70 72 230 70 72 231 70 72 232 70 72 233 70 72 234 70 72 234 70 72 235 70 72 236 69 71 237 69 71 238 69 71 238 69 71 239 69 71 240 69 71 241 69 71 241 69 71 242 69 71 244 69 71 244 69 71 245 68 71 246 68 70 246 68 70 247 68 70 248 68 70 249 68 70 249 68 70 250 68 70 251 68 70 252 68 70 252 68 70 253 68 70 255 67 70
0 87 89 1 87 89 2 87 89 3 87 89 5 87 89 6 87 89 7 87 89 8 87 89 10 87 89 11 87 89 12 87 89 14 87 89 15 87 89 16 87 89 17 87 89 20 87 89 21 87 89 22 87 89 24 87 89 25 87 89 26 87 89 28 87 89 29 87 89 30 87 89 31 87 89 33 87 89 34 87 89 35 87 89 36 87 89 38 87 89 40 87 89 42 87 89 43 87 89 44 87 89 45 87 89 47 87 89 48 87 89 49 87 89 50 87 89 52 87 89 53 87 89 54 87 89 56 87 89 57 87 89 58 87 89 61 87 89 62 87 89 63 87 89 65 87 89 66 87 89 67 87 89 68 87 89 70 87 89 71 87 89 72 87 89 73 87 89 75 87 89 76 87 89 77 87 89 79 87 89 81 87 89 82 87 89 84 87 89 85 87 89 86 87 89 87 87 89 89 87 89 90 87 89 91 87 88 92 87 88 93 87 88 94 87 88 95 87 88 97 86 88 98 86 88 100 86 87 101 86 87 102 86 87 103 86 87 104 86 87 105 85 87 106 85 87 107 85 86 109 85 86 110 85 86 111 85 86 112 85 86 113 84 86 114 84 86 115 84 85 117 84 85 118 84 85 119 84 85 120 84 85 121 83 85 122 83 85 123 83 84 124 83 84 125 83 84 126 83 84 127 83 84 128 83 84 129 83 84 130 82 84 131 82 83 133 82 83 134 82 83 135 82 83 136 82 83 137 82 83 138 81 83 36 48 121 36 48 121 36 48 121 36 48 121 36 48 121 36 48 121 36 48 121 36 48 121 36 48 121 36 48 121 36 48 121 36 48 121 36 48 121 36 48 121 36 48 121 36 48 121 36 48 121 36 48 121 36 48 121 159 79 80 160 79 80 160 79 80 161 79 80 162 79 80 164 78 80 165 78 79 166 78 79 167 78 79 168 78 79 169 78 79 170 78 79 171 78 79 172 78 79 172 77 79 173 77 79 174 77 78 175 77 78 176 77 78 177 77 78 179 77 78 180 77 78 180 77 78 181 76 78 182 76 77 183 76 77 184 76 77 185 76 77 186 76 77 187 76 77 187 76 77 188 76 77 189 76 77 190 75 77 191 75 76 193 75 76 193 75 76 194 75 76 195 75 76 196 75 76 197 75 76 198 75 76 199 75 76 199 74 76 200 74 75 201 74 75 202 74 75 203 74 75 204 74 75 204 74 75 206 74 75 207 74 75 208 74 75 208 73 75 209 73 74 210 73 74 211 73 74 212 73 74 213 73 74 213 73 74 214 73 74 215 73 74 216 73 74 217 73 74 217 72 74 219 72 73 220 72 73 221 72 73 221 72 73 222 72 73 223 72 73 224 72 73 224 72 73 225 72 73 226 72 73 227 71 72 228 71 72 228 71 72 229 71 72 230 71 72 231 71 72 232 71 72 233 71 72 234 71 72 234 71 72 235 71 72 236 70 71 237 70 71 238 70 71 238 70 71 239 70 71 240 70 71 241 70 71 241 70 71 242 70 71 244 70 71 244 70 71 245 69 71 246 69 70 246 69 70 247 69 70 248 69 70 249 69 70 249 69 70 250 69 70 251 69 70 252 69 70 252 69 70 253 69 70 255 68 70
0 90 89 1 90 89 2 90 89 3 90 89 5 90 89 6 90 89 7 90 89 8 90 89 10 90 89 11 90 89 12 90 89 14 90 89 15 90 89 16 90 89 17 90 89 20 90 89 21 90 89 22 90 89 24 90 89 25 90 89 26 90 89 28 90 89 29 90 89 30 90 89 31 90 89 33 90 89 34 90 89 35 90 89 36 90 89 38 90 89 40 90 89 42 90 89 43 90 89 44 90 89 45 90 89 47 90 89 48 90 89 49 90 89 50 90 89 52 90 89 53 90 89 54 90 89 56 90 89 57 90 89 58 90 89 61 90 89 62 90 89 63 90 89 64 90 89 66 90 89 67 90 89 68 90 89 70 90 89 71 90 89 72 90 89 73 90 89 75 90 89 76 90 89 77 90 89 78 90 89 81 90 89 82 90 89 84 90 89 85 90 89 86 90 89 87 90 89 89 90 89 90 90 89 91 90 88 92 90 88 93 89 88 94 89 88 95 89 88 97 89 88 98 89 88 100 89 87 101 88 87 102 88 87 103 88 87 104 88 87 105 88 87 106 88 87 107 88 86 109 87 86 110 87 86 111 87 86 112 87 86 113 87 86 114 87 86 115 87 85 117 86 85 118 86 85 119 86 85 120 86 85 121 86 85 122 86 85 123 86 84 124 86 84 125 85 84 126 85 84 127 85 84 128 85 84 129 85 84 130 85 84 131 85 83 133 84 83 134 84 83 135 84 83 36 48 121 36 48 121 36 48 121 36 48 121 36 48 121 36 48 121 36 48 121 36 48 121 36 48 121 36 48 121 36 48 121 36 48 121 36 48 121 36 48 121 36 48 121 36 48 121 36 48 121 36 48 121 36 48 121 36 48 121 36 48 121 36 48 121 36 48 121 36 48 121 36 48 121 161 81 80 162 81 80 164 81 80 165 81 79 166 80 79 167 80 79 168 80 79 169 80 79 170 80 79 171 80 79 172 80 79 172 80 79 173 80 79 174 80 78 175 79 78 176 79 78 177 79 78 179 79 78 180 79 78 180 79 78 181 79 78 182 79 77 183 78 77 184 78 77 185 78 77 186 78 77 187 78 77 187 78 77 188 78 77 189 78 77 190 78 77 191 78 76 193 77 76 193 77 76 194 77 76 195 77 76 196 77 76 197 77 76 198 77 76 199 77 76 199 77 76 200 77 75 201 76 75 202 76 75 203 76 75 204 76 75 204 76 75 206 76 75 207 76 75 208 76 75 208 76 75 209 75 74 210 75 74 211 75 74 212 75 74 213 75 74 213 75 74 214 75 74 215 75 74 216 75 74 217 75 74 217 75 74 219 74 73 220 74 73 221 74 73 221 74 73 222 74 73 223 74 73 224 74 73 224 74 73 225 74 73 226 74 73 227 74 72 228 73 72 228 73 72 229 73 72 230 73 72 231 73 72 232 73 72 233 73 72 234 73 72 234 73 72 235 73 72 236 73 71 237 72 71 238 72 71 238 72 71 239 72 71 240 72 71 241 72 71 241 72 71 242 72 71 244 72 71 244 72 71 245 72 71 246 71 70 246 71 70 247 71 70 248 71 70 249 71 70 249 71 70 250 71 70 251 71 70 252 71 70 252 71 70 253 71 70 255 71 70
0 91 88 1 91 88 2 91 88 3 91 88 5 91 88 6 91 88 7 91 88 8 91 88 10 91 88 11 91 88 12 91 88 13 91 88 15 91 88 16 91 88 17 91 88 20 91 88 21 91 88 22 91 88 24 91 88 25 91 88 26 91 88 27 91 88 29 91 88 30 91 88 31 91 88 33 91 88 34 91 88 35 91 88 36 91 88 38 91 88 40 91 88 41 91 88 43 91 88 44 91 88 45 91 88 47 91 88 48 91 88 49 91 88 50 91 88 52 91 88 53 91 88 54 91 88 55 91 88 57 91 88 58 91 88 60 91 88 62 91 88 63 91 88 64 91 88 66 91 88 67 91 88 68 91 88 69 91 88 71 91 88 72 91 88 73 91 88 74 91 88 76 91 88 77 91 88 78 91 88 81 91 88 82 91 88 83 91 88 85 91 88 86 91 88 87 91 88 88 91 88 90 91 88 91 91 88 92 91 88 93 91 88 94 91 88 95 90 88 97 90 88 98 90 88 100 90 87 101 90 87 102 90 87 103 89 87 104 89 87 105 89 87 106 89 87 107 89 86 109 89 86 110 89 86 111 88 86 112 88 86 113 88 86 114 88 86 115 88 85 117 88 85 118 88 85 119 87 85 120 87 85 121 87 85 122 87 85 123 87 84 124 87 84 125 87 84 126 86 84 127 86 84 128 86 84 129 86 84 130 86 84 131 86 83 36 48 121 36 48 121 36 48 121 36 48 121 36 48 121 36 48 121 36 48 121 36 48 121 36 48 121 36 48 121 36 48 121 36 48 121 36 48 121 36 48 121 36 48 121 36 48 121 36 48 121 36 48 121 36 48 121 36 48 121 36 48 121 36 48 121 36 48 121 36 48 121 36 48 121 36 48 121 36 48 121 36 48 121 36 48 121 36 48 121 36 48 121 165 82 79 166 82 79 167 82 79 168 81 79 169 81 79 170 81 79 171 81 79 172 81 79 172 81 79 173 81 79 174 81 78 175 81 78 176 80 78 177 80 78 179 80 78 180 80 78 180 80 78 181 80 78 182 80 77 183 80 77 184 80 77 185 79 77 186 79 77 187 79 77 187 79 77 188 79 77 189 79 77 190 79 77 191 79 76 193 78 76 193 78 76 194 78 76 195 78 76 196 78 76 197 78 76 198 78 76 199 78 76 199 78 76 200 78 75 201 78 75 202 77 75 203 77 75 204 77 75 204 77 75 206 77 75 207 77 75 208 77 75 208 77 75 209 77 74 210 76 74 211 76 74 212 76 74 213 76 74 213 76 74 214 76 74 215 76 74 216 76 74 217 76 74 217 76 74 219 75 73 220 75 73 221 75 73 221 75 73 222 75 73 223 75 73 224 75 73 224 75 73 225 75 73 226 75 73 227 75 72 228 74 72 228 74 72 229 74 72 230 74 72 231 74 72 232 74 72 233 74 72 234 74 72 234 74 72 235 74 72 236 74 71 237 73 71 238 73 71 238 73 71 239 73 71 240 73 71 241 73 71 241 73 71 242 73 71 244 73 71 244 73 71 245 73 71 246 72 70 246 72 70 247 72 70 248 72 70 249 72 70 249 72 70 250 72 70 251 72 70 252 72 70 252 72 70 253 72 70 255 72 70
0 93 88 1 93 88 2 93 88 3 93 88 5 93 88 6 93 88 7 93 88 8 93 88 10 93 88 11 93 88 12 93 88 13 93 88 15 93 88 16 93 88 17 93 88 20 93 88 21 93 88 22 93 88 24 93 88 25 93 88 26 93 88 27 93 88 29 93 88 30 93 88 31 93 88 32 93 88 34 93 88 35 93 88 36 93 88 38 93 88 40 93 88 41 93 88 43 93 88 44 93 88 45 93 88 46 93 88 48 93 88 49 93 88 50 93 88 51 93 88 53 93 88 54 93 88 55 93 88 57 93 88 58 93 88 60 93 88 62 93 88 63 93 88 64 93 88 65 93 88 67 93 88 68 93 88 69 93 88 70 93 88 72 93 88 73 93 88 74 93 88 76 93 88 77 93 88 78 93 88 81 93 88 82 93 88 83 93 88 84 93 88 86 93 88 87 93 88 88 93 88 89 93 88 91 93 88 92 93 88 93 93 88 94 93 88 95 93 88 97 93 88 98 93 88 100 92 87 101 92 87 102 92 87 103 92 87 104 92 87 105 92 87 106 91 87 107 91 86 109 91 86 110 91 86 111 91 86 112 91 86 113 91 86 114 91 86 115 90 85 117 90 85 118 90 85 119 90 85 120 90 85 121 90 85 122 89 85 123 89 84 124 89 84 125 89 84 126 89 84 127 89 84 128 89 84 129 89 84 36 48 121 36 48 121 36 48 121 36 48 121 36 48 121 36 48 121 36 48 121 36 48 121 36 48 121 36 48 121 36 48 121 36 48 121 36 48 121 36 48 121 36 48 121 36 48 121 36 48 121 36 48 121 36 48 121 36 48 121 36 48 121 36 48 121 36 48 121 36 48 121 36 48 121 36 48 121 36 48 121 36 48 121 36 48 121 36 48 121 36 48 121 36 48 121 36 48 121 36 48 121 36 48 121 167 84 79 168 84 79 169 84 79 170 83 79 171 83 79 172 83 79 172 83 79 173 83 79 174 83 78 175 83 78 176 83 78 177 83 78 179 82 78 180 82 78 180 82 78 181 82 78 182 82 77 183 82 77 184 82 77 185 82 77 186 82 77 187 81 77 187 81 77 188 81 77 189 81 77 190 81 77 191 81 76 193 81 76 193 81 76 194 80 76 195 80 76 196 80 76 197 80 76 198 80 76 199 80 76 199 80 76 200 80 75 201 80 75 202 80 75 203 79 75 204 79 75 204 79 75 206 79 75 207 79 75 208 79 75 208 79 75 209 79 74 210 79 74 211 79 74 212 78 74 213 78 74 213 78 74 214 78 74 215 78 74 216 78 74 217 78 74 217 78 74 219 78 73 220 77 73 221 77 73 221 77 73 222 77 73 223 77 73 224 77 73 224 77 73 225 77 73 226 77 73 227 77 72 228 77 72 228 76 72 229 76 72 230 76 72 231 76 72 232 76 72 233 76 72 234 76 72 234 76 72 235 76 72 236 76 71 237 76 71 238 75 71 238 75 71 239 75 71 240 75 71 241 75 71 241 75 71 242 75 71 244 75 71 244 75 71 245 75 71 246 74 70 246 74 70 247 74 70 248 74 70 249 74 70 249 74 70 250 74 70 251 74 70 252 74 70 252 74 70 253 74 70 255 74 70
0 94 88 1 94 88 2 94 88 3 94 88 5 94 88 6 94 88 7 94 88 8 94 88 10 94 88 11 94 88 12 94 88 13 94 88 15 94 88 16 94 88 17 94 88 20 94 88 21 94 88 22 94 88 24 94 88 25 94 88 26 94 88 27 94 88 29 94 88 30 94 88 31 94 88 32 94 88 34 94 88 35 94 88 36 94 88 37 94 88 40 94 88 41 94 88 42 94 88 44 94 88 45 94 88 46 94 88 48 94 88 49 94 88 50 94 88 51 94 88 53 94 88 54 94 88 55 94 88 56 94 88 58 94 88 60 94 88 61 94 88 63 94 88 64 94 88 65 94 88 67 94 88 68 94 88 69 94 88 70 94 88 72 94 88 73 94 88 74 94 88 75 94 88 77 94 88 78 94 88 80 94 88 82 94 88 83 94 88 84 94 88 85 94 88 87 94 88 88 94 88 89 94 88 91 94 88 92 94 88 93 94 88 94 94 88 95 94 88 97 94 88 98 94 88 100 94 87 101 93 87 102 93 87 103 93 87 104 93 87 105 93 87 106 93 87 107 93 86 109 92 86 110 92 86 111 92 86 112 92 86 113 92 86 114 92 86 115 92 85 117 91 85 118 91 85 119 91 85 120 91 85 121 91 85 122 91 85 123 91 84 124 90 84 125 90 84 126 90 84 127 90 84 36 48 121 36 48 121 36 48 121 36 48 121 36 48 121 36 48 121 36 48 121 36 48 121 36 48 121 36 48 121 36 48 121 36 48 121 36 48 121 36 48 121 36 48 121 36 48 121 36 48 121 36 48 121 36 48 121 36 48 121 36 48 121 36 48 121 36 48 121 36 48 121 36 48 121 36 48 121 36 48 121 36 48 121 36 48 121 36 48 121 36 48 121 36 48 121 36 48 121 36 48 121 36 48 121 36 48 121 36 48 121 36 48 121 36 48 121 169 85 79 170 85 79 171 84 79 172 84 79 172 84 79 173 84 79 174 84 78 175 84 78 176 84 78 177 84 78 179 83 78 180 83 78 180 83 78 181 83 78 182 83 77 183 83 77 184 83 77 185 83 77 186 83 77 187 83 77 187 82 77 188 82 77 189 82 77 190 82 77 191 82 76 193 82 76 193 82 76 194 82 76 195 81 76 196 81 76 197 81 76 198 81 76 199 81 76 199 81 76 200 81 75 201 81 75 202 81 75 203 81 75 204 80 75 204 80 75 206 80 75 207 80 75 208 80 75 208 80 75 209 80 74 210 80 74 211 80 74 212 79 74 213 79 74 213 79 74 214 79 74 215 79 74 216 79 74 217 79 74 217 79 74 219 79 73 220 79 73 221 78 73 221 78 73 222 78 73 223 78 73 224 78 73 224 78 73 225 78 73 226 78 73 227 78 72 228 78 72 228 78 72 229 77 72 230 77 72 231 77 72 232 77 72 233 77 72 234 77 72 234 77 72 235 77 72 236 77 71 237 77 71 238 76 71 238 76 71 239 76 71 240 76 71 241 76 71 241 76 71 242 76 71 244 76 71 244 76 71 245 76 71 246 76 70 246 75 70 247 75 70 248 75 70 249 75 70 249 75 70 250 75 70 251 75 70 252 75 70 252 75 70 253 75 70 255 75 70
0 95 88 1 95 88 2 95 88 3 95 88 5 95 88 6 95 88 7 95 88 8 95 88 10 95 88 11 95 88 12 95 88 13 95 88 15 95 88 16 95 88 17 95 88 20 95 88 21 95 88 22 95 88 23 95 88 25 95 88 26 95 88 27 95 88 29 95 88 30 95 88 31 95 88 32 95 88 34 95 88 35 95 88 36 95 88 37 95 88 40 95 88 41 95 88 42 95 88 44 95 88 45 95 88 46 95 88 47 95 88 49 95 88 50 95 88 51 95 88 53 95 88 54 95 88 55 95 88 56 95 88 58 95 88 60 95 88 61 95 88 63 95 88 64 95 88 65 95 88 66 95 88 68 95 88 69 95 88 70 95 88 71 95 88 73 95 88 74 95 88 75 95 88 77 95 88 78 95 88 80 95 88 82 95 88 83 95 88 84 95 88 85 95 88 87 95 88 88 95 88 89 95 88 90 95 88 92 95 88 93 95 88 94 95 88 95 95 88 97 95 88 98 95 88 100 95 87 101 95 87 102 95 87 103 94 87 104 94 87 105 94 87 106 94 87 107 94 86 109 94 86 110 94 86 111 93 86 112 93 86 113 93 86 114 93 86 115 93 85 117 93 85 118 92 85 119 92 85 120 92 85 121 92 85 122 92 85 123 92 84 124 92 84 125 91 84 36 48 121 36 48 121 36 48 121 36 48 121 36 48 121 36 48 121 36 48 121 36 48 121 36 48 121 36 48 121 36 48 121 36 48 121 36 48 121 36 48 121 36 48 121 36 48 121 36 48 121 36 48 121 36 48 121 36 48 121 36 48 121 36 48 121 36 48 121 36 48 121 36 48 121 36 48 121 36 48 121 36 48 121 36 48 121 36 48 121 36 48 121 36 48 121 36 48 121 36 48 121 36 48 121 36 48 121 36 48 121 36 48 121 36 48 121 36 48 121 36 48 121 36 48 121 36 48 121 171 86 79 172 86 79 172 85 79 173 85 79 174 85 78 175 85 78 176 85 78 177 85 78 179 85 78 180 84 78 180 84 78 181 84 78 182 84 77 183 84 77 184 84 77 185 84 77 186 84 77 187 84 77 187 84 77 188 83 77 189 83 77 190 83 77 191 83 76 193 83 76 193 83 76 194 83 76 195 83 76 196 82 76 197 82 76 198 82 76 199 82 76 199 82 76 200 82 75 201 82 75 202 82 75 203 82 75 204 82 75 204 81 75 206 81 75 207 81 75 208 81 75 208 81 75 209 81 74 210 81 74 211 81 74 212 81 74 213 80 74 213 80 74 214 80 74 215 80 74 216 80 74 217 80 74 217 80 74 219 80 73 220 80 73 221 79 73 221 79 73 222 79 73 223 79 73 224 79 73 224 79 73 225 79 73 226 79 73 227 79 72 228 79 72 228 79 72 229 78 72 230 78 72 231 78 72 232 78 72 233 78 72 234 78 72 234 78 72 235 78 72 236 78 71 237 78 71 238 77 71 238 77 71 239 77 71 240 77 71 241 77 71 241 77 71 242 77 71 244 77 71 244 77 71 245 77 71 246 77 70 246 76 70 247 76 70 248 76 70 249 76 70 249 76 70 250 76 70 251 76 70 252 76 70 252 76 70 253 76 70 255 76 70
0 98 88 1 98 88 2 98 88 3 98 88 5 98 88 6 98 88 7 98 88 8 98 88 10 98 88 11 98 88 12 98 88 13 98 88 15 98 88 16 98 88 17 98 88 20 98 88 21 98 88 22 98 88 23 98 88 25 98 88 26 98 88 27 98 88 28 98 88 30 98 88 31 98 88 32 98 88 33 98 88 35 98 88 36 98 88 37 98 88 40 98 88 41 98 88 42 98 88 44 98 88 45 98 88 46 98 88 47 98 88 49 98 88 50 98 88 51 98 88 52 98 88 54 98 88 55 98 88 56 98 88 57 98 88 60 98 88 61 98 88 62 98 88 64 98 88 65 98 88 66 98 88 67 98 88 69 98 88 70 98 88 71 98 88 73 98 88 74 98 88 75 98 88 76 98 88 78 98 88 80 98 88 81 98 88 83 98 88 84 98 88 85 98 88 86 98 88 88 98 88 89 98 88 90 98 88 91 98 88 93 98 88 94 98 88 95 98 88 96 98 88 98 98 88 100 97 87 101 97 87 102 97 87 103 97 87 104 97 87 105 97 87 106 96 87 107 96 86 109 96 86 110 96 86 111 96 86 112 96 86 113 96 86 114 95 86 115 95 85 117 95 85 118 95 85 119 95 85 120 95 85 121 94 85 122 94 85 123 94 84 36 48 121 36 48 121 36 48 121 36 48 121 36 48 121 36 48 121 36 48 121 36 48 121 36 48 121 36 48 121 36 48 121 36 48 121 36 48 121 36 48 121 36 48 121 36 48 121 36 48 121 36 48 121 36 48 121 36 48 121 36 48 121 36 48 121 36 48 121 36 48 121 36 48 121 36 48 121 36 48 121 36 48 121 36 48 121 36 48 121 36 48 121 36 48 121 36 48 121 36 48 121 36 48 121 36 48 121 36 48 121 36 48 121 36 48 121 36 48 121 36 48 121 36 48 121 36 48 121 36 48 121 36 48 121 36 48 121 36 48 121 172 88 79 173 88 79 174 87 78 175 87 78 176 87 78 177 87 78 179 87 78 180 87 78 180 87 78 181 87 78 182 86 77 183 86 77 184 86 77 185 86 77 186 86 77 187 86 77 187 86 77 188 86 77 189 86 77 190 85 77 191 85 76 193 85 76 193 85 76 194 85 76 195 85 76 196 85 76 197 85 76 198 84 76 199 84 76 199 84 76 200 84 75 201 84 75 202 84 75 203 84 75 204 84 75 204 84 75 206 83 75 207 83 75 208 83 75 208 83 75 209 83 74 210 83 74 211 83 74 212 83 74 213 83 74 213 82 74 214 82 74 215 82 74 216 82 74 217 82 74 217 82 74 219 82 73 220 82 73 221 82 73 221 81 73 222 81 73 223 81 73 224 81 73 224 81 73 225 81 73 226 81 73 227 81 72 228 81 72 228 81 72 229 81 72 230 80 72 231 80 72 232 80 72 233 80 72 234 80 72 234 80 72 235 80 72 236 80 71 237 80 71 238 80 71 238 79 71 239 79 71 240 79 71 241 79 71 241 79 71 242 79 71 244 79 71 244 79 71 245 79 71 246 79 70 246 78 70 247 78 70 248 78 70 249 78 70 249 78 70 250 78 70 251 78 70 252 78 70 252 78 70 253 78 70 255 78 70
0 99 87 1 99 87 2 99 87 3 99 87 5 99 87 6 99 87 7 99 87 8 99 87 10 99 87 11 99 87 12 99 87 13 99 87 15 99 87 16 99 87 17 99 87 20 99 87 21 99 87 22 99 87 23 99 87 25 99 87 26 99 87 27 99 87 28 99 87 30 99 87 31 99 87 32 99 87 33 99 87 35 99 87 36 99 87 37 99 87 40 99 87 41 99 87 42 99 87 43 99 87 45 99 87 46 99 87 47 99 87 49 99 87 50 99 87 51 99 87 52 99 87 54 99 87 55 99 87 56 99 87 57 99 87 60 99 87 61 99 87 62 99 87 64 99 87 65 99 87 66 99 87 67 99 87 69 99 87 70 99 87 71 99 87 72 99 87 74 99 87 75 99 87 76 99 87 77 99 87 80 99 87 81 99 87 82 99 87 84 99 87 85 99 87 86 99 87 87 99 87 89 99 87 90 99 87 91 99 87 93 99 87 94 99 87 95 99 87 96 99 87 98 99 87 100 99 87 101 98 87 102 98 87 103 98 87 104 98 87 105 98 87 106 98 87 107 98 86 109 97 86 110 97 86 111 97 86 112 97 86 113 97 86 114 97 86 115 97 85 117 96 85 118 96 85 119 96 85 120 96 85 121 96 85 122 96 85 36 48 121 36 48 121 36 48 121 36 48 121 36 48 121 36 48 121 36 48 121 36 48 121 36 48 121 36 48 121 36 48 121 36 48 121 36 48 121 36 48 121 36 48 121 36 48 121 36 48 121 36 48 121 36 48 121 36 48 121 36 48 121 36 48 121 36 48 121 36 48 121 36 48 121 36 48 121 36 48 121 36 48 121 36 48 121 36 48 121 36 48 121 36 48 121 36 48 121 36 48 121 36 48 121 36 48 121 36 48 121 36 48 121 36 48 121 36 48 121 36 48 121 36 48 121 36 48 121 36 48 121 36 48 121 36 48 121 36 48 121 36 48 121 36 48 121 173 89 79 174 89 78 175 88 78 176 88 78 177 88 78 179 88 78 180 88 78 180 88 78 181 88 78 182 88 77 183 87 77 184 87 77 185 87 77 186 87 77 187 87 77 187 87 77 188 87 77 189 87 77 190 86 77 191 86 76 193 86 76 193 86 76 194 86 76 195 86 76 196 86 76 197 86 76 198 86 76 199 85 76 199 85 76 200 85 75 201 85 75 202 85 75 203 85 75 204 85 75 204 85 75 206 84 75 207 84 75 208 84 75 208 84 75 209 84 74 210 84 74 211 84 74 212 84 74 213 84 74 213 84 74 214 83 74 215 83 74 216 83 74 217 83 74 217 83 74 219 83 73 220 83 73 221 83 73 221 83 73 222 82 73 223 82 73 224 82 73 224 82 73 225 82 73 226 82 73 227 82 72 228 82 72 228 82 72 229 82 72 230 81 72 231 81 72 232 81 72 233 81 72 234 81 72 234 81 72 235 81 72 236 81 71 237 81 71 238 81 71 238 80 71 239 80 71 240 80 71 241 80 71 241 80 71 242 80 71 244 80 71 244 80 71 245 80 71 246 80 70 246 79 70 247 79 70 248 79 70 249 79 70 249 79 70 250 79 70 251 79 70 252 79 70 252 79 70 253 79 70 255 79 70
0 101 87 1 101 87 2 101 87 3 101 87 5 101 87 6 101 87 7 101 87 8 101 87 10 101 87 11 101 87 12 101 87 13 101 87 15 101 87 16 101 87 17 101 87 20 101 87 21 101 87 22 101 87 23 101 87 25 101 87 26 101 87 27 101 87 28 101 87 30 101 87 31 101 87 32 101 87 33 101 87 35 101 87 36 101 87 37 101 87 40 101 87 41 101 87 42 101 87 43 101 87 45 101 87 46 101 87 47 101 87 48 101 87 50 101 87 51 101 87 52 101 87 53 101 87 55 101 87 56 101 87 57 101 87 60 101 87 61 101 87 62 101 87 63 101 87 65 101 87 66 101 87 67 101 87 68 101 87 70 101 87 71 101 87 72 101 87 73 101 87 75 101 87 76 101 87 77 101 87 80 101 87 81 101 87 82 101 87 83 101 87 85 101 87 86 101 87 87 101 87 88 101 87 90 101 87 91 101 87 92 101 87 93 101 87 95 101 87 96 101 87 97 101 87 100 101 87 101 101 87 102 101 87 103 101 87 104 101 87 105 100 87 106 100 87 107 100 86 109 100 86 110 100 86 111 100 86 112 99 86 113 99 86 114 99 86 115 99 85 117 99 85 118 99 85 119 98 85 120 98 85 121 98 85 36 48 121 36 48 121 36 48 121 36 48 121 36 48 121 36 48 121 36 48 121 36 48 121 36 48 121 36 48 121 36 48 121 36 48 121 36 48 121 36 48 121 36 48 121 36 48 121 36 48 121 36 48 121 36 48 121 36 48 121 36 48 121 36 48 121 36 48 121 36 48 121 36 48 121 36 48 121 36 48 121 36 48 121 36 48 121 36 48 121 36 48 121 36 48 121 36 48 121 36 48 121 36 48 121 36 48 121 36 48 121 36 48 121 36 48 121 36 48 121 36 48 121 36 48 121 36 48 121 36 48 121 36 48 121 36 48 121 36 48 121 36 48 121 36 48 121 36 48 121 36 48 121 174 91 78 175 91 78 176 91 78 177 90 78 179 90 78 180 90 78 180 90 78 181 90 78 182 90 77 183 90 77 184 90 77 185 89 77 186 89 77 187 89 77 187 89 77 188 89 77 189 89 77 190 89 77 191 89 76 193 88 76 193 88 76 194 88 76 195 88 76 196 88 76 197 88 76 198 88 76 199 88 76 199 87 76 200 87 75 201 87 75 202 87 75 203 87 75 204 87 75 204 87 75 206 87 75 207 87 75 208 86 75 208 86 75 209 86 74 210 86 74 211 86 74 212 86 74 213 86 74 213 86 74 214 86 74 215 85 74 216 85 74 217 85 74 217 85 74 219 85 73 220 85 73 221 85 73 221 85 73 222 85 73 223 84 73 224 84 73 224 84 73 225 84 73 226 84 73 227 84 72 228 84 72 228 84 72 229 84 72 230 84 72 231 83 72 232 83 72 233 83 72 234 83 72 234 83 72 235 83 72 236 83 71 237 83 71 238 83 71 238 83 71 239 82 71 240 82 71 241 82 71 241 82 71 242 82 71 244 82 71 244 82 71 245 82 71 246 82 70 246 81 70 247 81 70 248 81 70 249 81 70 249 81 70 250 81 70 251 81 70 252 81 70 252 81 70 253 81 70 255 81 70
0 102 87 1 102 87 2 102 87 3 102 87 5 102 87 6 102 87 7 102 87 8 102 87 10 102 87 11 102 87 12 102 87 13 102 87 15 102 87 16 102 87 17 102 87 20 102 87 21 102 87 22 102 87 23 102 87 25 102 87 26 102 87 27 102 87 28 102 87 30 102 87 31 102 87 32 102 87 33 102 87 35 102 87 36 102 87 37 102 87 40 102 87 41 102 87 42 102 87 43 102 87 45 102 87 46 102 87 47 102 87 48 102 87 50 102 87 51 102 87 52 102 87 53 102 87 55 102 87 56 102 87 57 102 87 60 102 87 61 102 87 62 102 87 63 102 87 65 102 87 66 102 87 67 102 87 68 102 87 70 102 87 71 102 87 72 102 87 73 102 87 75 102 87 76 102 87 77 102 87 80 102 87 81 102 87 82 102 87 83 102 87 85 102 87 86 102 87 87 102 87 88 102 87 90 102 87 91 102 87 92 102 87 93 102 87 95 102 87 96 102 87 97 102 87 100 102 87 101 102 87 102 102 87 103 102 87 104 102 87 105 102 87 106 101 87 107 101 86 109 101 86 110 101 86 111 101 86 112 101 86 113 101 86 114 100 86 115 100 85 117 100 85 118 100 85 119 100 85 36 48 121 36 48 121 36 48 121 36 48 121 36 48 121 36 48 121 36 48 121 36 48 121 36 48 121 36 48 121 36 48 121 36 48 121 36 48 121 36 48 121 36 48 121 36 48 121 36 48 121 36 48 121 36 48 121 36 48 121 36 48 121 36 48 121 36 48 121 36 48 121 36 48 121 36 48 121 36 48 121 36 48 121 36 48 121 36 48 121 36 48 121 36 48 121 36 48 121 36 48 121 36 48 121 36 48 121 36 48 121 36 48 121 36 48 121 36 48 121 36 48 121 36 48 121 36 48 121 36 48 121 36 48 121 36 48 121 36 48 121 36 48 121 36 48 121 36 48 121 36 48 121 36 48 121 36 48 121 36 48 121 36 48 121 176 92 78 177 92 78 179 91 78 180 91 78 180 91 78 181 91 78 182 91 77 183 91 77 184 91 77 185 90 77 186 90 77 187 90 77 187 90 77 188 90 77 189 90 77 190 90 77 191 90 76 193 89 76 193 89 76 194 89 76 195 89 76 196 89 76 197 89 76 198 89 76 199 89 76 199 89 76 200 88 75 201 88 75 202 88 75 203 88 75 204 88 75 204 88 75 206 88 75 207 88 75 208 87 75 208 87 75 209 87 74 210 87 74 211 87 74 212 87 74 213 87 74 213 87 74 214 87 74 215 87 74 216 86 74 217 86 74 217 86 74 219 86 73 220 86 73 221 86 73 221 86 73 222 86 73 223 85 73 224 85 73 224 85 73 225 85 73 226 85 73 227 85 72 228 85 72 228 85 72 229 85 72 230 85 72 231 84 72 232 84 72 233 84 72 234 84 72 234 84 72 235 84 72 236 84 71 237 84 71 238 84 71 238 84 71 239 83 71 240 83 71 241 83 71 241 83 71 242 83 71 244 83 71 244 83 71 245 83 71 246 83 70 246 83 70 247 82 70 248 82 70 249 82 70 249 82 70 250 82 70 251 82 70 252 82 70 252 82 70 253 82 70 255 81 70
0 104 87 1 104 87 2 104 87 3 104 87 4 104 87 6 104 87 7 104 87 8 104 87 9 104 87 11 104 87 12 104 87 13 104 87 14 104 87 16 104 87 17 104 87 19 104 87 21 104 87 22 104 87 23 104 87 24 104 87 26 104 87 27 104 87 28 104 87 29 104 87 31 104 87 32 104 87 33 104 87 34 104 87 36 104 87 37 104 87 39 104 87 41 104 87 42 104 87 43 104 87 44 104 87 46 104 87 47 104 87 48 104 87 49 104 87 51 104 87 52 104 87 53 104 87 54 104 87 56 104 87 57 104 87 59 104 87 61 104 87 62 104 87 63 104 87 64 104 87 66 104 87 67 104 87 68 104 87 69 104 87 71 104 87 72 104 87 73 104 87 74 104 87 76 104 87 77 104 87 79 104 87 81 104 87 82 104 87 83 104 87 84 104 87 86 104 87 87 104 87 88 104 87 89 104 87 91 104 87 92 104 87 93 104 87 94 104 87 96 104 87 97 104 87 99 104 87 101 104 87 102 104 87 103 104 87 104 104 87 105 104 87 106 104 87 107 104 86 109 104 86 110 103 86 111 103 86 112 103 86 113 103 86 114 103 86 115 103 85 117 102 85 118 102 85 36 48 121 36 48 121 36 48 121 36 48 121 36 48 121 36 48 121 36 48 121 36 48 121 36 48 121 36 48 121 36 48 121 36 48 121 36 48 121 36 48 121 36 48 121 36 48 121 36 48 121 36 48 121 36 48 121 36 48 121 36 48 121 36 48 121 36 48 121 36 48 121 36 48 121 36 48 121 36 48 121 36 48 121 36 48 121 36 48 121 36 48 121 36 48 121 36 48 121 36 48 121 36 48 121 36 48 121 36 48 121 36 48 121 36 48 121 36 48 121 36 48 121 36 48 121 36 48 121 36 48 121 36 48 121 36 48 121 36 48 121 36 48 121 36 48 121 36 48 121 36 48 121 36 48 121 36 48 121 36 48 121 36 48 121 36 48 121 36 48 121 177 94 78 179 94 78 180 93 78 180 93 78 181 93 78 182 93 77 183 93 77 184 93 77 185 93 77 186 93 77 187 92 77 187 92 77 188 92 77 189 92 77 190 92 77 191 92 76 193 92 76 193 92 76 194 91 76 195 91 76 196 91 76 197 91 76 198 91 76 199 91 76 199 91 76 200 91 75 201 91 75 202 90 75 203 90 75 204 90 75 204 90 75 206 90 75 207 90 75 208 90 75 208 90 75 209 89 74 210 89 74 211 89 74 212 89 74 213 89 74 213 89 74 214 89 74 215 89 74 216 89 74 217 88 74 217 88 74 219 88 73 220 88 73 221 88 73 221 88 73 222 88 73 223 88 73 224 87 73 224 87 73 225 87 73 226 87 73 227 87 72 228 87 72 228 87 72 229 87 72 230 87 72 231 86 72 232 86 72 233 86 72 234 86 72 234 86 72 235 86 72 236 86 71 237 86 71 238 86 71 238 86 71 239 85 71 240 85 71 241 85 71 241 85 71 242 85 71 244 85 71 244 85 71 245 85 71 246 85 70 246 85 70 247 84 70 248 84 70 249 84 70 249 84 70 250 84 70 251 84 70 252 84 70 252 84 70 253 84 70 255 83 70
0 105 87 1 105 87 2 105 87 3 105 87 4 105 87 6 105 87 7 105 87 8 105 87 9 105 87 11 105 87 12 105 87 13 105 87 14 105 87 16 105 87 17 105 87 19 105 87 21 105 87 22 105 87 23 105 87 24 105 87 26 105 87 27 105 87 28 105 87 29 105 87 31 105 87 32 105 87 33 105 87 34 105 87 36 105 87 37 105 87 39 105 87 41 105 87 42 105 87 43 105 87 44 105 87 46 105 87 47 105 87 48 105 87 49 105 87 51 105 87 52 105 87 53 105 87 54 105 87 56 105 87 57 105 87 59 105 87 61 105 87 62 105 87 63 105 87 64 105 87 65 105 87 67 105 87 68 105 87 69 105 87 70 105 87 72 105 87 73 105 87 74 105 87 75 105 87 77 105 87 79 105 87 80 105 87 82 105 87 83 105 87 84 105 87 85 105 87 87 105 87 88 105 87 89 105 87 90 105 87 92 105 87 93 105 87 94 105 87 95 105 87 97 105 87 99 105 87 100 105 87 102 105 87 103 105 87 104 105 87 105 105 87 106 105 87 107 105 86 109 105 86 110 105 86 111 105 86 112 104 86 113 104 86 114 104 86 115 104 85 117 104 85 36 48 121 36 48 121 36 48 121 36 48 121 36 48 121 36 48 121 36 48 121 36 48 121 36 48 121 36 48 121 36 48 121 36 48 121 36 48 121 36 48 121 36 48 121 36 48 121 36 48 121 36 48 121 36 48 121 36 48 121 36 48 121 36 48 121 36 48 121 36 48 121 36 48 121 36 48 121 36 48 121 36 48 121 36 48 121 36 48 121 36 48 121 36 48 121 36 48 121 36 48 121 36 48 121 36 48 121 36 48 121 36 48 121 36 48 121 36 48 121 36 48 121 36 48 121 36 48 121 36 48 121 36 48 121 36 48 121 36 48 121 36 48 121 36 48 121 36 48 121 36 48 121 36 48 121 36 48 121 36 48 121 36 48 121 36 48 121 36 48 121 36 48 121 36 48 121 179 95 78 180 95 78 180 94 78 181 94 78 182 94 77 183 94 77 184 94 77 185 94 77 186 94 77 187 94 77 187 93 77 188 93 77 189 93 77 190 93 77 191 93 76 193 93 76 193 93 76 194 93 76 195 92 76 196 92 76 197 92 76 198 92 76 199 92 76 199 92 76 200 92 75 201 92 75 202 91 75 203 91 75 204 91 75 204 91 75 206 91 75 207 91 75 208 91 75 208 91 75 209 90 74 210 90 74 211 90 74 212 90 74 213 90 74 213 90 74 214 90 74 215 90 74 216 90 74 217 89 74 217 89 74 219 89 73 220 89 73 221 89 73 221 89 73 222 89 73 223 89 73 224 89 73 224 88 73 225 88 73 226 88 73 227 88 72 228 88 72 228 88 72 229 88 72 230 88 72 231 88 72 232 87 72 233 87 72 234 87 72 234 87 72 235 87 72 236 87 71 237 87 71 238 87 71 238 87 71 239 87 71 240 86 71 241 86 71 241 86 71 242 86 71 244 86 71 244 86 71 245 86 71 246 86 70 246 86 70 247 85 70 248 85 70 249 85 70 249 85 70 250 85 70 251 85 70 252 85 70 252 85 70 253 85 70 255 84 70
0 106 87 1 106 87 2 106 87 3 106 87 4 106 87 6 106 87 7 106 87 8 106 87 9 106 87 11 106 87 12 106 87 13 106 87 14 106 87 16 106 87 17 106 87 19 106 87 21 106 87 22 106 87 23 106 87 24 106 87 26 106 87 27 106 87 28 106 87 29 106 87 31 106 87 32 106 87 33 106 87 34 106 87 36 106 87 37 106 87 39 106 87 41 106 87 42 106 87 43 106 87 44 106 87 45 106 87 47 106 87 48 106 87 49 106 87 50 106 87 52 106 87 53 106 87 54 106 87 55 106 87 57 106 87 59 106 87 60 106 87 62 106 87 63 106 87 64 106 87 65 106 87 67 106 87 68 106 87 69 106 87 70 106 87 72 106 87 73 106 87 74 106 87 75 106 87 77 106 87 79 106 87 80 106 87 82 106 87 83 106 87 84 106 87 85 106 87 87 106 87 88 106 87 89 106 87 90 106 87 91 106 87 93 106 87 94 106 87 95 106 87 96 106 87 99 106 87 100 106 87 101 106 87 103 106 87 104 106 87 105 106 87 106 106 87 107 106 86 109 106 86 110 106 86 111 106 86 112 106 86 113 105 86 114 105 86 115 105 85 36 48 121 36 48 121 36 48 121 36 48 121 36 48 121 36 48 121 36 48 121 36 48 121 36 48 121 36 48 121 36 48 121 36 48 121 36 48 121 36 48 121 36 48 121 36 48 121 36 48 121 36 48 121 36 48 121 36 48 121 36 48 121 36 48 121 36 48 121 36 48 121 36 48 121 36 48 121 36 48 121 36 48 121 36 48 121 36 48 121 36 48 121 36 48 121 36 48 121 36 48 121 36 48 121 36 48 121 36 48 121 36 48 121 36 48 121 36 48 121 36 48 121 36 48 121 36 48 121 36 48 121 36 48 121 36 48 121 36 48 121 36 48 121 36 48 121 36 48 121 36 48 121 36 48 121 36 48 121 36 48 121 36 48 121 36 48 121 36 48 121 36 48 121 36 48 121 36 48 121 36 48 121 180 96 78 180 96 78 181 95 78 182 95 77 183 95 77 184 95 77 185 95 77 186 95 77 187 95 77 187 95 77 188 94 77 189 94 77 190 94 77 191 94 76 193 94 76 193 94 76 194 94 76 195 93 76 196 93 76 197 93 76 198 93 76 199 93 76 199 93 76 200 93 75 201 93 75 202 93 75 203 92 75 204 92 75 204 92 75 206 92 75 207 92 75 208 92 75 208 92 75 209 92 74 210 91 74 211 91 74 212 91 74 213 91 74 213 91 74 214 91 74 215 91 74 216 91 74 217 91 74 217 90 74 219 90 73 220 90 73 221 90 73 221 90 73 222 90 73 223 90 73 224 90 73 224 89 73 225 89 73 226 89 73 227 89 72 228 89 72 228 89 72 229 89 72 230 89 72 231 89 72 232 88 72 233 88 72 234 88 72 234 88 72 235 88 72 236 88 71 237 88 71 238 88 71 238 88 71 239 88 71 240 87 71 241 87 71 241 87 71 242 87 71 244 87 71 244 87 71 245 87 71 246 87 70 246 87 70 247 86 70 248 86 70 249 86 70 249 86 70 250 86 70 251 86 70 252 86 70 252 86 70 253 86 70 255 86 70
0 109 86 1 109 86 2 109 86 3 109 86 4 109 86 6 109 86 7 109 86 8 109 86 9 109 86 11 109 86 12 109 86 13 109 86 14 109 86 16 109 86 17 109 86 19 109 86 21 109 86 22 109 86 23 109 86 24 109 86 26 109 86 27 109 86 28 109 86 29 109 86 30 109 86 32 109 86 33 109 86 34 109 86 35 109 86 37 109 86 39 109 86 40 109 86 42 109 86 43 109 86 44 109 86 45 109 86 47 109 86 48 109 86 49 109 86 50 109 86 52 109 86 53 109 86 54 109 86 55 109 86 57 109 86 59 109 86 60 109 86 61 109 86 63 109 86 64 109 86 65 109 86 66 109 86 68 109 86 69 109 86 70 109 86 71 109 86 73 109 86 74 109 86 75 109 86 76 109 86 79 109 86 80 109 86 81 109 86 83 109 86 84 109 86 85 109 86 86 109 86 87 109 86 89 109 86 90 109 86 91 109 86 92 109 86 94 109 86 95 109 86 96 109 86 99 109 86 100 109 86 101 109 86 102 109 86 104 109 86 105 109 86 106 109 86 107 109 86 109 109 86 110 108 86 111 108 86 112 108 86 113 108 86 114 108 86 36 48 121 36 48 121 36 48 121 36 48 121 36 48 121 36 48 121 36 48 121 36 48 121 36 48 121 36 48 121 36 48 121 36 48 121 36 48 121 36 48 121 36 48 121 36 48 121 36 48 121 36 48 121 36 48 121 36 48 121 36 48 121 36 48 121 36 48 121 36 48 121 36 48 121 36 48 121 36 48 121 36 48 121 36 48 121 36 48 121 36 48 121 36 48 121 36 48 121 36 48 121 36 48 121 36 48 121 36 48 121 36 48 121 36 48 121 36 48 121 36 48 121 36 48 121 36 48 121 36 48 121 36 48 121 36 48 121 36 48 121 36 48 121 36 48 121 36 48 121 36 48 121 36 48 121 36 48 121 36 48 121 36 48 121 36 48 121 36 48 121 36 48 121 36 48 121 36 48 121 36 48 121 36 48 121 36 48 121 180 98 78 181 98 78 182 98 77 183 97 77 184 97 77 185 97 77 186 97 77 187 97 77 187 97 77 188 97 77 189 97 77 190 96 77 191 96 76 193 96 76 193 96 76 194 96 76 195 96 76 196 96 76 197 95 76 198 95 76 199 95 76 199 95 76 200 95 75 201 95 75 202 95 75 203 95 75 204 94 75 204 94 75 206 94 75 207 94 75 208 94 75 208 94 75 209 94 74 210 94 74 211 93 74 212 93 74 213 93 74 213 93 74 214 93 74 215 93 74 216 93 74 217 93 74 217 93 74 219 92 73 220 92 73 221 92 73 221 92 73 222 92 73 223 92 73 224 92 73 224 92 73 225 91 73 226 91 73 227 91 72 228 91 72 228 91 72 229 91 72 230 91 72 231 91 72 232 91 72 233 90 72 234 90 72 234 90 72 235 90 72 236 90 71 237 90 71 238 90 71 238 90 71 239 90 71 240 89 71 241 89 71 241 89 71 242 89 71 244 89 71 244 89 71 245 89 71 246 89 70 246 89 70 247 88 70 248 88 70 249 88 70 249 88 70 250 88 70 251 88 70 252 88 70 252 88 70 253 88 70 255 88 70
0 110 86 1 110 86 2 110 86 3 110 86 4 110 86 6 110 86 7 110 86 8 110 86 9 110 86 11 110 86 12 110 86 13 110 86 14 110 86 16 110 86 17 110 86 19 110 86 21 110 86 22 110 86 23 110 86 24 110 86 25 110 86 27 110 86 28 110 86 29 110 86 30 110 86 32 110 86 33 110 86 34 110 86 35 110 86 37 110 86 39 110 86 40 110 86 42 110 86 43 110 86 44 110 86 45 110 86 47 110 86 48 110 86 49 110 86 50 110 86 51 110 86 53 110 86 54 110 86 55 110 86 56 110 86 59 110 86 60 110 86 61 110 86 63 110 86 64 110 86 65 110 86 66 110 86 68 110 86 69 110 86 70 110 86 71 110 86 73 110 86 74 110 86 75 110 86 76 110 86 79 110 86 80 110 86 81 110 86 82 110 86 84 110 86 85 110 86 86 110 86 87 110 86 89 110 86 90 110 86 91 110 86 92 110 86 94 110 86 95 110 86 96 110 86 98 110 86 100 110 86 101 110 86 102 110 86 103 110 86 105 110 86 106 110 86 107 110 86 108 110 86 110 110 86 111 109 86 112 109 86 113 109 86 36 48 121 36 48 121 36 48 121 36 48 121 36 48 121 36 48 121 36 48 121 36 48 121 36 48 121 36 48 121 36 48 121 36 48 121 36 48 121 36 48 121 36 48 121 36 48 121 36 48 121 36 48 121 36 48 121 36 48 121 36 48 121 36 48 121 36 48 121 36 48 121 36 48 121 36 48 121 36 48 121 36 48 121 36 48 121 36 48 121 36 48 121 36 48 121 36 48 121 36 48 121 36 48 121 36 48 121 36 48 121 36 48 121 36 48 121 36 48 121 36 48 121 36 48 121 36 48 121 36 48 121 36 48 121 36 48 121 36 48 121 36 48 121 36 48 121 36 48 121 36 48 121 36 48 121 36 48 121 36 48 121 36 48 121 36 48 121 36 48 121 36 48 121 36 48 121 36 48 121 36 48 121 36 48 121 36 48 121 36 48 121 36 48 121 181 99 78 182 99 77 183 99 77 184 98 77 185 98 77 186 98 77 187 98 77 187 98 77 188 98 77 189 98 77 190 98 77 191 97 76 193 97 76 193 97 76 194 97 76 195 97 76 196 97 76 197 97 76 198 96 76 199 96 76 199 96 76 200 96 75 201 96 75 202 96 75 203 96 75 204 96 75 204 95 75 206 95 75 207 95 75 208 95 75 208 95 75 209 95 74 210 95 74 211 95 74 212 94 74 213 94 74 213 94 74 214 94 74 215 94 74 216 94 74 217 94 74 217 94 74 219 93 73 220 93 73 221 93 73 221 93 73 222 93 73 223 93 73 224 93 73 224 93 73 225 93 73 226 92 73 227 92 72 228 92 72 228 92 72 229 92 72 230 92 72 231 92 72 232 92 72 233 91 72 234 91 72 234 91 72 235 91 72 236 91 71 237 91 71 238 91 71 238 91 71 239 91 71 240 91 71 241 90 71 241 90 71 242 90 71 244 90 71 244 90 71 245 90 71 246 90 70 246 90 70 247 89 70 248 89 70 249 89 70 249 89 70 250 89 70 251 89 70 252 89 70 252 89 70 253 89 70 255 89 70
0 112 86 1 112 86 2 112 86 3 112 86 4 112 86 6 112 86 7 112 86 8 112 86 9 112 86 11 112 86 12 112 86 13 112 86 14 112 86 16 112 86 17 112 86 19 112 86 20 112 86 22 112 86 23 112 86 24 112 86 25 112 86 27 112 86 28 112 86 29 112 86 30 112 86 32 112 86 33 112 86 34 112 86 35 112 86 37 112 86 39 112 86 40 112 86 41 112 86 43 112 86 44 112 86 45 112 86 46 112 86 48 112 86 49 112 86 50 112 86 51 112 86 53 112 86 54 112 86 55 112 86 56 112 86 59 112 86 60 112 86 61 112 86 62 112 86 64 112 86 65 112 86 66 112 86 67 112 86 69 112 86 70 112 86 71 112 86 72 112 86 74 112 86 75 112 86 76 112 86 78 112 86 80 112 86 81 112 86 82 112 86 83 112 86 85 112 86 86 112 86 87 112 86 88 112 86 90 112 86 91 112 86 92 112 86 93 112 86 94 112 86 96 112 86 98 112 86 99 112 86 101 112 86 102 112 86 103 112 86 104 112 86 106 112 86 107 112 86 108 112 86 109 112 86 111 112 86 112 112 86 113 112 86 36 48 121 36 48 121 36 48 121 36 48 121 36 48 121 36 48 121 36 48 121 36 48 121 36 48 121 36 48 121 36 48 121 36 48 121 36 48 121 36 48 121 36 48 121 36 48 121 36 48 121 36 48 121 36 48 121 36 48 121 36 48 121 36 48 121 36 48 121 36 48 121 36 48 121 36 48 121 36 48 121 36 48 121 36 48 121 36 48 121 36 48 121 36 48 121 36 48 121 36 48 121 36 48 121 36 48 121 36 48 121 36 48 121 36 48 121 36 48 121 36 48 121 36 48 121 36 48 121 36 48 121 36 48 121 36 48 121 36 48 121 36 48 121 36 48 121 36 48 121 36 48 121 36 48 121 36 48 121 36 48 121 36 48 121 36 48 121 36 48 121 36 48 121 36 48 121 36 48 121 36 48 121 36 48 121 36 48 121 36 48 121 36 48 121 181 101 78 182 101 77 183 101 77 184 101 77 185 100 77 186 100 77 187 100 77 187 100 77 188 100 77 189 100 77 190 100 77 191 100 76 193 99 76 193 99 76 194 99 76 195 99 76 196 99 76 197 99 76 198 99 76 199 98 76 199 98 76 200 98 75 201 98 75 202 98 75 203 98 75 204 98 75 204 98 75 206 97 75 207 97 75 208 97 75 208 97 75 209 97 74 210 97 74 211 97 74 212 97 74 213 96 74 213 96 74 214 96 74 215 96 74 216 96 74 217 96 74 217 96 74 219 96 73 220 95 73 221 95 73 221 95 73 222 95 73 223 95 73 224 95 73 224 95 73 225 95 73 226 94 73 227 94 72 228 94 72 228 94 72 229 94 72 230 94 72 231 94 72 232 94 72 233 94 72 234 93 72 234 93 72 235 93 72 236 93 71 237 93 71 238 93 71 238 93 71 239 93 71 240 93 71 241 92 71 241 92 71 242 92 71 244 92 71 244 92 71 245 92 71 246 92 70 246 92 70 247 92 70 248 91 70 249 91 70 249 91 70 250 91 70 251 91 70 252 91 70 252 91 70 253 91 70 255 91 70
0 113 86 1 113 86 2 113 86 3 113 86 4 113 86 6 113 86 7 113 86 8 113 86 9 113 86 11 113 86 12 113 86 13 113 86 14 113 86 16 113 86 17 113 86 19 113 86 20 113 86 22 113 86 23 113 86 24 113 86 25 113 86 27 113 86 28 113 86 29 113 86 30 113 86 32 113 86 33 113 86 34 113 86 35 113 86 36 113 86 39 113 86 40 113 86 41 113 86 43 113 86 44 113 86 45 113 86 46 113 86 48 113 86 49 113 86 50 113 86 51 113 86 52 113 86 54 113 86 55 113 86 56 113 86 59 113 86 60 113 86 61 113 86 62 113 86 64 113 86 65 113 86 66 113 86 67 113 86 68 113 86 70 113 86 71 113 86 72 113 86 73 113 86 75 113 86 76 113 86 78 113 86 80 113 86 81 113 86 82 113 86 83 113 86 84 113 86 86 113 86 87 113 86 88 113 86 89 113 86 91 113 86 92 113 86 93 113 86 94 113 86 96 113 86 98 113 86 99 113 86 101 113 86 102 113 86 103 113 86 104 113 86 105 113 86 107 113 86 108 113 86 109 113 86 110 113 86 112 113 86 36 48 121 36 48 121 36 48 121 36 48 121 36 48 121 36 48 121 36 48 121 36 48 121 36 48 121 36 48 121 36 48 121 36 48 121 36 48 121 36 48 121 36 48 121 36 48 121 36 48 121 36 48 121 36 48 121 36 48 121 36 48 121 36 48 121 36 48 121 36 48 121 36 48 121 36 48 121 36 48 121 36 48 121 36 48 121 36 48 121 36 48 121 36 48 121 36 48 121 36 48 121 36 48 121 36 48 121 36 48 121 36 48 121 36 48 121 36 48 121 36 48 121 36 48 121 36 48 121 36 48 121 36 48 121 36 48 121 36 48 121 36 48 121 36 48 121 36 48 121 36 48 121 36 48 121 36 48 121 36 48 121 36 48 121 36 48 121 36 48 121 36 48 121 36 48 121 36 48 121 36 48 121 36 48 121 36 48 121 36 48 121 36 48 121 36 48 121 36 48 121 182 102 77 183 102 77 184 102 77 185 102 77 186 101 77 187 101 77 187 101 77 188 101 77 189 101 77 190 101 77 191 101 76 193 100 76 193 100 76 194 100 76 195 100 76 196 100 76 197 100 76 198 100 76 199 100 76 199 99 76 200 99 75 201 99 75 202 99 75 203 99 75 204 99 75 204 99 75 206 98 75 207 98 75 208 98 75 208 98 75 209 98 74 210 98 74 211 98 74 212 98 74 213 97 74 213 97 74 214 97 74 215 97 74 216 97 74 217 97 74 217 97 74 219 97 73 220 96 73 221 96 73 221 96 73 222 96 73 223 96 73 224 96 73 224 96 73 225 96 73 226 96 73 227 95 72 228 95 72 228 95 72 229 95 72 230 95 72 231 95 72 232 95 72 233 95 72 234 94 72 234 94 72 235 94 72 236 94 71 237 94 71 238 94 71 238 94 71 239 94 71 240 94 71 241 93 71 241 93 71 242 93 71 244 93 71 244 93 71 245 93 71 246 93 70 246 93 70 247 93 70 248 92 70 249 92 70 249 92 70 250 92 70 251 92 70 252 92 70 252 92 70 253 92 70 255 92 70
0 115 85 1 115 85 2 115 85 3 115 85 4 115 85 6 115 85 7 115 85 8 115 85 9 115 85 11 115 85 12 115 85 13 115 85 14 115 85 15 115 85 17 115 85 19 115 85 20 115 85 22 115 85 23 115 85 24 115 85 25 115 85 27 115 85 28 115 85 29 115 85 30 115 85 31 115 85 33 115 85 34 115 85 35 115 85 36 115 85 39 115 85 40 115 85 41 115 85 42 115 85 44 115 85 45 115 85 46 115 85 47 115 85 49 115 85 50 115 85 51 115 85 52 115 85 54 115 85 55 115 85 56 115 85 58 115 85 60 115 85 61 115 85 62 115 85 63 115 85 65 115 85 66 115 85 67 115 85 68 115 85 70 115 85 71 115 85 72 115 85 73 115 85 74 115 85 76 115 85 78 115 85 79 115 85 81 115 85 82 115 85 83 115 85 84 115 85 85 115 85 87 115 85 88 115 85 89 115 85 90 115 85 92 115 85 93 115 85 94 115 85 95 115 85 98 115 85 99 115 85 100 115 85 101 115 85 103 115 85 104 115 85 105 115 85 106 115 85 108 115 85 109 115 85 110 115 85 36 48 121 36 48 121 36 48 121 36 48 121 36 48 121 36 48 121 36 48 121 36 48 121 36 48 121 36 48 121 36 48 121 36 48 121 36 48 121 36 48 121 36 48 121 36 48 121 36 48 121 36 48 121 36 48 121 36 48 121 36 48 121 36 48 121 36 48 121 36 48 121 36 48 121 36 48 121 36 48 121 36 48 121 36 48 121 36 48 121 36 48 121 36 48 121 36 48 121 36 48 121 36 48 121 36 48 121 36 48 121 36 48 121 36 48 121 36 48 121 36 48 121 36 48 121 36 48 121 36 48 121 36 48 121 36 48 121 36 48 121 36 48 121 36 48 121 36 48 121 36 48 121 36 48 121 36 48 121 36 48 121 36 48 121 36 48 121 36 48 121 36 48 121 36 48 121 36 48 121 36 48 121 36 48 121 36 48 121 36 48 121 36 48 121 36 48 121 36 48 121 36 48 121 36 48 121 183 104 77 184 104 77 185 104 77 186 104 77 187 104 77 187 103 77 188 103 77 189 103 77 190 103 77 191 103 76 193 103 76 193 102 76 194 102 76 195 102 76 196 102 76 197 102 76 198 102 76 199 102 76 199 102 76 200 101 75 201 101 75 202 101 75 203 101 75 204 101 75 204 101 75 206 101 75 207 100 75 208 100 75 208 100 75 209 100 74 210 100 74 211 100 74 212 100 74 213 100 74 213 99 74 214 99 74 215 99 74 216 99 74 217 99 74 217 99 74 219 99 73 220 99 73 221 98 73 221 98 73 222 98 73 223 98 73 224 98 73 224 98 73 225 98 73 226 98 73 227 98 72 228 97 72 228 97 72 229 97 72 230 97 72 231 97 72 232 97 72 233 97 72 234 96 72 234 96 72 235 96 72 236 96 71 237 96 71 238 96 71 238 96 71 239 96 71 240 96 71 241 96 71 241 95 71 242 95 71 244 95 71 244 95 71 245 95 71 246 95 70 246 95 70 247 95 70 248 94 70 249 94 70 249 94 70 250 94 70 251 94 70 252 94 70 252 94 70 253 94 70 255 94 70
0 116 85 1 116 85 2 116 85 3 116 85 4 116 85 6 116 85 7 116 85 8 116 85 9 116 85 11 116 85 12 116 85 13 116 85 14 116 85 15 116 85 17 116 85 19 116 85 20 116 85 22 116 85 23 116 85 24 116 85 25 116 85 26 116 85 28 116 85 29 116 85 30 116 85 31 116 85 33 116 85 34 116 85 35 116 85 36 116 85 39 116 85 40 116 85 41 116 85 42 116 85 44 116 85 45 116 85 46 116 85 47 116 85 49 116 85 50 116 85 51 116 85 52 116 85 53 116 85 55 116 85 56 116 85 58 116 85 60 116 85 61 116 85 62 116 85 63 116 85 64 116 85 66 116 85 67 116 85 68 116 85 69 116 85 71 116 85 72 116 85 73 116 85 74 116 85 76 116 85 78 116 85 79 116 85 80 116 85 82 116 85 83 116 85 84 116 85 85 116 85 87 116 85 88 116 85 89 116 85 90 116 85 91 116 85 93 116 85 94 116 85 95 116 85 98 116 85 99 116 85 100 116 85 101 116 85 103 116 85 104 116 85 105 116 85 106 116 85 107 116 85 109 116 85 36 48 121 36 48 121 36 48 121 36 48 121 36 48 121 36 48 121 36 48 121 36 48 121 36 48 121 36 48 121 36 48 121 36 48 121 36 48 121 36 48 121 36 48 121 36 48 121 36 48 121 36 48 121 36 48 121 36 48 121 36 48 121 36 48 121 36 48 121 36 48 121 36 48 121 36 48 121 36 48 121 36 48 121 36 48 121 36 48 121 36 48 121 36 48 121 36 48 121 36 48 121 36 48 121 36 48 121 36 48 121 36 48 121 36 48 121 36 48 121 36 48 121 36 48 121 36 48 121 36 48 121 36 48 121 36 48 121 36 48 121 36 48 121 36 48 121 36 48 121 36 48 121 36 48 121 36 48 121 36 48 121 36 48 121 36 48 121 36 48 121 36 48 121 36 48 121 36 48 121 36 48 121 36 48 121 36 48 121 36 48 121 36 48 121 36 48 121 36 48 121 36 48 121 36 48 121 36 48 121 36 48 121 184 105 77 185 105 77 186 105 77 187 105 77 187 105 77 188 104 77 189 104 77 190 104 77 191 104 76 193 104 76 193 104 76 194 103 76 195 103 76 196 103 76 197 103 76 198 103 76 199 103 76 199 103 76 200 103 75 201 102 75 202 102 75 203 102 75 204 102 75 204 102 75 206 102 75 207 102 75 208 101 75 208 101 75 209 101 74 210 101 74 211 101 74 212 101 74 213 101 74 213 101 74 214 100 74 215 100 74 216 100 74 217 100 74 217 100 74 219 100 73 220 100 73 221 99 73 221 99 73 222 99 73 223 99 73 224 99 73 224 99 73 225 99 73 226 99 73 227 99 72 228 98 72 228 98 72 229 98 72 230 98 72 231 98 72 232 98 72 233 98 72 234 98 72 234 97 72 235 97 72 236 97 71 237 97 71 238 97 71 238 97 71 239 97 71 240 97 71 241 97 71 241 96 71 242 96 71 244 96 71 244 96 71 245 96 71 246 96 70 246 96 70 247 96 70 248 95 70 249 95 70 249 95 70 250 95 70 251 95 70 252 95 70 252 95 70 253 95 70 255 95 70
0 117 85 1 117 85 2 117 85 3 117 85 4 117 85 6 117 85 7 117 85 8 117 85 9 117 85 11 117 85 12 117 85 13 117 85 14 117 85 15 117 85 17 117 85 19 117 85 20 117 85 22 117 85 23 117 85 24 117 85 25 117 85 26 117 85 28 117 85 29 117 85 30 117 85 31 117 85 33 117 85 34 117 85 35 117 85 36 117 85 39 117 85 40 117 85 41 117 85 42 117 85 44 117 85 45 117 85 46 117 85 47 117 85 48 117 85 50 117 85 51 117 85 52 117 85 53 117 85 55 117 85 56 117 85 58 117 85 59 117 85 61 117 85 62 117 85 63 117 85 64 117 85 66 117 85 67 117 85 68 117 85 69 117 85 71 117 85 72 117 85 73 117 85 74 117 85 75 117 85 78 117 85 79 117 85 80 117 85 82 117 85 83 117 85 84 117 85 85 117 85 86 117 85 88 117 85 89 117 85 90 117 85 91 117 85 93 117 85 94 117 85 95 117 85 97 117 85 99 117 85 100 117 85 101 117 85 102 117 85 104 117 85 105 117 85 106 117 85 107 117 85 108 117 85 36 48 121 36 48 121 36 48 121 36 48 121 36 48 121 36 48 121 36 48 121 36 48 121 36 48 121 36 48 121 36 48 121 36 48 121 36 48 121 36 48 121 36 48 121 36 48 121 36 48 121 36 48 121 36 48 121 36 48 121 36 48 121 36 48 121 36 48 121 36 48 121 36 48 121 36 48 121 36 48 121 36 48 121 36 48 121 36 48 121 36 48 121 36 48 121 36 48 121 36 48 121 36 48 121 36 48 121 36 48 121 36 48 121 36 48 121 36 48 121 36 48 121 36 48 121 36 48 121 36 48 121 36 48 121 36 48 121 36 48 121 36 48 121 36 48 121 36 48 121 36 48 121 36 48 121 36 48 121 36 48 121 36 48 121 36 48 121 36 48 121 36 48 121 36 48 121 36 48 121 36 48 121 36 48 121 36 48 121 36 48 121 36 48 121 36 48 121 36 48 121 36 48 121 36 48 121 36 48 121 36 48 121 184 106 77 185 106 77 186 106 77 187 106 77 187 106 77 188 105 77 189 105 77 190 105 77 191 105 76 193 105 76 193 105 76 194 105 76 195 104 76 196 104 76 197 104 76 198 104 76 199 104 76 199 104 76 200 104 75 201 104 75 202 103 75 203 103 75 204 103 75 204 103 75 206 103 75 207 103 75 208 102 75 208 102 75 209 102 74 210 102 74 211 102 74 212 102 74 213 102 74 213 102 74 214 102 74 215 101 74 216 101 74 217 101 74 217 101 74 219 101 73 220 101 73 221 101 73 221 100 73 222 100 73 223 100 73 224 100 73 224 100 73 225 100 73 226 100 73 227 100 72 228 99 72 228 99 72 229 99 72 230 99 72 231 99 72 232 99 72 233 99 72 234 99 72 234 98 72 235 98 72 236 98 71 237 98 71 238 98 71 238 98 71 239 98 71 240 98 71 241 98 71 241 97 71 242 97 71 244 97 71 244 97 71 245 97 71 246 97 70 246 97 70 247 97 70 248 96 70 249 96 70 249 96 70 250 96 70 251 96 70 252 96 70 252 96 70 253 96 70 255 96 70
0 119 85 1 119 85 2 119 85 3 119 85 4 119 85 6 119 85 7 119 85 8 119 85 9 119 85 10 119 85 12 119 85 13 119 85 14 119 85 15 119 85 17 119 85 19 119 85 20 119 85 21 119 85 23 119 85 24 119 85 25 119 85 26 119 85 28 119 85 29 119 85 30 119 85 31 119 85 32 119 85 34 119 85 35 119 85 36 119 85 39 119 85 40 119 85 41 119 85 42 119 85 43 119 85 45 119 85 46 119 85 47 119 85 48 119 85 50 119 85 51 119 85 52 119 85 53 119 85 54 119 85 56 119 85 58 119 85 59 119 85 61 119 85 62 119 85 63 119 85 64 119 85 65 119 85 67 119 85 68 119 85 69 119 85 70 119 85 72 119 85 73 119 85 74 119 85 75 119 85 78 119 85 79 119 85 80 119 85 81 119 85 83 119 85 84 119 85 85 119 85 86 119 85 87 119 85 89 119 85 90 119 85 91 119 85 92 119 85 94 119 85 95 119 85 97 119 85 98 119 85 100 119 85 101 119 85 102 119 85 103 119 85 104 119 85 106 119 85 107 119 85 36 48 121 36 48 121 36 48 121 36 48 121 36 48 121 36 48 121 36 48 121 36 48 121 36 48 121 36 48 121 36 48 121 36 48 121 36 48 121 36 48 121 36 48 121 36 48 121 36 48 121 36 48 121 36 48 121 36 48 121 36 48 121 36 48 121 36 48 121 36 48 121 36 48 121 36 48 121 36 48 121 36 48 121 36 48 121 36 48 121 36 48 121 36 48 121 36 48 121 36 48 121 36 48 121 36 48 121 36 48 121 36 48 121 36 48 121 36 48 121 36 48 121 36 48 121 36 48 121 36 48 121 36 48 121 36 48 121 36 48 121 36 48 121 36 48 121 36 48 121 36 48 121 36 48 121 36 48 121 36 48 121 36 48 121 36 48 121 36 48 121 36 48 121 36 48 121 36 48 121 36 48 121 36 48 121 36 48 121 36 48 121 36 48 121 36 48 121 36 48 121 36 48 121 36 48 121 36 48 121 36 48 121 36 48 121 36 48 121 185 108 77 186 108 77 187 108 77 187 108 77 188 108 77 189 108 77 190 107 77 191 107 76 193 107 76 193 107 76 194 107 76 195 107 76 196 106 76 197 106 76 198 106 76 199 106 76 199 106 76 200 106 75 201 106 75 202 106 75 203 105 75 204 105 75 204 105 75 206 105 75 207 105 75 208 105 75 208 105 75 209 104 74 210 104 74 211 104 74 212 104 74 213 104 74 213 104 74 214 104 74 215 104 74 216 103 74 217 103 74 217 103 74 219 103 73 220 103 73 221 103 73 221 103 73 222 102 73 223 102 73 224 102 73 224 102 73 225 102 73 226 102 73 227 102 72 228 102 72 228 101 72 229 101 72 230 101 72 231 101 72 232 101 72 233 101 72 234 101 72 234 101 72 235 100 72 236 100 71 237 100 71 238 100 71 238 100 71 239 100 71 240 100 71 241 100 71 241 99 71 242 99 71 244 99 71 244 99 71 245 99 71 246 99 70 246 99 70 247 99 70 248 98 70 249 98 70 249 98 70 250 98 70 251 98 70 252 98 70 252 98 70 253 98 70 255 97 70
0 120 85 1 120 85 2 120 85 3 120 85 4 120 85 6 120 85 7 120 85 8 120 85 9 120 85 10 120 85 12 120 85 13 120 85 14 120 85 15 120 85 17 120 85 19 120 85 20 120 85 21 120 85 23 120 85 24 120 85 25 120 85 26 120 85 28 120 85 29 120 85 30 120 85 31 120 85 32 120 85 34 120 85 35 120 85 36 120 85 39 120 85 40 120 85 41 120 85 42 120 85 43 120 85 45 120 85 46 120 85 47 120 85 48 120 85 49 120 85 51 120 85 52 120 85 53 120 85 54 120 85 56 120 85 58 120 85 59 120 85 60 120 85 62 120 85 63 120 85 64 120 85 65 120 85 67 120 85 68 120 85 69 120 85 70 120 85 71 120 85 73 120 85 74 120 85 75 120 85 78 120 85 79 120 85 80 120 85 81 120 85 82 120 85 84 120 85 85 120 85 86 120 85 87 120 85 88 120 85 90 120 85 91 120 85 92 120 85 93 120 85 95 120 85 97 120 85 98 120 85 99 120 85 101 120 85 102 120 85 103 120 85 104 120 85 106 120 85 107 120 85 36 48 121 36 48 121 36 48 121 36 48 121 36 48 121 36 48 121 36 48 121 36 48 121 36 48 121 36 48 121 36 48 121 36 48 121 36 48 121 36 48 121 36 48 121 36 48 121 36 48 121 36 48 121 36 48 121 36 48 121 36 48 121 36 48 121 36 48 121 36 48 121 36 48 121 36 48 121 36 48 121 36 48 121 36 48 121 36 48 121 36 48 121 36 48 121 36 48 121 36 48 121 36 48 121 36 48 121 36 48 121 36 48 121 36 48 121 36 48 121 36 48 121 36 48 121 36 48 121 36 48 121 36 48 121 36 48 121 36 48 121 36 48 121 36 48 121 36 48 121 36 48 121 36 48 121 36 48 121 36 48 121 36 48 121 36 48 121 36 48 121 36 48 121 36 48 121 36 48 121 36 48 121 36 48 121 36 48 121 36 48 121 36 48 121 36 48 121 36 48 121 36 48 121 36 48 121 36 48 121 36 48 121 36 48 121 36 48 121 185 109 77 186 109 77 187 109 77 187 109 77 188 109 77 189 109 77 190 109 77 191 108 76 193 108 76 193 108 76 194 108 76 195 108 76 196 108 76 197 107 76 198 107 76 199 107 76 199 107 76 200 107 75 201 107 75 202 107 75 203 106 75 204 106 75 204 106 75 206 106 75 207 106 75 208 106 75 208 106 75 209 105 74 210 105 74 211 105 74 212 105 74 213 105 74 213 105 74 214 105 74 215 105 74 216 104 74 217 104 74 217 104 74 219 104 73 220 104 73 221 104 73 221 104 73 222 103 73 223 103 73 224 103 73 224 103 73 225 103 73 226 103 73 227 103 72 228 103 72 228 102 72 229 102 72 230 102 72 231 102 72 232 102 72 233 102 72 234 102 72 234 102 72 235 101 72 236 101 71 237 101 71 238 101 71 238 101 71 239 101 71 240 101 71 241 101 71 241 100 71 242 100 71 244 100 71 244 100 71 245 100 71 246 100 70 246 100 70 247 100 70 248 99 70 249 99 70 249 99 70 250 99 70 251 99 70 252 99 70 252 99 70 253 99 70 255 98 70
0 122 85 1 122 85 2 122 85 3 122 85 4 122 85 6 122 85 7 122 85 8 122 85 9 122 85 10 122 85 12 122 85 13 122 85 14 122 85 15 122 85 17 122 85 19 122 85 20 122 85 21 122 85 23 122 85 24 122 85 25 122 85 26 122 85 27 122 85 29 122 85 30 122 85 31 122 85 32 122 85 34 122 85 35 122 85 36 122 85 38 122 85 40 122 85 41 122 85 42 122 85 43 122 85 44 122 85 46 122 85 47 122 85 48 122 85 49 122 85 51 122 85 52 122 85 53 122 85 54 122 85 55 122 85 58 122 85 59 122 85 60 122 85 61 122 85 63 122 85 64 122 85 65 122 85 66 122 85 68 122 85 69 122 85 70 122 85 71 122 85 72 122 85 74 122 85 75 122 85 77 122 85 78 122 85 80 122 85 81 122 85 82 122 85 83 122 85 85 122 85 86 122 85 87 122 85 88 122 85 89 122 85 91 122 85 92 122 85 93 122 85 94 122 85 97 122 85 98 122 85 99 122 85 100 122 85 102 122 85 103 122 85 104 122 85 105 122 85 36 48 121 36 48 121 36 48 121 36 48 121 36 48 121 36 48 121 36 48 121 36 48 121 36 48 121 36 48 121 36 48 121 36 48 121 36 48 121 36 48 121 36 48 121 36 48 121 36 48 121 36 48 121 36 48 121 36 48 121 36 48 121 36 48 121 36 48 121 36 48 121 36 48 121 36 48 121 36 48 121 36 48 121 36 48 121 36 48 121 36 48 121 36 48 121 36 48 121 36 48 121 36 48 121 36 48 121 36 48 121 36 48 121 36 48 121 36 48 121 36 48 121 36 48 121 36 48 121 36 48 121 36 48 121 36 48 121 36 48 121 36 48 121 36 48 121 36 48 121 36 48 121 36 48 121 36 48 121 36 48 121 36 48 121 36 48 121 36 48 121 36 48 121 36 48 121 36 48 121 36 48 121 36 48 121 36 48 121 36 48 121 36 48 121 36 48 121 36 48 121 36 48 121 36 48 121 36 48 121 36 48 121 36 48 121 36 48 121 36 48 121 36 48 121 186 111 77 187 111 77 187 111 77 188 111 77 189 111 77 190 111 77 191 111 76 193 110 76 193 110 76 194 110 76 195 110 76 196 110 76 197 110 76 198 109 76 199 109 76 199 109 76 200 109 75 201 109 75 202 109 75 203 109 75 204 109 75 204 108 75 206 108 75 207 108 75 208 108 75 208 108 75 209 108 74 210 107 74 211 107 74 212 107 74 213 107 74 213 107 74 214 107 74 215 107 74 216 107 74 217 106 74 217 106 74 219 106 73 220 106 73 221 106 73 221 106 73 222 106 73 223 105 73 224 105 73 224 105 73 225 105 73 226 105 73 227 105 72 228 105 72 228 105 72 229 104 72 230 104 72 231 104 72 232 104 72 233 104 72 234 104 72 234 104 72 235 103 72 236 103 71 237 103 71 238 103 71 238 103 71 239 103 71 240 103 71 241 103 71 241 103 71 242 102 71 244 102 71 244 102 71 245 102 71 246 102 70 246 102 70 247 102 70 248 102 70 249 101 70 249 101 70 250 101 70 251 101 70 252 101 70 252 101 70 253 101 70 255 100 70
0 123 84 1 123 84 2 123 84 3 123 84 4 123 84 6 123 84 7 123 84 8 123 84 9 123 84 10 123 84 12 123 84 13 123 84 14 123 84 15 123 84 16 123 84 19 123 84 20 123 84 21 123 84 23 123 84 24 123 84 25 123 84 26 123 84 27 123 84 29 123 84 30 123 84 31 123 84 32 123 84 33 123 84 35 123 84 36 123 84 38 123 84 40 123 84 41 123 84 42 123 84 43 123 84 44 123 84 46 123 84 47 123 84 48 123 84 49 123 84 50 123 84 52 123 84 53 123 84 54 123 84 55 123 84 58 123 84 59 123 84 60 123 84 61 123 84 63 123 84 64 123 84 65 123 84 66 123 84 67 123 84 69 123 84 70 123 84 71 123 84 72 123 84 74 123 84 75 123 84 77 123 84 78 123 84 80 123 84 81 123 84 82 123 84 83 123 84 84 123 84 86 123 84 87 123 84 88 123 84 89 123 84 91 123 84 92 123 84 93 123 84 94 123 84 97 123 84 98 123 84 99 123 84 100 123 84 101 123 84 103 123 84 104 123 84 105 123 84 36 48 121 36 48 121 36 48 121 36 48 121 36 48 121 36 48 121 36 48 121 36 48 121 36 48 121 36 48 121 36 48 121 36 48 121 36 48 121 36 48 121 36 48 121 36 48 121 36 48 121 36 48 121 36 48 121 36 48 121 36 48 121 36 48 121 36 48 121 36 48 121 36 48 121 36 48 121 36 48 121 36 48 121 36 48 121 36 48 121 36 48 121 36 48 121 36 48 121 36 48 121 36 48 121 36 48 121 36 48 121 36 48 121 36 48 121 36 48 121 36 48 121 36 48 121 36 48 121 36 48 121 36 48 121 36 48 121 36 48 121 36 48 121 36 48 121 36 48 121 36 48 121 36 48 121 36 48 121 36 48 121 36 48 121 36 48 121 36 48 121 36 48 121 36 48 121 36 48 121 36 48 121 36 48 121 36 48 121 36 48 121 36 48 121 36 48 121 36 48 121 36 48 121 36 48 121 36 48 121 36 48 121 36 48 121 36 48 121 36 48 121 36 48 121 186 113 77 187 112 77 187 112 77 188 112 77 189 112 77 190 112 77 191 112 76 193 111 76 193 111 76 194 111 76 195 111 76 196 111 76 197 111 76 198 111 76 199 110 76 199 110 76 200 110 75 201 110 75 202 110 75 203 110 75 204 110 75 204 109 75 206 109 75 207 109 75 208 109 75 208 109 75 209 109 74 210 109 74 211 108 74 212 108 74 213 108 74 213 108 74 214 108 74 215 108 74 216 108 74 217 107 74 217 107 74 219 107 73 220 107 73 221 107 73 221 107 73 222 107 73 223 106 73 224 106 73 224 106 73 225 106 73 226 106 73 227 106 72 228 106 72 228 106 72 229 105 72 230 105 72 231 105 72 232 105 72 233 105 72 234 105 72 234 105 72 235 105 72 236 104 71 237 104 71 238 104 71 238 104 71 239 104 71 240 104 71 241 104 71 241 104 71 242 103 71 244 103 71 244 103 71 245 103 71 246 103 70 246 103 70 247 103 70 248 103 70 249 102 70 249 102 70 250 102 70 251 102 70 252 102 70 252 102 70 253 102 70 255 102 70
0 124 84 1 124 84 2 124 84 3 124 84 4 124 84 6 124 84 7 124 84 8 124 84 9 124 84 10 124 84 12 124 84 13 124 84 14 124 84 15 124 84 16 124 84 19 124 84 20 124 84 21 124 84 23 124 84 24 124 84 25 124 84 26 124 84 27 124 84 29 124 84 30 124 84 31 124 84 32 124 84 33 124 84 35 124 84 36 124 84 38 124 84 39 124 84 41 124 84 42 124 84 43 124 84 44 124 84 46 124 84 47 124 84 48 124 84 49 124 84 50 124 84 52 124 84 53 124 84 54 124 84 55 124 84 58 124 84 59 124 84 60 124 84 61 124 84 63 124 84 64 124 84 65 124 84 66 124 84 67 124 84 69 124 84 70 124 84 71 124 84 72 124 84 73 124 84 75 124 84 77 124 84 78 124 84 79 124 84 81 124 84 82 124 84 83 124 84 84 124 84 86 124 84 87 124 84 88 124 84 89 124 84 90 124 84 92 124 84 93 124 84 94 124 84 96 124 84 98 124 84 99 124 84 100 124 84 101 124 84 103 124 84 104 124 84 36 48 121 36 48 121 36 48 121 36 48 121 36 48 121 36 48 121 36 48 121 36 48 121 36 48 121 36 48 121 36 48 121 36 48 121 36 48 121 36 48 121 36 48 121 36 48 121 36 48 121 36 48 121 36 48 121 36 48 121 36 48 121 36 48 121 36 48 121 36 48 121 36 48 121 36 48 121 36 48 121 36 48 121 36 48 121 36 48 121 36 48 121 36 48 121 36 48 121 36 48 121 36 48 121 36 48 121 36 48 121 36 48 121 36 48 121 36 48 121 36 48 121 36 48 121 36 48 121 36 48 121 36 48 121 36 48 121 36 48 121 36 48 121 36 48 121 36 48 121 36 48 121 36 48 121 36 48 121 36 48 121 36 48 121 36 48 121 36 48 121 36 48 121 36 48 121 36 48 121 36 48 121 36 48 121 36 48 121 36 48 121 36 48 121 36 48 121 36 48 121 36 48 121 36 48 121 36 48 121 36 48 121 36 48 121 36 48 121 36 48 121 36 48 121 36 48 121 36 48 121 187 114 77 187 113 77 188 113 77 189 113 77 190 113 77 191 113 76 193 112 76 193 112 76 194 112 76 195 112 76 196 112 76 197 112 76 198 112 76 199 112 76 199 111 76 200 111 75 201 111 75 202 111 75 203 111 75 204 111 75 204 111 75 206 110 75 207 110 75 208 110 75 208 110 75 209 110 74 210 110 74 211 109 74 212 109 74 213 109 74 213 109 74 214 109 74 215 109 74 216 109 74 217 109 74 217 108 74 219 108 73 220 108 73 221 108 73 221 108 73 222 108 73 223 108 73 224 107 73 224 107 73 225 107 73 226 107 73 227 107 72 228 107 72 228 107 72 229 107 72 230 106 72 231 106 72 232 106 72 233 106 72 234 106 72 234 106 72 235 106 72 236 105 71 237 105 71 238 105 71 238 105 71 239 105 71 240 105 71 241 105 71 241 105 71 242 104 71 244 104 71 244 104 71 245 104 71 246 104 70 246 104 70 247 104 70 248 104 70 249 103 70 249 103 70 250 103 70 251 103 70 252 103 70 252 103 70 253 103 70 255 103 70
0 126 84 1 126 84 2 126 84 3 126 84 4 126 84 6 126 84 7 126 84 8 126 84 9 126 84 10 126 84 12 126 84 13 126 84 14 126 84 15 126 84 16 126 84 19 126 84 20 126 84 21 126 84 22 126 84 24 126 84 25 126 84 26 126 84 27 126 84 28 126 84 30 126 84 31 126 84 32 126 84 33 126 84 35 126 84 36 126 84 38 126 84 39 126 84 41 126 84 42 126 84 43 126 84 44 126 84 45 126 84 47 126 84 48 126 84 49 126 84 50 126 84 51 126 84 53 126 84 54 126 84 55 126 84 57 126 84 59 126 84 60 126 84 61 126 84 62 126 84 64 126 84 65 126 84 66 126 84 67 126 84 68 126 84 70 126 84 71 126 84 72 126 84 73 126 84 74 126 84 77 126 84 78 126 84 79 126 84 80 126 84 82 126 84 83 126 84 84 126 84 85 126 84 86 126 84 88 126 84 89 126 84 90 126 84 91 126 84 93 126 84 94 126 84 96 126 84 97 126 84 99 126 84 100 126 84 101 126 84 102 126 84 103 126 84 36 48 121 36 48 121 36 48 121 36 48 121 36 48 121 36 48 121 36 48 121 36 48 121 36 48 121 36 48 121 36 48 121 36 48 121 36 48 121 36 48 121 36 48 121 36 48 121 36 48 121 36 48 121 36 48 121 36 48 121 36 48 121 36 48 121 36 48 121 36 48 121 36 48 121 36 48 121 36 48 121 36 48 121 36 48 121 36 48 121 36 48 121 36 48 121 36 48 121 36 48 121 36 48 121 36 48 121 36 48 121 36 48 121 36 48 121 36 48 121 36 48 121 36 48 121 36 48 121 36 48 121 36 48 121 36 48 121 36 48 121 36 48 121 36 48 121 36 48 121 36 48 121 36 48 121 36 48 121 36 48 121 36 48 121 36 48 121 36 48 121 36 48 121 36 48 121 36 48 121 36 48 121 36 48 121 36 48 121 36 48 121 36 48 121 36 48 121 36 48 121 36 48 121 36 48 121 36 48 121 36 48 121 36 48 121 36 48 121 36 48 121 36 48 121 36 48 121 36 48 121 187 116 77 187 116 77 188 115 77 189 115 77 190 115 77 191 115 76 193 115 76 193 115 76 194 114 76 195 114 76 196 114 76 197 114 76 198 114 76 199 114 76 199 114 76 200 113 75 201 113 75 202 113 75 203 113 75 204 113 75 204 113 75 206 112 75 207 112 75 208 112 75 208 112 75 209 112 74 210 112 74 211 112 74 212 111 74 213 111 74 213 111 74 214 111 74 215 111 74 216 111 74 217 111 74 217 111 74 219 110 73 220 110 73 221 110 73 221 110 73 222 110 73 223 110 73 224 109 73 224 109 73 225 109 73 226 109 73 227 109 72 228 109 72 228 109 72 229 109 72 230 108 72 231 108 72 232 108 72 233 108 72 234 108 72 234 108 72 235 108 72 236 107 71 237 107 71 238 107 71 238 107 71 239 107 71 240 107 71 241 107 71 241 107 71 242 106 71 244 106 71 244 106 71 245 106 71 246 106 70 246 106 70 247 106 70 248 106 70 249 105 70 249 105 70 250 105 70 251 105 70 252 105 70 252 105 70 253 105 70 255 105 70
0 127 84 1 127 84 2 127 84 3 127 84 4 127 84 6 127 84 7 127 84 8 127 84 9 127 84 10 127 84 12 127 84 13 127 84 14 127 84 15 127 84 16 127 84 19 127 84 20 127 84 21 127 84 22 127 84 24 127 84 25 127 84 26 127 84 27 127 84 28 127 84 30 127 84 31 127 84 32 127 84 33 127 84 34 127 84 36 127 84 38 127 84 39 127 84 41 127 84 42 127 84 43 127 84 44 127 84 45 127 84 47 127 84 48 127 84 49 127 84 50 127 84 51 127 84 53 127 84 54 127 84 55 127 84 57 127 84 59 127 84 60 127 84 61 127 84 62 127 84 63 127 84 65 127 84 66 127 84 67 127 84 68 127 84 69 127 84 71 127 84 72 127 84 73 127 84 74 127 84 77 127 84 78 127 84 79 127 84 80 127 84 82 127 84 83 127 84 84 127 84 85 127 84 86 127 84 88 127 84 89 127 84 90 127 84 91 127 84 92 127 84 94 127 84 96 127 84 97 127 84 98 127 84 100 127 84 101 127 84 102 127 84 36 48 121 36 48 121 36 48 121 36 48 121 36 48 121 36 48 121 36 48 121 36 48 121 36 48 121 36 48 121 36 48 121 36 48 121 36 48 121 36 48 121 36 48 121 36 48 121 36 48 121 36 48 121 36 48 121 36 48 121 36 48 121 36 48 121 36 48 121 36 48 121 36 48 121 36 48 121 36 48 121 36 48 121 36 48 121 36 48 121 36 48 121 36 48 121 36 48 121 36 48 121 36 48 121 36 48 121 36 48 121 36 48 121 36 48 121 36 48 121 36 48 121 36 48 121 36 48 121 36 48 121 36 48 121 36 48 121 36 48 121 36 48 121 36 48 121 36 48 121 36 48 121 36 48 121 36 48 121 36 48 121 36 48 121 36 48 121 36 48 121 36 48 121 36 48 121 36 48 121 36 48 121 36 48 121 36 48 121 36 48 121 36 48 121 36 48 121 36 48 121 36 48 121 36 48 121 36 48 121 36 48 121 36 48 121 36 48 121 36 48 121 36 48 121 36 48 121 36 48 121 36 48 121 36 48 121 187 117 77 188 117 77 189 116 77 190 116 77 191 116 76 193 116 76 193 116 76 194 115 76 195 115 76 196 115 76 197 115 76 198 115 76 199 115 76 199 115 76 200 114 75 201 114 75 202 114 75 203 114 75 204 114 75 204 114 75 206 114 75 207 113 75 208 113 75 208 113 75 209 113 74 210 113 74 211 113 74 212 113 74 213 112 74 213 112 74 214 112 74 215 112 74 216 112 74 217 112 74 217 112 74 219 111 73 220 111 73 221 111 73 221 111 73 222 111 73 223 111 73 224 111 73 224 110 73 225 110 73 226 110 73 227 110 72 228 110 72 228 110 72 229 110 72 230 110 72 231 109 72 232 109 72 233 109 72 234 109 72 234 109 72 235 109 72 236 108 71 237 108 71 238 108 71 238 108 71 239 108 71 240 108 71 241 108 71 241 108 71 242 108 71 244 107 71 244 107 71 245 107 71 246 107 70 246 107 70 247 107 70 248 107 70 249 106 70 249 106 70 250 106 70 251 106 70 252 106 70 252 106 70 253 106 70 255 106 70
0 129 84 1 129 84 2 129 84 3 129 84 4 129 84 6 129 84 7 129 84 8 129 84 9 129 84 10 129 84 12 129 84 13 129 84 14 129 84 15 129 84 16 129 84 19 129 84 20 129 84 21 129 84 22 129 84 24 129 84 25 129 84 26 129 84 27 129 84 28 129 84 30 129 84 31 129 84 32 129 84 33 129 84 34 129 84 36 129 84 38 129 84 39 129 84 40 129 84 42 129 84 43 129 84 44 129 84 45 129 84 46 129 84 48 129 84 49 129 84 50 129 84 51 129 84 52 129 84 54 129 84 55 129 84 57 129 84 58 129 84 60 129 84 61 129 84 62 129 84 63 129 84 64 129 84 66 129 84 67 129 84 68 129 84 69 129 84 70 129 84 72 129 84 73 129 84 74 129 84 76 129 84 78 129 84 79 129 84 80 129 84 81 129 84 83 129 84 84 129 84 85 129 84 86 129 84 87 129 84 89 129 84 90 129 84 91 129 84 92 129 84 93 129 84 96 129 84 97 129 84 98 129 84 99 129 84 101 129 84 102 129 84 36 48 121 36 48 121 36 48 121 36 48 121 36 48 121 36 48 121 36 48 121 36 48 121 36 48 121 36 48 121 36 48 121 36 48 121 36 48 121 36 48 121 36 48 121 36 48 121 36 48 121 36 48 121 36 48 121 36 48 121 36 48 121 36 48 121 36 48 121 36 48 121 36 48 121 36 48 121 36 48 121 36 48 121 36 48 121 36 48 121 36 48 121 36 48 121 36 48 121 36 48 121 36 48 121 36 48 121 36 48 121 36 48 121 36 48 121 36 48 121 36 48 121 36 48 121 36 48 121 36 48 121 36 48 121 36 48 121 36 48 121 36 48 121 36 48 121 36 48 121 36 48 121 36 48 121 36 48 121 36 48 121 36 48 121 36 48 121 36 48 121 36 48 121 36 48 121 36 48 121 36 48 121 36 48 121 36 48 121 36 48 121 36 48 121 36 48 121 36 48 121 36 48 121 36 48 121 36 48 121 36 48 121 36 48 121 36 48 121 36 48 121 36 48 121 36 48 121 36 48 121 36 48 121 36 48 121 187 119 77 188 119 77 189 119 77 190 118 77 191 118 76 193 118 76 193 118 76 194 118 76 195 118 76 196 117 76 197 117 76 198 117 76 199 117 76 199 117 76 200 117 75 201 117 75 202 116 75 203 116 75 204 116 75 204 116 75 206 116 75 207 116 75 208 115 75 208 115 75 209 115 74 210 115 74 211 115 74 212 115 74 213 115 74 213 114 74 214 114 74 215 114 74 216 114 74 217 114 74 217 114 74 219 113 73 220 113 73 221 113 73 221 113 73 222 113 73 223 113 73 224 113 73 224 112 73 225 112 73 226 112 73 227 112 72 228 112 72 228 112 72 229 112 72 230 112 72 231 111 72 232 111 72 233 111 72 234 111 72 234 111 72 235 111 72 236 111 71 237 110 71 238 110 71 238 110 71 239 110 71 240 110 71 241 110 71 241 110 71 242 110 71 244 109 71 244 109 71 245 109 71 246 109 70 246 109 70 247 109 70 248 109 70 249 108 70 249 108 70 250 108 70 251 108 70 252 108 70 252 108 70 253 108 70 255 108 70
0 130 84 1 130 84 2 130 84 3 130 84 4 130 84 6 130 84 7 130 84 8 130 84 9 130 84 10 130 84 12 130 84 13 130 84 14 130 84 15 130 84 16 130 84 19 130 84 20 130 84 21 130 84 22 130 84 24 130 84 25 130 84 26 130 84 27 130 84 28 130 84 30 130 84 31 130 84 32 130 84 33 130 84 34 130 84 36 130 84 38 130 84 39 130 84 40 130 84 42 130 84 43 130 84 44 130 84 45 130 84 46 130 84 48 130 84 49 130 84 50 130 84 51 130 84 52 130 84 54 130 84 55 130 84 57 130 84 58 130 84 60 130 84 61 130 84 62 130 84 63 130 84 64 130 84 66 130 84 67 130 84 68 130 84 69 130 84 70 130 84 72 130 84 73 130 84 74 130 84 76 130 84 78 130 84 79 130 84 80 130 84 81 130 84 82 130 84 84 130 84 85 130 84 86 130 84 87 130 84 88 130 84 90 130 84 91 130 84 92 130 84 93 130 84 96 130 84 97 130 84 98 130 84 99 130 84 100 130 84 102 130 84 36 48 121 36 48 121 36 48 121 36 48 121 36 48 121 36 48 121 36 48 121 36 48 121 36 48 121 36 48 121 36 48 121 36 48 121 36 48 121 36 48 121 36 48 121 36 48 121 36 48 121 36 48 121 36 48 121 36 48 121 36 48 121 36 48 121 36 48 121 36 48 121 36 48 121 36 48 121 36 48 121 36 48 121 36 48 121 36 48 121 36 48 121 36 48 121 36 48 121 36 48 121 36 48 121 36 48 121 36 48 121 36 48 121 36 48 121 36 48 121 36 48 121 36 48 121 36 48 121 36 48 121 36 48 121 36 48 121 36 48 121 36 48 121 36 48 121 36 48 121 36 48 121 36 48 121 36 48 121 36 48 121 36 48 121 36 48 121 36 48 121 36 48 121 36 48 121 36 48 121 36 48 121 36 48 121 36 48 121 36 48 121 36 48 121 36 48 121 36 48 121 36 48 121 36 48 121 36 48 121 36 48 121 36 48 121 36 48 121 36 48 121 36 48 121 36 48 121 36 48 121 36 48 121 36 48 121 187 120 77 188 120 77 189 120 77 190 120 77 191 119 76 193 119 76 193 119 76 194 119 76 195 119 76 196 118 76 197 118 76 198 118 76 199 118 76 199 118 76 200 118 75 201 118 75 202 117 75 203 117 75 204 117 75 204 117 75 206 117 75 207 117 75 208 116 75 208 116 75 209 116 74 210 116 74 211 116 74 212 116 74 213 116 74 213 115 74 214 115 74 215 115 74 216 115 74 217 115 74 217 115 74 219 114 73 220 114 73 221 114 73 221 114 73 222 114 73 223 114 73 224 114 73 224 114 73 225 113 73 226 113 73 227 113 72 228 113 72 228 113 72 229 113 72 230 113 72 231 112 72 232 112 72 233 112 72 234 112 72 234 112 72 235 112 72 236 112 71 237 111 71 238 111 71 238 111 71 239 111 71 240 111 71 241 111 71 241 111 71 242 111 71 244 110 71 244 110 71 245 110 71 246 110 70 246 110 70 247 110 70 248 110 70 249 109 70 249 109 70 250 109 70 251 109 70 252 109 70 252 109 70 253 109 70 255 109 70
0 132 83 1 132 83 2 132 83 3 132 83 4 132 83 5 132 83 7 132 83 8 132 83 9 132 83 10 132 83 11 132 83 13 132 83 14 132 83 15 132 83 16 132 83 19 132 83 20 132 83 21 132 83 22 132 83 23 132 83 25 132 83 26 132 83 27 132 83 28 132 83 29 132 83 31 132 83 32 132 83 33 132 83 34 132 83 35 132 83 38 132 83 39 132 83 40 132 83 41 132 83 43 132 83 44 132 83 45 132 83 46 132 83 47 132 83 49 132 83 50 132 83 51 132 83 52 132 83 53 132 83 55 132 83 57 132 83 58 132 83 59 132 83 61 132 83 62 132 83 63 132 83 64 132 83 65 132 83 67 132 83 68 132 83 69 132 83 70 132 83 71 132 83 73 132 83 74 132 83 76 132 83 77 132 83 79 132 83 80 132 83 81 132 83 82 132 83 83 132 83 85 132 83 86 132 83 87 132 83 88 132 83 89 132 83 91 132 83 92 132 83 93 132 83 95 132 83 97 132 83 98 132 83 99 132 83 100 132 83 36 48 121 36 48 121 36 48 121 36 48 121 36 48 121 36 48 121 36 48 121 36 48 121 36 48 121 36 48 121 36 48 121 36 48 121 36 48 121 36 48 121 36 48 121 36 48 121 36 48 121 36 48 121 36 48 121 36 48 121 36 48 121 36 48 121 36 48 121 36 48 121 36 48 121 36 48 121 36 48 121 36 48 121 36 48 121 36 48 121 36 48 121 36 48 121 36 48 121 36 48 121 36 48 121 36 48 121 36 48 121 36 48 121 36 48 121 36 48 121 36 48 121 36 48 121 36 48 121 36 48 121 36 48 121 36 48 121 36 48 121 36 48 121 36 48 121 36 48 121 36 48 121 36 48 121 36 48 121 36 48 121 36 48 121 36 48 121 36 48 121 36 48 121 36 48 121 36 48 121 36 48 121 36 48 121 36 48 121 36 48 121 36 48 121 36 48 121 36 48 121 36 48 121 36 48 121 36 48 121 36 48 121 36 48 121 36 48 121 36 48 121 36 48 121 36 48 121 36 48 121 36 48 121 36 48 121 36 48 121 36 48 121 188 122 77 189 122 77 190 122 77 191 122 76 193 121 76 193 121 76 194 121 76 195 121 76 196 121 76 197 121 76 198 120 76 199 120 76 199 120 76 200 120 75 201 120 75 202 120 75 203 119 75 204 119 75 204 119 75 206 119 75 207 119 75 208 119 75 208 118 75 209 118 74 210 118 74 211 118 74 212 118 74 213 118 74 213 118 74 214 117 74 215 117 74 216 117 74 217 117 74 217 117 74 219 117 73 220 116 73 221 116 73 221 116 73 222 116 73 223 116 73 224 116 73 224 116 73 225 116 73 226 115 73 227 115 72 228 115 72 228 115 72 229 115 72 230 115 72 231 114 72 232 114 72 233 114 72 234 114 72 234 114 72 235 114 72 236 114 71 237 114 71 238 113 71 238 113 71 239 113 71 240 113 71 241 113 71 241 113 71 242 113 71 244 112 71 244 112 71 245 112 71 246 112 70 246 112 70 247 112 70 248 112 70 249 111 70 249 111 70 250 111 70 251 111 70 252 111 70 252 111 70 253 111 70 255 111 70
0 133 83 1 133 83 2 133 83 3 133 83 4 133 83 5 133 83 7 133 83 8 133 83 9 133 83 10 133 83 11 133 83 13 133 83 14 133 83 15 133 83 16 133 83 19 133 83 20 133 83 21 133 83 22 133 83 23 133 83 25 133 83 26 133 83 27 133 83 28 133 83 29 133 83 31 133 83 32 133 83 33 133 83 34 133 83 35 133 83 38 133 83 39 133 83 40 133 83 41 133 83 43 133 83 44 133 83 45 133 83 46 133 83 47 133 83 49 133 83 50 133 83 51 133 83 52 133 83 53 133 83 55 133 83 57 133 83 58 133 83 59 133 83 60 133 83 62 133 83 63 133 83 64 133 83 65 133 83 66 133 83 68 133 83 69 133 83 70 133 83 71 133 83 72 133 83 74 133 83 76 133 83 77 133 83 78 133 83 80 133 83 81 133 83 82 133 83 83 133 83 84 133 83 86 133 83 87 133 83 88 133 83 89 133 83 90 133 83 92 133 83 93 133 83 95 133 83 96 133 83 98 133 83 99 133 83 100 133 83 36 48 121 36 48 121 36 48 121 36 48 121 36 48 121 36 48 121 36 48 121 36 48 121 36 48 121 36 48 121 36 48 121 36 48 121 36 48 121 36 48 121 36 48 121 36 48 121 36 48 121 36 48 121 36 48 121 36 48 121 36 48 121 36 48 121 36 48 121 36 48 121 36 48 121 36 48 121 36 48 121 36 48 121 36 48 121 36 48 121 36 48 121 36 48 121 36 48 121 36 48 121 36 48 121 36 48 121 36 48 121 36 48 121 36 48 121 36 48 121 36 48 121 36 48 121 36 48 121 36 48 121 36 48 121 36 48 121 36 48 121 36 48 121 36 48 121 36 48 121 36 48 121 36 48 121 36 48 121 36 48 121 36 48 121 36 48 121 36 48 121 36 48 121 36 48 121 36 48 121 36 48 121 36 48 121 36 48 121 36 48 121 36 48 121 36 48 121 36 48 121 36 48 121 36 48 121 36 48 121 36 48 121 36 48 121 36 48 121 36 48 121 36 48 121 36 48 121 36 48 121 36 48 121 36 48 121 36 48 121 36 48 121 188 123 77 189 123 77 190 123 77 191 123 76 193 122 76 193 122 76 194 122 76 195 122 76 196 122 76 197 122 76 198 121 76 199 121 76 199 121 76 200 121 75 201 121 75 202 121 75 203 121 75 204 120 75 204 120 75 206 120 75 207 120 75 208 120 75 208 120 75 209 119 74 210 119 74 211 119 74 212 119 74 213 119 74 213 119 74 214 119 74 215 118 74 216 118 74 217 118 74 217 118 74 219 118 73 220 118 73 221 117 73 221 117 73 222 117 73 223 117 73 224 117 73 224 117 73 225 117 73 226 116 73 227 116 72 228 116 72 228 116 72 229 116 72 230 116 72 231 115 72 232 115 72 233 115 72 234 115 72 234 115 72 235 115 72 236 115 71 237 115 71 238 114 71 238 114 71 239 114 71 240 114 71 241 114 71 241 114 71 242 114 71 244 113 71 244 113 71 245 113 71 246 113 70 246 113 70 247 113 70 248 113 70 249 112 70 249 112 70 250 112 70 251 112 70 252 112 70 252 112 70 253 112 70 255 112 70
0 134 83 1 134 83 2 134 83 3 134 83 4 134 83 5 134 83 7 134 83 8 134 83 9 134 83 10 134 83 11 134 83 13 134 83 14 134 83 15 134 83 16 134 83 19 134 83 20 134 83 21 134 83 22 134 83 23 134 83 25 134 83 26 134 83 27 134 83 28 134 83 29 134 83 31 134 83 32 134 83 33 134 83 34 134 83 35 134 83 38 134 83 39 134 83 40 134 83 41 134 83 42 134 83 44 134 83 45 134 83 46 134 83 47 134 83 48 134 83 50 134 83 51 134 83 52 134 83 53 134 83 54 134 83 57 134 83 58 134 83 59 134 83 60 134 83 62 134 83 63 134 83 64 134 83 65 134 83 66 134 83 68 134 83 69 134 83 70 134 83 71 134 83 72 134 83 74 134 83 76 134 83 77 134 83 78 134 83 80 134 83 81 134 83 82 134 83 83 134 83 84 134 83 85 134 83 87 134 83 88 134 83 89 134 83 90 134 83 91 134 83 93 134 83 95 134 83 96 134 83 97 134 83 99 134 83 100 134 83 36 48 121 36 48 121 36 48 121 36 48 121 36 48 121 36 48 121 36 48 121 36 48 121 36 48 121 36 48 121 36 48 121 36 48 121 36 48 121 36 48 121 36 48 121 36 48 121 36 48 121 36 48 121 36 48 121 36 48 121 36 48 121 36 48 121 36 48 121 36 48 121 36 48 121 36 48 121 36 48 121 36 48 121 36 48 121 36 48 121 36 48 121 36 48 121 36 48 121 36 48 121 36 48 121 36 48 121 36 48 121 36 48 121 36 48 121 36 48 121 36 48 121 36 48 121 36 48 121 36 48 121 36 48 121 36 48 121 36 48 121 36 48 121 36 48 121 36 48 121 36 48 121 36 48 121 36 48 121 36 48 121 36 48 121 36 48 121 36 48 121 36 48 121 36 48 121 36 48 121 36 48 121 36 48 121 36 48 121 36 48 121 36 48 121 36 48 121 36 48 121 36 48 121 36 48 121 36 48 121 36 48 121 36 48 121 36 48 121 36 48 121 36 48 121 36 48 121 36 48 121 36 48 121 36 48 121 36 48 121 36 48 121 188 124 77 189 124 77 190 124 77 191 124 76 193 123 76 193 123 76 194 123 76 195 123 76 196 123 76 197 123 76 198 123 76 199 122 76 199 122 76 200 122 75 201 122 75 202 122 75 203 122 75 204 121 75 204 121 75 206 121 75 207 121 75 208 121 75 208 121 75 209 120 74 210 120 74 211 120 74 212 120 74 213 120 74 213 120 74 214 120 74 215 119 74 216 119 74 217 119 74 217 119 74 219 119 73 220 119 73 221 118 73 221 118 73 222 118 73 223 118 73 224 118 73 224 118 73 225 118 73 226 117 73 227 117 72 228 117 72 228 117 72 229 117 72 230 117 72 231 117 72 232 116 72 233 116 72 234 116 72 234 116 72 235 116 72 236 116 71 237 116 71 238 115 71 238 115 71 239 115 71 240 115 71 241 115 71 241 115 71 242 115 71 244 114 71 244 114 71 245 114 71 246 114 70 246 114 70 247 114 70 248 114 70 249 113 70 249 113 70 250 113 70 251 113 70 252 113 70 252 113 70 253 113 70 255 113 70
0 136 83 1 136 83 2 136 83 3 136 83 4 136 83 5 136 83 7 136 83 8 136 83 9 136 83 10 136 83 11 136 83 13 136 83 14 136 83 15 136 83 16 136 83 19 136 83 20 136 83 21 136 83 22 136 83 23 136 83 25 136 83 26 136 83 27 136 83 28 136 83 29 136 83 30 136 83 32 136 83 33 136 83 34 136 83 35 136 83 38 136 83 39 136 83 40 136 83 41 136 83 42 136 83 44 136 83 45 136 83 46 136 83 47 136 83 48 136 83 50 136 83 51 136 83 52 136 83 53 136 83 54 136 83 57 136 83 58 136 83 59 136 83 60 136 83 61 136 83 63 136 83 64 136 83 65 136 83 66 136 83 67 136 83 69 136 83 70 136 83 71 136 83 72 136 83 73 136 83 76 136 83 77 136 83 78 136 83 79 136 83 80 136 83 82 136 83 83 136 83 84 136 83 85 136 83 86 136 83 88 136 83 89 136 83 90 136 83 91 136 83 92 136 83 95 136 83 96 136 83 97 136 83 98 136 83 36 48 121 36 48 121 36 48 121 36 48 121 36 48 121 36 48 121 36 48 121 36 48 121 36 48 121 36 48 121 36 48 121 36 48 121 36 48 121 36 48 121 36 48 121 36 48 121 36 48 121 36 48 121 36 48 121 36 48 121 36 48 121 36 48 121 36 48 121 36 48 121 36 48 121 36 48 121 36 48 121 36 48 121 36 48 121 36 48 121 36 48 121 36 48 121 36 48 121 36 48 121 36 48 121 36 48 121 36 48 121 36 48 121 36 48 121 36 48 121 36 48 121 36 48 121 36 48 121 36 48 121 36 48 121 36 48 121 36 48 121 36 48 121 36 48 121 36 48 121 36 48 121 36 48 121 36 48 121 36 48 121 36 48 121 36 48 121 36 48 121 36 48 121 36 48 121 36 48 121 36 48 121 36 48 121 36 48 121 36 48 121 36 48 121 36 48 121 36 48 121 36 48 121 36 48 121 36 48 121 36 48 121 36 48 121 36 48 121 36 48 121 36 48 121 36 48 121 36 48 121 36 48 121 36 48 121 36 48 121 36 48 121 36 48 121 36 48 121 189 126 77 190 126 77 191 126 76 193 126 76 193 126 76 194 125 76 195 125 76 196 125 76 197 125 76 198 125 76 199 125 76 199 124 76 200 124 75 201 124 75 202 124 75 203 124 75 204 124 75 204 123 75 206 123 75 207 123 75 208 123 75 208 123 75 209 123 74 210 122 74 211 122 74 212 122 74 213 122 74 213 122 74 214 122 74 215 122 74 216 121 74 217 121 74 217 121 74 219 121 73 220 121 73 221 121 73 221 120 73 222 120 73 223 120 73 224 120 73 224 120 73 225 120 73 226 120 73 227 119 72 228 119 72 228 119 72 229 119 72 230 119 72 231 119 72 232 118 72 233 118 72 234 118 72 234 118 72 235 118 72 236 118 71 237 118 71 238 117 71 238 117 71 239 117 71 240 117 71 241 117 71 241 117 71 242 117 71 244 116 71 244 116 71 245 116 71 246 116 70 246 116 70 247 116 70 248 116 70 249 116 70 249 115 70 250 115 70 251 115 70 252 115 70 252 115 70 253 115 70 255 114 70
0 137 83 1 137 83 2 137 83 3 137 83 4 137 83 5 137 83 7 137 83 8 137 83 9 137 83 10 137 83 11 137 83 13 137 83 14 137 83 15 137 83 16 137 83 19 137 83 20 137 83 21 137 83 22 137 83 23 137 83 24 137 83 26 137 83 27 137 83 28 137 83 29 137 83 30 137 83 32 137 83 33 137 83 34 137 83 35 137 83 38 137 83 39 137 83 40 137 83 41 137 83 42 137 83 43 137 83 45 137 83 46 137 83 47 137 83 48 137 83 49 137 83 51 137 83 52 137 83 53 137 83 54 137 83 57 137 83 58 137 83 59 137 83 60 137 83 61 137 83 63 137 83 64 137 83 65 137 83 66 137 83 67 137 83 68 137 83 70 137 83 71 137 83 72 137 83 73 137 83 76 137 83 77 137 83 78 137 83 79 137 83 80 137 83 82 137 83 83 137 83 84 137 83 85 137 83 86 137 83 87 137 83 89 137 83 90 137 83 91 137 83 92 137 83 95 137 83 96 137 83 97 137 83 98 137 83 36 48 121 36 48 121 36 48 121 36 48 121 36 48 121 36 48 121 36 48 121 36 48 121 36 48 121 36 48 121 36 48 121 36 48 121 36 48 121 36 48 121 36 48 121 36 48 121 36 48 121 36 48 121 36 48 121 36 48 121 36 48 121 36 48 121 36 48 121 36 48 121 36 48 121 36 48 121 36 48 121 36 48 121 36 48 121 36 48 121 36 48 121 36 48 121 36 48 121 36 48 121 36 48 121 36 48 121 36 48 121 36 48 121 36 48 121 36 48 121 36 48 121 36 48 121 36 48 121 36 48 121 36 48 121 36 48 121 36 48 121 36 48 121 36 48 121 36 48 121 36 48 121 36 48 121 36 48 121 36 48 121 36 48 121 36 48 121 36 48 121 36 48 121 36 48 121 36 48 121 36 48 121 36 48 121 36 48 121 36 48 121 36 48 121 36 48 121 36 48 121 36 48 121 36 48 121 36 48 121 36 48 121 36 48 121 36 48 121 36 48 121 36 48 121 36 48 121 36 48 121 36 48 121 36 48 121 36 48 121 36 48 121 36 48 121 36 48 121 189 127 77 190 127 77 191 127 76 193 127 76 193 127 76 194 126 76 195 126 76 196 126 76 197 126 76 198 126 76 199 126 76 199 125 76 200 125 75 201 125 75 202 125 75 203 125 75 204 125 75 204 125 75 206 124 75 207 124 75 208 124 75 208 124 75 209 124 74 210 123 74 211 123 74 212 123 74 213 123 74 213 123 74 214 123 74 215 123 74 216 122 74 217 122 74 217 122 74 219 122 73 220 122 73 221 122 73 221 121 73 222 121 73 223 121 73 224 121 73 224 121 73 225 121 73 226 121 73 227 120 72 228 120 72 228 120 72 229 120 72 230 120 72 231 120 72 232 119 72 233 119 72 234 119 72 234 119 72 235 119 72 236 119 71 237 119 71 238 119 71 238 118 71 239 118 71 240 118 71 241 118 71 241 118 71 242 118 71 244 117 71 244 117 71 245 117 71 246 117 70 246 117 70 247 117 70 248 117 70 249 117 70 249 116 70 250 116 70 251 116 70 252 116 70 252 116 70 253 116 70 255 115 70
0 139 82 1 139 82 2 139 82 3 139 82 4 139 82 5 139 82 7 139 82 8 139 82 9 139 82 10 139 82 11 139 82 13 139 82 14 139 82 15 139 82 16 139 82 18 139 82 20 139 82 21 139 82 22 139 82 23 139 82 24 139 82 26 139 82 27 139 82 28 139 82 29 139 82 30 139 82 32 139 82 33 139 82 34 139 82 35 139 82 37 139 82 39 139 82 40 139 82 41 139 82 42 139 82 43 139 82 45 139 82 46 139 82 47 139 82 48 139 82 49 139 82 50 139 82 52 139 82 53 139 82 54 139 82 56 139 82 58 139 82 59 139 82 60 139 82 61 139 82 62 139 82 64 139 82 65 139 82 66 139 82 67 139 82 68 139 82 69 139 82 71 139 82 72 139 82 73 139 82 75 139 82 77 139 82 78 139 82 79 139 82 80 139 82 81 139 82 82 139 82 84 139 82 85 139 82 86 139 82 87 139 82 88 139 82 90 139 82 91 139 82 92 139 82 94 139 82 96 139 82 97 139 82 98 139 82 36 48 121 36 48 121 36 48 121 36 48 121 36 48 121 36 48 121 36 48 121 36 48 121 36 48 121 36 48 121 36 48 121 36 48 121 36 48 121 36 48 121 36 48 121 36 48 121 36 48 121 36 48 121 36 48 121 36 48 121 36 48 121 36 48 121 36 48 121 36 48 121 36 48 121 36 48 121 36 48 121 36 48 121 36 48 121 36 48 121 36 48 121 36 48 121 36 48 121 36 48 121 36 48 121 36 48 121 36 48 121 36 48 121 36 48 121 36 48 121 36 48 121 36 48 121 36 48 121 36 48 121 36 48 121 36 48 121 36 48 121 36 48 121 36 48 121 36 48 121 36 48 121 36 48 121 36 48 121 36 48 121 36 48 121 36 48 121 36 48 121 36 48 121 36 48 121 36 48 121 36 48 121 36 48 121 36 48 121 36 48 121 36 48 121 36 48 121 36 48 121 36 48 121 36 48 121 36 48 121 36 48 121 36 48 121 36 48 121 36 48 121 36 48 121 36 48 121 36 48 121 36 48 121 36 48 121 36 48 121 36 48 121 36 48 121 36 48 121 189 130 77 190 129 77 191 129 76 193 129 76 193 129 76 194 129 76 195 128 76 196 128 76 197 128 76 198 128 76 199 128 76 199 128 76 200 128 75 201 127 75 202 127 75 203 127 75 204 127 75 204 127 75 206 126 75 207 126 75 208 126 75 208 126 75 209 126 74 210 126 74 211 125 74 212 125 74 213 125 74 213 125 74 214 125 74 215 125 74 216 125 74 217 124 74 217 124 74 219 124 73 220 124 73 221 124 73 221 124 73 222 123 73 223 123 73 224 123 73 224 123 73 225 123 73 226 123 73 227 123 72 228 122 72 228 122 72 229 122 72 230 122 72 231 122 72 232 122 72 233 121 72 234 121 72 234 121 72 235 121 72 236 121 71 237 121 71 238 121 71 238 120 71 239 120 71 240 120 71 241 120 71 241 120 71 242 120 71 244 119 71 244 119 71 245 119 71 246 119 70 246 119 70 247 119 70 248 119 70 249 119 70 249 118 70 250 118 70 251 118 70 252 118 70 252 118 70 253 118 70 255 118 70
0 140 82 1 140 82 2 140 82 3 140 82 4 140 82 5 140 82 7 140 82 8 140 82 9 140 82 10 140 82 11 140 82 13 140 82 14 140 82 15 140 82 16 140 82 18 140 82 20 140 82 21 140 82 22 140 82 23 140 82 24 140 82 26 140 82 27 140 82 28 140 82 29 140 82 30 140 82 31 140 82 33 140 82 34 140 82 35 140 82 37 140 82 39 140 82 40 140 82 41 140 82 42 140 82 43 140 82 44 140 82 46 140 82 47 140 82 48 140 82 49 140 82 50 140 82 52 140 82 53 140 82 54 140 82 56 140 82 58 140 82 59 140 82 60 140 82 61 140 82 62 140 82 63 140 82 65 140 82 66 140 82 67 140 82 68 140 82 69 140 82 71 140 82 72 140 82 73 140 82 75 140 82 76 140 82 78 140 82 79 140 82 80 140 82 81 140 82 82 140 82 84 140 82 85 140 82 86 140 82 87 140 82 88 140 82 89 140 82 91 140 82 92 140 82 94 140 82 95 140 82 97 140 82 98 140 82 36 48 121 36 48 121 36 48 121 36 48 121 36 48 121 36 48 121 36 48 121 36 48 121 36 48 121 36 48 121 36 48 121 36 48 121 36 48 121 36 48 121 36 48 121 36 48 121 36 48 121 36 48 121 36 48 121 36 48 121 36 48 121 36 48 121 36 48 121 36 48 121 36 48 121 36 48 121 36 48 121 36 48 121 36 48 121 36 48 121 36 48 121 36 48 121 36 48 121 36 48 121 36 48 121 36 48 121 36 48 121 36 48 121 36 48 121 36 48 121 36 48 121 36 48 121 36 48 121 36 48 121 36 48 121 36 48 121 36 48 121 36 48 121 36 48 121 36 48 121 36 48 121 36 48 121 36 48 121 36 48 121 36 48 121 36 48 121 36 48 121 36 48 121 36 48 121 36 48 121 36 48 121 36 48 121 36 48 121 36 48 121 36 48 121 36 48 121 36 48 121 36 48 121 36 48 121 36 48 121 36 48 121 36 48 121 36 48 121 36 48 121 36 48 121 36 48 121 36 48 121 36 48 121 36 48 121 36 48 121 36 48 121 36 48 121 36 48 121 189 131 77 190 131 77 191 130 76 193 130 76 193 130 76 194 130 76 195 130 76 196 129 76 197 129 76 198 129 76 199 129 76 199 129 76 200 129 75 201 128 75 202 128 75 203 128 75 204 128 75 204 128 75 206 127 75 207 127 75 208 127 75 208 127 75 209 127 74 210 127 74 211 127 74 212 126 74 213 126 74 213 126 74 214 126 74 215 126 74 216 126 74 217 125 74 217 125 74 219 125 73 220 125 73 221 125 73 221 125 73 222 124 73 223 124 73 224 124 73 224 124 73 225 124 73 226 124 73 227 124 72 228 123 72 228 123 72 229 123 72 230 123 72 231 123 72 232 123 72 233 122 72 234 122 72 234 122 72 235 122 72 236 122 71 237 122 71 238 122 71 238 121 71 239 121 71 240 121 71 241 121 71 241 121 71 242 121 71 244 120 71 244 120 71 245 120 71 246 120 70 246 120 70 247 120 70 248 120 70 249 120 70 249 119 70 250 119 70 251 119 70 252 119 70 252 119 70 253 119 70 255 119 70
0 142 82 1 142 82 2 142 82 3 142 82 4 142 82 5 142 82 7 142 82 8 142 82 9 142 82 10 142 82 11 142 82 12 142 82 14 142 82 15 142 82 16 142 82 18 142 82 20 142 82 21 142 82 22 142 82 23 142 82 24 142 82 25 142 82 27 142 82 28 142 82 29 142 82 30 142 82 31 142 82 33 142 82 34 142 82 35 142 82 37 142 82 38 142 82 40 142 82 41 142 82 42 142 82 43 142 82 44 142 82 46 142 82 47 142 82 48 142 82 49 142 82 50 142 82 51 142 82 53 142 82 54 142 82 56 142 82 57 142 82 59 142 82 60 142 82 61 142 82 62 142 82 63 142 82 64 142 82 66 142 82 67 142 82 68 142 82 69 142 82 70 142 82 72 142 82 73 142 82 75 142 82 76 142 82 77 142 82 79 142 82 80 142 82 81 142 82 82 142 82 83 142 82 85 142 82 86 142 82 87 142 82 88 142 82 89 142 82 90 142 82 92 142 82 94 142 82 95 142 82 96 142 82 97 142 82 36 48 121 36 48 121 36 48 121 36 48 121 36 48 121 36 48 121 36 48 121 36 48 121 36 48 121 36 48 121 36 48 121 36 48 121 36 48 121 36 48 121 36 48 121 36 48 121 36 48 121 36 48 121 36 48 121 36 48 121 36 48 121 36 48 121 36 48 121 36 48 121 36 48 121 36 48 121 36 48 121 36 48 121 36 48 121 36 48 121 36 48 121 36 48 121 36 48 121 36 48 121 36 48 121 36 48 121 36 48 121 36 48 121 36 48 121 36 48 121 36 48 121 36 48 121 36 48 121 36 48 121 36 48 121 36 48 121 36 48 121 36 48 121 36 48 121 36 48 121 36 48 121 36 48 121 36 48 121 36 48 121 36 48 121 36 48 121 36 48 121 36 48 121 36 48 121 36 48 121 36 48 121 36 48 121 36 48 121 36 48 121 36 48 121 36 48 121 36 48 121 36 48 121 36 48 121 36 48 121 36 48 121 36 48 121 36 48 121 36 48 121 36 48 121 36 48 121 36 48 121 36 48 121 36 48 121 36 48 121 36 48 121 36 48 121 36 48 121 189 133 77 190 133 77 191 133 76 193 132 76 193 132 76 194 132 76 195 132 76 196 132 76 197 131 76 198 131 76 199 131 76 199 131 76 200 131 75 201 131 75 202 130 75 203 130 75 204 130 75 204 130 75 206 130 75 207 129 75 208 129 75 208 129 75 209 129 74 210 129 74 211 129 74 212 129 74 213 128 74 213 128 74 214 128 74 215 128 74 216 128 74 217 128 74 217 127 74 219 127 73 220 127 73 221 127 73 221 127 73 222 127 73 223 126 73 224 126 73 224 126 73 225 126 73 226 126 73 227 126 72 228 126 72 228 125 72 229 125 72 230 125 72 231 125 72 232 125 72 233 124 72 234 124 72 234 124 72 235 124 72 236 124 71 237 124 71 238 124 71 238 124 71 239 123 71 240 123 71 241 123 71 241 123 71 242 123 71 244 123 71 244 122 71 245 122 71 246 122 70 246 122 70 247 122 70 248 122 70 249 122 70 249 121 70 250 121 70 251 121 70 252 121 70 252 121 70 253 121 70 255 121 70
0 143 82 1 143 82 2 143 82 3 143 82 4 143 82 5 143 82 7 143 82 8 143 82 9 143 82 10 143 82 11 143 82 12 143 82 14 143 82 15 143 82 16 143 82 18 143 82 20 143 82 21 143 82 22 143 82 23 143 82 24 143 82 25 143 82 27 143 82 28 143 82 29 143 82 30 143 82 31 143 82 33 143 82 34 143 82 35 143 82 37 143 82 38 143 82 40 143 82 41 143 82 42 143 82 43 143 82 44 143 82 45 143 82 47 143 82 48 143 82 49 143 82 50 143 82 51 143 82 53 143 82 54 143 82 56 143 82 57 143 82 58 143 82 60 143 82 61 143 82 62 143 82 63 143 82 64 143 82 66 143 82 67 143 82 68 143 82 69 143 82 70 143 82 71 143 82 73 143 82 75 143 82 76 143 82 77 143 82 78 143 82 80 143 82 81 143 82 82 143 82 83 143 82 84 143 82 86 143 82 87 143 82 88 143 82 89 143 82 90 143 82 91 143 82 94 143 82 95 143 82 96 143 82 97 143 82 36 48 121 36 48 121 36 48 121 36 48 121 36 48 121 36 48 121 36 48 121 36 48 121 36 48 121 36 48 121 36 48 121 36 48 121 36 48 121 36 48 121 36 48 121 36 48 121 36 48 121 36 48 121 36 48 121 36 48 121 36 48 121 36 48 121 36 48 121 36 48 121 36 48 121 36 48 121 36 48 121 36 48 121 36 48 121 36 48 121 36 48 121 36 48 121 36 48 121 36 48 121 36 48 121 36 48 121 36 48 121 36 48 121 36 48 121 36 48 121 36 48 121 36 48 121 36 48 121 36 48 121 36 48 121 36 48 121 36 48 121 36 48 121 36 48 121 36 48 121 36 48 121 36 48 121 36 48 121 36 48 121 36 48 121 36 48 121 36 48 121 36 48 121 36 48 121 36 48 121 36 48 121 36 48 121 36 48 121 36 48 121 36 48 121 36 48 121 36 48 121 36 48 121 36 48 121 36 48 121 36 48 121 36 48 121 36 48 121 36 48 121 36 48 121 36 48 121 36 48 121 36 48 121 36 48 121 36 48 121 36 48 121 36 48 121 36 48 121 189 134 77 190 134 77 191 134 76 193 133 76 193 133 76 194 133 76 195 133 76 196 133 76 197 133 76 198 132 76 199 132 76 199 132 76 200 132 75 201 132 75 202 132 75 203 131 75 204 131 75 204 131 75 206 131 75 207 131 75 208 130 75 208 130 75 209 130 74 210 130 74 211 130 74 212 130 74 213 129 74 213 129 74 214 129 74 215 129 74 216 129 74 217 129 74 217 129 74 219 128 73 220 128 73 221 128 73 221 128 73 222 128 73 223 127 73 224 127 73 224 127 73 225 127 73 226 127 73 227 127 72 228 127 72 228 126 72 229 126 72 230 126 72 231 126 72 232 126 72 233 126 72 234 125 72 234 125 72 235 125 72 236 125 71 237 125 71 238 125 71 238 125 71 239 124 71 240 124 71 241 124 71 241 124 71 242 124 71 244 124 71 244 123 71 245 123 71 246 123 70 246 123 70 247 123 70 248 123 70 249 123 70 249 122 70 250 122 70 251 122 70 252 122 70 252 122 70 253 122 70 255 122 70
0 144 82 1 144 82 2 144 82 3 144 82 4 144 82 5 144 82 7 144 82 8 144 82 9 144 82 10 144 82 11 144 82 12 144 82 14 144 82 15 144 82 16 144 82 18 144 82 20 144 82 21 144 82 22 144 82 23 144 82 24 144 82 25 144 82 27 144 82 28 144 82 29 144 82 30 144 82 31 144 82 32 144 82 34 144 82 35 144 82 37 144 82 38 144 82 40 144 82 41 144 82 42 144 82 43 144 82 44 144 82 45 144 82 47 144 82 48 144 82 49 144 82 50 144 82 51 144 82 52 144 82 54 144 82 56 144 82 57 144 82 58 144 82 60 144 82 61 144 82 62 144 82 63 144 82 64 144 82 65 144 82 67 144 82 68 144 82 69 144 82 70 144 82 71 144 82 72 144 82 75 144 82 76 144 82 77 144 82 78 144 82 80 144 82 81 144 82 82 144 82 83 144 82 84 144 82 85 144 82 87 144 82 88 144 82 89 144 82 90 144 82 91 144 82 94 144 82 95 144 82 96 144 82 97 144 82 36 48 121 36 48 121 36 48 121 36 48 121 36 48 121 36 48 121 36 48 121 36 48 121 36 48 121 36 48 121 36 48 121 36 48 121 36 48 121 36 48 121 36 48 121 36 48 121 36 48 121 36 48 121 36 48 121 36 48 121 36 48 121 36 48 121 36 48 121 36 48 121 36 48 121 36 48 121 36 48 121 36 48 121 36 48 121 36 48 121 36 48 121 36 48 121 36 48 121 36 48 121 36 48 121 36 48 121 36 48 121 36 48 121 36 48 121 36 48 121 36 48 121 36 48 121 36 48 121 36 48 121 36 48 121 36 48 121 36 48 121 36 48 121 36 48 121 36 48 121 36 48 121 36 48 121 36 48 121 36 48 121 36 48 121 36 48 121 36 48 121 36 48 121 36 48 121 36 48 121 36 48 121 36 48 121 36 48 121 36 48 121 36 48 121 36 48 121 36 48 121 36 48 121 36 48 121 36 48 121 36 48 121 36 48 121 36 48 121 36 48 121 36 48 121 36 48 121 36 48 121 36 48 121 36 48 121 36 48 121 36 48 121 36 48 121 36 48 121 189 135 77 190 135 77 191 135 76 193 134 76 193 134 76 194 134 76 195 134 76 196 134 76 197 134 76 198 133 76 199 133 76 199 133 76 200 133 75 201 133 75 202 133 75 203 132 75 204 132 75 204 132 75 206 132 75 207 132 75 208 131 75 208 131 75 209 131 74 210 131 74 211 131 74 212 131 74 213 131 74 213 130 74 214 130 74 215 130 74 216 130 74 217 130 74 217 130 74 219 129 73 220 129 73 221 129 73 221 129 73 222 129 73 223 128 73 224 128 73 224 128 73 225 128 73 226 128 73 227 128 72 228 128 72 228 127 72 229 127 72 230 127 72 231 127 72 232 127 72 233 127 72 234 126 72 234 126 72 235 126 72 236 126 71 237 126 71 238 126 71 238 126 71 239 125 71 240 125 71 241 125 71 241 125 71 242 125 71 244 125 71 244 124 71 245 124 71 246 124 70 246 124 70 247 124 70 248 124 70 249 124 70 249 123 70 250 123 70 251 123 70 252 123 70 252 123 70 253 123 70 255 123 70
0 146 82 1 146 82 2 146 82 3 146 82 4 146 82 5 146 82 7 146 82 8 146 82 9 146 82 10 146 82 11 146 82 12 146 82 14 146 82 15 146 82 16 146 82 18 146 82 19 146 82 21 146 82 22 146 82 23 146 82 24 146 82 25 146 82 27 146 82 28 146 82 29 146 82 30 146 82 31 146 82 32 146 82 34 146 82 35 146 82 37 146 82 38 146 82 39 146 82 41 146 82 42 146 82 43 146 82 44 146 82 45 146 82 46 146 82 48 146 82 49 146 82 50 146 82 51 146 82 52 146 82 54 146 82 56 146 82 57 146 82 58 146 82 59 146 82 61 146 82 62 146 82 63 146 82 64 146 82 65 146 82 66 146 82 68 146 82 69 146 82 70 146 82 71 146 82 72 146 82 75 146 82 76 146 82 77 146 82 78 146 82 79 146 82 81 146 82 82 146 82 83 146 82 84 146 82 85 146 82 86 146 82 88 146 82 89 146 82 90 146 82 91 146 82 93 146 82 95 146 82 96 146 82 97 146 82 36 48 121 36 48 121 36 48 121 36 48 121 36 48 121 36 48 121 36 48 121 36 48 121 36 48 121 36 48 121 36 48 121 36 48 121 36 48 121 36 48 121 36 48 121 36 48 121 36 48 121 36 48 121 36 48 121 36 48 121 36 48 121 36 48 121 36 48 121 36 48 121 36 48 121 36 48 121 36 48 121 36 48 121 36 48 121 36 48 121 36 48 121 36 48 121 36 48 121 36 48 121 36 48 121 36 48 121 36 48 121 36 48 121 36 48 121 36 48 121 36 48 121 36 48 121 36 48 121 36 48 121 36 48 121 36 48 121 36 48 121 36 48 121 36 48 121 36 48 121 36 48 121 36 48 121 36 48 121 36 48 121 36 48 121 36 48 121 36 48 121 36 48 121 36 48 121 36 48 121 36 48 121 36 48 121 36 48 121 36 48 121 36 48 121 36 48 121 36 48 121 36 48 121 36 48 121 36 48 121 36 48 121 36 48 121 36 48 121 36 48 121 36 48 121 36 48 121 36 48 121 36 48 121 36 48 121 36 48 121 36 48 121 36 48 121 36 48 121 189 137 77 190 137 77 191 137 76 193 137 76 193 136 76 194 136 76 195 136 76 196 136 76 197 136 76 198 136 76 199 135 76 199 135 76 200 135 75 201 135 75 202 135 75 203 135 75 204 134 75 204 134 75 206 134 75 207 134 75 208 134 75 208 133 75 209 133 74 210 133 74 211 133 74 212 133 74 213 133 74 213 132 74 214 132 74 215 132 74 216 132 74 217 132 74 217 132 74 219 131 73 220 131 73 221 131 73 221 131 73 222 131 73 223 131 73 224 130 73 224 130 73 225 130 73 226 130 73 227 130 72 228 130 72 228 130 72 229 129 72 230 129 72 231 129 72 232 129 72 233 129 72 234 128 72 234 128 72 235 128 72 236 128 71 237 128 71 238 128 71 238 128 71 239 127 71 240 127 71 241 127 71 241 127 71 242 127 71 244 127 71 244 126 71 245 126 71 246 126 70 246 126 70 247 126 70 248 126 70 249 126 70 249 125 70 250 125 70 251 125 70 252 125 70 252 125 70 253 125 70 255 125 70
0 147 82 1 147 82 2 147 82 3 147 82 4 147 82 5 147 82 7 147 82 8 147 82 9 147 82 10 147 82 11 147 82 12 147 82 14 147 82 15 147 82 16 147 82 18 147 82 19 147 82 21 147 82 22 147 82 23 147 82 24 147 82 25 147 82 26 147 82 28 147 82 29 147 82 30 147 82 31 147 82 32 147 82 33 147 82 35 147 82 37 147 82 38 147 82 39 147 82 41 147 82 42 147 82 43 147 82 44 147 82 45 147 82 46 147 82 48 147 82 49 147 82 50 147 82 51 147 82 52 147 82 53 147 82 56 147 82 57 147 82 58 147 82 59 147 82 60 147 82 62 147 82 63 147 82 64 147 82 65 147 82 66 147 82 67 147 82 69 147 82 70 147 82 71 147 82 72 147 82 75 147 82 76 147 82 77 147 82 78 147 82 79 147 82 80 147 82 82 147 82 83 147 82 84 147 82 85 147 82 86 147 82 87 147 82 89 147 82 90 147 82 91 147 82 93 147 82 94 147 82 96 147 82 97 147 82 36 48 121 36 48 121 36 48 121 36 48 121 36 48 121 36 48 121 36 48 121 36 48 121 36 48 121 36 48 121 36 48 121 36 48 121 36 48 121 36 48 121 36 48 121 36 48 121 36 48 121 36 48 121 36 48 121 36 48 121 36 48 121 36 48 121 36 48 121 36 48 121 36 48 121 36 48 121 36 48 121 36 48 121 36 48 121 36 48 121 36 48 121 36 48 121 36 48 121 36 48 121 36 48 121 36 48 121 36 48 121 36 48 121 36 48 121 36 48 121 36 48 121 36 48 121 36 48 121 36 48 121 36 48 121 36 48 121 36 48 121 36 48 121 36 48 121 36 48 121 36 48 121 36 48 121 36 48 121 36 48 121 36 48 121 36 48 121 36 48 121 36 48 121 36 48 121 36 48 121 36 48 121 36 48 121 36 48 121 36 48 121 36 48 121 36 48 121 36 48 121 36 48 121 36 48 121 36 48 121 36 48 121 36 48 121 36 48 121 36 48 121 36 48 121 36 48 121 36 48 121 36 48 121 36 48 121 36 48 121 36 48 121 36 48 121 36 48 121 189 138 77 190 138 77 191 138 76 193 138 76 193 138 76 194 137 76 195 137 76 196 137 76 197 137 76 198 137 76 199 137 76 199 136 76 200 136 75 201 136 75 202 136 75 203 136 75 204 136 75 204 135 75 206 135 75 207 135 75 208 135 75 208 135 75 209 134 74 210 134 74 211 134 74 212 134 74 213 134 74 213 134 74 214 133 74 215 133 74 216 133 74 217 133 74 217 133 74 219 132 73 220 132 73 221 132 73 221 132 73 222 132 73 223 132 73 224 131 73 224 131 73 225 131 73 226 131 73 227 131 72 228 131 72 228 131 72 229 130 72 230 130 72 231 130 72 232 130 72 233 130 72 234 130 72 234 129 72 235 129 72 236 129 71 237 129 71 238 129 71 238 129 71 239 128 71 240 128 71 241 128 71 241 128 71 242 128 71 244 128 71 244 127 71 245 127 71 246 127 70 246 127 70 247 127 70 248 127 70 249 127 70 249 126 70 250 126 70 251 126 70 252 126 70 252 126 70 253 126 70 255 126 70
0 149 81 1 149 81 2 149 81 3 149 81 4 149 81 5 149 81 7 149 81 8 149 81 9 149 81 10 149 81 11 149 81 12 149 81 14 149 81 15 149 81 16 149 81 18 149 81 19 149 81 21 149 81 22 149 81 23 149 81 24 149 81 25 149 81 26 149 81 28 149 81 29 149 81 30 149 81 31 149 81 32 149 81 33 149 81 35 149 81 37 149 81 38 149 81 39 149 81 40 149 81 42 149 81 43 149 81 44 149 81 45 149 81 46 149 81 47 149 81 49 149 81 50 149 81 51 149 81 52 149 81 53 149 81 56 149 81 57 149 81 58 149 81 59 149 81 60 149 81 61 149 81 63 149 81 64 149 81 65 149 81 66 149 81 67 149 81 68 149 81 70 149 81 71 149 81 72 149 81 74 149 81 75 149 81 77 149 81 78 149 81 79 149 81 80 149 81 81 149 81 83 149 81 84 149 81 85 149 81 86 149 81 87 149 81 88 149 81 90 149 81 91 149 81 93 149 81 94 149 81 95 149 81 97 149 81 36 48 121 36 48 121 36 48 121 36 48 121 36 48 121 36 48 121 36 48 121 36 48 121 36 48 121 36 48 121 36 48 121 36 48 121 36 48 121 36 48 121 36 48 121 36 48 121 36 48 121 36 48 121 36 48 121 36 48 121 36 48 121 36 48 121 36 48 121 36 48 121 36 48 121 36 48 121 36 48 121 36 48 121 36 48 121 36 48 121 36 48 121 36 48 121 36 48 121 36 48 121 36 48 121 36 48 121 36 48 121 36 48 121 36 48 121 36 48 121 36 48 121 36 48 121 36 48 121 36 48 121 36 48 121 36 48 121 36 48 121 36 48 121 36 48 121 36 48 121 36 48 121 36 48 121 36 48 121 36 48 121 36 48 121 36 48 121 36 48 121 36 48 121 36 48 121 36 48 121 36 48 121 36 48 121 36 48 121 36 48 121 36 48 121 36 48 121 36 48 121 36 48 121 36 48 121 36 48 121 36 48 121 36 48 121 36 48 121 36 48 121 36 48 121 36 48 121 36 48 121 36 48 121 36 48 121 36 48 121 36 48 121 36 48 121 36 48 121 189 141 77 190 140 77 191 140 76 193 140 76 193 140 76 194 140 76 195 139 76 196 139 76 197 139 76 198 139 76 199 139 76 199 139 76 200 138 75 201 138 75 202 138 75 203 138 75 204 138 75 204 137 75 206 137 75 207 137 75 208 137 75 208 137 75 209 136 74 210 136 74 211 136 74 212 136 74 213 136 74 213 136 74 214 136 74 215 135 74 216 135 74 217 135 74 217 135 74 219 135 73 220 134 73 221 134 73 221 134 73 222 134 73 223 134 73 224 134 73 224 133 73 225 133 73 226 133 73 227 133 72 228 133 72 228 133 72 229 132 72 230 132 72 231 132 72 232 132 72 233 132 72 234 132 72 234 131 72 235 131 72 236 131 71 237 131 71 238 131 71 238 131 71 239 131 71 240 130 71 241 130 71 241 130 71 242 130 71 244 130 71 244 129 71 245 129 71 246 129 70 246 129 70 247 129 70 248 129 70 249 129 70 249 128 70 250 128 70 251 128 70 252 128 70 252 128 70 253 128 70 255 128 70
0 150 81 1 150 81 2 150 81 3 150 81 4 150 81 5 150 81 7 150 81 8 150 81 9 150 81 10 150 81 11 150 81 12 150 81 14 150 81 15 150 81 16 150 81 18 150 81 19 150 81 21 150 81 22 150 81 23 150 81 24 150 81 25 150 81 26 150 81 28 150 81 29 150 81 30 150 81 31 150 81 32 150 81 33 150 81 35 150 81 37 150 81 38 150 81 39 150 81 40 150 81 42 150 81 43 150 81 44 150 81 45 150 81 46 150 81 47 150 81 49 150 81 50 150 81 51 150 81 52 150 81 53 150 81 56 150 81 57 150 81 58 150 81 59 150 81 60 150 81 61 150 81 63 150 81 64 150 81 65 150 81 66 150 81 67 150 81 68 150 81 70 150 81 71 150 81 72 150 81 74 150 81 75 150 81 77 150 81 78 150 81 79 150 81 80 150 81 81 150 81 82 150 81 84 150 81 85 150 81 86 150 81 87 150 81 88 150 81 89 150 81 91 150 81 93 150 81 94 150 81 95 150 81 96 150 81 36 48 121 36 48 121 36 48 121 36 48 121 36 48 121 36 48 121 36 48 121 36 48 121 36 48 121 36 48 121 36 48 121 36 48 121 36 48 121 36 48 121 36 48 121 36 48 121 36 48 121 36 48 121 36 48 121 36 48 121 36 48 121 36 48 121 36 48 121 36 48 121 36 48 121 36 48 121 36 48 121 36 48 121 36 48 121 36 48 121 36 48 121 36 48 121 36 48 121 36 48 121 36 48 121 36 48 121 36 48 121 36 48 121 36 48 121 36 48 121 36 48 121 36 48 121 36 48 121 36 48 121 36 48 121 36 48 121 36 48 121 36 48 121 36 48 121 36 48 121 36 48 121 36 48 121 36 48 121 36 48 121 36 48 121 36 48 121 36 48 121 36 48 121 36 48 121 36 48 121 36 48 121 36 48 121 36 48 121 36 48 121 36 48 121 36 48 121 36 48 121 36 48 121 36 48 121 36 48 121 36 48 121 36 48 121 36 48 121 36 48 121 36 48 121 36 48 121 36 48 121 36 48 121 36 48 121 36 48 121 36 48 121 36 48 121 36 48 121 189 142 77 190 142 77 191 141 76 193 141 76 193 141 76 194 141 76 195 140 76 196 140 76 197 140 76 198 140 76 199 140 76 199 140 76 200 139 75 201 139 75 202 139 75 203 139 75 204 139 75 204 139 75 206 138 75 207 138 75 208 138 75 208 138 75 209 138 74 210 137 74 211 137 74 212 137 74 213 137 74 213 137 74 214 137 74 215 136 74 216 136 74 217 136 74 217 136 74 219 136 73 220 135 73 221 135 73 221 135 73 222 135 73 223 135 73 224 135 73 224 134 73 225 134 73 226 134 73 227 134 72 228 134 72 228 134 72 229 134 72 230 133 72 231 133 72 232 133 72 233 133 72 234 133 72 234 132 72 235 132 72 236 132 71 237 132 71 238 132 71 238 132 71 239 132 71 240 131 71 241 131 71 241 131 71 242 131 71 244 131 71 244 131 71 245 130 71 246 130 70 246 130 70 247 130 70 248 130 70 249 130 70 249 129 70 250 129 70 251 129 70 252 129 70 252 129 70 253 129 70 255 129 70
0 152 81 1 152 81 2 152 81 3 152 81 4 152 81 5 152 81 6 152 81 8 152 81 9 152 81 10 152 81 11 152 81 12 152 81 13 152 81 15 152 81 16 152 81 18 152 81 19 152 81 20 152 81 22 152 81 23 152 81 24 152 81 25 152 81 26 152 81 27 152 81 29 152 81 30 152 81 31 152 81 32 152 81 33 152 81 34 152 81 37 152 81 38 152 81 39 152 81 40 152 81 41 152 81 43 152 81 44 152 81 45 152 81 46 152 81 47 152 81 48 152 81 50 152 81 51 152 81 52 152 81 53 152 81 55 152 81 57 152 81 58 152 81 59 152 81 60 152 81 61 152 81 62 152 81 64 152 81 65 152 81 66 152 81 67 152 81 68 152 81 69 152 81 71 152 81 72 152 81 74 152 81 75 152 81 76 152 81 78 152 81 79 152 81 80 152 81 81 152 81 82 152 81 83 152 81 84 152 81 86 152 81 87 152 81 88 152 81 89 152 81 90 152 81 93 152 81 94 152 81 95 152 81 96 152 81 36 48 121 36 48 121 36 48 121 36 48 121 36 48 121 36 48 121 36 48 121 36 48 121 36 48 121 36 48 121 36 48 121 36 48 121 36 48 121 36 48 121 36 48 121 36 48 121 36 48 121 36 48 121 36 48 121 36 48 121 36 48 121 36 48 121 36 48 121 36 48 121 36 48 121 36 48 121 36 48 121 36 48 121 36 48 121 36 48 121 36 48 121 36 48 121 36 48 121 36 48 121 36 48 121 36 48 121 36 48 121 36 48 121 36 48 121 36 48 121 36 48 121 36 48 121 36 48 121 36 48 121 36 48 121 36 48 121 36 48 121 36 48 121 36 48 121 36 48 121 36 48 121 36 48 121 36 48 121 36 48 121 36 48 121 36 48 121 36 48 121 36 48 121 36 48 121 36 48 121 36 48 121 36 48 121 36 48 121 36 48 121 36 48 121 36 48 121 36 48 121 36 48 121 36 48 121 36 48 121 36 48 121 36 48 121 36 48 121 36 48 121 36 48 121 36 48 121 36 48 121 36 48 121 36 48 121 36 48 121 36 48 121 36 48 121 36 48 121 189 144 77 190 144 77 191 144 76 193 143 76 193 143 76 194 143 76 195 143 76 196 142 76 197 142 76 198 142 76 199 142 76 199 142 76 200 142 75 201 141 75 202 141 75 203 141 75 204 141 75 204 141 75 206 140 75 207 140 75 208 140 75 208 140 75 209 140 74 210 140 74 211 139 74 212 139 74 213 139 74 213 139 74 214 139 74 215 139 74 216 138 74 217 138 74 217 138 74 219 138 73 220 138 73 221 137 73 221 137 73 222 137 73 223 137 73 224 137 73 224 137 73 225 136 73 226 136 73 227 136 72 228 136 72 228 136 72 229 136 72 230 135 72 231 135 72 232 135 72 233 135 72 234 135 72 234 135 72 235 134 72 236 134 71 237 134 71 238 134 71 238 134 71 239 134 71 240 133 71 241 133 71 241 133 71 242 133 71 244 133 71 244 133 71 245 132 71 246 132 70 246 132 70 247 132 70 248 132 70 249 132 70 249 132 70 250 131 70 251 131 70 252 131 70 252 131 70 253 131 70 255 131 70
0 153 81 1 153 81 2 153 81 3 153 81 4 153 81 5 153 81 6 153 81 8 153 81 9 153 81 10 153 81 11 153 81 12 153 81 13 153 81 15 153 81 16 153 81 18 153 81 19 153 81 20 153 81 22 153 81 23 153 81 24 153 81 25 153 81 26 153 81 27 153 81 29 153 81 30 153 81 31 153 81 32 153 81 33 153 81 34 153 81 37 153 81 38 153 81 39 153 81 40 153 81 41 153 81 43 153 81 44 153 81 45 153 81 46 153 81 47 153 81 48 153 81 49 153 81 51 153 81 52 153 81 53 153 81 55 153 81 56 153 81 58 153 81 59 153 81 60 153 81 61 153 81 62 153 81 63 153 81 65 153 81 66 153 81 67 153 81 68 153 81 69 153 81 70 153 81 72 153 81 74 153 81 75 153 81 76 153 81 77 153 81 79 153 81 80 153 81 81 153 81 82 153 81 83 153 81 84 153 81 86 153 81 87 153 81 88 153 81 89 153 81 90 153 81 93 153 81 94 153 81 95 153 81 96 153 81 36 48 121 36 48 121 36 48 121 36 48 121 36 48 121 36 48 121 36 48 121 36 48 121 36 48 121 36 48 121 36 48 121 36 48 121 36 48 121 36 48 121 36 48 121 36 48 121 36 48 121 36 48 121 36 48 121 36 48 121 36 48 121 36 48 121 36 48 121 36 48 121 36 48 121 36 48 121 36 48 121 36 48 121 36 48 121 36 48 121 36 48 121 36 48 121 36 48 121 36 48 121 36 48 121 36 48 121 36 48 121 36 48 121 36 48 121 36 48 121 36 48 121 36 48 121 36 48 121 36 48 121 36 48 121 36 48 121 36 48 121 36 48 121 36 48 121 36 48 121 36 48 121 36 48 121 36 48 121 36 48 121 36 48 121 36 48 121 36 48 121 36 48 121 36 48 121 36 48 121 36 48 121 36 48 121 36 48 121 36 48 121 36 48 121 36 48 121 36 48 121 36 48 121 36 48 121 36 48 121 36 48 121 36 48 121 36 48 121 36 48 121 36 48 121 36 48 121 36 48 121 36 48 121 36 48 121 36 48 121 36 48 121 36 48 121 36 48 121 189 145 77 190 145 77 191 145 76 193 144 76 193 144 76 194 144 76 195 144 76 196 144 76 197 143 76 198 143 76 199 143 76 199 143 76 200 143 75 201 143 75 202 142 75 203 142 75 204 142 75 204 142 75 206 141 75 207 141 75 208 141 75 208 141 75 209 141 74 210 141 74 211 140 74 212 140 74 213 140 74 213 140 74 214 140 74 215 140 74 216 139 74 217 139 74 217 139 74 219 139 73 220 139 73 221 138 73 221 138 73 222 138 73 223 138 73 224 138 73 224 138 73 225 137 73 226 137 73 227 137 72 228 137 72 228 137 72 229 137 72 230 136 72 231 136 72 232 136 72 233 136 72 234 136 72 234 136 72 235 135 72 236 135 71 237 135 71 238 135 71 238 135 71 239 135 71 240 134 71 241 134 71 241 134 71 242 134 71 244 134 71 244 134 71 245 133 71 246 133 70 246 133 70 247 133 70 248 133 70 249 133 70 249 133 70 250 132 70 251 132 70 252 132 70 252 132 70 253 132 70 255 132 70
0 154 81 1 154 81 2 154 81 3 154 81 4 154 81 5 154 81 6 154 81 8 154 81 9 154 81 10 154 81 11 154 81 12 154 81 13 154 81 15 154 81 16 154 81 18 154 81 19 154 81 20 154 81 22 154 81 23 154 81 24 154 81 25 154 81 26 154 81 27 154 81 29 154 81 30 154 81 31 154 81 32 154 81 33 154 81 34 154 81 37 154 81 38 154 81 39 154 81 40 154 81 41 154 81 42 154 81 44 154 81 45 154 81 46 154 81 47 154 81 48 154 81 49 154 81 51 154 81 52 154 81 53 154 81 55 154 81 56 154 81 58 154 81 59 154 81 60 154 81 61 154 81 62 154 81 63 154 81 65 154 81 66 154 81 67 154 81 68 154 81 69 154 81 70 154 81 71 154 81 74 154 81 75 154 81 76 154 81 77 154 81 78 154 81 80 154 81 81 154 81 82 154 81 83 154 81 84 154 81 85 154 81 87 154 81 88 154 81 89 154 81 90 154 81 92 154 81 94 154 81 95 154 81 96 154 81 36 48 121 36 48 121 36 48 121 36 48 121 36 48 121 36 48 121 36 48 121 36 48 121 36 48 121 36 48 121 36 48 121 36 48 121 36 48 121 36 48 121 36 48 121 36 48 121 36 48 121 36 48 121 36 48 121 36 48 121 36 48 121 36 48 121 36 48 121 36 48 121 36 48 121 36 48 121 36 48 121 36 48 121 36 48 121 36 48 121 36 48 121 36 48 121 36 48 121 36 48 121 36 48 121 36 48 121 36 48 121 36 48 121 36 48 121 36 48 121 36 48 121 36 48 121 36 48 121 36 48 121 36 48 121 36 48 121 36 48 121 36 48 121 36 48 121 36 48 121 36 48 121 36 48 121 36 48 121 36 48 121 36 48 121 36 48 121 36 48 121 36 48 121 36 48 121 36 48 121 36 48 121 36 48 121 36 48 121 36 48 121 36 48 121 36 48 121 36 48 121 36 48 121 36 48 121 36 48 121 36 48 121 36 48 121 36 48 121 36 48 121 36 48 121 36 48 121 36 48 121 36 48 121 36 48 121 36 48 121 36 48 121 36 48 121 36 48 121 189 146 77 190 146 77 191 146 76 193 145 76 193 145 76 194 145 76 195 145 76 196 145 76 197 144 76 198 144 76 199 144 76 199 144 76 200 144 75 201 144 75 202 143 75 203 143 75 204 143 75 204 143 75 206 143 75 207 142 75 208 142 75 208 142 75 209 142 74 210 142 74 211 142 74 212 141 74 213 141 74 213 141 74 214 141 74 215 141 74 216 140 74 217 140 74 217 140 74 219 140 73 220 140 73 221 139 73 221 139 73 222 139 73 223 139 73 224 139 73 224 139 73 225 138 73 226 138 73 227 138 72 228 138 72 228 138 72 229 138 72 230 138 72 231 137 72 232 137 72 233 137 72 234 137 72 234 137 72 235 136 72 236 136 71 237 136 71 238 136 71 238 136 71 239 136 71 240 135 71 241 135 71 241 135 71 242 135 71 244 135 71 244 135 71 245 134 71 246 134 70 246 134 70 247 134 70 248 134 70 249 134 70 249 134 70 250 133 70 251 133 70 252 133 70 252 133 70 253 133 70 255 133 70
0 156 81 1 156 81 2 156 81 3 156 81 4 156 81 5 156 81 6 156 81 8 156 81 9 156 81 10 156 81 11 156 81 12 156 81 13 156 81 15 156 81 16 156 81 18 156 81 19 156 81 20 156 81 21 156 81 23 156 81 24 156 81 25 156 81 26 156 81 27 156 81 28 156 81 30 156 81 31 156 81 32 156 81 33 156 81 34 156 81 37 156 81 38 156 81 39 156 81 40 156 81 41 156 81 42 156 81 43 156 81 45 156 81 46 156 81 47 156 81 48 156 81 49 156 81 50 156 81 52 156 81 53 156 81 55 156 81 56 156 81 57 156 81 59 156 81 60 156 81 61 156 81 62 156 81 63 156 81 64 156 81 65 156 81 67 156 81 68 156 81 69 156 81 70 156 81 71 156 81 74 156 81 75 156 81 76 156 81 77 156 81 78 156 81 79 156 81 81 156 81 82 156 81 83 156 81 84 156 81 85 156 81 86 156 81 87 156 81 89 156 81 90 156 81 92 156 81 93 156 81 94 156 81 96 156 81 36 48 121 36 48 121 36 48 121 36 48 121 36 48 121 36 48 121 36 48 121 36 48 121 36 48 121 36 48 121 36 48 121 36 48 121 36 48 121 36 48 121 36 48 121 36 48 121 36 48 121 36 48 121 36 48 121 36 48 121 36 48 121 36 48 121 36 48 121 36 48 121 36 48 121 36 48 121 36 48 121 36 48 121 36 48 121 36 48 121 36 48 121 36 48 121 36 48 121 36 48 121 36 48 121 36 48 121 36 48 121 36 48 121 36 48 121 36 48 121 36 48 121 36 48 121 36 48 121 36 48 121 36 48 121 36 48 121 36 48 121 36 48 121 36 48 121 36 48 121 36 48 121 36 48 121 36 48 121 36 48 121 36 48 121 36 48 121 36 48 121 36 48 121 36 48 121 36 48 121 36 48 121 36 48 121 36 48 121 36 48 121 36 48 121 36 48 121 36 48 121 36 48 121 36 48 121 36 48 121 36 48 121 36 48 121 36 48 121 36 48 121 36 48 121 36 48 121 36 48 121 36 48 121 36 48 121 36 48 121 36 48 121 36 48 121 36 48 121 189 148 77 190 148 77 191 148 76 193 148 76 193 147 76 194 147 76 195 147 76 196 147 76 197 147 76 198 146 76 199 146 76 199 146 76 200 146 75 201 146 75 202 146 75 203 145 75 204 145 75 204 145 75 206 145 75 207 145 75 208 144 75 208 144 75 209 144 74 210 144 74 211 144 74 212 143 74 213 143 74 213 143 74 214 143 74 215 143 74 216 143 74 217 142 74 217 142 74 219 142 73 220 142 73 221 142 73 221 141 73 222 141 73 223 141 73 224 141 73 224 141 73 225 141 73 226 140 73 227 140 72 228 140 72 228 140 72 229 140 72 230 140 72 231 139 72 232 139 72 233 139 72 234 139 72 234 139 72 235 138 72 236 138 71 237 138 71 238 138 71 238 138 71 239 138 71 240 138 71 241 137 71 241 137 71 242 137 71 244 137 71 244 137 71 245 136 71 246 136 70 246 136 70 247 136 70 248 136 70 249 136 70 249 136 70 250 135 70 251 135 70 252 135 70 252 135 70 253 135 70 255 135 70
0 157 80 1 157 80 2 157 80 3 157 80 4 157 80 5 157 80 6 157 80 8 157 80 9 157 80 10 157 80 11 157 80 12 157 80 13 157 80 15 157 80 16 157 80 18 157 80 19 157 80 20 157 80 21 157 80 23 157 80 24 157 80 25 157 80 26 157 80 27 157 80 28 157 80 30 157 80 31 157 80 32 157 80 33 157 80 34 157 80 37 157 80 38 157 80 39 157 80 40 157 80 41 157 80 42 157 80 43 157 80 45 157 80 46 157 80 47 157 80 48 157 80 49 157 80 50 157 80 52 157 80 53 157 80 55 157 80 56 157 80 57 157 80 58 157 80 60 157 80 61 157 80 62 157 80 63 157 80 64 157 80 65 157 80 67 157 80 68 157 80 69 157 80 70 157 80 71 157 80 74 157 80 75 157 80 76 157 80 77 157 80 78 157 80 79 157 80 80 157 80 82 157 80 83 157 80 84 157 80 85 157 80 86 157 80 87 157 80 89 157 80 90 157 80 92 157 80 93 157 80 94 157 80 95 157 80 36 48 121 36 48 121 36 48 121 36 48 121 36 48 121 36 48 121 36 48 121 36 48 121 36 48 121 36 48 121 36 48 121 36 48 121 36 48 121 36 48 121 36 48 121 36 48 121 36 48 121 36 48 121 36 48 121 36 48 121 36 48 121 36 48 121 36 48 121 36 48 121 36 48 121 36 48 121 36 48 121 36 48 121 36 48 121 36 48 121 36 48 121 36 48 121 36 48 121 36 48 121 36 48 121 36 48 121 36 48 121 36 48 121 36 48 121 36 48 121 36 48 121 36 48 121 36 48 121 36 48 121 36 48 121 36 48 121 36 48 121 36 48 121 36 48 121 36 48 121 36 48 121 36 48 121 36 48 121 36 48 121 36 48 121 36 48 121 36 48 121 36 48 121 36 48 121 36 48 121 36 48 121 36 48 121 36 48 121 36 48 121 36 48 121 36 48 121 36 48 121 36 48 121 36 48 121 36 48 121 36 48 121 36 48 121 36 48 121 36 48 121 36 48 121 36 48 121 36 48 121 36 48 121 36 48 121 36 48 121 36 48 121 36 48 121 36 48 121 189 149 77 190 149 77 191 149 76 193 149 76 193 149 76 194 148 76 195 148 76 196 148 76 197 148 76 198 148 76 199 147 76 199 147 76 200 147 75 201 147 75 202 147 75 203 146 75 204 146 75 204 146 75 206 146 75 207 146 75 208 145 75 208 145 75 209 145 74 210 145 74 211 145 74 212 145 74 213 144 74 213 144 74 214 144 74 215 144 74 216 144 74 217 143 74 217 143 74 219 143 73 220 143 73 221 143 73 221 142 73 222 142 73 223 142 73 224 142 73 224 142 73 225 142 73 226 141 73 227 141 72 228 141 72 228 141 72 229 141 72 230 141 72 231 140 72 232 140 72 233 140 72 234 140 72 234 140 72 235 140 72 236 139 71 237 139 71 238 139 71 238 139 71 239 139 71 240 139 71 241 138 71 241 138 71 242 138 71 244 138 71 244 138 71 245 137 71 246 137 70 246 137 70 247 137 70 248 137 70 249 137 70 249 137 70 250 136 70 251 136 70 252 136 70 252 136 70 253 136 70 255 136 70
0 159 80 1 159 80 2 159 80 3 159 80 4 159 80 5 159 80 6 159 80 8 159 80 9 159 80 10 159 80 11 159 80 12 159 80 13 159 80 14 159 80 16 159 80 18 159 80 19 159 80 20 159 80 21 159 80 23 159 80 24 159 80 25 159 80 26 159 80 27 159 80 28 159 80 29 159 80 31 159 80 32 159 80 33 159 80 34 159 80 36 159 80 38 159 80 39 159 80 40 159 80 41 159 80 42 159 80 43 159 80 44 159 80 46 159 80 47 159 80 48 159 80 49 159 80 50 159 80 51 159 80 53 159 80 55 159 80 56 159 80 57 159 80 58 159 80 59 159 80 61 159 80 62 159 80 63 159 80 64 159 80 65 159 80 66 159 80 68 159 80 69 159 80 70 159 80 71 159 80 73 159 80 74 159 80 76 159 80 77 159 80 78 159 80 79 159 80 80 159 80 81 159 80 83 159 80 84 159 80 85 159 80 86 159 80 87 159 80 88 159 80 89 159 80 92 159 80 93 159 80 94 159 80 95 159 80 36 48 121 36 48 121 36 48 121 36 48 121 36 48 121 36 48 121 36 48 121 36 48 121 36 48 121 36 48 121 36 48 121 36 48 121 36 48 121 36 48 121 36 48 121 36 48 121 36 48 121 36 48 121 36 48 121 36 48 121 36 48 121 36 48 121 36 48 121 36 48 121 36 48 121 36 48 121 36 48 121 36 48 121 36 48 121 36 48 121 36 48 121 36 48 121 36 48 121 36 48 121 36 48 121 36 48 121 36 48 121 36 48 121 36 48 121 36 48 121 36 48 121 36 48 121 36 48 121 36 48 121 36 48 121 36 48 121 36 48 121 36 48 121 36 48 121 36 48 121 36 48 121 36 48 121 36 48 121 36 48 121 36 48 121 36 48 121 36 48 121 36 48 121 36 48 121 36 48 121 36 48 121 36 48 121 36 48 121 36 48 121 36 48 121 36 48 121 36 48 121 36 48 121 36 48 121 36 48 121 36 48 121 36 48 121 36 48 121 36 48 121 36 48 121 36 48 121 36 48 121 36 48 121 36 48 121 36 48 121 36 48 121 36 48 121 36 48 121 189 152 77 190 151 77 191 151 76 193 151 76 193 151 76 194 151 76 195 150 76 196 150 76 197 150 76 198 150 76 199 150 76 199 149 76 200 149 75 201 149 75 202 149 75 203 149 75 204 148 75 204 148 75 206 148 75 207 148 75 208 148 75 208 147 75 209 147 74 210 147 74 211 147 74 212 147 74 213 146 74 213 146 74 214 146 74 215 146 74 216 146 74 217 146 74 217 145 74 219 145 73 220 145 73 221 145 73 221 145 73 222 144 73 223 144 73 224 144 73 224 144 73 225 144 73 226 144 73 227 143 72 228 143 72 228 143 72 229 143 72 230 143 72 231 142 72 232 142 72 233 142 72 234 142 72 234 142 72 235 142 72 236 141 71 237 141 71 238 141 71 238 141 71 239 141 71 240 141 71 241 140 71 241 140 71 242 140 71 244 140 71 244 140 71 245 139 71 246 139 70 246 139 70 247 139 70 248 139 70 249 139 70 249 139 70 250 138 70 251 138 70 252 138 70 252 138 70 253 138 70 255 138 70
0 160 80 1 160 80 2 160 80 3 160 80 4 160 80 5 160 80 6 160 80 8 160 80 9 160 80 10 160 80 11 160 80 12 160 80 13 160 80 14 160 80 16 160 80 18 160 80 19 160 80 20 160 80 21 160 80 23 160 80 24 160 80 25 160 80 26 160 80 27 160 80 28 160 80 29 160 80 31 160 80 32 160 80 33 160 80 34 160 80 36 160 80 38 160 80 39 160 80 40 160 80 41 160 80 42 160 80 43 160 80 44 160 80 46 160 80 47 160 80 48 160 80 49 160 80 50 160 80 51 160 80 52 160 80 55 160 80 56 160 80 57 160 80 58 160 80 59 160 80 61 160 80 62 160 80 63 160 80 64 160 80 65 160 80 66 160 80 67 160 80 69 160 80 70 160 80 71 160 80 73 160 80 74 160 80 76 160 80 77 160 80 78 160 80 79 160 80 80 160 80 81 160 80 82 160 80 84 160 80 85 160 80 86 160 80 87 160 80 88 160 80 89 160 80 92 160 80 93 160 80 94 160 80 95 160 80 36 48 121 36 48 121 36 48 121 36 48 121 36 48 121 36 48 121 36 48 121 36 48 121 36 48 121 36 48 121 36 48 121 36 48 121 36 48 121 36 48 121 36 48 121 36 48 121 36 48 121 36 48 121 36 48 121 36 48 121 36 48 121 36 48 121 36 48 121 36 48 121 36 48 121 36 48 121 36 48 121 36 48 121 36 48 121 36 48 121 36 48 121 36 48 121 36 48 121 36 48 121 36 48 121 36 48 121 36 48 121 36 48 121 36 48 121 36 48 121 36 48 121 36 48 121 36 48 121 36 48 121 36 48 121 36 48 121 36 48 121 36 48 121 36 48 121 36 48 121 36 48 121 36 48 121 36 48 121 36 48 121 36 48 121 36 48 121 36 48 121 36 48 121 36 48 121 36 48 121 36 48 121 36 48 121 36 48 121 36 48 121 36 48 121 36 48 121 36 48 121 36 48 121 36 48 121 36 48 121 36 48 121 36 48 121 36 48 121 36 48 121 36 48 121 36 48 121 36 48 121 36 48 121 36 48 121 36 48 121 36 48 121 36 48 121 36 48 121 189 153 77 190 153 77 191 152 76 193 152 76 193 152 76 194 152 76 195 151 76 196 151 76 197 151 76 198 151 76 199 151 76 199 150 76 200 150 75 201 150 75 202 150 75 203 150 75 204 150 75 204 149 75 206 149 75 207 149 75 208 149 75 208 148 75 209 148 74 210 148 74 211 148 74 212 148 74 213 148 74 213 147 74 214 147 74 215 147 74 216 147 74 217 147 74 217 146 74 219 146 73 220 146 73 221 146 73 221 146 73 222 145 73 223 145 73 224 145 73 224 145 73 225 145 73 226 145 73 227 144 72 228 144 72 228 144 72 229 144 72 230 144 72 231 143 72 232 143 72 233 143 72 234 143 72 234 143 72 235 143 72 236 142 71 237 142 71 238 142 71 238 142 71 239 142 71 240 142 71 241 141 71 241 141 71 242 141 71 244 141 71 244 141 71 245 141 71 246 140 70 246 140 70 247 140 70 248 140 70 249 140 70 249 140 70 250 139 70 251 139 70 252 139 70 252 139 70 253 139 70 255 139 70
0 161 80 1 161 80 2 161 80 3 161 80 4 161 80 5 161 80 6 161 80 8 161 80 9 161 80 10 161 80 11 161 80 12 161 80 13 161 80 14 161 80 16 161 80 18 161 80 19 161 80 20 161 80 21 161 80 22 161 80 24 161 80 25 161 80 26 161 80 27 161 80 28 161 80 29 161 80 31 161 80 32 161 80 33 161 80 34 161 80 36 161 80 37 161 80 39 161 80 40 161 80 41 161 80 42 161 80 43 161 80 44 161 80 45 161 80 47 161 80 48 161 80 49 161 80 50 161 80 51 161 80 52 161 80 55 161 80 56 161 80 57 161 80 58 161 80 59 161 80 60 161 80 62 161 80 63 161 80 64 161 80 65 161 80 66 161 80 67 161 80 68 161 80 70 161 80 71 161 80 73 161 80 74 161 80 75 161 80 76 161 80 78 161 80 79 161 80 80 161 80 81 161 80 82 161 80 83 161 80 84 161 80 86 161 80 87 161 80 88 161 80 89 161 80 91 161 80 93 161 80 94 161 80 95 161 80 36 48 121 36 48 121 36 48 121 36 48 121 36 48 121 36 48 121 36 48 121 36 48 121 36 48 121 36 48 121 36 48 121 36 48 121 36 48 121 36 48 121 36 48 121 36 48 121 36 48 121 36 48 121 36 48 121 36 48 121 36 48 121 36 48 121 36 48 121 36 48 121 36 48 121 36 48 121 36 48 121 36 48 121 36 48 121 36 48 121 36 48 121 36 48 121 36 48 121 36 48 121 36 48 121 36 48 121 36 48 121 36 48 121 36 48 121 36 48 121 36 48 121 36 48 121 36 48 121 36 48 121 36 48 121 36 48 121 36 48 121 36 48 121 36 48 121 36 48 121 36 48 121 36 48 121 36 48 121 36 48 121 36 48 121 36 48 121 36 48 121 36 48 121 36 48 121 36 48 121 36 48 121 36 48 121 36 48 121 36 48 121 36 48 121 36 48 121 36 48 121 36 48 121 36 48 121 36 48 121 36 48 121 36 48 121 36 48 121 36 48 121 36 48 121 36 48 121 36 48 121 36 48 121 36 48 121 36 48 121 36 48 121 36 48 121 36 48 121 189 155 77 190 155 77 191 155 76 193 154 76 193 154 76 194 154 76 195 154 76 196 153 76 197 153 76 198 153 76 199 153 76 199 153 76 200 152 75 201 152 75 202 152 75 203 152 75 204 152 75 204 152 75 206 151 75 207 151 75 208 151 75 208 151 75 209 150 74 210 150 74 211 150 74 212 150 74 213 150 74 213 149 74 214 149 74 215 149 74 216 149 74 217 149 74 217 149 74 219 148 73 220 148 73 221 148 73 221 148 73 222 148 73 223 147 73 224 147 73 224 147 73 225 147 73 226 147 73 227 147 72 228 146 72 228 146 72 229 146 72 230 146 72 231 145 72 232 145 72 233 145 72 234 145 72 234 145 72 235 145 72 236 144 71 237 144 71 238 144 71 238 144 71 239 144 71 240 144 71 241 144 71 241 143 71 242 143 71 244 143 71 244 143 71 245 143 71 246 142 70 246 142 70 247 142 70 248 142 70 249 142 70 249 142 70 250 141 70 251 141 70 252 141 70 252 141 70 253 141 70 255 141 70
0 162 80 1 162 80 2 162 80 3 162 80 4 162 80 5 162 80 6 162 80 8 162 80 9 162 80 10 162 80 11 162 80 12 162 80 13 162 80 14 162 80 16 162 80 18 162 80 19 162 80 20 162 80 21 162 80 22 162 80 24 162 80 25 162 80 26 162 80 27 162 80 28 162 80 29 162 80 30 162 80 32 162 80 33 162 80 34 162 80 36 162 80 37 162 80 38 162 80 40 162 80 41 162 80 42 162 80 43 162 80 44 162 80 45 162 80 47 162 80 48 162 80 49 162 80 50 162 80 51 162 80 52 162 80 55 162 80 56 162 80 57 162 80 58 162 80 59 162 80 60 162 80 61 162 80 63 162 80 64 162 80 65 162 80 66 162 80 67 162 80 68 162 80 69 162 80 71 162 80 73 162 80 74 162 80 75 162 80 76 162 80 77 162 80 79 162 80 80 162 80 81 162 80 82 162 80 83 162 80 84 162 80 86 162 80 87 162 80 88 162 80 89 162 80 91 162 80 92 162 80 94 162 80 95 162 80 96 162 80 36 48 121 36 48 121 36 48 121 36 48 121 36 48 121 36 48 121 36 48 121 36 48 121 36 48 121 36 48 121 36 48 121 36 48 121 36 48 121 36 48 121 36 48 121 36 48 121 36 48 121 36 48 121 36 48 121 36 48 121 36 48 121 36 48 121 36 48 121 36 48 121 36 48 121 36 48 121 36 48 121 36 48 121 36 48 121 36 48 121 36 48 121 36 48 121 36 48 121 36 48 121 36 48 121 36 48 121 36 48 121 36 48 121 36 48 121 36 48 121 36 48 121 36 48 121 36 48 121 36 48 121 36 48 121 36 48 121 36 48 121 36 48 121 36 48 121 36 48 121 36 48 121 36 48 121 36 48 121 36 48 121 36 48 121 36 48 121 36 48 121 36 48 121 36 48 121 36 48 121 36 48 121 36 48 121 36 48 121 36 48 121 36 48 121 36 48 121 36 48 121 36 48 121 36 48 121 36 48 121 36 48 121 36 48 121 36 48 121 36 48 121 36 48 121 36 48 121 36 48 121 36 48 121 36 48 121 36 48 121 36 48 121 188 156 77 189 156 77 190 156 77 191 156 76 193 155 76 193 155 76 194 155 76 195 155 76 196 155 76 197 154 76 198 154 76 199 154 76 199 154 76 200 154 75 201 153 75 202 153 75 203 153 75 204 153 75 204 153 75 206 152 75 207 152 75 208 152 75 208 152 75 209 151 74 210 151 74 211 151 74 212 151 74 213 151 74 213 151 74 214 150 74 215 150 74 216 150 74 217 150 74 217 150 74 219 149 73 220 149 73 221 149 73 221 149 73 222 149 73 223 148 73 224 148 73 224 148 73 225 148 73 226 148 73 227 148 72 228 147 72 228 147 72 229 147 72 230 147 72 231 147 72 232 146 72 233 146 72 234 146 72 234 146 72 235 146 72 236 146 71 237 145 71 238 145 71 238 145 71 239 145 71 240 145 71 241 145 71 241 144 71 242 144 71 244 144 71 244 144 71 245 144 71 246 143 70 246 143 70 247 143 70 248 143 70 249 143 70 249 143 70 250 142 70 251 142 70 252 142 70 252 142 70 253 142 70 255 142 70
0 163 80 1 163 80 2 163 80 3 163 80 4 163 80 5 163 80 6 163 80 8 163 80 9 163 80 10 163 80 11 163 80 12 163 80 13 163 80 14 163 80 16 163 80 18 163 80 19 163 80 20 163 80 21 163 80 22 163 80 24 163 80 25 163 80 26 163 80 27 163 80 28 163 80 29 163 80 30 163 80 32 163 80 33 163 80 34 163 80 36 163 80 37 163 80 38 163 80 40 163 80 41 163 80 42 163 80 43 163 80 44 163 80 45 163 80 46 163 80 48 163 80 49 163 80 50 163 80 51 163 80 52 163 80 54 163 80 56 163 80 57 163 80 58 163 80 59 163 80 60 163 80 61 163 80 62 163 80 64 163 80 65 163 80 66 163 80 67 163 80 68 163 80 69 163 80 71 163 80 73 163 80 74 163 80 75 163 80 76 163 80 77 163 80 79 163 80 80 163 80 81 163 80 82 163 80 83 163 80 84 163 80 85 163 80 87 163 80 88 163 80 89 163 80 91 163 80 92 163 80 93 163 80 95 163 80 96 163 80 36 48 121 36 48 121 36 48 121 36 48 121 36 48 121 36 48 121 36 48 121 36 48 121 36 48 121 36 48 121 36 48 121 36 48 121 36 48 121 36 48 121 36 48 121 36 48 121 36 48 121 36 48 121 36 48 121 36 48 121 36 48 121 36 48 121 36 48 121 36 48 121 36 48 121 36 48 121 36 48 121 36 48 121 36 48 121 36 48 121 36 48 121 36 48 121 36 48 121 36 48 121 36 48 121 36 48 121 36 48 121 36 48 121 36 48 121 36 48 121 36 48 121 36 48 121 36 48 121 36 48 121 36 48 121 36 48 121 36 48 121 36 48 121 36 48 121 36 48 121 36 48 121 36 48 121 36 48 121 36 48 121 36 48 121 36 48 121 36 48 121 36 48 121 36 48 121 36 48 121 36 48 121 36 48 121 36 48 121 36 48 121 36 48 121 36 48 121 36 48 121 36 48 121 36 48 121 36 48 121 36 48 121 36 48 121 36 48 121 36 48 121 36 48 121 36 48 121 36 48 121 36 48 121 36 48 121 36 48 121 36 48 121 188 157 77 189 157 77 190 157 77 191 157 76 193 156 76 193 156 76 194 156 76 195 156 76 196 156 76 197 155 76 198 155 76 199 155 76 199 155 76 200 155 75 201 154 75 202 154 75 203 154 75 204 154 75 204 154 75 206 153 75 207 153 75 208 153 75 208 153 75 209 153 74 210 152 74 211 152 74 212 152 74 213 152 74 213 152 74 214 151 74 215 151 74 216 151 74 217 151 74 217 151 74 219 150 73 220 150 73 221 150 73 221 150 73 222 150 73 223 149 73 224 149 73 224 149 73 225 149 73 226 149 73 227 149 72 228 148 72 228 148 72 229 148 72 230 148 72 231 148 72 232 147 72 233 147 72 234 147 72 234 147 72 235 147 72 236 147 71 237 146 71 238 146 71 238 146 71 239 146 71 240 146 71 241 146 71 241 145 71 242 145 71 244 145 71 244 145 71 245 145 71 246 144 70 246 144 70 247 144 70 248 144 70 249 144 70 249 144 70 250 143 70 251 143 70 252 143 70 252 143 70 253 143 70 255 143 70
0 165 79 1 165 79 2 165 79 3 165 79 4 165 79 5 165 79 6 165 79 7 165 79 9 165 79 10 165 79 11 165 79 12 165 79 13 165 79 14 165 79 15 165 79 18 165 79 19 165 79 20 165 79 21 165 79 22 165 79 23 165 79 25 165 79 26 165 79 27 165 79 28 165 79 29 165 79 30 165 79 31 165 79 33 165 79 34 165 79 36 165 79 37 165 79 38 165 79 39 165 79 41 165 79 42 165 79 43 165 79 44 165 79 45 165 79 46 165 79 47 165 79 49 165 79 50 165 79 51 165 79 52 165 79 54 165 79 55 165 79 57 165 79 58 165 79 59 165 79 60 165 79 61 165 79 62 165 79 63 165 79 65 165 79 66 165 79 67 165 79 68 165 79 69 165 79 70 165 79 73 165 79 74 165 79 75 165 79 76 165 79 77 165 79 78 165 79 79 165 79 81 165 79 82 165 79 83 165 79 84 165 79 85 165 79 86 165 79 87 165 79 89 165 79 91 165 79 92 165 79 93 165 79 94 165 79 95 165 79 36 48 121 36 48 121 36 48 121 36 48 121 36 48 121 36 48 121 36 48 121 36 48 121 36 48 121 36 48 121 36 48 121 36 48 121 36 48 121 36 48 121 36 48 121 36 48 121 36 48 121 36 48 121 36 48 121 36 48 121 36 48 121 36 48 121 36 48 121 36 48 121 36 48 121 36 48 121 36 48 121 36 48 121 36 48 121 36 48 121 36 48 121 36 48 121 36 48 121 36 48 121 36 48 121 36 48 121 36 48 121 36 48 121 36 48 121 36 48 121 36 48 121 36 48 121 36 48 121 36 48 121 36 48 121 36 48 121 36 48 121 36 48 121 36 48 121 36 48 121 36 48 121 36 48 121 36 48 121 36 48 121 36 48 121 36 48 121 36 48 121 36 48 121 36 48 121 36 48 121 36 48 121 36 48 121 36 48 121 36 48 121 36 48 121 36 48 121 36 48 121 36 48 121 36 48 121 36 48 121 36 48 121 36 48 121 36 48 121 36 48 121 36 48 121 36 48 121 36 48 121 36 48 121 36 48 121 36 48 121 36 48 121 188 160 77 189 159 77 190 159 77 191 159 76 193 159 76 193 158 76 194 158 76 195 158 76 196 158 76 197 158 76 198 157 76 199 157 76 199 157 76 200 157 75 201 157 75 202 156 75 203 156 75 204 156 75 204 156 75 206 155 75 207 155 75 208 155 75 208 155 75 209 155 74 210 154 74 211 154 74 212 154 74 213 154 74 213 154 74 214 154 74 215 153 74 216 153 74 217 153 74 217 153 74 219 152 73 220 152 73 221 152 73 221 152 73 222 152 73 223 152 73 224 151 73 224 151 73 225 151 73 226 151 73 227 151 72 228 151 72 228 150 72 229 150 72 230 150 72 231 150 72 232 149 72 233 149 72 234 149 72 234 149 72 235 149 72 236 149 71 237 148 71 238 148 71 238 148 71 239 148 71 240 148 71 241 148 71 241 147 71 242 147 71 244 147 71 244 147 71 245 147 71 246 146 70 246 146 70 247 146 70 248 146 70 249 146 70 249 146 70 250 145 70 251 145 70 252 145 70 252 145 70 253 145 70 255 145 70
0 166 79 1 166 79 2 166 79 3 166 79 4 166 79 5 166 79 6 166 79 7 166 79 9 166 79 10 166 79 11 166 79 12 166 79 13 166 79 14 166 79 15 166 79 18 166 79 19 166 79 20 166 79 21 166 79 22 166 79 23 166 79 25 166 79 26 166 79 27 166 79 28 166 79 29 166 79 30 166 79 31 166 79 33 166 79 34 166 79 36 166 79 37 166 79 38 166 79 39 166 79 41 166 79 42 166 79 43 166 79 44 166 79 45 166 79 46 166 79 47 166 79 49 166 79 50 166 79 51 166 79 52 166 79 54 166 79 55 166 79 57 166 79 58 166 79 59 166 79 60 166 79 61 166 79 62 166 79 63 166 79 65 166 79 66 166 79 67 166 79 68 166 79 69 166 79 70 166 79 73 166 79 74 166 79 75 166 79 76 166 79 77 166 79 78 166 79 79 166 79 80 166 79 82 166 79 83 166 79 84 166 79 85 166 79 86 166 79 87 166 79 88 166 79 91 166 79 92 166 79 93 166 79 94 166 79 95 166 79 96 166 79 36 48 121 36 48 121 36 48 121 36 48 121 36 48 121 36 48 121 36 48 121 36 48 121 36 48 121 36 48 121 36 48 121 36 48 121 36 48 121 36 48 121 36 48 121 36 48 121 36 48 121 36 48 121 36 48 121 36 48 121 36 48 121 36 48 121 36 48 121 36 48 121 36 48 121 36 48 121 36 48 121 36 48 121 36 48 121 36 48 121 36 48 121 36 48 121 36 48 121 36 48 121 36 48 121 36 48 121 36 48 121 36 48 121 36 48 121 36 48 121 36 48 121 36 48 121 36 48 121 36 48 121 36 48 121 36 48 121 36 48 121 36 48 121 36 48 121 36 48 121 36 48 121 36 48 121 36 48 121 36 48 121 36 48 121 36 48 121 36 48 121 36 48 121 36 48 121 36 48 121 36 48 121 36 48 121 36 48 121 36 48 121 36 48 121 36 48 121 36 48 121 36 48 121 36 48 121 36 48 121 36 48 121 36 48 121 36 48 121 36 48 121 36 48 121 36 48 121 36 48 121 36 48 121 36 48 121 187 161 77 188 161 77 189 160 77 190 160 77 191 160 76 193 160 76 193 159 76 194 159 76 195 159 76 196 159 76 197 159 76 198 158 76 199 158 76 199 158 76 200 158 75 201 158 75 202 157 75 203 157 75 204 157 75 204 157 75 206 157 75 207 156 75 208 156 75 208 156 75 209 156 74 210 156 74 211 155 74 212 155 74 213 155 74 213 155 74 214 155 74 215 154 74 216 154 74 217 154 74 217 154 74 219 154 73 220 153 73 221 153 73 221 153 73 222 153 73 223 153 73 224 152 73 224 152 73 225 152 73 226 152 73 227 152 72 228 152 72 228 151 72 229 151 72 230 151 72 231 151 72 232 150 72 233 150 72 234 150 72 234 150 72 235 150 72 236 150 71 237 149 71 238 149 71 238 149 71 239 149 71 240 149 71 241 149 71 241 148 71 242 148 71 244 148 71 244 148 71 245 148 71 246 147 70 246 147 70 247 147 70 248 147 70 249 147 70 249 147 70 250 146 70 251 146 70 252 146 70 252 146 70 253 146 70 255 146 70
0 168 79 1 168 79 2 168 79 3 168 79 4 168 79 5 168 79 6 168 79 7 168 79 9 168 79 10 168 79 11 168 79 12 168 79 13 168 79 14 168 79 15 168 79 18 168 79 19 168 79 20 168 79 21 168 79 22 168 79 23 168 79 25 168 79 26 168 79 27 168 79 28 168 79 29 168 79 30 168 79 31 168 79 32 168 79 34 168 79 36 168 79 37 168 79 38 168 79 39 168 79 40 168 79 42 168 79 43 168 79 44 168 79 45 168 79 46 168 79 47 168 79 48 168 79 50 168 79 51 168 79 52 168 79 54 168 79 55 168 79 56 168 79 58 168 79 59 168 79 60 168 79 61 168 79 62 168 79 63 168 79 64 168 79 65 168 79 67 168 79 68 168 79 69 168 79 70 168 79 72 168 79 73 168 79 75 168 79 76 168 79 77 168 79 78 168 79 79 168 79 80 168 79 81 168 79 83 168 79 84 168 79 85 168 79 86 168 79 87 168 79 88 168 79 91 168 79 92 168 79 93 168 79 94 168 79 95 168 79 96 168 79 36 48 121 36 48 121 36 48 121 36 48 121 36 48 121 36 48 121 36 48 121 36 48 121 36 48 121 36 48 121 36 48 121 36 48 121 36 48 121 36 48 121 36 48 121 36 48 121 36 48 121 36 48 121 36 48 121 36 48 121 36 48 121 36 48 121 36 48 121 36 48 121 36 48 121 36 48 121 36 48 121 36 48 121 36 48 121 36 48 121 36 48 121 36 48 121 36 48 121 36 48 121 36 48 121 36 48 121 36 48 121 36 48 121 36 48 121 36 48 121 36 48 121 36 48 121 36 48 121 36 48 121 36 48 121 36 48 121 36 48 121 36 48 121 36 48 121 36 48 121 36 48 121 36 48 121 36 48 121 36 48 121 36 48 121 36 48 121 36 48 121 36 48 121 36 48 121 36 48 121 36 48 121 36 48 121 36 48 121 36 48 121 36 48 121 36 48 121 36 48 121 36 48 121 36 48 121 36 48 121 36 48 121 36 48 121 36 48 121 36 48 121 36 48 121 36 48 121 36 48 121 36 48 121 36 48 121 187 163 77 188 163 77 189 163 77 190 162 77 191 162 76 193 162 76 193 162 76 194 161 76 195 161 76 196 161 76 197 161 76 198 161 76 199 160 76 199 160 76 200 160 75 201 160 75 202 160 75 203 159 75 204 159 75 204 159 75 206 159 75 207 158 75 208 158 75 208 158 75 209 158 74 210 158 74 211 158 74 212 157 74 213 157 74 213 157 74 214 157 74 215 157 74 216 156 74 217 156 74 217 156 74 219 156 73 220 155 73 221 155 73 221 155 73 222 155 73 223 155 73 224 155 73 224 154 73 225 154 73 226 154 73 227 154 72 228 154 72 228 153 72 229 153 72 230 153 72 231 153 72 232 153 72 233 152 72 234 152 72 234 152 72 235 152 72 236 152 71 237 152 71 238 151 71 238 151 71 239 151 71 240 151 71 241 151 71 241 150 71 242 150 71 244 150 71 244 150 71 245 150 71 246 149 70 246 149 70 247 149 70 248 149 70 249 149 70 249 149 70 250 148 70 251 148 70 252 148 70 252 148 70 253 148 70 255 148 70
0 169 79 1 169 79 2 169 79 3 169 79 4 169 79 5 169 79 6 169 79 7 169 79 9 169 79 10 169 79 11 169 79 12 169 79 13 169 79 14 169 79 15 169 79 18 169 79 19 169 79 20 169 79 21 169 79 22 169 79 23 169 79 24 169 79 26 169 79 27 169 79 28 169 79 29 169 79 30 169 79 31 169 79 32 169 79 34 169 79 36 169 79 37 169 79 38 169 79 39 169 79 40 169 79 42 169 79 43 169 79 44 169 79 45 169 79 46 169 79 47 169 79 48 169 79 49 169 79 51 169 79 52 169 79 54 169 79 55 169 79 56 169 79 57 169 79 59 169 79 60 169 79 61 169 79 62 169 79 63 169 79 64 169 79 65 169 79 67 169 79 68 169 79 69 169 79 70 169 79 72 169 79 73 169 79 74 169 79 76 169 79 77 169 79 78 169 79 79 169 79 80 169 79 81 169 79 82 169 79 84 169 79 85 169 79 86 169 79 87 169 79 88 169 79 90 169 79 92 169 79 93 169 79 94 169 79 95 169 79 96 169 79 36 48 121 36 48 121 36 48 121 36 48 121 36 48 121 36 48 121 36 48 121 36 48 121 36 48 121 36 48 121 36 48 121 36 48 121 36 48 121 36 48 121 36 48 121 36 48 121 36 48 121 36 48 121 36 48 121 36 48 121 36 48 121 36 48 121 36 48 121 36 48 121 36 48 121 36 48 121 36 48 121 36 48 121 36 48 121 36 48 121 36 48 121 36 48 121 36 48 121 36 48 121 36 48 121 36 48 121 36 48 121 36 48 121 36 48 121 36 48 121 36 48 121 36 48 121 36 48 121 36 48 121 36 48 121 36 48 121 36 48 121 36 48 121 36 48 121 36 48 121 36 48 121 36 48 121 36 48 121 36 48 121 36 48 121 36 48 121 36 48 121 36 48 121 36 48 121 36 48 121 36 48 121 36 48 121 36 48 121 36 48 121 36 48 121 36 48 121 36 48 121 36 48 121 36 48 121 36 48 121 36 48 121 36 48 121 36 48 121 36 48 121 36 48 121 36 48 121 36 48 121 36 48 121 36 48 121 187 164 77 188 164 77 189 164 77 190 164 77 191 163 76 193 163 76 193 163 76 194 163 76 195 162 76 196 162 76 197 162 76 198 162 76 199 162 76 199 161 76 200 161 75 201 161 75 202 161 75 203 161 75 204 160 75 204 160 75 206 160 75 207 160 75 208 159 75 208 159 75 209 159 74 210 159 74 211 159 74 212 158 74 213 158 74 213 158 74 214 158 74 215 158 74 216 157 74 217 157 74 217 157 74 219 157 73 220 157 73 221 156 73 221 156 73 222 156 73 223 156 73 224 156 73 224 155 73 225 155 73 226 155 73 227 155 72 228 155 72 228 154 72 229 154 72 230 154 72 231 154 72 232 154 72 233 153 72 234 153 72 234 153 72 235 153 72 236 153 71 237 153 71 238 152 71 238 152 71 239 152 71 240 152 71 241 152 71 241 152 71 242 151 71 244 151 71 244 151 71 245 151 71 246 150 70 246 150 70 247 150 70 248 150 70 249 150 70 249 150 70 250 149 70 251 149 70 252 149 70 252 149 70 253 149 70 255 149 70
0 171 79 1 171 79 2 171 79 3 171 79 4 171 79 5 171 79 6 171 79 7 171 79 9 171 79 10 171 79 11 171 79 12 171 79 13 171 79 14 171 79 15 171 79 18 171 79 19 171 79 20 171 79 21 171 79 22 171 79 23 171 79 24 171 79 26 171 79 27 171 79 28 171 79 29 171 79 30 171 79 31 171 79 32 171 79 33 171 79 36 171 79 37 171 79 38 171 79 39 171 79 40 171 79 41 171 79 43 171 79 44 171 79 45 171 79 46 171 79 47 171 79 48 171 79 49 171 79 50 171 79 52 171 79 54 171 79 55 171 79 56 171 79 57 171 79 58 171 79 60 171 79 61 171 79 62 171 79 63 171 79 64 171 79 65 171 79 66 171 79 67 171 79 69 171 79 70 171 79 72 171 79 73 171 79 74 171 79 75 171 79 77 171 79 78 171 79 79 171 79 80 171 79 81 171 79 82 171 79 83 171 79 84 171 79 86 171 79 87 171 79 88 171 79 90 171 79 91 171 79 92 171 79 94 171 79 95 171 79 96 171 79 97 171 79 36 48 121 36 48 121 36 48 121 36 48 121 36 48 121 36 48 121 36 48 121 36 48 121 36 48 121 36 48 121 36 48 121 36 48 121 36 48 121 36 48 121 36 48 121 36 48 121 36 48 121 36 48 121 36 48 121 36 48 121 36 48 121 36 48 121 36 48 121 36 48 121 36 48 121 36 48 121 36 48 121 36 48 121 36 48 121 36 48 121 36 48 121 36 48 121 36 48 121 36 48 121 36 48 121 36 48 121 36 48 121 36 48 121 36 48 121 36 48 121 36 48 121 36 48 121 36 48 121 36 48 121 36 48 121 36 48 121 36 48 121 36 48 121 36 48 121 36 48 121 36 48 121 36 48 121 36 48 121 36 48 121 36 48 121 36 48 121 36 48 121 36 48 121 36 48 121 36 48 121 36 48 121 36 48 121 36 48 121 36 48 121 36 48 121 36 48 121 36 48 121 36 48 121 36 48 121 36 48 121 36 48 121 36 48 121 36 48 121 36 48 121 36 48 121 36 48 121 36 48 121 187 167 77 187 166 77 188 166 77 189 166 77 190 166 77 191 166 76 193 165 76 193 165 76 194 165 76 195 165 76 196 164 76 197 164 76 198 164 76 199 164 76 199 164 76 200 163 75 201 163 75 202 163 75 203 163 75 204 162 75 204 162 75 206 162 75 207 162 75 208 162 75 208 161 75 209 161 74 210 161 74 211 161 74 212 161 74 213 160 74 213 160 74 214 160 74 215 160 74 216 160 74 217 159 74 217 159 74 219 159 73 220 159 73 221 158 73 221 158 73 222 158 73 223 158 73 224 158 73 224 157 73 225 157 73 226 157 73 227 157 72 228 157 72 228 157 72 229 156 72 230 156 72 231 156 72 232 156 72 233 155 72 234 155 72 234 155 72 235 155 72 236 155 71 237 155 71 238 154 71 238 154 71 239 154 71 240 154 71 241 154 71 241 154 71 242 153 71 244 153 71 244 153 71 245 153 71 246 153 70 246 152 70 247 152 70 248 152 70 249 152 70 249 152 70 250 151 70 251 151 70 252 151 70 252 151 70 253 151 70 255 151 70
0 172 79 1 172 79 2 172 79 3 172 79 4 172 79 5 172 79 6 172 79 7 172 79 9 172 79 10 172 79 11 172 79 12 172 79 13 172 79 14 172 79 15 172 79 18 172 79 19 172 79 20 172 79 21 172 79 22 172 79 23 172 79 24 172 79 26 172 79 27 172 79 28 172 79 29 172 79 30 172 79 31 172 79 32 172 79 33 172 79 36 172 79 37 172 79 38 172 79 39 172 79 40 172 79 41 172 79 43 172 79 44 172 79 45 172 79 46 172 79 47 172 79 48 172 79 49 172 79 50 172 79 52 172 79 54 172 79 55 172 79 56 172 79 57 172 79 58 172 79 59 172 79 61 172 79 62 172 79 63 172 79 64 172 79 65 172 79 66 172 79 67 172 79 69 172 79 70 172 79 72 172 79 73 172 79 74 172 79 75 172 79 76 172 79 78 172 79 79 172 79 80 172 79 81 172 79 82 172 79 83 172 79 84 172 79 86 172 79 87 172 79 88 172 79 90 172 79 91 172 79 92 172 79 93 172 79 95 172 79 96 172 79 97 172 79 36 48 121 36 48 121 36 48 121 36 48 121 36 48 121 36 48 121 36 48 121 36 48 121 36 48 121 36 48 121 36 48 121 36 48 121 36 48 121 36 48 121 36 48 121 36 48 121 36 48 121 36 48 121 36 48 121 36 48 121 36 48 121 36 48 121 36 48 121 36 48 121 36 48 121 36 48 121 36 48 121 36 48 121 36 48 121 36 48 121 36 48 121 36 48 121 36 48 121 36 48 121 36 48 121 36 48 121 36 48 121 36 48 121 36 48 121 36 48 121 36 48 121 36 48 121 36 48 121 36 48 121 36 48 121 36 48 121 36 48 121 36 48 121 36 48 121 36 48 121 36 48 121 36 48 121 36 48 121 36 48 121 36 48 121 36 48 121 36 48 121 36 48 121 36 48 121 36 48 121 36 48 121 36 48 121 36 48 121 36 48 121 36 48 121 36 48 121 36 48 121 36 48 121 36 48 121 36 48 121 36 48 121 36 48 121 36 48 121 36 48 121 36 48 121 36 48 121 36 48 121 187 168 77 187 168 77 188 167 77 189 167 77 190 167 77 191 167 76 193 166 76 193 166 76 194 166 76 195 166 76 196 165 76 197 165 76 198 165 76 199 165 76 199 165 76 200 164 75 201 164 75 202 164 75 203 164 75 204 164 75 204 163 75 206 163 75 207 163 75 208 163 75 208 162 75 209 162 74 210 162 74 211 162 74 212 162 74 213 161 74 213 161 74 214 161 74 215 161 74 216 161 74 217 160 74 217 160 74 219 160 73 220 160 73 221 159 73 221 159 73 222 159 73 223 159 73 224 159 73 224 159 73 225 158 73 226 158 73 227 158 72 228 158 72 228 158 72 229 157 72 230 157 72 231 157 72 232 157 72 233 157 72 234 156 72 234 156 72 235 156 72 236 156 71 237 156 71 238 155 71 238 155 71 239 155 71 240 155 71 241 155 71 241 155 71 242 154 71 244 154 71 244 154 71 245 154 71 246 154 70 246 153 70 247 153 70 248 153 70 249 153 70 249 153 70 250 153 70 251 152 70 252 152 70 252 152 70 253 152 70 255 152 70
0 172 79 1 172 79 2 172 79 3 172 79 4 172 79 5 172 79 6 172 79 7 172 79 9 172 79 10 172 79 11 172 79 12 172 79 13 172 79 14 172 79 15 172 79 18 172 79 19 172 79 20 172 79 21 172 79 22 172 79 23 172 79 24 172 79 25 172 79 27 172 79 28 172 79 29 172 79 30 172 79 31 172 79 32 172 79 33 172 79 36 172 79 37 172 79 38 172 79 39 172 79 40 172 79 41 172 79 42 172 79 44 172 79 45 172 79 46 172 79 47 172 79 48 172 79 49 172 79 50 172 79 51 172 79 54 172 79 55 172 79 56 172 79 57 172 79 58 172 79 59 172 79 61 172 79 62 172 79 63 172 79 64 172 79 65 172 79 66 172 79 67 172 79 68 172 79 70 172 79 72 172 79 73 172 79 74 172 79 75 172 79 76 172 79 77 172 79 79 172 79 80 172 79 81 172 79 82 172 79 83 172 79 84 172 79 85 172 79 87 172 79 88 172 79 90 172 79 91 172 79 92 172 79 93 172 79 94 172 79 96 172 79 97 172 79 98 172 79 36 48 121 36 48 121 36 48 121 36 48 121 36 48 121 36 48 121 36 48 121 36 48 121 36 48 121 36 48 121 36 48 121 36 48 121 36 48 121 36 48 121 36 48 121 36 48 121 36 48 121 36 48 121 36 48 121 36 48 121 36 48 121 36 48 121 36 48 121 36 48 121 36 48 121 36 48 121 36 48 121 36 48 121 36 48 121 36 48 121 36 48 121 36 48 121 36 48 121 36 48 121 36 48 121 36 48 121 36 48 121 36 48 121 36 48 121 36 48 121 36 48 121 36 48 121 36 48 121 36 48 121 36 48 121 36 48 121 36 48 121 36 48 121 36 48 121 36 48 121 36 48 121 36 48 121 36 48 121 36 48 121 36 48 121 36 48 121 36 48 121 36 48 121 36 48 121 36 48 121 36 48 121 36 48 121 36 48 121 36 48 121 36 48 121 36 48 121 36 48 121 36 48 121 36 48 121 36 48 121 36 48 121 36 48 121 36 48 121 36 48 121 36 48 121 186 169 77 187 169 77 187 169 77 188 168 77 189 168 77 190 168 77 191 168 76 193 167 76 193 167 76 194 167 76 195 167 76 196 167 76 197 166 76 198 166 76 199 166 76 199 166 76 200 165 75 201 165 75 202 165 75 203 165 75 204 165 75 204 164 75 206 164 75 207 164 75 208 164 75 208 163 75 209 163 74 210 163 74 211 163 74 212 163 74 213 162 74 213 162 74 214 162 74 215 162 74 216 162 74 217 161 74 217 161 74 219 161 73 220 161 73 221 161 73 221 160 73 222 160 73 223 160 73 224 160 73 224 160 73 225 159 73 226 159 73 227 159 72 228 159 72 228 159 72 229 158 72 230 158 72 231 158 72 232 158 72 233 158 72 234 157 72 234 157 72 235 157 72 236 157 71 237 157 71 238 156 71 238 156 71 239 156 71 240 156 71 241 156 71 241 156 71 242 155 71 244 155 71 244 155 71 245 155 71 246 155 70 246 154 70 247 154 70 248 154 70 249 154 70 249 154 70 250 154 70 251 153 70 252 153 70 252 153 70 253 153 70 255 153 70
0 174 78 1 174 78 2 174 78 3 174 78 4 174 78 5 174 78 6 174 78 7 174 78 9 174 78 10 174 78 11 174 78 12 174 78 13 174 78 14 174 78 15 174 78 18 174 78 19 174 78 20 174 78 21 174 78 22 174 78 23 174 78 24 174 78 25 174 78 27 174 78 28 174 78 29 174 78 30 174 78 31 174 78 32 174 78 33 174 78 36 174 78 37 174 78 38 174 78 39 174 78 40 174 78 41 174 78 42 174 78 43 174 78 45 174 78 46 174 78 47 174 78 48 174 78 49 174 78 50 174 78 51 174 78 54 174 78 55 174 78 56 174 78 57 174 78 58 174 78 59 174 78 60 174 78 61 174 78 63 174 78 64 174 78 65 174 78 66 174 78 67 174 78 68 174 78 69 174 78 72 174 78 73 174 78 74 174 78 75 174 78 76 174 78 77 174 78 78 174 78 80 174 78 81 174 78 82 174 78 83 174 78 84 174 78 85 174 78 86 174 78 87 174 78 90 174 78 91 174 78 92 174 78 93 174 78 94 174 78 95 174 78 96 174 78 98 174 78 36 48 121 36 48 121 36 48 121 36 48 121 36 48 121 36 48 121 36 48 121 36 48 121 36 48 121 36 48 121 36 48 121 36 48 121 36 48 121 36 48 121 36 48 121 36 48 121 36 48 121 36 48 121 36 48 121 36 48 121 36 48 121 36 48 121 36 48 121 36 48 121 36 48 121 36 48 121 36 48 121 36 48 121 36 48 121 36 48 121 36 48 121 36 48 121 36 48 121 36 48 121 36 48 121 36 48 121 36 48 121 36 48 121 36 48 121 36 48 121 36 48 121 36 48 121 36 48 121 36 48 121 36 48 121 36 48 121 36 48 121 36 48 121 36 48 121 36 48 121 36 48 121 36 48 121 36 48 121 36 48 121 36 48 121 36 48 121 36 48 121 36 48 121 36 48 121 36 48 121 36 48 121 36 48 121 36 48 121 36 48 121 36 48 121 36 48 121 36 48 121 36 48 121 36 48 121 36 48 121 36 48 121 36 48 121 36 48 121 36 48 121 36 48 121 186 171 77 187 171 77 187 171 77 188 171 77 189 170 77 190 170 77 191 170 76 193 170 76 193 169 76 194 169 76 195 169 76 196 169 76 197 168 76 198 168 76 199 168 76 199 168 76 200 168 75 201 167 75 202 167 75 203 167 75 204 167 75 204 167 75 206 166 75 207 166 75 208 166 75 208 166 75 209 165 74 210 165 74 211 165 74 212 165 74 213 165 74 213 164 74 214 164 74 215 164 74 216 164 74 217 164 74 217 163 74 219 163 73 220 163 73 221 163 73 221 162 73 222 162 73 223 162 73 224 162 73 224 162 73 225 161 73 226 161 73 227 161 72 228 161 72 228 161 72 229 161 72 230 160 72 231 160 72 232 160 72 233 160 72 234 159 72 234 159 72 235 159 72 236 159 71 237 159 71 238 159 71 238 158 71 239 158 71 240 158 71 241 158 71 241 158 71 242 157 71 244 157 71 244 157 71 245 157 71 246 157 70 246 156 70 247 156 70 248 156 70 249 156 70 249 156 70 250 156 70 251 155 70 252 155 70 252 155 70 253 155 70 255 154 70
0 175 78 1 175 78 2 175 78 3 175 78 4 175 78 5 175 78 6 175 78 7 175 78 9 175 78 10 175 78 11 175 78 12 175 78 13 175 78 14 175 78 15 175 78 18 175 78 19 175 78 20 175 78 21 175 78 22 175 78 23 175 78 24 175 78 25 175 78 27 175 78 28 175 78 29 175 78 30 175 78 31 175 78 32 175 78 33 175 78 36 175 78 37 175 78 38 175 78 39 175 78 40 175 78 41 175 78 42 175 78 43 175 78 45 175 78 46 175 78 47 175 78 48 175 78 49 175 78 50 175 78 51 175 78 54 175 78 55 175 78 56 175 78 57 175 78 58 175 78 59 175 78 60 175 78 61 175 78 63 175 78 64 175 78 65 175 78 66 175 78 67 175 78 68 175 78 69 175 78 72 175 78 73 175 78 74 175 78 75 175 78 76 175 78 77 175 78 78 175 78 79 175 78 81 175 78 82 175 78 83 175 78 84 175 78 85 175 78 86 175 78 87 175 78 90 175 78 91 175 78 92 175 78 93 175 78 94 175 78 95 175 78 96 175 78 97 175 78 99 175 78 36 48 121 36 48 121 36 48 121 36 48 121 36 48 121 36 48 121 36 48 121 36 48 121 36 48 121 36 48 121 36 48 121 36 48 121 36 48 121 36 48 121 36 48 121 36 48 121 36 48 121 36 48 121 36 48 121 36 48 121 36 48 121 36 48 121 36 48 121 36 48 121 36 48 121 36 48 121 36 48 121 36 48 121 36 48 121 36 48 121 36 48 121 36 48 121 36 48 121 36 48 121 36 48 121 36 48 121 36 48 121 36 48 121 36 48 121 36 48 121 36 48 121 36 48 121 36 48 121 36 48 121 36 48 121 36 48 121 36 48 121 36 48 121 36 48 121 36 48 121 36 48 121 36 48 121 36 48 121 36 48 121 36 48 121 36 48 121 36 48 121 36 48 121 36 48 121 36 48 121 36 48 121 36 48 121 36 48 121 36 48 121 36 48 121 36 48 121 36 48 121 36 48 121 36 48 121 36 48 121 36 48 121 36 48 121 36 48 121 185 173 77 186 172 77 187 172 77 187 172 77 188 172 77 189 172 77 190 171 77 191 171 76 193 171 76 193 170 76 194 170 76 195 170 76 196 170 76 197 170 76 198 169 76 199 169 76 199 169 76 200 169 75 201 169 75 202 168 75 203 168 75 204 168 75 204 168 75 206 167 75 207 167 75 208 167 75 208 167 75 209 166 74 210 166 74 211 166 74 212 166 74 213 166 74 213 165 74 214 165 74 215 165 74 216 165 74 217 165 74 217 164 74 219 164 73 220 164 73 221 164 73 221 163 73 222 163 73 223 163 73 224 163 73 224 163 73 225 163 73 226 162 73 227 162 72 228 162 72 228 162 72 229 162 72 230 161 72 231 161 72 232 161 72 233 161 72 234 160 72 234 160 72 235 160 72 236 160 71 237 160 71 238 160 71 238 159 71 239 159 71 240 159 71 241 159 71 241 159 71 242 158 71 244 158 71 244 158 71 245 158 71 246 158 70 246 157 70 247 157 70 248 157 70 249 157 70 249 157 70 250 157 70 251 156 70 252 156 70 252 156 70 253 156 70 255 156 70
0 177 78 1 177 78 2 177 78 3 177 78 4 177 78 5 177 78 6 177 78 7 177 78 8 177 78 10 177 78 11 177 78 12 177 78 13 177 78 14 177 78 15 177 78 17 177 78 19 177 78 20 177 78 21 177 78 22 177 78 23 177 78 24 177 78 25 177 78 26 177 78 28 177 78 29 177 78 30 177 78 31 177 78 32 177 78 33 177 78 35 177 78 37 177 78 38 177 78 39 177 78 40 177 78 41 177 78 42 177 78 43 177 78 44 177 78 46 177 78 47 177 78 48 177 78 49 177 78 50 177 78 51 177 78 53 177 78 55 177 78 56 177 78 57 177 78 58 177 78 59 177 78 60 177 78 61 177 78 62 177 78 63 177 78 65 177 78 66 177 78 67 177 78 68 177 78 69 177 78 71 177 78 72 177 78 74 177 78 75 177 78 76 177 78 77 177 78 78 177 78 79 177 78 80 177 78 81 177 78 83 177 78 84 177 78 85 177 78 86 177 78 87 177 78 89 177 78 90 177 78 92 177 78 93 177 78 94 177 78 95 177 78 96 177 78 97 177 78 98 177 78 36 48 121 36 48 121 36 48 121 36 48 121 36 48 121 36 48 121 36 48 121 36 48 121 36 48 121 36 48 121 36 48 121 36 48 121 36 48 121 36 48 121 36 48 121 36 48 121 36 48 121 36 48 121 36 48 121 36 48 121 36 48 121 36 48 121 36 48 121 36 48 121 36 48 121 36 48 121 36 48 121 36 48 121 36 48 121 36 48 121 36 48 121 36 48 121 36 48 121 36 48 121 36 48 121 36 48 121 36 48 121 36 48 121 36 48 121 36 48 121 36 48 121 36 48 121 36 48 121 36 48 121 36 48 121 36 48 121 36 48 121 36 48 121 36 48 121 36 48 121 36 48 121 36 48 121 36 48 121 36 48 121 36 48 121 36 48 121 36 48 121 36 48 121 36 48 121 36 48 121 36 48 121 36 48 121 36 48 121 36 48 121 36 48 121 36 48 121 36 48 121 36 48 121 36 48 121 36 48 121 36 48 121 36 48 121 36 48 121 185 175 77 186 175 77 187 174 77 187 174 77 188 174 77 189 174 77 190 173 77 191 173 76 193 173 76 193 173 76 194 172 76 195 172 76 196 172 76 197 172 76 198 172 76 199 171 76 199 171 76 200 171 75 201 171 75 202 170 75 203 170 75 204 170 75 204 170 75 206 169 75 207 169 75 208 169 75 208 169 75 209 169 74 210 168 74 211 168 74 212 168 74 213 168 74 213 168 74 214 167 74 215 167 74 216 167 74 217 167 74 217 167 74 219 166 73 220 166 73 221 166 73 221 166 73 222 165 73 223 165 73 224 165 73 224 165 73 225 165 73 226 164 73 227 164 72 228 164 72 228 164 72 229 164 72 230 163 72 231 163 72 232 163 72 233 163 72 234 163 72 234 162 72 235 162 72 236 162 71 237 162 71 238 162 71 238 161 71 239 161 71 240 161 71 241 161 71 241 161 71 242 161 71 244 160 71 244 160 71 245 160 71 246 160 70 246 159 70 247 159 70 248 159 70 249 159 70 249 159 70 250 159 70 251 158 70 252 158 70 252 158 70 253 158 70 255 158 70
0 178 78 1 178 78 2 178 78 3 178 78 4 178 78 5 178 78 6 178 78 7 178 78 8 178 78 10 178 78 11 178 78 12 178 78 13 178 78 14 178 78 15 178 78 17 178 78 19 178 78 20 178 78 21 178 78 22 178 78 23 178 78 24 178 78 25 178 78 26 178 78 28 178 78 29 178 78 30 178 78 31 178 78 32 178 78 33 178 78 35 178 78 37 178 78 38 178 78 39 178 78 40 178 78 41 178 78 42 178 78 43 178 78 44 178 78 45 178 78 47 178 78 48 178 78 49 178 78 50 178 78 51 178 78 53 178 78 54 178 78 56 178 78 57 178 78 58 178 78 59 178 78 60 178 78 61 178 78 62 178 78 63 178 78 65 178 78 66 178 78 67 178 78 68 178 78 69 178 78 71 178 78 72 178 78 74 178 78 75 178 78 76 178 78 77 178 78 78 178 78 79 178 78 80 178 78 81 178 78 82 178 78 84 178 78 85 178 78 86 178 78 87 178 78 89 178 78 90 178 78 91 178 78 93 178 78 94 178 78 95 178 78 96 178 78 97 178 78 98 178 78 99 178 78 36 48 121 36 48 121 36 48 121 36 48 121 36 48 121 36 48 121 36 48 121 36 48 121 36 48 121 36 48 121 36 48 121 36 48 121 36 48 121 36 48 121 36 48 121 36 48 121 36 48 121 36 48 121 36 48 121 36 48 121 36 48 121 36 48 121 36 48 121 36 48 121 36 48 121 36 48 121 36 48 121 36 48 121 36 48 121 36 48 121 36 48 121 36 48 121 36 48 121 36 48 121 36 48 121 36 48 121 36 48 121 36 48 121 36 48 121 36 48 121 36 48 121 36 48 121 36 48 121 36 48 121 36 48 121 36 48 121 36 48 121 36 48 121 36 48 121 36 48 121 36 48 121 36 48 121 36 48 121 36 48 121 36 48 121 36 48 121 36 48 121 36 48 121 36 48 121 36 48 121 36 48 121 36 48 121 36 48 121 36 48 121 36 48 121 36 48 121 36 48 121 36 48 121 36 48 121 36 48 121 36 48 121 184 176 77 185 176 77 186 176 77 187 175 77 187 175 77 188 175 77 189 175 77 190 175 77 191 174 76 193 174 76 193 174 76 194 173 76 195 173 76 196 173 76 197 173 76 198 173 76 199 172 76 199 172 76 200 172 75 201 172 75 202 172 75 203 171 75 204 171 75 204 171 75 206 171 75 207 170 75 208 170 75 208 170 75 209 170 74 210 169 74 211 169 74 212 169 74 213 169 74 213 169 74 214 168 74 215 168 74 216 168 74 217 168 74 217 168 74 219 167 73 220 167 73 221 167 73 221 167 73 222 166 73 223 166 73 224 166 73 224 166 73 225 166 73 226 165 73 227 165 72 228 165 72 228 165 72 229 165 72 230 165 72 231 164 72 232 164 72 233 164 72 234 164 72 234 163 72 235 163 72 236 163 71 237 163 71 238 163 71 238 162 71 239 162 71 240 162 71 241 162 71 241 162 71 242 162 71 244 161 71 244 161 71 245 161 71 246 161 70 246 160 70 247 160 70 248 160 70 249 160 70 249 160 70 250 160 70 251 159 70 252 159 70 252 159 70 253 159 70 255 159 70
0 179 78 1 179 78 2 179 78 3 179 78 4 179 78 5 179 78 6 179 78 7 179 78 8 179 78 10 179 78 11 179 78 12 179 78 13 179 78 14 179 78 15 179 78 17 179 78 19 179 78 20 179 78 21 179 78 22 179 78 23 179 78 24 179 78 25 179 78 26 179 78 27 179 78 29 179 78 30 179 78 31 179 78 32 179 78 33 179 78 35 179 78 36 179 78 38 179 78 39 179 78 40 179 78 41 179 78 42 179 78 43 179 78 44 179 78 45 179 78 47 179 78 48 179 78 49 179 78 50 179 78 51 179 78 53 179 78 54 179 78 55 179 78 57 179 78 58 179 78 59 179 78 60 179 78 61 179 78 62 179 78 63 179 78 64 179 78 66 179 78 67 179 78 68 179 78 69 179 78 71 179 78 72 179 78 73 179 78 75 179 78 76 179 78 77 179 78 78 179 78 79 179 78 80 179 78 81 179 78 82 179 78 83 179 78 85 179 78 86 179 78 87 179 78 89 179 78 90 179 78 91 179 78 92 179 78 94 179 78 95 179 78 96 179 78 97 179 78 98 179 78 99 179 78 36 48 121 36 48 121 36 48 121 36 48 121 36 48 121 36 48 121 36 48 121 36 48 121 36 48 121 36 48 121 36 48 121 36 48 121 36 48 121 36 48 121 36 48 121 36 48 121 36 48 121 36 48 121 36 48 121 36 48 121 36 48 121 36 48 121 36 48 121 36 48 121 36 48 121 36 48 121 36 48 121 36 48 121 36 48 121 36 48 121 36 48 121 36 48 121 36 48 121 36 48 121 36 48 121 36 48 121 36 48 121 36 48 121 36 48 121 36 48 121 36 48 121 36 48 121 36 48 121 36 48 121 36 48 121 36 48 121 36 48 121 36 48 121 36 48 121 36 48 121 36 48 121 36 48 121 36 48 121 36 48 121 36 48 121 36 48 121 36 48 121 36 48 121 36 48 121 36 48 121 36 48 121 36 48 121 36 48 121 36 48 121 36 48 121 36 48 121 36 48 121 36 48 121 36 48 121 36 48 121 36 48 121 184 177 77 185 177 77 186 177 77 187 177 77 187 176 77 188 176 77 189 176 77 190 176 77 191 175 76 193 175 76 193 175 76 194 175 76 195 174 76 196 174 76 197 174 76 198 174 76 199 173 76 199 173 76 200 173 75 201 173 75 202 173 75 203 172 75 204 172 75 204 172 75 206 172 75 207 171 75 208 171 75 208 171 75 209 171 74 210 171 74 211 170 74 212 170 74 213 170 74 213 170 74 214 170 74 215 169 74 216 169 74 217 169 74 217 169 74 219 168 73 220 168 73 221 168 73 221 168 73 222 167 73 223 167 73 224 167 73 224 167 73 225 167 73 226 167 73 227 166 72 228 166 72 228 166 72 229 166 72 230 166 72 231 165 72 232 165 72 233 165 72 234 165 72 234 164 72 235 164 72 236 164 71 237 164 71 238 164 71 238 163 71 239 163 71 240 163 71 241 163 71 241 163 71 242 163 71 244 162 71 244 162 71 245 162 71 246 162 70 246 161 70 247 161 70 248 161 70 249 161 70 249 161 70 250 161 70 251 160 70 252 160 70 252 160 70 253 160 70 255 160 70
0 180 78 1 180 78 2 180 78 3 180 78 4 180 78 5 180 78 6 180 78 7 180 78 8 180 78 10 180 78 11 180 78 12 180 78 13 180 78 14 180 78 15 180 78 17 180 78 18 180 78 20 180 78 21 180 78 22 180 78 23 180 78 24 180 78 25 180 78 26 180 78 27 180 78 29 180 78 30 180 78 31 180 78 32 180 78 33 180 78 35 180 78 36 180 78 37 180 78 39 180 78 40 180 78 41 180 78 42 180 78 43 180 78 44 180 78 45 180 78 46 180 78 48 180 78 49 180 78 50 180 78 51 180 78 53 180 78 54 180 78 55 180 78 56 180 78 58 180 78 59 180 78 60 180 78 61 180 78 62 180 78 63 180 78 64 180 78 65 180 78 67 180 78 68 180 78 69 180 78 71 180 78 72 180 78 73 180 78 74 180 78 75 180 78 77 180 78 78 180 78 79 180 78 80 180 78 81 180 78 82 180 78 83 180 78 84 180 78 86 180 78 87 180 78 89 180 78 90 180 78 91 180 78 92 180 78 93 180 78 94 180 78 96 180 78 97 180 78 98 180 78 99 180 78 100 180 78 36 48 121 36 48 121 36 48 121 36 48 121 36 48 121 36 48 121 36 48 121 36 48 121 36 48 121 36 48 121 36 48 121 36 48 121 36 48 121 36 48 121 36 48 121 36 48 121 36 48 121 36 48 121 36 48 121 36 48 121 36 48 121 36 48 121 36 48 121 36 48 121 36 48 121 36 48 121 36 48 121 36 48 121 36 48 121 36 48 121 36 48 121 36 48 121 36 48 121 36 48 121 36 48 121 36 48 121 36 48 121 36 48 121 36 48 121 36 48 121 36 48 121 36 48 121 36 48 121 36 48 121 36 48 121 36 48 121 36 48 121 36 48 121 36 48 121 36 48 121 36 48 121 36 48 121 36 48 121 36 48 121 36 48 121 36 48 121 36 48 121 36 48 121 36 48 121 36 48 121 36 48 121 36 48 121 36 48 121 36 48 121 36 48 121 36 48 121 36 48 121 36 48 121 36 48 121 183 180 77 184 180 77 185 179 77 186 179 77 187 179 77 187 179 77 188 178 77 189 178 77 190 178 77 191 178 76 193 177 76 193 177 76 194 177 76 195 177 76 196 176 76 197 176 76 198 176 76 199 176 76 199 175 76 200 175 75 201 175 75 202 175 75 203 175 75 204 174 75 204 174 75 206 174 75 207 174 75 208 173 75 208 173 75 209 173 74 210 173 74 211 172 74 212 172 74 213 172 74 213 172 74 214 172 74 215 171 74 216 171 74 217 171 74 217 171 74 219 170 73 220 170 73 221 170 73 221 170 73 222 170 73 223 169 73 224 169 73 224 169 73 225 169 73 226 169 73 227 168 72 228 168 72 228 168 72 229 168 72 230 168 72 231 167 72 232 167 72 233 167 72 234 167 72 234 166 72 235 166 72 236 166 71 237 166 71 238 166 71 238 166 71 239 165 71 240 165 71 241 165 71 241 165 71 242 165 71 244 164 71 244 164 71 245 164 71 246 164 70 246 163 70 247 163 70 248 163 70 249 163 70 249 163 70 250 163 70 251 162 70 252 162 70 252 162 70 253 162 70 255 162 70
0 181 78 1 181 78 2 181 78 3 181 78 4 181 78 5 181 78 6 181 78 7 181 78 8 181 78 10 181 78 11 181 78 12 181 78 13 181 78 14 181 78 15 181 78 17 181 78 18 181 78 20 181 78 21 181 78 22 181 78 23 181 78 24 181 78 25 181 78 26 181 78 27 181 78 29 181 78 30 181 78 31 181 78 32 181 78 33 181 78 35 181 78 36 181 78 37 181 78 39 181 78 40 181 78 41 181 78 42 181 78 43 181 78 44 181 78 45 181 78 46 181 78 47 181 78 49 181 78 50 181 78 51 181 78 53 181 78 54 181 78 55 181 78 56 181 78 58 181 78 59 181 78 60 181 78 61 181 78 62 181 78 63 181 78 64 181 78 65 181 78 66 181 78 68 181 78 69 181 78 71 181 78 72 181 78 73 181 78 74 181 78 75 181 78 76 181 78 78 181 78 79 181 78 80 181 78 81 181 78 82 181 78 83 181 78 84 181 78 85 181 78 87 181 78 89 181 78 90 181 78 91 181 78 92 181 78 93 181 78 94 181 78 95 181 78 97 181 78 98 181 78 99 181 78 100 181 78 101 181 78 36 48 121 36 48 121 36 48 121 36 48 121 36 48 121 36 48 121 36 48 121 36 48 121 36 48 121 36 48 121 36 48 121 36 48 121 36 48 121 36 48 121 36 48 121 36 48 121 36 48 121 36 48 121 36 48 121 36 48 121 36 48 121 36 48 121 36 48 121 36 48 121 36 48 121 36 48 121 36 48 121 36 48 121 36 48 121 36 48 121 36 48 121 36 48 121 36 48 121 36 48 121 36 48 121 36 48 121 36 48 121 36 48 121 36 48 121 36 48 121 36 48 121 36 48 121 36 48 121 36 48 121 36 48 121 36 48 121 36 48 121 36 48 121 36 48 121 36 48 121 36 48 121 36 48 121 36 48 121 36 48 121 36 48 121 36 48 121 36 48 121 36 48 121 36 48 121 36 48 121 36 48 121 36 48 121 36 48 121 36 48 121 36 48 121 36 48 121 36 48 121 182 181 77 183 181 77 184 181 77 185 180 77 186 180 77 187 180 77 187 180 77 188 179 77 189 179 77 190 179 77 191 179 76 193 178 76 193 178 76 194 178 76 195 178 76 196 177 76 197 177 76 198 177 76 199 177 76 199 177 76 200 176 75 201 176 75 202 176 75 203 176 75 204 175 75 204 175 75 206 175 75 207 175 75 208 174 75 208 174 75 209 174 74 210 174 74 211 174 74 212 173 74 213 173 74 213 173 74 214 173 74 215 172 74 216 172 74 217 172 74 217 172 74 219 171 73 220 171 73 221 171 73 221 171 73 222 171 73 223 170 73 224 170 73 224 170 73 225 170 73 226 170 73 227 169 72 228 169 72 228 169 72 229 169 72 230 169 72 231 168 72 232 168 72 233 168 72 234 168 72 234 167 72 235 167 72 236 167 71 237 167 71 238 167 71 238 167 71 239 166 71 240 166 71 241 166 71 241 166 71 242 166 71 244 165 71 244 165 71 245 165 71 246 165 70 246 164 70 247 164 70 248 164 70 249 164 70 249 164 70 250 164 70 251 163 70 252 163 70 252 163 70 253 163 70 255 163 70
0 183 77 1 183 77 2 183 77 3 183 77 4 183 77 5 183 77 6 183 77 7 183 77 8 183 77 10 183 77 11 183 77 12 183 77 13 183 77 14 183 77 15 183 77 17 183 77 18 183 77 20 183 77 21 183 77 22 183 77 23 183 77 24 183 77 25 183 77 26 183 77 27 183 77 28 183 77 30 183 77 31 183 77 32 183 77 33 183 77 35 183 77 36 183 77 37 183 77 38 183 77 40 183 77 41 183 77 42 183 77 43 183 77 44 183 77 45 183 77 46 183 77 47 183 77 48 183 77 50 183 77 51 183 77 53 183 77 54 183 77 55 183 77 56 183 77 57 183 77 58 183 77 60 183 77 61 183 77 62 183 77 63 183 77 64 183 77 65 183 77 66 183 77 67 183 77 68 183 77 71 183 77 72 183 77 73 183 77 74 183 77 75 183 77 76 183 77 77 183 77 78 183 77 80 183 77 81 183 77 82 183 77 83 183 77 84 183 77 85 183 77 86 183 77 89 183 77 90 183 77 91 183 77 92 183 77 93 183 77 94 183 77 95 183 77 96 183 77 97 183 77 99 183 77 100 183 77 101 183 77 102 183 77 36 48 121 36 48 121 36 48 121 36 48 121 36 48 121 36 48 121 36 48 121 36 48 121 36 48 121 36 48 121 36 48 121 36 48 121 36 48 121 36 48 121 36 48 121 36 48 121 36 48 121 36 48 121 36 48 121 36 48 121 36 48 121 36 48 121 36 48 121 36 48 121 36 48 121 36 48 121 36 48 121 36 48 121 36 48 121 36 48 121 36 48 121 36 48 121 36 48 121 36 48 121 36 48 121 36 48 121 36 48 121 36 48 121 36 48 121 36 48 121 36 48 121 36 48 121 36 48 121 36 48 121 36 48 121 36 48 121 36 48 121 36 48 121 36 48 121 36 48 121 36 48 121 36 48 121 36 48 121 36 48 121 36 48 121 36 48 121 36 48 121 36 48 121 36 48 121 36 48 121 36 48 121 36 48 121 36 48 121 36 48 121 36 48 121 181 183 77 182 183 77 183 183 77 184 183 77 185 183 77 186 182 77 187 182 77 187 182 77 188 182 77 189 181 77 190 181 77 191 181 76 193 181 76 193 180 76 194 180 76 195 180 76 196 180 76 197 179 76 198 179 76 199 179 76 199 179 76 200 178 75 201 178 75 202 178 75 203 178 75 204 178 75 204 177 75 206 177 75 207 177 75 208 177 75 208 176 75 209 176 74 210 176 74 211 176 74 212 175 74 213 175 74 213 175 74 214 175 74 215 175 74 216 174 74 217 174 74 217 174 74 219 174 73 220 173 73 221 173 73 221 173 73 222 173 73 223 173 73 224 172 73 224 172 73 225 172 73 226 172 73 227 172 72 228 171 72 228 171 72 229 171 72 230 171 72 231 170 72 232 170 72 233 170 72 234 170 72 234 170 72 235 169 72 236 169 71 237 169 71 238 169 71 238 169 71 239 168 71 240 168 71 241 168 71 241 168 71 242 168 71 244 167 71 244 167 71 245 167 71 246 167 70 246 167 70 247 166 70 248 166 70 249 166 70 249 166 70 250 166 70 251 165 70 252 165 70 252 165 70 253 165 70 255 165 70
0 184 77 1 184 77 2 184 77 3 184 77 4 184 77 5 184 77 6 184 77 7 184 77 8 184 77 10 184 77 11 184 77 12 184 77 13 184 77 14 184 77 15 184 77 17 184 77 18 184 77 20 184 77 21 184 77 22 184 77 23 184 77 24 184 77 25 184 77 26 184 77 27 184 77 28 184 77 30 184 77 31 184 77 32 184 77 33 184 77 35 184 77 36 184 77 37 184 77 38 184 77 40 184 77 41 184 77 42 184 77 43 184 77 44 184 77 45 184 77 46 184 77 47 184 77 48 184 77 50 184 77 51 184 77 53 184 77 54 184 77 55 184 77 56 184 77 57 184 77 58 184 77 60 184 77 61 184 77 62 184 77 63 184 77 64 184 77 65 184 77 66 184 77 67 184 77 68 184 77 71 184 77 72 184 77 73 184 77 74 184 77 75 184 77 76 184 77 77 184 77 78 184 77 80 184 77 81 184 77 82 184 77 83 184 77 84 184 77 85 184 77 86 184 77 88 184 77 90 184 77 91 184 77 92 184 77 93 184 77 94 184 77 95 184 77 96 184 77 97 184 77 98 184 77 100 184 77 101 184 77 102 184 77 36 48 121 36 48 121 36 48 121 36 48 121 36 48 121 36 48 121 36 48 121 36 48 121 36 48 121 36 48 121 36 48 121 36 48 121 36 48 121 36 48 121 36 48 121 36 48 121 36 48 121 36 48 121 36 48 121 36 48 121 36 48 121 36 48 121 36 48 121 36 48 121 36 48 121 36 48 121 36 48 121 36 48 121 36 48 121 36 48 121 36 48 121 36 48 121 36 48 121 36 48 121 36 48 121 36 48 121 36 48 121 36 48 121 36 48 121 36 48 121 36 48 121 36 48 121 36 48 121 36 48 121 36 48 121 36 48 121 36 48 121 36 48 121 36 48 121 36 48 121 36 48 121 36 48 121 36 48 121 36 48 121 36 48 121 36 48 121 36 48 121 36 48 121 36 48 121 36 48 121 36 48 121 36 48 121 36 48 121 36 48 121 36 48 121 181 184 77 182 184 77 183 184 77 184 184 77 185 184 77 186 183 77 187 183 77 187 183 77 188 183 77 189 183 77 190 182 77 191 182 76 193 182 76 193 181 76 194 181 76 195 181 76 196 181 76 197 180 76 198 180 76 199 180 76 199 180 76 200 180 75 201 179 75 202 179 75 203 179 75 204 179 75 204 178 75 206 178 75 207 178 75 208 178 75 208 177 75 209 177 74 210 177 74 211 177 74 212 177 74 213 176 74 213 176 74 214 176 74 215 176 74 216 175 74 217 175 74 217 175 74 219 175 73 220 174 73 221 174 73 221 174 73 222 174 73 223 174 73 224 173 73 224 173 73 225 173 73 226 173 73 227 173 72 228 172 72 228 172 72 229 172 72 230 172 72 231 171 72 232 171 72 233 171 72 234 171 72 234 171 72 235 170 72 236 170 71 237 170 71 238 170 71 238 170 71 239 169 71 240 169 71 241 169 71 241 169 71 242 169 71 244 168 71 244 168 71 245 168 71 246 168 70 246 168 70 247 167 70 248 167 70 249 167 70 249 167 70 250 167 70 251 166 70 252 166 70 252 166 70 253 166 70 255 166 70
0 186 77 1 186 77 2 186 77 3 186 77 4 186 77 5 186 77 6 186 77 7 186 77 8 186 77 9 186 77 11 186 77 12 186 77 13 186 77 14 186 77 15 186 77 17 186 77 18 186 77 19 186 77 21 186 77 22 186 77 23 186 77 24 186 77 25 186 77 26 186 77 27 186 77 28 186 77 29 186 77 31 186 77 32 186 77 33 186 77 35 186 77 36 186 77 37 186 77 38 186 77 39 186 77 41 186 77 42 186 77 43 186 77 44 186 77 45 186 77 46 186 77 47 186 77 48 186 77 49 186 77 50 186 77 53 186 77 54 186 77 55 186 77 56 186 77 57 186 77 58 186 77 59 186 77 60 186 77 62 186 77 63 186 77 64 186 77 65 186 77 66 186 77 67 186 77 68 186 77 70 186 77 72 186 77 73 186 77 74 186 77 75 186 77 76 186 77 77 186 77 78 186 77 79 186 77 80 186 77 82 186 77 83 186 77 84 186 77 85 186 77 86 186 77 88 186 77 89 186 77 90 186 77 91 186 77 93 186 77 94 186 77 95 186 77 96 186 77 97 186 77 98 186 77 99 186 77 100 186 77 101 186 77 103 186 77 36 48 121 36 48 121 36 48 121 36 48 121 36 48 121 36 48 121 36 48 121 36 48 121 36 48 121 36 48 121 36 48 121 36 48 121 36 48 121 36 48 121 36 48 121 36 48 121 36 48 121 36 48 121 36 48 121 36 48 121 36 48 121 36 48 121 36 48 121 36 48 121 36 48 121 36 48 121 36 48 121 36 48 121 36 48 121 36 48 121 36 48 121 36 48 121 36 48 121 36 48 121 36 48 121 36 48 121 36 48 121 36 48 121 36 48 121 36 48 121 36 48 121 36 48 121 36 48 121 36 48 121 36 48 121 36 48 121 36 48 121 36 48 121 36 48 121 36 48 121 36 48 121 36 48 121 36 48 121 36 48 121 36 48 121 36 48 121 36 48 121 36 48 121 36 48 121 36 48 121 36 48 121 36 48 121 36 48 121 179 186 77 180 186 77 181 186 77 182 186 77 183 186 77 185 186 77 186 186 77 187 185 77 187 185 77 188 185 77 189 185 77 190 185 77 191 184 76 193 184 76 193 184 76 194 183 76 195 183 76 196 183 76 197 183 76 198 182 76 199 182 76 199 182 76 200 182 75 201 182 75 202 181 75 203 181 75 204 181 75 204 181 75 206 180 75 207 180 75 208 180 75 208 180 75 209 179 74 210 179 74 211 179 74 212 179 74 213 178 74 213 178 74 214 178 74 215 178 74 216 178 74 217 177 74 217 177 74 219 177 73 220 177 73 221 176 73 221 176 73 222 176 73 223 176 73 224 175 73 224 175 73 225 175 73 226 175 73 227 175 72 228 174 72 228 174 72 229 174 72 230 174 72 231 173 72 232 173 72 233 173 72 234 173 72 234 173 72 235 172 72 236 172 71 237 172 71 238 172 71 238 172 71 239 171 71 240 171 71 241 171 71 241 171 71 242 171 71 244 170 71 244 170 71 245 170 71 246 170 70 246 170 70 247 169 70 248 169 70 249 169 70 249 169 70 250 169 70 251 168 70 252 168 70 252 168 70 253 168 70 255 167 70
0 187 77 1 187 77 2 187 77 3 187 77 4 187 77 5 187 77 6 187 77 7 187 77 8 187 77 9 187 77 11 187 77 12 187 77 13 187 77 14 187 77 15 187 77 17 187 77 18 187 77 19 187 77 21 187 77 22 187 77 23 187 77 24 187 77 25 187 77 26 187 77 27 187 77 28 187 77 29 187 77 30 187 77 32 187 77 33 187 77 35 187 77 36 187 77 37 187 77 38 187 77 39 187 77 40 187 77 42 187 77 43 187 77 44 187 77 45 187 77 46 187 77 47 187 77 48 187 77 49 187 77 50 187 77 53 187 77 54 187 77 55 187 77 56 187 77 57 187 77 58 187 77 59 187 77 60 187 77 61 187 77 63 187 77 64 187 77 65 187 77 66 187 77 67 187 77 68 187 77 70 187 77 71 187 77 73 187 77 74 187 77 75 187 77 76 187 77 77 187 77 78 187 77 79 187 77 80 187 77 81 187 77 83 187 77 84 187 77 85 187 77 86 187 77 88 187 77 89 187 77 90 187 77 91 187 77 92 187 77 94 187 77 95 187 77 96 187 77 97 187 77 98 187 77 99 187 77 100 187 77 101 187 77 102 187 77 104 187 77 36 48 121 36 48 121 36 48 121 36 48 121 36 48 121 36 48 121 36 48 121 36 48 121 36 48 121 36 48 121 36 48 121 36 48 121 36 48 121 36 48 121 36 48 121 36 48 121 36 48 121 36 48 121 36 48 121 36 48 121 36 48 121 36 48 121 36 48 121 36 48 121 36 48 121 36 48 121 36 48 121 36 48 121 36 48 121 36 48 121 36 48 121 36 48 121 36 48 121 36 48 121 36 48 121 36 48 121 36 48 121 36 48 121 36 48 121 36 48 121 36 48 121 36 48 121 36 48 121 36 48 121 36 48 121 36 48 121 36 48 121 36 48 121 36 48 121 36 48 121 36 48 121 36 48 121 36 48 121 36 48 121 36 48 121 36 48 121 36 48 121 36 48 121 36 48 121 36 48 121 36 48 121 178 187 77 179 187 77 180 187 77 181 187 77 182 187 77 183 187 77 184 187 77 185 187 77 187 187 77 187 186 77 188 186 77 189 186 77 190 186 77 191 185 76 193 185 76 193 185 76 194 184 76 195 184 76 196 184 76 197 184 76 198 184 76 199 183 76 199 183 76 200 183 75 201 183 75 202 182 75 203 182 75 204 182 75 204 182 75 206 181 75 207 181 75 208 181 75 208 181 75 209 180 74 210 180 74 211 180 74 212 180 74 213 180 74 213 179 74 214 179 74 215 179 74 216 179 74 217 178 74 217 178 74 219 178 73 220 178 73 221 177 73 221 177 73 222 177 73 223 177 73 224 177 73 224 176 73 225 176 73 226 176 73 227 176 72 228 175 72 228 175 72 229 175 72 230 175 72 231 174 72 232 174 72 233 174 72 234 174 72 234 174 72 235 173 72 236 173 71 237 173 71 238 173 71 238 173 71 239 172 71 240 172 71 241 172 71 241 172 71 242 172 71 244 171 71 244 171 71 245 171 71 246 171 70 246 171 70 247 170 70 248 170 70 249 170 70 249 170 70 250 170 70 251 169 70 252 169 70 252 169 70 253 169 70 255 169 70
0 187 77 1 187 77 2 187 77 3 187 77 4 187 77 5 187 77 6 187 77 7 187 77 8 187 77 9 187 77 11 187 77 12 187 77 13 187 77 14 187 77 15 187 77 17 187 77 18 187 77 19 187 77 21 187 77 22 187 77 23 187 77 24 187 77 25 187 77 26 187 77 27 187 77 28 187 77 29 187 77 30 187 77 32 187 77 33 187 77 35 187 77 36 187 77 37 187 77 38 187 77 39 187 77 40 187 77 42 187 77 43 187 77 44 187 77 45 187 77 46 187 77 47 187 77 48 187 77 49 187 77 50 187 77 53 187 77 54 187 77 55 187 77 56 187 77 57 187 77 58 187 77 59 187 77 60 187 77 61 187 77 63 187 77 64 187 77 65 187 77 66 187 77 67 187 77 68 187 77 70 187 77 71 187 77 72 187 77 74 187 77 75 187 77 76 187 77 77 187 77 78 187 77 79 187 77 80 187 77 81 187 77 82 187 77 84 187 77 85 187 77 86 187 77 88 187 77 89 187 77 90 187 77 91 187 77 92 187 77 93 187 77 95 187 77 96 187 77 97 187 77 98 187 77 99 187 77 100 187 77 101 187 77 102 187 77 103 187 77 106 187 77 36 48 121 36 48 121 36 48 121 36 48 121 36 48 121 36 48 121 36 48 121 36 48 121 36 48 121 36 48 121 36 48 121 36 48 121 36 48 121 36 48 121 36 48 121 36 48 121 36 48 121 36 48 121 36 48 121 36 48 121 36 48 121 36 48 121 36 48 121 36 48 121 36 48 121 36 48 121 36 48 121 36 48 121 36 48 121 36 48 121 36 48 121 36 48 121 36 48 121 36 48 121 36 48 121 36 48 121 36 48 121 36 48 121 36 48 121 36 48 121 36 48 121 36 48 121 36 48 121 36 48 121 36 48 121 36 48 121 36 48 121 36 48 121 36 48 121 36 48 121 36 48 121 36 48 121 36 48 121 36 48 121 36 48 121 36 48 121 36 48 121 36 48 121 36 48 121 176 187 77 177 187 77 179 187 77 180 187 77 181 187 77 182 187 77 183 187 77 184 187 77 185 187 77 186 187 77 187 187 77 188 187 77 189 187 77 190 187 77 191 186 76 193 186 76 193 186 76 194 186 76 195 185 76 196 185 76 197 185 76 198 185 76 199 184 76 199 184 76 200 184 75 201 184 75 202 183 75 203 183 75 204 183 75 204 183 75 206 182 75 207 182 75 208 182 75 208 182 75 209 181 74 210 181 74 211 181 74 212 181 74 213 181 74 213 180 74 214 180 74 215 180 74 216 180 74 217 179 74 217 179 74 219 179 73 220 179 73 221 178 73 221 178 73 222 178 73 223 178 73 224 178 73 224 177 73 225 177 73 226 177 73 227 177 72 228 177 72 228 176 72 229 176 72 230 176 72 231 176 72 232 175 72 233 175 72 234 175 72 234 175 72 235 175 72 236 174 71 237 174 71 238 174 71 238 174 71 239 174 71 240 173 71 241 173 71 241 173 71 242 173 71 244 172 71 244 172 71 245 172 71 246 172 70 246 172 70 247 171 70 248 171 70 249 171 70 249 171 70 250 171 70 251 170 70 252 170 70 252 170 70 253 170 70 255 170 70
0 189 77 1 189 77 2 189 77 3 189 77 4 189 77 5 189 77 6 189 77 7 189 77 8 189 77 9 189 77 11 189 77 12 189 77 13 189 77 14 189 77 15 189 77 17 189 77 18 189 77 19 189 77 20 189 77 22 189 77 23 189 77 24 189 77 25 189 77 26 189 77 27 189 77 28 189 77 29 189 77 30 189 77 31 189 77 33 189 77 35 189 77 36 189 77 37 189 77 38 189 77 39 189 77 40 189 77 41 189 77 43 189 77 44 189 77 45 189 77 46 189 77 47 189 77 48 189 77 49 189 77 50 189 77 52 189 77 54 189 77 55 189 77 56 189 77 57 189 77 58 189 77 59 189 77 60 189 77 61 189 77 62 189 77 63 189 77 65 189 77 66 189 77 67 189 77 68 189 77 70 189 77 71 189 77 72 189 77 73 189 77 74 189 77 76 189 77 77 189 77 78 189 77 79 189 77 80 189 77 81 189 77 82 189 77 83 189 77 84 189 77 86 189 77 88 189 77 89 189 77 90 189 77 91 189 77 92 189 77 93 189 77 94 189 77 95 189 77 97 189 77 98 189 77 99 189 77 100 189 77 101 189 77 102 189 77 103 189 77 105 189 77 106 189 77 36 48 121 36 48 121 36 48 121 36 48 121 36 48 121 36 48 121 36 48 121 36 48 121 36 48 121 36 48 121 36 48 121 36 48 121 36 48 121 36 48 121 36 48 121 36 48 121 36 48 121 36 48 121 36 48 121 36 48 121 36 48 121 36 48 121 36 48 121 36 48 121 36 48 121 36 48 121 36 48 121 36 48 121 36 48 121 36 48 121 36 48 121 36 48 121 36 48 121 36 48 121 36 48 121 36 48 121 36 48 121 36 48 121 36 48 121 36 48 121 36 48 121 36 48 121 36 48 121 36 48 121 36 48 121 36 48 121 36 48 121 36 48 121 36 48 121 36 48 121 36 48 121 36 48 121 36 48 121 36 48 121 36 48 121 36 48 121 36 48 121 174 189 77 176 189 77 177 189 77 178 189 77 179 189 77 180 189 77 181 189 77 183 189 77 184 189 77 185 189 77 186 189 77 187 189 77 188 189 77 189 189 77 190 189 77 191 189 76 193 188 76 193 188 76 194 188 76 195 187 76 196 187 76 197 187 76 198 187 76 199 187 76 199 186 76 200 186 75 201 186 75 202 186 75 203 185 75 204 185 75 204 185 75 206 184 75 207 184 75 208 184 75 208 184 75 209 184 74 210 183 74 211 183 74 212 183 74 213 183 74 213 182 74 214 182 74 215 182 74 216 182 74 217 182 74 217 181 74 219 181 73 220 181 73 221 181 73 221 180 73 222 180 73 223 180 73 224 180 73 224 179 73 225 179 73 226 179 73 227 179 72 228 179 72 228 178 72 229 178 72 230 178 72 231 178 72 232 177 72 233 177 72 234 177 72 234 177 72 235 177 72 236 176 71 237 176 71 238 176 71 238 176 71 239 176 71 240 175 71 241 175 71 241 175 71 242 175 71 244 174 71 244 174 71 245 174 71 246 174 70 246 174 70 247 173 70 248 173 70 249 173 70 249 173 70 250 173 70 251 172 70 252 172 70 252 172 70 253 172 70 255 172 70
0 190 77 1 190 77 2 190 77 3 190 77 4 190 77 5 190 77 6 190 77 7 190 77 8 190 77 9 190 77 11 190 77 12 190 77 13 190 77 14 190 77 15 190 77 17 190 77 18 190 77 19 190 77 20 190 77 22 190 77 23 190 77 24 190 77 25 190 77 26 190 77 27 190 77 28 190 77 29 190 77 30 190 77 31 190 77 33 190 77 35 190 77 36 190 77 37 190 77 38 190 77 39 190 77 40 190 77 41 190 77 42 190 77 44 190 77 45 190 77 46 190 77 47 190 77 48 190 77 49 190 77 50 190 77 52 190 77 53 190 77 55 190 77 56 190 77 57 190 77 58 190 77 59 190 77 60 190 77 61 190 77 62 190 77 63 190 77 64 190 77 66 190 77 67 190 77 68 190 77 70 190 77 71 190 77 72 190 77 73 190 77 74 190 77 75 190 77 77 190 77 78 190 77 79 190 77 80 190 77 81 190 77 82 190 77 83 190 77 84 190 77 85 190 77 88 190 77 89 190 77 90 190 77 91 190 77 92 190 77 93 190 77 94 190 77 95 190 77 96 190 77 98 190 77 99 190 77 100 190 77 101 190 77 102 190 77 103 190 77 105 190 77 106 190 77 107 190 77 36 48 121 36 48 121 36 48 121 36 48 121 36 48 121 36 48 121 36 48 121 36 48 121 36 48 121 36 48 121 36 48 121 36 48 121 36 48 121 36 48 121 36 48 121 36 48 121 36 48 121 36 48 121 36 48 121 36 48 121 36 48 121 36 48 121 36 48 121 36 48 121 36 48 121 36 48 121 36 48 121 36 48 121 36 48 121 36 48 121 36 48 121 36 48 121 36 48 121 36 48 121 36 48 121 36 48 121 36 48 121 36 48 121 36 48 121 36 48 121 36 48 121 36 48 121 36 48 121 36 48 121 36 48 121 36 48 121 36 48 121 36 48 121 36 48 121 36 48 121 36 48 121 36 48 121 36 48 121 36 48 121 36 48 121 172 190 77 173 190 77 176 190 77 177 190 77 178 190 77 179 190 77 180 190 77 181 190 77 182 190 77 183 190 77 185 190 77 186 190 77 187 190 77 188 190 77 189 190 77 190 190 77 191 190 76 193 189 76 193 189 76 194 189 76 195 189 76 196 188 76 197 188 76 198 188 76 199 188 76 199 187 76 200 187 75 201 187 75 202 187 75 203 186 75 204 186 75 204 186 75 206 186 75 207 185 75 208 185 75 208 185 75 209 185 74 210 184 74 211 184 74 212 184 74 213 184 74 213 184 74 214 183 74 215 183 74 216 183 74 217 183 74 217 182 74 219 182 73 220 182 73 221 182 73 221 181 73 222 181 73 223 181 73 224 181 73 224 181 73 225 180 73 226 180 73 227 180 72 228 180 72 228 179 72 229 179 72 230 179 72 231 179 72 232 178 72 233 178 72 234 178 72 234 178 72 235 178 72 236 177 71 237 177 71 238 177 71 238 177 71 239 177 71 240 176 71 241 176 71 241 176 71 242 176 71 244 175 71 244 175 71 245 175 71 246 175 70 246 175 70 247 174 70 248 174 70 249 174 70 249 174 70 250 174 70 251 173 70 252 173 70 252 173 70 253 173 70 255 173 70
0 192 76 1 192 76 2 192 76 3 192 76 4 192 76 5 192 76 6 192 76 7 192 76 8 192 76 9 192 76 10 192 76 12 192 76 13 192 76 14 192 76 15 192 76 17 192 76 18 192 76 19 192 76 20 192 76 21 192 76 23 192 76 24 192 76 25 192 76 26 192 76 27 192 76 28 192 76 29 192 76 30 192 76 31 192 76 32 192 76 35 192 76 36 192 76 37 192 76 38 192 76 39 192 76 40 192 76 41 192 76 42 192 76 43 192 76 45 192 76 46 192 76 47 192 76 48 192 76 49 192 76 50 192 76 52 192 76 53 192 76 54 192 76 56 192 76 57 192 76 58 192 76 59 192 76 60 192 76 61 192 76 62 192 76 63 192 76 64 192 76 65 192 76 67 192 76 68 192 76 70 192 76 71 192 76 72 192 76 73 192 76 74 192 76 75 192 76 76 192 76 77 192 76 79 192 76 80 192 76 81 192 76 82 192 76 83 192 76 84 192 76 85 192 76 87 192 76 88 192 76 90 192 76 91 192 76 92 192 76 93 192 76 94 192 76 95 192 76 96 192 76 97 192 76 98 192 76 99 192 76 101 192 76 102 192 76 103 192 76 105 192 76 106 192 76 107 192 76 108 192 76 109 192 76 36 48 121 36 48 121 36 48 121 36 48 121 36 48 121 36 48 121 36 48 121 36 48 121 36 48 121 36 48 121 36 48 121 36 48 121 36 48 121 36 48 121 36 48 121 36 48 121 36 48 121 36 48 121 36 48 121 36 48 121 36 48 121 36 48 121 36 48 121 36 48 121 36 48 121 36 48 121 36 48 121 36 48 121 36 48 121 36 48 121 36 48 121 36 48 121 36 48 121 36 48 121 36 48 121 36 48 121 36 48 121 36 48 121 36 48 121 36 48 121 36 48 121 36 48 121 36 48 121 36 48 121 36 48 121 36 48 121 36 48 121 36 48 121 36 48 121 36 48 121 36 48 121 170 192 76 171 192 76 172 192 76 173 192 76 175 192 76 176 192 76 177 192 76 179 192 76 180 192 76 181 192 76 182 192 76 183 192 76 184 192 76 185 192 76 186 192 76 187 192 76 188 192 76 190 192 76 191 192 76 193 191 76 193 191 76 194 191 76 195 191 76 196 191 76 197 190 76 198 190 76 199 190 76 199 190 76 200 189 75 201 189 75 202 189 75 203 189 75 204 188 75 204 188 75 206 188 75 207 187 75 208 187 75 208 187 75 209 187 74 210 187 74 211 186 74 212 186 74 213 186 74 213 186 74 214 185 74 215 185 74 216 185 74 217 185 74 217 185 74 219 184 73 220 184 73 221 184 73 221 183 73 222 183 73 223 183 73 224 183 73 224 183 73 225 182 73 226 182 73 227 182 72 228 182 72 228 182 72 229 181 72 230 181 72 231 181 72 232 180 72 233 180 72 234 180 72 234 180 72 235 180 72 236 179 71 237 179 71 238 179 71 238 179 71 239 179 71 240 178 71 241 178 71 241 178 71 242 178 71 244 177 71 244 177 71 245 177 71 246 177 70 246 177 70 247 176 70 248 176 70 249 176 70 249 176 70 250 176 70 251 175 70 252 175 70 252 175 70 253 175 70 255 175 70
0 193 76 1 193 76 2 193 76 3 193 76 4 193 76 5 193 76 6 193 76 7 193 76 8 193 76 9 193 76 10 193 76 12 193 76 13 193 76 14 193 76 15 193 76 17 193 76 18 193 76 19 193 76 20 193 76 21 193 76 23 193 76 24 193 76 25 193 76 26 193 76 27 193 76 28 193 76 29 193 76 30 193 76 31 193 76 32 193 76 35 193 76 36 193 76 37 193 76 38 193 76 39 193 76 40 193 76 41 193 76 42 193 76 43 193 76 44 193 76 46 193 76 47 193 76 48 193 76 49 193 76 50 193 76 52 193 76 53 193 76 54 193 76 55 193 76 57 193 76 58 193 76 59 193 76 60 193 76 61 193 76 62 193 76 63 193 76 64 193 76 65 193 76 66 193 76 68 193 76 70 193 76 71 193 76 72 193 76 73 193 76 74 193 76 75 193 76 76 193 76 77 193 76 78 193 76 80 193 76 81 193 76 82 193 76 83 193 76 84 193 76 85 193 76 87 193 76 88 193 76 89 193 76 91 193 76 92 193 76 93 193 76 94 193 76 95 193 76 96 193 76 97 193 76 98 193 76 99 193 76 100 193 76 102 193 76 103 193 76 105 193 76 106 193 76 107 193 76 108 193 76 109 193 76 110 193 76 36 48 121 36 48 121 36 48 121 36 48 121 36 48 121 36 48 121 36 48 121 36 48 121 36 48 121 36 48 121 36 48 121 36 48 121 36 48 121 36 48 121 36 48 121 36 48 121 36 48 121 36 48 121 36 48 121 36 48 121 36 48 121 36 48 121 36 48 121 36 48 121 36 48 121 36 48 121 36 48 121 36 48 121 36 48 121 36 48 121 36 48 121 36 48 121 36 48 121 36 48 121 36 48 121 36 48 121 36 48 121 36 48 121 36 48 121 36 48 121 36 48 121 36 48 121 36 48 121 36 48 121 36 48 121 36 48 121 36 48 121 36 48 121 36 48 121 168 193 76 170 193 76 171 193 76 172 193 76 173 193 76 175 193 76 176 193 76 177 193 76 178 193 76 179 193 76 181 193 76 182 193 76 183 193 76 184 193 76 185 193 76 186 193 76 187 193 76 188 193 76 189 193 76 190 193 76 193 193 76 193 192 76 194 192 76 195 192 76 196 192 76 197 191 76 198 191 76 199 191 76 199 191 76 200 190 75 201 190 75 202 190 75 203 190 75 204 189 75 204 189 75 206 189 75 207 189 75 208 188 75 208 188 75 209 188 74 210 188 74 211 187 74 212 187 74 213 187 74 213 187 74 214 187 74 215 186 74 216 186 74 217 186 74 217 186 74 219 185 73 220 185 73 221 185 73 221 185 73 222 184 73 223 184 73 224 184 73 224 184 73 225 183 73 226 183 73 227 183 72 228 183 72 228 183 72 229 182 72 230 182 72 231 182 72 232 182 72 233 181 72 234 181 72 234 181 72 235 181 72 236 180 71 237 180 71 238 180 71 238 180 71 239 180 71 240 179 71 241 179 71 241 179 71 242 179 71 244 178 71 244 178 71 245 178 71 246 178 70 246 178 70 247 177 70 248 177 70 249 177 70 249 177 70 250 177 70 251 176 70 252 176 70 252 176 70 253 176 70 255 176 70
0 194 76 1 194 76 2 194 76 3 194 76 4 194 76 5 194 76 6 194 76 7 194 76 8 194 76 9 194 76 10 194 76 12 194 76 13 194 76 14 194 76 15 194 76 17 194 76 18 194 76 19 194 76 20 194 76 21 194 76 22 194 76 24 194 76 25 194 76 26 194 76 27 194 76 28 194 76 29 194 76 30 194 76 31 194 76 32 194 76 35 194 76 36 194 76 37 194 76 38 194 76 39 194 76 40 194 76 41 194 76 42 194 76 43 194 76 44 194 76 45 194 76 47 194 76 48 194 76 49 194 76 50 194 76 52 194 76 53 194 76 54 194 76 55 194 76 56 194 76 57 194 76 59 194 76 60 194 76 61 194 76 62 194 76 63 194 76 64 194 76 65 194 76 66 194 76 67 194 76 70 194 76 71 194 76 72 194 76 73 194 76 74 194 76 75 194 76 76 194 76 77 194 76 78 194 76 79 194 76 80 194 76 82 194 76 83 194 76 84 194 76 85 194 76 87 194 76 88 194 76 89 194 76 90 194 76 91 194 76 93 194 76 94 194 76 95 194 76 96 194 76 97 194 76 98 194 76 99 194 76 100 194 76 101 194 76 102 194 76 105 194 76 106 194 76 107 194 76 108 194 76 109 194 76 110 194 76 111 194 76 36 48 121 36 48 121 36 48 121 36 48 121 36 48 121 36 48 121 36 48 121 36 48 121 36 48 121 36 48 121 36 48 121 36 48 121 36 48 121 36 48 121 36 48 121 36 48 121 36 48 121 36 48 121 36 48 121 36 48 121 36 48 121 36 48 121 36 48 121 36 48 121 36 48 121 36 48 121 36 48 121 36 48 121 36 48 121 36 48 121 36 48 121 36 48 121 36 48 121 36 48 121 36 48 121 36 48 121 36 48 121 36 48 121 36 48 121 36 48 121 36 48 121 36 48 121 36 48 121 36 48 121 36 48 121 36 48 121 36 48 121 167 194 76 168 194 76 169 194 76 170 194 76 171 194 76 172 194 76 175 194 76 176 194 76 177 194 76 178 194 76 179 194 76 180 194 76 181 194 76 182 194 76 183 194 76 184 194 76 186 194 76 187 194 76 188 194 76 189 194 76 190 194 76 192 194 76 193 194 76 194 194 76 195 194 76 196 194 76 197 194 76 198 193 76 199 193 76 199 193 76 200 193 75 201 192 75 202 192 75 203 192 75 204 192 75 204 191 75 206 191 75 207 191 75 208 190 75 208 190 75 209 190 74 210 190 74 211 190 74 212 189 74 213 189 74 213 189 74 214 189 74 215 188 74 216 188 74 217 188 74 217 188 74 219 187 73 220 187 73 221 187 73 221 187 73 222 186 73 223 186 73 224 186 73 224 186 73 225 186 73 226 185 73 227 185 72 228 185 72 228 185 72 229 184 72 230 184 72 231 184 72 232 184 72 233 183 72 234 183 72 234 183 72 235 183 72 236 183 71 237 182 71 238 182 71 238 182 71 239 182 71 240 182 71 241 181 71 241 181 71 242 181 71 244 180 71 244 180 71 245 180 71 246 180 70 246 180 70 247 179 70 248 179 70 249 179 70 249 179 70 250 179 70 251 178 70 252 178 70 252 178 70 253 178 70 255 178 70
0 195 76 1 195 76 2 195 76 3 195 76 4 195 76 5 195 76 6 195 76 7 195 76 8 195 76 9 195 76 10 195 76 12 195 76 13 195 76 14 195 76 15 195 76 17 195 76 18 195 76 19 195 76 20 195 76 21 195 76 22 195 76 24 195 76 25 195 76 26 195 76 27 195 76 28 195 76 29 195 76 30 195 76 31 195 76 32 195 76 34 195 76 36 195 76 37 195 76 38 195 76 39 195 76 40 195 76 41 195 76 42 195 76 43 195 76 44 195 76 45 195 76 46 195 76 48 195 76 49 195 76 50 195 76 52 195 76 53 195 76 54 195 76 55 195 76 56 195 76 57 195 76 59 195 76 60 195 76 61 195 76 62 195 76 63 195 76 64 195 76 65 195 76 66 195 76 67 195 76 69 195 76 71 195 76 72 195 76 73 195 76 74 195 76 75 195 76 76 195 76 77 195 76 78 195 76 79 195 76 80 195 76 81 195 76 83 195 76 84 195 76 85 195 76 87 195 76 88 195 76 89 195 76 90 195 76 91 195 76 92 195 76 93 195 76 95 195 76 96 195 76 97 195 76 98 195 76 99 195 76 100 195 76 101 195 76 102 195 76 104 195 76 106 195 76 107 195 76 108 195 76 109 195 76 110 195 76 111 195 76 112 195 76 113 195 76 36 48 121 36 48 121 36 48 121 36 48 121 36 48 121 36 48 121 36 48 121 36 48 121 36 48 121 36 48 121 36 48 121 36 48 121 36 48 121 36 48 121 36 48 121 36 48 121 36 48 121 36 48 121 36 48 121 36 48 121 36 48 121 36 48 121 36 48 121 36 48 121 36 48 121 36 48 121 36 48 121 36 48 121 36 48 121 36 48 121 36 48 121 36 48 121 36 48 121 36 48 121 36 48 121 36 48 121 36 48 121 36 48 121 36 48 121 36 48 121 36 48 121 36 48 121 36 48 121 165 195 76 166 195 76 167 195 76 168 195 76 169 195 76 170 195 76 171 195 76 172 195 76 174 195 76 175 195 76 177 195 76 178 195 76 179 195 76 180 195 76 181 195 76 182 195 76 183 195 76 184 195 76 185 195 76 186 195 76 187 195 76 189 195 76 190 195 76 192 195 76 193 195 76 194 195 76 195 195 76 196 195 76 197 195 76 198 194 76 199 194 76 199 194 76 200 194 75 201 193 75 202 193 75 203 193 75 204 193 75 204 192 75 206 192 75 207 192 75 208 192 75 208 191 75 209 191 74 210 191 74 211 191 74 212 190 74 213 190 74 213 190 74 214 190 74 215 189 74 216 189 74 217 189 74 217 189 74 219 188 73 220 188 73 221 188 73 221 188 73 222 187 73 223 187 73 224 187 73 224 187 73 225 187 73 226 186 73 227 186 72 228 186 72 228 186 72 229 185 72 230 185 72 231 185 72 232 185 72 233 184 72 234 184 72 234 184 72 235 184 72 236 184 71 237 183 71 238 183 71 238 183 71 239 183 71 240 183 71 241 182 71 241 182 71 242 182 71 244 181 71 244 181 71 245 181 71 246 181 70 246 181 70 247 180 70 248 180 70 249 180 70 249 180 70 250 180 70 251 179 70 252 179 70 252 179 70 253 179 70 255 179 70
0 196 76 1 196 76 2 196 76 3 196 76 4 196 76 5 196 76 6 196 76 7 196 76 8 196 76 9 196 76 10 196 76 12 196 76 13 196 76 14 196 76 15 196 76 17 196 76 18 196 76 19 196 76 20 196 76 21 196 76 22 196 76 24 196 76 25 196 76 26 196 76 27 196 76 28 196 76 29 196 76 30 196 76 31 196 76 32 196 76 34 196 76 36 196 76 37 196 76 38 196 76 39 196 76 40 196 76 41 196 76 42 196 76 43 196 76 44 196 76 45 196 76 46 196 76 48 196 76 49 196 76 50 196 76 52 196 76 53 196 76 54 196 76 55 196 76 56 196 76 57 196 76 58 196 76 60 196 76 61 196 76 62 196 76 63 196 76 64 196 76 65 196 76 66 196 76 67 196 76 69 196 76 70 196 76 72 196 76 73 196 76 74 196 76 75 196 76 76 196 76 77 196 76 78 196 76 79 196 76 80 196 76 81 196 76 82 196 76 84 196 76 85 196 76 87 196 76 88 196 76 89 196 76 90 196 76 91 196 76 92 196 76 93 196 76 94 196 76 96 196 76 97 196 76 98 196 76 99 196 76 100 196 76 101 196 76 102 196 76 104 196 76 105 196 76 106 196 76 108 196 76 109 196 76 110 196 76 111 196 76 112 196 76 113 196 76 114 196 76 115 196 76 36 48 121 36 48 121 36 48 121 36 48 121 36 48 121 36 48 121 36 48 121 36 48 121 36 48 121 36 48 121 36 48 121 36 48 121 36 48 121 36 48 121 36 48 121 36 48 121 36 48 121 36 48 121 36 48 121 36 48 121 36 48 121 36 48 121 36 48 121 36 48 121 36 48 121 36 48 121 36 48 121 36 48 121 36 48 121 36 48 121 36 48 121 36 48 121 36 48 121 36 48 121 36 48 121 36 48 121 36 48 121 36 48 121 36 48 121 162 196 76 163 196 76 164 196 76 165 196 76 167 196 76 168 196 76 169 196 76 170 196 76 171 196 76 172 196 76 174 196 76 175 196 76 176 196 76 177 196 76 179 196 76 180 196 76 181 196 76 182 196 76 183 196 76 184 196 76 185 196 76 186 196 76 187 196 76 188 196 76 189 196 76 192 196 76 193 196 76 194 196 76 195 196 76 196 196 76 197 196 76 198 195 76 199 195 76 199 195 76 200 195 75 201 195 75 202 194 75 203 194 75 204 194 75 204 194 75 206 193 75 207 193 75 208 193 75 208 192 75 209 192 74 210 192 74 211 192 74 212 191 74 213 191 74 213 191 74 214 191 74 215 191 74 216 190 74 217 190 74 217 190 74 219 189 73 220 189 73 221 189 73 221 189 73 222 188 73 223 188 73 224 188 73 224 188 73 225 188 73 226 187 73 227 187 72 228 187 72 228 187 72 229 187 72 230 186 72 231 186 72 232 186 72 233 185 72 234 185 72 234 185 72 235 185 72 236 185 71 237 184 71 238 184 71 238 184 71 239 184 71 240 184 71 241 183 71 241 183 71 242 183 71 244 183 71 244 182 71 245 182 71 246 182 70 246 182 70 247 181 70 248 181 70 249 181 70 249 181 70 250 181 70 251 180 70 252 180 70 252 180 70 253 180 70 255 180 70
0 198 76 1 198 76 2 198 76 3 198 76 4 198 76 5 198 76 6 198 76 7 198 76 8 198 76 9 198 76 10 198 76 11 198 76 13 198 76 14 198 76 15 198 76 17 198 76 18 198 76 19 198 76 20 198 76 21 198 76 22 198 76 23 198 76 25 198 76 26 198 76 27 198 76 28 198 76 29 198 76 30 198 76 31 198 76 32 198 76 34 198 76 35 198 76 37 198 76 38 198 76 39 198 76 40 198 76 41 198 76 42 198 76 43 198 76 44 198 76 45 198 76 46 198 76 47 198 76 48 198 76 50 198 76 52 198 76 53 198 76 54 198 76 55 198 76 56 198 76 57 198 76 58 198 76 59 198 76 60 198 76 62 198 76 63 198 76 64 198 76 65 198 76 66 198 76 67 198 76 69 198 76 70 198 76 71 198 76 72 198 76 74 198 76 75 198 76 76 198 76 77 198 76 78 198 76 79 198 76 80 198 76 81 198 76 82 198 76 83 198 76 84 198 76 87 198 76 88 198 76 89 198 76 90 198 76 91 198 76 92 198 76 93 198 76 94 198 76 95 198 76 96 198 76 97 198 76 99 198 76 100 198 76 101 198 76 102 198 76 104 198 76 105 198 76 106 198 76 107 198 76 108 198 76 109 198 76 111 198 76 112 198 76 113 198 76 114 198 76 115 198 76 116 198 76 117 198 76 36 48 121 36 48 121 36 48 121 36 48 121 36 48 121 36 48 121 36 48 121 36 48 121 36 48 121 36 48 121 36 48 121 36 48 121 36 48 121 36 48 121 36 48 121 36 48 121 36 48 121 36 48 121 36 48 121 36 48 121 36 48 121 36 48 121 36 48 121 36 48 121 36 48 121 36 48 121 36 48 121 36 48 121 36 48 121 36 48 121 36 48 121 36 48 121 36 48 121 36 48 121 36 48 121 160 198 76 161 198 76 162 198 76 163 198 76 164 198 76 165 198 76 166 198 76 167 198 76 168 198 76 169 198 76 170 198 76 172 198 76 174 198 76 175 198 76 176 198 76 177 198 76 178 198 76 179 198 76 180 198 76 181 198 76 182 198 76 184 198 76 185 198 76 186 198 76 187 198 76 188 198 76 189 198 76 191 198 76 192 198 76 193 198 76 194 198 76 195 198 76 197 198 76 198 198 76 199 197 76 199 197 76 200 197 75 201 197 75 202 196 75 203 196 75 204 196 75 204 196 75 206 195 75 207 195 75 208 195 75 208 195 75 209 194 74 210 194 74 211 194 74 212 194 74 213 193 74 213 193 74 214 193 74 215 193 74 216 192 74 217 192 74 217 192 74 219 192 73 220 191 73 221 191 73 221 191 73 222 191 73 223 190 73 224 190 73 224 190 73 225 190 73 226 189 73 227 189 72 228 189 72 228 189 72 229 189 72 230 188 72 231 188 72 232 188 72 233 188 72 234 187 72 234 187 72 235 187 72 236 187 71 237 186 71 238 186 71 238 186 71 239 186 71 240 186 71 241 185 71 241 185 71 242 185 71 244 185 71 244 184 71 245 184 71 246 184 70 246 184 70 247 184 70 248 183 70 249 183 70 249 183 70 250 183 70 251 183 70 252 182 70 252 182 70 253 182 70 255 182 70
0 199 76 1 199 76 2 199 76 3 199 76 4 199 76 5 199 76 6 199 76 7 199 76 8 199 76 9 199 76 10 199 76 11 199 76 13 199 76 14 199 76 15 199 76 17 199 76 18 199 76 19 199 76 20 199 76 21 199 76 22 199 76 23 199 76 25 199 76 26 199 76 27 199 76 28 199 76 29 199 76 30 199 76 31 199 76 32 199 76 34 199 76 35 199 76 36 199 76 38 199 76 39 199 76 40 199 76 41 199 76 42 199 76 43 199 76 44 199 76 45 199 76 46 199 76 47 199 76 48 199 76 50 199 76 52 199 76 53 199 76 54 199 76 55 199 76 56 199 76 57 199 76 58 199 76 59 199 76 60 199 76 61 199 76 63 199 76 64 199 76 65 199 76 66 199 76 67 199 76 69 199 76 70 199 76 71 199 76 72 199 76 73 199 76 75 199 76 76 199 76 77 199 76 78 199 76 79 199 76 80 199 76 81 199 76 82 199 76 83 199 76 84 199 76 86 199 76 88 199 76 89 199 76 90 199 76 91 199 76 92 199 76 93 199 76 94 199 76 95 199 76 96 199 76 97 199 76 98 199 76 100 199 76 101 199 76 102 199 76 104 199 76 105 199 76 106 199 76 107 199 76 108 199 76 109 199 76 110 199 76 112 199 76 113 199 76 114 199 76 115 199 76 116 199 76 117 199 76 118 199 76 119 199 76 36 48 121 36 48 121 36 48 121 36 48 121 36 48 121 36 48 121 36 48 121 36 48 121 36 48 121 36 48 121 36 48 121 36 48 121 36 48 121 36 48 121 36 48 121 36 48 121 36 48 121 36 48 121 36 48 121 36 48 121 36 48 121 36 48 121 36 48 121 36 48 121 36 48 121 36 48 121 36 48 121 36 48 121 36 48 121 36 48 121 36 48 121 157 199 76 158 199 76 159 199 76 160 199 76 162 199 76 163 199 76 164 199 76 165 199 76 166 199 76 167 199 76 168 199 76 169 199 76 170 199 76 171 199 76 173 199 76 175 199 76 176 199 76 177 199 76 178 199 76 179 199 76 180 199 76 181 199 76 182 199 76 183 199 76 184 199 76 185 199 76 187 199 76 188 199 76 189 199 76 191 199 76 192 199 76 193 199 76 194 199 76 195 199 76 196 199 76 197 199 76 199 199 76 199 198 76 200 198 75 201 198 75 202 198 75 203 197 75 204 197 75 204 197 75 206 196 75 207 196 75 208 196 75 208 196 75 209 195 74 210 195 74 211 195 74 212 195 74 213 194 74 213 194 74 214 194 74 215 194 74 216 193 74 217 193 74 217 193 74 219 193 73 220 192 73 221 192 73 221 192 73 222 192 73 223 191 73 224 191 73 224 191 73 225 191 73 226 191 73 227 190 72 228 190 72 228 190 72 229 190 72 230 189 72 231 189 72 232 189 72 233 189 72 234 188 72 234 188 72 235 188 72 236 188 71 237 187 71 238 187 71 238 187 71 239 187 71 240 187 71 241 186 71 241 186 71 242 186 71 244 186 71 244 185 71 245 185 71 246 185 70 246 185 70 247 185 70 248 184 70 249 184 70 249 184 70 250 184 70 251 184 70 252 183 70 252 183 70 253 183 70 255 183 70
0 200 75 1 200 75 2 200 75 3 200 75 4 200 75 5 200 75 6 200 75 7 200 75 8 200 75 9 200 75 10 200 75 11 200 75 13 200 75 14 200 75 15 200 75 17 200 75 18 200 75 19 200 75 20 200 75 21 200 75 22 200 75 23 200 75 24 200 75 26 200 75 27 200 75 28 200 75 29 200 75 30 200 75 31 200 75 32 200 75 34 200 75 35 200 75 36 200 75 37 200 75 39 200 75 40 200 75 41 200 75 42 200 75 43 200 75 44 200 75 45 200 75 46 200 75 47 200 75 48 200 75 49 200 75 52 200 75 53 200 75 54 200 75 55 200 75 56 200 75 57 200 75 58 200 75 59 200 75 60 200 75 61 200 75 62 200 75 64 200 75 65 200 75 66 200 75 67 200 75 69 200 75 70 200 75 71 200 75 72 200 75 73 200 75 74 200 75 75 200 75 77 200 75 78 200 75 79 200 75 80 200 75 81 200 75 82 200 75 83 200 75 84 200 75 86 200 75 87 200 75 88 200 75 90 200 75 91 200 75 92 200 75 93 200 75 94 200 75 95 200 75 96 200 75 97 200 75 98 200 75 99 200 75 100 200 75 101 200 75 104 200 75 105 200 75 106 200 75 107 200 75 108 200 75 109 200 75 110 200 75 111 200 75 112 200 75 113 200 75 114 200 75 116 200 75 117 200 75 118 200 75 119 200 75 121 200 75 122 200 75 123 200 75 36 48 121 36 48 121 36 48 121 36 48 121 36 48 121 36 48 121 36 48 121 36 48 121 36 48 121 36 48 121 36 48 121 36 48 121 36 48 121 36 48 121 36 48 121 36 48 121 36 48 121 36 48 121 36 48 121 36 48 121 36 48 121 36 48 121 36 48 121 36 48 121 36 48 121 152 200 75 154 200 75 156 200 75 157 200 75 158 200 75 159 200 75 160 200 75 161 200 75 162 200 75 163 200 75 164 200 75 165 200 75 167 200 75 168 200 75 169 200 75 170 200 75 171 200 75 173 200 75 174 200 75 175 200 75 176 200 75 177 200 75 178 200 75 180 200 75 181 200 75 182 200 75 183 200 75 184 200 75 185 200 75 186 200 75 187 200 75 188 200 75 190 200 75 192 200 75 193 200 75 194 200 75 195 200 75 196 200 75 197 200 75 198 200 75 199 200 75 200 200 75 201 200 75 202 200 75 203 199 75 204 199 75 204 199 75 206 198 75 207 198 75 208 198 75 208 198 75 209 197 74 210 197 74 211 197 74 212 197 74 213 197 74 213 196 74 214 196 74 215 196 74 216 196 74 217 195 74 217 195 74 219 195 73 220 194 73 221 194 73 221 194 73 222 194 73 223 194 73 224 193 73 224 193 73 225 193 73 226 193 73 227 192 72 228 192 72 228 192 72 229 192 72 230 191 72 231 191 72 232 191 72 233 191 72 234 190 72 234 190 72 235 190 72 236 190 71 237 190 71 238 189 71 238 189 71 239 189 71 240 189 71 241 188 71 241 188 71 242 188 71 244 188 71 244 187 71 245 187 71 246 187 70 246 187 70 247 187 70 248 186 70 249 186 70 249 186 70 250 186 70 251 186 70 252 185 70 252 185 70 253 185 70 255 185 70
0 201 75 1 201 75 2 201 75 3 201 75 4 201 75 5 201 75 6 201 75 7 201 75 8 201 75 9 201 75 10 201 75 11 201 75 13 201 75 14 201 75 15 201 75 17 201 75 18 201 75 19 201 75 20 201 75 21 201 75 22 201 75 23 201 75 24 201 75 26 201 75 27 201 75 28 201 75 29 201 75 30 201 75 31 201 75 32 201 75 34 201 75 35 201 75 36 201 75 37 201 75 39 201 75 40 201 75 41 201 75 42 201 75 43 201 75 44 201 75 45 201 75 46 201 75 47 201 75 48 201 75 49 201 75 52 201 75 53 201 75 54 201 75 55 201 75 56 201 75 57 201 75 58 201 75 59 201 75 60 201 75 61 201 75 62 201 75 63 201 75 65 201 75 66 201 75 67 201 75 69 201 75 70 201 75 71 201 75 72 201 75 73 201 75 74 201 75 75 201 75 76 201 75 78 201 75 79 201 75 80 201 75 81 201 75 82 201 75 83 201 75 84 201 75 86 201 75 87 201 75 88 201 75 89 201 75 91 201 75 92 201 75 93 201 75 94 201 75 95 201 75 96 201 75 97 201 75 98 201 75 99 201 75 100 201 75 101 201 75 104 201 75 105 201 75 106 201 75 107 201 75 108 201 75 109 201 75 110 201 75 111 201 75 112 201 75 113 201 75 114 201 75 115 201 75 117 201 75 118 201 75 119 201 75 121 201 75 122 201 75 123 201 75 124 201 75 125 201 75 126 201 75 36 48 121 36 48 121 36 48 121 36 48 121 36 48 121 36 48 121 36 48 121 36 48 121 36 48 121 36 48 121 36 48 121 36 48 121 36 48 121 36 48 121 36 48 121 36 48 121 36 48 121 36 48 121 36 48 121 149 201 75 150 201 75 151 201 75 152 201 75 153 201 75 156 201 75 157 201 75 158 201 75 159 201 75 160 201 75 161 201 75 162 201 75 163 201 75 164 201 75 165 201 75 166 201 75 167 201 75 169 201 75 170 201 75 171 201 75 173 201 75 174 201 75 175 201 75 176 201 75 177 201 75 178 201 75 179 201 75 180 201 75 182 201 75 183 201 75 184 201 75 185 201 75 186 201 75 187 201 75 188 201 75 190 201 75 191 201 75 192 201 75 193 201 75 195 201 75 196 201 75 197 201 75 198 201 75 199 201 75 200 201 75 201 201 75 202 201 75 203 201 75 204 200 75 204 200 75 206 200 75 207 199 75 208 199 75 208 199 75 209 199 74 210 198 74 211 198 74 212 198 74 213 198 74 213 197 74 214 197 74 215 197 74 216 197 74 217 196 74 217 196 74 219 196 73 220 195 73 221 195 73 221 195 73 222 195 73 223 195 73 224 194 73 224 194 73 225 194 73 226 194 73 227 193 72 228 193 72 228 193 72 229 193 72 230 193 72 231 192 72 232 192 72 233 192 72 234 191 72 234 191 72 235 191 72 236 191 71 237 191 71 238 190 71 238 190 71 239 190 71 240 190 71 241 189 71 241 189 71 242 189 71 244 189 71 244 188 71 245 188 71 246 188 70 246 188 70 247 188 70 248 187 70 249 187 70 249 187 70 250 187 70 251 187 70 252 186 70 252 186 70 253 186 70 255 186 70
0 203 75 1 203 75 2 203 75 3 203 75 4 203 75 5 203 75 6 203 75 7 203 75 8 203 75 9 203 75 10 203 75 11 203 75 12 203 75 14 203 75 15 203 75 17 203 75 18 203 75 19 203 75 20 203 75 21 203 75 22 203 75 23 203 75 24 203 75 25 203 75 27 203 75 28 203 75 29 203 75 30 203 75 31 203 75 32 203 75 34 203 75 35 203 75 36 203 75 37 203 75 38 203 75 39 203 75 41 203 75 42 203 75 43 203 75 44 203 75 45 203 75 46 203 75 47 203 75 48 203 75 49 203 75 51 203 75 52 203 75 54 203 75 55 203 75 56 203 75 57 203 75 58 203 75 59 203 75 60 203 75 61 203 75 62 203 75 63 203 75 64 203 75 65 203 75 67 203 75 69 203 75 70 203 75 71 203 75 72 203 75 73 203 75 74 203 75 75 203 75 76 203 75 77 203 75 78 203 75 79 203 75 81 203 75 82 203 75 83 203 75 84 203 75 86 203 75 87 203 75 88 203 75 89 203 75 90 203 75 91 203 75 92 203 75 94 203 75 95 203 75 96 203 75 97 203 75 98 203 75 99 203 75 100 203 75 101 203 75 103 203 75 104 203 75 105 203 75 106 203 75 108 203 75 109 203 75 110 203 75 111 203 75 112 203 75 113 203 75 114 203 75 115 203 75 116 203 75 117 203 75 118 203 75 121 203 75 122 203 75 123 203 75 124 203 75 125 203 75 126 203 75 127 203 75 128 203 75 129 203 75 130 203 75 131 203 75 132 203 75 134 203 75 135 203 75 136 203 75 138 203 75 139 203 75 140 203 75 141 203 75 142 203 75 143 203 75 144 203 75 145 203 75 146 203 75 148 203 75 149 203 75 150 203 75 151 203 75 152 203 75 153 203 75 155 203 75 156 203 75 157 203 75 158 203 75 159 203 75 161 203 75 162 203 75 163 203 75 164 203 75 165 203 75 166 203 75 167 203 75 168 203 75 169 203 75 170 203 75 172 203 75 174 203 75 175 203 75 176 203 75 177 203 75 178 203 75 179 203 75 180 203 75 181 203 75 182 203 75 183 203 75 184 203 75 185 203 75 186 203 75 188 203 75 190 203 75 191 203 75 192 203 75 193 203 75 194 203 75 195 203 75 196 203 75 197 203 75 198 203 75 199 203 75 201 203 75 202 203 75 203 203 75 204 202 75 204 202 75 206 202 75 207 201 75 208 201 75 208 201 75 209 201 74 210 200 74 211 200 74 212 200 74 213 200 74 213 199 74 214 199 74 215 199 74 216 199 74 217 199 74 217 198 74 219 198 73 220 198 73 221 197 73 221 197 73 222 197 73 223 197 73 224 196 73 224 196 73 225 196 73 226 196 73 227 196 72 228 195 72 228 195 72 229 195 72 230 195 72 231 194 72 232 194 72 233 194 72 234 193 72 234 193 72 235 193 72 236 193 71 237 193 71 238 192 71 238 192 71 239 192 71 240 192 71 241 192 71 241 191 71 242 191 71 244 191 71 244 190 71 245 190 71 246 190 70 246 190 70 247 190 70 248 189 70 249 189 70 249 189 70 250 189 70 251 189 70 252 188 70 252 188 70 253 188 70 255 188 70
0 204 75 1 204 75 2 204 75 3 204 75 4 204 75 5 204 75 6 204 75 7 204 75 8 204 75 9 204 75 10 204 75 11 204 75 12 204 75 14 204 75 15 204 75 17 204 75 18 204 75 19 204 75 20 204 75 21 204 75 22 204 75 23 204 75 24 204 75 25 204 75 26 204 75 28 204 75 29 204 75 30 204 75 31 204 75 32 204 75 34 204 75 35 204 75 36 204 75 37 204 75 38 204 75 39 204 75 41 204 75 42 204 75 43 204 75 44 204 75 45 204 75 46 204 75 47 204 75 48 204 75 49 204 75 51 204 75 52 204 75 53 204 75 55 204 75 56 204 75 57 204 75 58 204 75 59 204 75 60 204 75 61 204 75 62 204 75 63 204 75 64 204 75 65 204 75 66 204 75 69 204 75 70 204 75 71 204 75 72 204 75 73 204 75 74 204 75 75 204 75 76 204 75 77 204 75 78 204 75 79 204 75 80 204 75 82 204 75 83 204 75 84 204 75 86 204 75 87 204 75 88 204 75 89 204 75 90 204 75 91 204 75 92 204 75 93 204 75 94 204 75 96 204 75 97 204 75 98 204 75 99 204 75 100 204 75 101 204 75 103 204 75 104 204 75 105 204 75 106 204 75 107 204 75 109 204 75 110 204 75 111 204 75 112 204 75 113 204 75 114 204 75 115 204 75 116 204 75 117 204 75 118 204 75 120 204 75 121 204 75 123 204 75 124 204 75 125 204 75 126 204 75 127 204 75 128 204 75 129 204 75 130 204 75 131 204 75 132 204 75 133 204 75 134 204 75 136 204 75 138 204 75 139 204 75 140 204 75 141 204 75 142 204 75 143 204 75 144 204 75 145 204 75 146 204 75 147 204 75 148 204 75 150 204 75 151 204 75 152 204 75 153 204 75 155 204 75 156 204 75 157 204 75 158 204 75 159 204 75 160 204 75 161 204 75 162 204 75 164 204 75 165 204 75 166 204 75 167 204 75 168 204 75 169 204 75 170 204 75 172 204 75 173 204 75 174 204 75 175 204 75 177 204 75 178 204 75 179 204 75 180 204 75 181 204 75 182 204 75 183 204 75 184 204 75 185 204 75 186 204 75 187 204 75 189 204 75 191 204 75 192 204 75 193 204 75 194 204 75 195 204 75 196 204 75 197 204 75 198 204 75 199 204 75 200 204 75 201 204 75 202 204 75 204 204 75 204 203 75 206 203 75 207 203 75 208 202 75 208 202 75 209 202 74 210 202 74 211 201 74 212 201 74 213 201 74 213 201 74 214 200 74 215 200 74 216 200 74 217 200 74 217 199 74 219 199 73 220 199 73 221 198 73 221 198 73 222 198 73 223 198 73 224 197 73 224 197 73 225 197 73 226 197 73 227 197 72 228 196 72 228 196 72 229 196 72 230 196 72 231 195 72 232 195 72 233 195 72 234 195 72 234 194 72 235 194 72 236 194 71 237 194 71 238 193 71 238 193 71 239 193 71 240 193 71 241 193 71 241 192 71 242 192 71 244 192 71 244 191 71 245 191 71 246 191 70 246 191 70 247 191 70 248 190 70 249 190 70 249 190 70 250 190 70 251 190 70 252 189 70 252 189 70 253 189 70 255 189 70
0 204 75 1 204 75 2 204 75 3 204 75 4 204 75 5 204 75 6 204 75 7 204 75 8 204 75 9 204 75 10 204 75 11 204 75 12 204 75 14 204 75 15 204 75 17 204 75 18 204 75 19 204 75 20 204 75 21 204 75 22 204 75 23 204 75 24 204 75 25 204 75 26 204 75 28 204 75 29 204 75 30 204 75 31 204 75 32 204 75 34 204 75 35 204 75 36 204 75 37 204 75 38 204 75 39 204 75 40 204 75 42 204 75 43 204 75 44 204 75 45 204 75 46 204 75 47 204 75 48 204 75 49 204 75 51 204 75 52 204 75 53 204 75 54 204 75 56 204 75 57 204 75 58 204 75 59 204 75 60 204 75 61 204 75 62 204 75 63 204 75 64 204 75 65 204 75 66 204 75 68 204 75 70 204 75 71 204 75 72 204 75 73 204 75 74 204 75 75 204 75 76 204 75 77 204 75 78 204 75 79 204 75 80 204 75 81 204 75 83 204 75 84 204 75 86 204 75 87 204 75 88 204 75 89 204 75 90 204 75 91 204 75 92 204 75 93 204 75 94 204 75 95 204 75 97 204 75 98 204 75 99 204 75 100 204 75 101 204 75 103 204 75 104 204 75 105 204 75 106 204 75 107 204 75 108 204 75 109 204 75 111 204 75 112 204 75 113 204 75 114 204 75 115 204 75 116 204 75 117 204 75 118 204 75 120 204 75 121 204 75 122 204 75 123 204 75 125 204 75 126 204 75 127 204 75 128 204 75 129 204 75 130 204 75 131 204 75 132 204 75 133 204 75 134 204 75 135 204 75 137 204 75 139 204 75 140 204 75 141 204 75 142 204 75 143 204 75 144 204 75 145 204 75 146 204 75 147 204 75 148 204 75 149 204 75 150 204 75 152 204 75 153 204 75 155 204 75 156 204 75 157 204 75 158 204 75 159 204 75 160 204 75 161 204 75 162 204 75 163 204 75 164 204 75 166 204 75 167 204 75 168 204 75 169 204 75 170 204 75 172 204 75 173 204 75 174 204 75 175 204 75 176 204 75 177 204 75 178 204 75 180 204 75 181 204 75 182 204 75 183 204 75 184 204 75 185 204 75 186 204 75 187 204 75 189 204 75 190 204 75 191 204 75 192 204 75 194 204 75 195 204 75 196 204 75 197 204 75 198 204 75 199 204 75 200 204 75 201 204 75 202 204 75 203 204 75 204 204 75 206 204 75 207 204 75 208 203 75 208 203 75 209 203 74 210 203 74 211 202 74 212 202 74 213 202 74 213 202 74 214 201 74 215 201 74 216 201 74 217 201 74 217 200 74 219 200 73 220 200 73 221 199 73 221 199 73 222 199 73 223 199 73 224 199 73 224 198 73 225 198 73 226 198 73 227 198 72 228 197 72 228 197 72 229 197 72 230 197 72 231 196 72 232 196 72 233 196 72 234 196 72 234 195 72 235 195 72 236 195 71 237 195 71 238 194 71 238 194 71 239 194 71 240 194 71 241 194 71 241 193 71 242 193 71 244 193 71 244 192 71 245 192 71 246 192 70 246 192 70 247 192 70 248 191 70 249 191 70 249 191 70 250 191 70 251 191 70 252 190 70 252 190 70 253 190 70 255 190 70
0 206 75 1 206 75 2 206 75 3 206 75 4 206 75 5 206 75 6 206 75 7 206 75 8 206 75 9 206 75 10 206 75 11 206 75 12 206 75 13 206 75 15 206 75 17 206 75 18 206 75 19 206 75 20 206 75 21 206 75 22 206 75 23 206 75 24 206 75 25 206 75 26 206 75 27 206 75 29 206 75 30 206 75 31 206 75 32 206 75 34 206 75 35 206 75 36 206 75 37 206 75 38 206 75 39 206 75 40 206 75 41 206 75 43 206 75 44 206 75 45 206 75 46 206 75 47 206 75 48 206 75 49 206 75 51 206 75 52 206 75 53 206 75 54 206 75 55 206 75 57 206 75 58 206 75 59 206 75 60 206 75 61 206 75 62 206 75 63 206 75 64 206 75 65 206 75 66 206 75 68 206 75 69 206 75 70 206 75 72 206 75 73 206 75 74 206 75 75 206 75 76 206 75 77 206 75 78 206 75 79 206 75 80 206 75 81 206 75 82 206 75 83 206 75 86 206 75 87 206 75 88 206 75 89 206 75 90 206 75 91 206 75 92 206 75 93 206 75 94 206 75 95 206 75 96 206 75 97 206 75 98 206 75 100 206 75 101 206 75 103 206 75 104 206 75 105 206 75 106 206 75 107 206 75 108 206 75 109 206 75 110 206 75 111 206 75 112 206 75 114 206 75 115 206 75 116 206 75 117 206 75 118 206 75 120 206 75 121 206 75 122 206 75 123 206 75 124 206 75 125 206 75 126 206 75 127 206 75 129 206 75 130 206 75 131 206 75 132 206 75 133 206 75 134 206 75 135 206 75 137 206 75 138 206 75 139 206 75 140 206 75 141 206 75 143 206 75 144 206 75 145 206 75 146 206 75 147 206 75 148 206 75 149 206 75 150 206 75 151 206 75 152 206 75 154 206 75 155 206 75 157 206 75 158 206 75 159 206 75 160 206 75 161 206 75 162 206 75 163 206 75 164 206 75 165 206 75 166 206 75 167 206 75 168 206 75 169 206 75 172 206 75 173 206 75 174 206 75 175 206 75 176 206 75 177 206 75 178 206 75 179 206 75 180 206 75 181 206 75 182 206 75 183 206 75 184 206 75 186 206 75 187 206 75 189 206 75 190 206 75 191 206 75 192 206 75 193 206 75 194 206 75 195 206 75 196 206 75 197 206 75 198 206 75 200 206 75 201 206 75 202 206 75 203 206 75 204 206 75 206 206 75 207 206 75 208 205 75 208 205 75 209 205 74 210 205 74 211 204 74 212 204 74 213 204 74 213 204 74 214 204 74 215 203 74 216 203 74 217 203 74 217 203 74 219 202 73 220 202 73 221 202 73 221 201 73 222 201 73 223 201 73 224 201 73 224 200 73 225 200 73 226 200 73 227 200 72 228 199 72 228 199 72 229 199 72 230 199 72 231 198 72 232 198 72 233 198 72 234 198 72 234 197 72 235 197 72 236 197 71 237 197 71 238 196 71 238 196 71 239 196 71 240 196 71 241 196 71 241 195 71 242 195 71 244 195 71 244 194 71 245 194 71 246 194 70 246 194 70 247 194 70 248 193 70 249 193 70 249 193 70 250 193 70 251 193 70 252 192 70 252 192 70 253 192 70 255 192 70
0 207 75 1 207 75 2 207 75 3 207 75 4 207 75 5 207 75 6 207 75 7 207 75 8 207 75 9 207 75 10 207 75 11 207 75 12 207 75 13 207 75 15 207 75 17 207 75 18 207 75 19 207 75 20 207 75 21 207 75 22 207 75 23 207 75 24 207 75 25 207 75 26 207 75 27 207 75 29 207 75 30 207 75 31 207 75 32 207 75 34 207 75 35 207 75 36 207 75 37 207 75 38 207 75 39 207 75 40 207 75 41 207 75 42 207 75 44 207 75 45 207 75 46 207 75 47 207 75 48 207 75 49 207 75 51 207 75 52 207 75 53 207 75 54 207 75 55 207 75 56 207 75 58 207 75 59 207 75 60 207 75 61 207 75 62 207 75 63 207 75 64 207 75 65 207 75 66 207 75 68 207 75 69 207 75 70 207 75 71 207 75 73 207 75 74 207 75 75 207 75 76 207 75 77 207 75 78 207 75 79 207 75 80 207 75 81 207 75 82 207 75 83 207 75 85 207 75 87 207 75 88 207 75 89 207 75 90 207 75 91 207 75 92 207 75 93 207 75 94 207 75 95 207 75 96 207 75 97 207 75 98 207 75 99 207 75 100 207 75 103 207 75 104 207 75 105 207 75 106 207 75 107 207 75 108 207 75 109 207 75 110 207 75 111 207 75 112 207 75 113 207 75 114 207 75 116 207 75 117 207 75 118 207 75 120 207 75 121 207 75 122 207 75 123 207 75 124 207 75 125 207 75 126 207 75 127 207 75 128 207 75 129 207 75 131 207 75 132 207 75 133 207 75 134 207 75 135 207 75 137 207 75 138 207 75 139 207 75 140 207 75 141 207 75 142 207 75 143 207 75 145 207 75 146 207 75 147 207 75 148 207 75 149 207 75 150 207 75 151 207 75 152 207 75 154 207 75 155 207 75 156 207 75 157 207 75 158 207 75 160 207 75 161 207 75 162 207 75 163 207 75 164 207 75 165 207 75 166 207 75 167 207 75 168 207 75 169 207 75 171 207 75 172 207 75 174 207 75 175 207 75 176 207 75 177 207 75 178 207 75 179 207 75 180 207 75 181 207 75 182 207 75 183 207 75 184 207 75 185 207 75 186 207 75 189 207 75 190 207 75 191 207 75 192 207 75 193 207 75 194 207 75 195 207 75 196 207 75 197 207 75 198 207 75 199 207 75 200 207 75 201 207 75 203 207 75 204 207 75 206 207 75 207 207 75 208 207 75 208 206 75 209 206 74 210 206 74 211 206 74 212 205 74 213 205 74 213 205 74 214 205 74 215 204 74 216 204 74 217 204 74 217 204 74 219 203 73 220 203 73 221 203 73 221 202 73 222 202 73 223 202 73 224 202 73 224 201 73 225 201 73 226 201 73 227 201 72 228 200 72 228 200 72 229 200 72 230 200 72 231 199 72 232 199 72 233 199 72 234 199 72 234 198 72 235 198 72 236 198 71 237 198 71 238 198 71 238 197 71 239 197 71 240 197 71 241 197 71 241 196 71 242 196 71 244 196 71 244 196 71 245 195 71 246 195 70 246 195 70 247 195 70 248 194 70 249 194 70 249 194 70 250 194 70 251 194 70 252 193 70 252 193 70 253 193 70 255 193 70
0 208 75 1 208 75 2 208 75 3 208 75 4 208 75 5 208 75 6 208 75 7 208 75 8 208 75 9 208 75 10 208 75 11 208 75 12 208 75 13 208 75 15 208 75 17 208 75 18 208 75 19 208 75 20 208 75 21 208 75 22 208 75 23 208 75 24 208 75 25 208 75 26 208 75 27 208 75 28 208 75 30 208 75 31 208 75 32 208 75 34 208 75 35 208 75 36 208 75 37 208 75 38 208 75 39 208 75 40 208 75 41 208 75 42 208 75 43 208 75 45 208 75 46 208 75 47 208 75 48 208 75 49 208 75 51 208 75 52 208 75 53 208 75 54 208 75 55 208 75 56 208 75 57 208 75 58 208 75 60 208 75 61 208 75 62 208 75 63 208 75 64 208 75 65 208 75 66 208 75 68 208 75 69 208 75 70 208 75 71 208 75 72 208 75 73 208 75 75 208 75 76 208 75 77 208 75 78 208 75 79 208 75 80 208 75 81 208 75 82 208 75 83 208 75 85 208 75 86 208 75 87 208 75 88 208 75 90 208 75 91 208 75 92 208 75 93 208 75 94 208 75 95 208 75 96 208 75 97 208 75 98 208 75 99 208 75 100 208 75 102 208 75 103 208 75 105 208 75 106 208 75 107 208 75 108 208 75 109 208 75 110 208 75 111 208 75 112 208 75 113 208 75 114 208 75 115 208 75 116 208 75 117 208 75 120 208 75 121 208 75 122 208 75 123 208 75 124 208 75 125 208 75 126 208 75 127 208 75 128 208 75 129 208 75 130 208 75 131 208 75 132 208 75 133 208 75 135 208 75 137 208 75 138 208 75 139 208 75 140 208 75 141 208 75 142 208 75 143 208 75 144 208 75 145 208 75 146 208 75 147 208 75 148 208 75 150 208 75 151 208 75 152 208 75 154 208 75 155 208 75 156 208 75 157 208 75 158 208 75 159 208 75 160 208 75 161 208 75 162 208 75 163 208 75 165 208 75 166 208 75 167 208 75 168 208 75 169 208 75 171 208 75 172 208 75 173 208 75 174 208 75 175 208 75 176 208 75 177 208 75 178 208 75 180 208 75 181 208 75 182 208 75 183 208 75 184 208 75 185 208 75 186 208 75 188 208 75 189 208 75 190 208 75 191 208 75 192 208 75 193 208 75 195 208 75 196 208 75 197 208 75 198 208 75 199 208 75 200 208 75 201 208 75 202 208 75 203 208 75 205 208 75 206 208 75 207 208 75 208 208 75 209 208 74 210 208 74 211 208 74 212 207 74 213 207 74 213 207 74 214 207 74 215 206 74 216 206 74 217 206 74 217 206 74 219 205 73 220 205 73 221 205 73 221 204 73 222 204 73 223 204 73 224 204 73 224 204 73 225 203 73 226 203 73 227 203 72 228 203 72 228 202 72 229 202 72 230 202 72 231 201 72 232 201 72 233 201 72 234 201 72 234 200 72 235 200 72 236 200 71 237 200 71 238 200 71 238 199 71 239 199 71 240 199 71 241 199 71 241 198 71 242 198 71 244 198 71 244 198 71 245 197 71 246 197 70 246 197 70 247 197 70 248 196 70 249 196 70 249 196 70 250 196 70 251 196 70 252 195 70 252 195 70 253 195 70 255 195 70
0 209 74 1 209 74 2 209 74 3 209 74 4 209 74 5 209 74 6 209 74 7 209 74 8 209 74 9 209 74 10 209 74 11 209 74 12 209 74 13 209 74 14 209 74 17 209 74 18 209 74 19 209 74 20 209 74 21 209 74 22 209 74 23 209 74 24 209 74 25 209 74 26 209 74 27 209 74 28 209 74 29 209 74 31 209 74 32 209 74 34 209 74 35 209 74 36 209 74 37 209 74 38 209 74 39 209 74 40 209 74 41 209 74 42 209 74 43 209 74 44 209 74 46 209 74 47 209 74 48 209 74 49 209 74 51 209 74 52 209 74 53 209 74 54 209 74 55 209 74 56 209 74 57 209 74 58 209 74 59 209 74 61 209 74 62 209 74 63 209 74 64 209 74 65 209 74 66 209 74 68 209 74 69 209 74 70 209 74 71 209 74 72 209 74 73 209 74 74 209 74 75 209 74 77 209 74 78 209 74 79 209 74 80 209 74 81 209 74 82 209 74 83 209 74 85 209 74 86 209 74 87 209 74 88 209 74 89 209 74 90 209 74 92 209 74 93 209 74 94 209 74 95 209 74 96 209 74 97 209 74 98 209 74 99 209 74 100 209 74 102 209 74 103 209 74 104 209 74 105 209 74 107 209 74 108 209 74 109 209 74 110 209 74 111 209 74 112 209 74 113 209 74 114 209 74 115 209 74 116 209 74 117 209 74 119 209 74 120 209 74 122 209 74 123 209 74 124 209 74 125 209 74 126 209 74 127 209 74 128 209 74 129 209 74 130 209 74 131 209 74 132 209 74 133 209 74 134 209 74 136 209 74 138 209 74 139 209 74 140 209 74 141 209 74 142 209 74 143 209 74 144 209 74 145 209 74 146 209 74 147 209 74 148 209 74 149 209 74 150 209 74 151 209 74 154 209 74 155 209 74 156 209 74 157 209 74 158 209 74 159 209 74 160 209 74 161 209 74 162 209 74 163 209 74 164 209 74 165 209 74 166 209 74 168 209 74 169 209 74 171 209 74 172 209 74 173 209 74 174 209 74 175 209 74 176 209 74 177 209 74 178 209 74 179 209 74 180 209 74 181 209 74 183 209 74 184 209 74 185 209 74 186 209 74 188 209 74 189 209 74 190 209 74 191 209 74 192 209 74 193 209 74 194 209 74 195 209 74 196 209 74 197 209 74 199 209 74 200 209 74 201 209 74 202 209 74 203 209 74 205 209 74 206 209 74 207 209 74 208 209 74 209 209 74 210 209 74 211 209 74 212 209 74 213 208 74 213 208 74 214 208 74 215 208 74 216 207 74 217 207 74 217 207 74 219 206 73 220 206 73 221 206 73 221 206 73 222 205 73 223 205 73 224 205 73 224 205 73 225 204 73 226 204 73 227 204 72 228 204 72 228 203 72 229 203 72 230 203 72 231 202 72 232 202 72 233 202 72 234 202 72 234 202 72 235 201 72 236 201 71 237 201 71 238 201 71 238 200 71 239 200 71 240 200 71 241 200 71 241 199 71 242 199 71 244 199 71 244 199 71 245 198 71 246 198 70 246 198 70 247 198 70 248 197 70 249 197 70 249 197 70 250 197 70 251 197 70 252 196 70 252 196 70 253 196 70 255 196 70
0 211 74 1 211 74 2 211 74 3 211 74 4 211 74 5 211 74 6 211 74 7 211 74 8 211 74 9 211 74 10 211 74 11 211 74 12 211 74 13 211 74 14 211 74 17 211 74 18 211 74 19 211 74 20 211 74 21 211 74 22 211 74 23 211 74 24 211 74 25 211 74 26 211 74 27 211 74 28 211 74 29 211 74 30 211 74 32 211 74 34 211 74 35 211 74 36 211 74 37 211 74 38 211 74 39 211 74 40 211 74 41 211 74 42 211 74 43 211 74 44 211 74 45 211 74 46 211 74 48 211 74 49 211 74 51 211 74 52 211 74 53 211 74 54 211 74 55 211 74 56 211 74 57 211 74 58 211 74 59 211 74 60 211 74 61 211 74 62 211 74 64 211 74 65 211 74 66 211 74 68 211 74 69 211 74 70 211 74 71 211 74 72 211 74 73 211 74 74 211 74 75 211 74 76 211 74 77 211 74 79 211 74 80 211 74 81 211 74 82 211 74 83 211 74 85 211 74 86 211 74 87 211 74 88 211 74 89 211 74 90 211 74 91 211 74 92 211 74 93 211 74 95 211 74 96 211 74 97 211 74 98 211 74 99 211 74 100 211 74 102 211 74 103 211 74 104 211 74 105 211 74 106 211 74 107 211 74 108 211 74 109 211 74 111 211 74 112 211 74 113 211 74 114 211 74 115 211 74 116 211 74 117 211 74 119 211 74 120 211 74 121 211 74 122 211 74 123 211 74 124 211 74 125 211 74 127 211 74 128 211 74 129 211 74 130 211 74 131 211 74 132 211 74 133 211 74 134 211 74 136 211 74 137 211 74 138 211 74 139 211 74 140 211 74 142 211 74 143 211 74 144 211 74 145 211 74 146 211 74 147 211 74 148 211 74 149 211 74 150 211 74 151 211 74 153 211 74 154 211 74 155 211 74 156 211 74 158 211 74 159 211 74 160 211 74 161 211 74 162 211 74 163 211 74 164 211 74 165 211 74 166 211 74 167 211 74 168 211 74 170 211 74 171 211 74 172 211 74 174 211 74 175 211 74 176 211 74 177 211 74 178 211 74 179 211 74 180 211 74 181 211 74 182 211 74 183 211 74 184 211 74 185 211 74 187 211 74 188 211 74 190 211 74 191 211 74 192 211 74 193 211 74 194 211 74 195 211 74 196 211 74 197 211 74 198 211 74 199 211 74 200 211 74 201 211 74 202 211 74 204 211 74 206 211 74 207 211 74 208 211 74 209 211 74 210 211 74 211 211 74 212 211 74 213 210 74 213 210 74 214 210 74 215 210 74 216 209 74 217 209 74 217 209 74 219 208 73 220 208 73 221 208 73 221 208 73 222 207 73 223 207 73 224 207 73 224 207 73 225 206 73 226 206 73 227 206 72 228 206 72 228 205 72 229 205 72 230 205 72 231 205 72 232 204 72 233 204 72 234 204 72 234 204 72 235 203 72 236 203 71 237 203 71 238 203 71 238 202 71 239 202 71 240 202 71 241 202 71 241 201 71 242 201 71 244 201 71 244 201 71 245 200 71 246 200 70 246 200 70 247 200 70 248 199 70 249 199 70 249 199 70 250 199 70 251 199 70 252 198 70 252 198 70 253 198 70 255 198 70
0 212 74 1 212 74 2 212 74 3 212 74 4 212 74 5 212 74 6 212 74 7 212 74 8 212 74 9 212 74 10 212 74 11 212 74 12 212 74 13 212 74 14 212 74 17 212 74 18 212 74 19 212 74 20 212 74 21 212 74 22 212 74 23 212 74 24 212 74 25 212 74 26 212 74 27 212 74 28 212 74 29 212 74 30 212 74 31 212 74 34 212 74 35 212 74 36 212 74 37 212 74 38 212 74 39 212 74 40 212 74 41 212 74 42 212 74 43 212 74 44 212 74 45 212 74 46 212 74 47 212 74 49 212 74 51 212 74 52 212 74 53 212 74 54 212 74 55 212 74 56 212 74 57 212 74 58 212 74 59 212 74 60 212 74 61 212 74 62 212 74 63 212 74 65 212 74 66 212 74 68 212 74 69 212 74 70 212 74 71 212 74 72 212 74 73 212 74 74 212 74 75 212 74 76 212 74 77 212 74 78 212 74 79 212 74 81 212 74 82 212 74 83 212 74 85 212 74 86 212 74 87 212 74 88 212 74 89 212 74 90 212 74 91 212 74 92 212 74 93 212 74 94 212 74 95 212 74 97 212 74 98 212 74 99 212 74 100 212 74 102 212 74 103 212 74 104 212 74 105 212 74 106 212 74 107 212 74 108 212 74 109 212 74 110 212 74 111 212 74 113 212 74 114 212 74 115 212 74 116 212 74 117 212 74 119 212 74 120 212 74 121 212 74 122 212 74 123 212 74 124 212 74 125 212 74 126 212 74 127 212 74 129 212 74 130 212 74 131 212 74 132 212 74 133 212 74 134 212 74 136 212 74 137 212 74 138 212 74 139 212 74 140 212 74 141 212 74 142 212 74 143 212 74 145 212 74 146 212 74 147 212 74 148 212 74 149 212 74 150 212 74 151 212 74 153 212 74 154 212 74 155 212 74 156 212 74 157 212 74 158 212 74 159 212 74 161 212 74 162 212 74 163 212 74 164 212 74 165 212 74 166 212 74 167 212 74 168 212 74 170 212 74 171 212 74 172 212 74 173 212 74 174 212 74 175 212 74 177 212 74 178 212 74 179 212 74 180 212 74 181 212 74 182 212 74 183 212 74 184 212 74 185 212 74 187 212 74 188 212 74 189 212 74 190 212 74 191 212 74 193 212 74 194 212 74 195 212 74 196 212 74 197 212 74 198 212 74 199 212 74 200 212 74 201 212 74 202 212 74 204 212 74 205 212 74 206 212 74 207 212 74 209 212 74 210 212 74 211 212 74 212 212 74 213 211 74 213 211 74 214 211 74 215 211 74 216 210 74 217 210 74 217 210 74 219 209 73 220 209 73 221 209 73 221 209 73 222 208 73 223 208 73 224 208 73 224 208 73 225 207 73 226 207 73 227 207 72 228 207 72 228 207 72 229 206 72 230 206 72 231 206 72 232 205 72 233 205 72 234 205 72 234 205 72 235 204 72 236 204 71 237 204 71 238 204 71 238 203 71 239 203 71 240 203 71 241 203 71 241 203 71 242 202 71 244 202 71 244 202 71 245 201 71 246 201 70 246 201 70 247 201 70 248 200 70 249 200 70 249 200 70 250 200 70 251 200 70 252 199 70 252 199 70 253 199 70 255 199 70
0 213 74 1 213 74 2 213 74 3 213 74 4 213 74 5 213 74 6 213 74 7 213 74 8 213 74 9 213 74 10 213 74 11 213 74 12 213 74 13 213 74 14 213 74 17 213 74 18 213 74 19 213 74 20 213 74 21 213 74 22 213 74 23 213 74 24 213 74 25 213 74 26 213 74 27 213 74 28 213 74 29 213 74 30 213 74 31 213 74 34 213 74 35 213 74 36 213 74 37 213 74 38 213 74 39 213 74 40 213 74 41 213 74 42 213 74 43 213 74 44 213 74 45 213 74 46 213 74 47 213 74 48 213 74 51 213 74 52 213 74 53 213 74 54 213 74 55 213 74 56 213 74 57 213 74 58 213 74 59 213 74 60 213 74 61 213 74 62 213 74 63 213 74 64 213 74 66 213 74 68 213 74 69 213 74 70 213 74 71 213 74 72 213 74 73 213 74 74 213 74 75 213 74 76 213 74 77 213 74 78 213 74 79 213 74 80 213 74 82 213 74 83 213 74 85 213 74 86 213 74 87 213 74 88 213 74 89 213 74 90 213 74 91 213 74 92 213 74 93 213 74 94 213 74 95 213 74 96 213 74 97 213 74 99 213 74 100 213 74 102 213 74 103 213 74 104 213 74 105 213 74 106 213 74 107 213 74 108 213 74 109 213 74 110 213 74 111 213 74 112 213 74 113 213 74 115 213 74 116 213 74 117 213 74 119 213 74 120 213 74 121 213 74 122 213 74 123 213 74 124 213 74 125 213 74 126 213 74 127 213 74 128 213 74 129 213 74 131 213 74 132 213 74 133 213 74 134 213 74 136 213 74 137 213 74 138 213 74 139 213 74 140 213 74 141 213 74 142 213 74 143 213 74 144 213 74 145 213 74 146 213 74 148 213 74 149 213 74 150 213 74 151 213 74 153 213 74 154 213 74 155 213 74 156 213 74 157 213 74 158 213 74 159 213 74 160 213 74 161 213 74 162 213 74 164 213 74 165 213 74 166 213 74 167 213 74 168 213 74 170 213 74 171 213 74 172 213 74 173 213 74 174 213 74 175 213 74 176 213 74 177 213 74 178 213 74 180 213 74 181 213 74 182 213 74 183 213 74 184 213 74 185 213 74 187 213 74 188 213 74 189 213 74 190 213 74 191 213 74 192 213 74 193 213 74 194 213 74 195 213 74 197 213 74 198 213 74 199 213 74 200 213 74 201 213 74 202 213 74 204 213 74 205 213 74 206 213 74 207 213 74 208 213 74 209 213 74 210 213 74 211 213 74 213 213 74 213 212 74 214 212 74 215 212 74 216 211 74 217 211 74 217 211 74 219 210 73 220 210 73 221 210 73 221 210 73 222 209 73 223 209 73 224 209 73 224 209 73 225 209 73 226 208 73 227 208 72 228 208 72 228 208 72 229 207 72 230 207 72 231 207 72 232 206 72 233 206 72 234 206 72 234 206 72 235 205 72 236 205 71 237 205 71 238 205 71 238 204 71 239 204 71 240 204 71 241 204 71 241 204 71 242 203 71 244 203 71 244 203 71 245 202 71 246 202 70 246 202 70 247 202 70 248 201 70 249 201 70 249 201 70 250 201 70 251 201 70 252 200 70 252 200 70 253 200 70 255 200 70
0 214 74 1 214 74 2 214 74 3 214 74 4 214 74 5 214 74 6 214 74 7 214 74 8 214 74 9 214 74 10 214 74 11 214 74 12 214 74 13 214 74 14 214 74 17 214 74 18 214 74 19 214 74 20 214 74 21 214 74 22 214 74 23 214 74 24 214 74 25 214 74 26 214 74 27 214 74 28 214 74 29 214 74 30 214 74 31 214 74 34 214 74 35 214 74 36 214 74 37 214 74 38 214 74 39 214 74 40 214 74 41 214 74 42 214 74 43 214 74 44 214 74 45 214 74 46 214 74 47 214 74 48 214 74 51 214 74 52 214 74 53 214 74 54 214 74 55 214 74 56 214 74 57 214 74 58 214 74 59 214 74 60 214 74 61 214 74 62 214 74 63 214 74 64 214 74 65 214 74 68 214 74 69 214 74 70 214 74 71 214 74 72 214 74 73 214 74 74 214 74 75 214 74 76 214 74 77 214 74 78 214 74 79 214 74 80 214 74 81 214 74 82 214 74 85 214 74 86 214 74 87 214 74 88 214 74 89 214 74 90 214 74 91 214 74 92 214 74 93 214 74 94 214 74 95 214 74 96 214 74 97 214 74 98 214 74 99 214 74 102 214 74 103 214 74 104 214 74 105 214 74 106 214 74 107 214 74 108 214 74 109 214 74 110 214 74 111 214 74 112 214 74 113 214 74 114 214 74 115 214 74 116 214 74 119 214 74 120 214 74 121 214 74 122 214 74 123 214 74 124 214 74 125 214 74 126 214 74 127 214 74 128 214 74 129 214 74 130 214 74 131 214 74 132 214 74 133 214 74 136 214 74 137 214 74 138 214 74 139 214 74 140 214 74 141 214 74 142 214 74 143 214 74 144 214 74 145 214 74 146 214 74 147 214 74 148 214 74 149 214 74 150 214 74 153 214 74 154 214 74 155 214 74 156 214 74 157 214 74 158 214 74 159 214 74 160 214 74 161 214 74 162 214 74 163 214 74 164 214 74 165 214 74 166 214 74 167 214 74 170 214 74 171 214 74 172 214 74 173 214 74 174 214 74 175 214 74 176 214 74 177 214 74 178 214 74 179 214 74 180 214 74 181 214 74 182 214 74 183 214 74 184 214 74 187 214 74 188 214 74 189 214 74 190 214 74 191 214 74 192 214 74 193 214 74 194 214 74 195 214 74 196 214 74 197 214 74 198 214 74 199 214 74 200 214 74 201 214 74 204 214 74 205 214 74 206 214 74 207 214 74 208 214 74 209 214 74 210 214 74 211 214 74 212 214 74 213 214 74 214 214 74 215 214 74 216 214 74 217 213 74 217 213 74 219 213 73 220 212 73 221 212 73 221 212 73 222 212 73 223 211 73 224 211 73 224 211 73 225 211 73 226 210 73 227 210 72 228 210 72 228 210 72 229 209 72 230 209 72 231 209 72 232 208 72 233 208 72 234 208 72 234 208 72 235 207 72 236 207 71 237 207 71 238 207 71 238 207 71 239 206 71 240 206 71 241 206 71 241 206 71 242 205 71 244 205 71 244 205 71 245 204 71 246 204 70 246 204 70 247 204 70 248 204 70 249 203 70 249 203 70 250 203 70 251 203 70 252 202 70 252 202 70 253 202 70 255 202 70
0 215 74 1 215 74 2 215 74 3 215 74 4 215 74 5 215 74 6 215 74 7 215 74 8 215 74 9 215 74 10 215 74 11 215 74 12 215 74 13 215 74 14 215 74 16 215 74 18 215 74 19 215 74 20 215 74 21 215 74 22 215 74 23 215 74 24 215 74 25 215 74 26 215 74 27 215 74 28 215 74 29 215 74 30 215 74 31 215 74 33 215 74 35 215 74 36 215 74 37 215 74 38 215 74 39 215 74 40 215 74 41 215 74 42 215 74 43 215 74 44 215 74 45 215 74 46 215 74 47 215 74 48 215 74 50 215 74 52 215 74 53 215 74 54 215 74 55 215 74 56 215 74 57 215 74 58 215 74 59 215 74 60 215 74 61 215 74 62 215 74 63 215 74 64 215 74 65 215 74 67 215 74 68 215 74 70 215 74 71 215 74 72 215 74 73 215 74 74 215 74 75 215 74 76 215 74 77 215 74 78 215 74 79 215 74 80 215 74 81 215 74 82 215 74 84 215 74 85 215 74 87 215 74 88 215 74 89 215 74 90 215 74 91 215 74 92 215 74 93 215 74 94 215 74 95 215 74 96 215 74 97 215 74 98 215 74 99 215 74 101 215 74 102 215 74 104 215 74 105 215 74 106 215 74 107 215 74 108 215 74 109 215 74 110 215 74 111 215 74 112 215 74 113 215 74 114 215 74 115 215 74 116 215 74 118 215 74 119 215 74 120 215 74 122 215 74 123 215 74 124 215 74 125 215 74 126 215 74 127 215 74 128 215 74 129 215 74 130 215 74 131 215 74 132 215 74 133 215 74 135 215 74 136 215 74 137 215 74 139 215 74 140 215 74 141 215 74 142 215 74 143 215 74 144 215 74 145 215 74 146 215 74 147 215 74 148 215 74 149 215 74 150 215 74 152 215 74 153 215 74 154 215 74 156 215 74 157 215 74 158 215 74 159 215 74 160 215 74 161 215 74 162 215 74 163 215 74 164 215 74 165 215 74 166 215 74 167 215 74 169 215 74 170 215 74 171 215 74 172 215 74 174 215 74 175 215 74 176 215 74 177 215 74 178 215 74 179 215 74 180 215 74 181 215 74 182 215 74 183 215 74 184 215 74 186 215 74 187 215 74 188 215 74 189 215 74 191 215 74 192 215 74 193 215 74 194 215 74 195 215 74 196 215 74 197 215 74 198 215 74 199 215 74 200 215 74 201 215 74 203 215 74 204 215 74 205 215 74 206 215 74 208 215 74 209 215 74 210 215 74 211 215 74 212 215 74 213 215 74 214 215 74 215 215 74 216 215 74 217 214 74 217 214 74 219 214 73 220 213 73 221 213 73 221 213 73 222 213 73 223 212 73 224 212 73 224 212 73 225 212 73 226 211 73 227 211 72 228 211 72 228 211 72 229 210 72 230 210 72 231 210 72 232 209 72 233 209 72 234 209 72 234 209 72 235 208 72 236 208 71 237 208 71 238 208 71 238 208 71 239 207 71 240 207 71 241 207 71 241 207 71 242 206 71 244 206 71 244 206 71 245 205 71 246 205 70 246 205 70 247 205 70 248 205 70 249 204 70 249 204 70 250 204 70 251 204 70 252 203 70 252 203 70 253 203 70 255 203 70
0 217 74 1 217 74 2 217 74 3 217 74 4 217 74 5 217 74 6 217 74 7 217 74 8 217 74 9 217 74 10 217 74 11 217 74 12 217 74 13 217 74 14 217 74 16 217 74 17 217 74 19 217 74 20 217 74 21 217 74 22 217 74 23 217 74 24 217 74 25 217 74 26 217 74 27 217 74 28 217 74 29 217 74 30 217 74 31 217 74 33 217 74 34 217 74 35 217 74 37 217 74 38 217 74 39 217 74 40 217 74 41 217 74 42 217 74 43 217 74 44 217 74 45 217 74 46 217 74 47 217 74 48 217 74 50 217 74 51 217 74 52 217 74 53 217 74 55 217 74 56 217 74 57 217 74 58 217 74 59 217 74 60 217 74 61 217 74 62 217 74 63 217 74 64 217 74 65 217 74 67 217 74 68 217 74 69 217 74 70 217 74 71 217 74 73 217 74 74 217 74 75 217 74 76 217 74 77 217 74 78 217 74 79 217 74 80 217 74 81 217 74 82 217 74 84 217 74 85 217 74 86 217 74 87 217 74 88 217 74 89 217 74 91 217 74 92 217 74 93 217 74 94 217 74 95 217 74 96 217 74 97 217 74 98 217 74 99 217 74 101 217 74 102 217 74 103 217 74 104 217 74 105 217 74 106 217 74 107 217 74 109 217 74 110 217 74 111 217 74 112 217 74 113 217 74 114 217 74 115 217 74 116 217 74 118 217 74 119 217 74 120 217 74 121 217 74 122 217 74 123 217 74 124 217 74 125 217 74 127 217 74 128 217 74 129 217 74 130 217 74 131 217 74 132 217 74 133 217 74 135 217 74 136 217 74 137 217 74 138 217 74 139 217 74 140 217 74 141 217 74 142 217 74 143 217 74 145 217 74 146 217 74 147 217 74 148 217 74 149 217 74 150 217 74 152 217 74 153 217 74 154 217 74 155 217 74 156 217 74 157 217 74 158 217 74 159 217 74 160 217 74 161 217 74 163 217 74 164 217 74 165 217 74 166 217 74 167 217 74 169 217 74 170 217 74 171 217 74 172 217 74 173 217 74 174 217 74 175 217 74 176 217 74 177 217 74 178 217 74 179 217 74 181 217 74 182 217 74 183 217 74 184 217 74 186 217 74 187 217 74 188 217 74 189 217 74 190 217 74 191 217 74 192 217 74 193 217 74 194 217 74 195 217 74 196 217 74 197 217 74 199 217 74 200 217 74 201 217 74 203 217 74 204 217 74 205 217 74 206 217 74 207 217 74 208 217 74 209 217 74 210 217 74 211 217 74 212 217 74 213 217 74 214 217 74 215 217 74 217 217 74 217 216 74 219 216 73 220 216 73 221 215 73 221 215 73 222 215 73 223 214 73 224 214 73 224 214 73 225 214 73 226 213 73 227 213 72 228 213 72 228 213 72 229 212 72 230 212 72 231 212 72 232 212 72 233 211 72 234 211 72 234 211 72 235 211 72 236 210 71 237 210 71 238 210 71 238 210 71 239 209 71 240 209 71 241 209 71 241 209 71 242 208 71 244 208 71 244 208 71 245 207 71 246 207 70 246 207 70 247 207 70 248 207 70 249 206 70 249 206 70 250 206 70 251 206 70 252 205 70 252 205 70 253 205 70 255 205 70
0 217 74 1 217 74 2 217 74 3 217 74 4 217 74 5 217 74 6 217 74 7 217 74 8 217 74 9 217 74 10 217 74 11 217 74 12 217 74 13 217 74 14 217 74 16 217 74 17 217 74 19 217 74 20 217 74 21 217 74 22 217 74 23 217 74 24 217 74 25 217 74 26 217 74 27 217 74 28 217 74 29 217 74 30 217 74 31 217 74 33 217 74 34 217 74 35 217 74 37 217 74 38 217 74 39 217 74 40 217 74 41 217 74 42 217 74 43 217 74 44 217 74 45 217 74 46 217 74 47 217 74 48 217 74 50 217 74 51 217 74 52 217 74 53 217 74 54 217 74 56 217 74 57 217 74 58 217 74 59 217 74 60 217 74 61 217 74 62 217 74 63 217 74 64 217 74 65 217 74 67 217 74 68 217 74 69 217 74 70 217 74 71 217 74 72 217 74 74 217 74 75 217 74 76 217 74 77 217 74 78 217 74 79 217 74 80 217 74 81 217 74 82 217 74 84 217 74 85 217 74 86 217 74 87 217 74 88 217 74 89 217 74 90 217 74 91 217 74 93 217 74 94 217 74 95 217 74 96 217 74 97 217 74 98 217 74 99 217 74 101 217 74 102 217 74 103 217 74 104 217 74 105 217 74 106 217 74 107 217 74 108 217 74 109 217 74 111 217 74 112 217 74 113 217 74 114 217 74 115 217 74 116 217 74 118 217 74 119 217 74 120 217 74 121 217 74 122 217 74 123 217 74 124 217 74 125 217 74 126 217 74 127 217 74 129 217 74 130 217 74 131 217 74 132 217 74 133 217 74 135 217 74 136 217 74 137 217 74 138 217 74 139 217 74 140 217 74 141 217 74 142 217 74 143 217 74 144 217 74 145 217 74 146 217 74 148 217 74 149 217 74 150 217 74 152 217 74 153 217 74 154 217 74 155 217 74 156 217 74 157 217 74 158 217 74 159 217 74 160 217 74 161 217 74 162 217 74 163 217 74 164 217 74 166 217 74 167 217 74 169 217 74 170 217 74 171 217 74 172 217 74 173 217 74 174 217 74 175 217 74 176 217 74 177 217 74 178 217 74 179 217 74 180 217 74 181 217 74 182 217 74 183 217 74 186 217 74 187 217 74 188 217 74 189 217 74 190 217 74 191 217 74 192 217 74 193 217 74 194 217 74 195 217 74 196 217 74 197 217 74 198 217 74 199 217 74 200 217 74 203 217 74 204 217 74 205 217 74 206 217 74 207 217 74 208 217 74 209 217 74 210 217 74 211 217 74 212 217 74 213 217 74 214 217 74 215 217 74 216 217 74 217 217 74 219 217 73 220 217 73 221 216 73 221 216 73 222 216 73 223 216 73 224 215 73 224 215 73 225 215 73 226 215 73 227 214 72 228 214 72 228 214 72 229 214 72 230 213 72 231 213 72 232 213 72 233 212 72 234 212 72 234 212 72 235 212 72 236 211 71 237 211 71 238 211 71 238 211 71 239 210 71 240 210 71 241 210 71 241 210 71 242 209 71 244 209 71 244 209 71 245 208 71 246 208 70 246 208 70 247 208 70 248 208 70 249 207 70 249 207 70 250 207 70 251 207 70 252 206 70 252 206 70 253 206 70 255 206 70
0 218 73 1 218 73 2 218 73 3 218 73 4 218 73 5 218 73 6 218 73 7 218 73 8 218 73 9 218 73 10 218 73 11 218 73 12 218 73 13 218 73 14 218 73 16 218 73 17 218 73 19 218 73 20 218 73 21 218 73 22 218 73 23 218 73 24 218 73 25 218 73 26 218 73 27 218 73 28 218 73 29 218 73 30 218 73 31 218 73 33 218 73 34 218 73 35 218 73 36 218 73 38 218 73 39 218 73 40 218 73 41 218 73 42 218 73 43 218 73 44 218 73 45 218 73 46 218 73 47 218 73 48 218 73 50 218 73 51 218 73 52 218 73 53 218 73 54 218 73 55 218 73 57 218 73 58 218 73 59 218 73 60 218 73 61 218 73 62 218 73 63 218 73 64 218 73 65 218 73 67 218 73 68 218 73 69 218 73 70 218 73 71 218 73 72 218 73 73 218 73 74 218 73 76 218 73 77 218 73 78 218 73 79 218 73 80 218 73 81 218 73 82 218 73 84 218 73 85 218 73 86 218 73 87 218 73 88 218 73 89 218 73 90 218 73 91 218 73 92 218 73 94 218 73 95 218 73 96 218 73 97 218 73 98 218 73 99 218 73 101 218 73 102 218 73 103 218 73 104 218 73 105 218 73 106 218 73 107 218 73 108 218 73 109 218 73 110 218 73 111 218 73 113 218 73 114 218 73 115 218 73 116 218 73 118 218 73 119 218 73 120 218 73 121 218 73 122 218 73 123 218 73 124 218 73 125 218 73 126 218 73 127 218 73 128 218 73 129 218 73 130 218 73 132 218 73 133 218 73 135 218 73 136 218 73 137 218 73 138 218 73 139 218 73 140 218 73 141 218 73 142 218 73 143 218 73 144 218 73 145 218 73 146 218 73 147 218 73 148 218 73 149 218 73 152 218 73 153 218 73 154 218 73 155 218 73 156 218 73 157 218 73 158 218 73 159 218 73 160 218 73 161 218 73 162 218 73 163 218 73 164 218 73 165 218 73 166 218 73 168 218 73 170 218 73 171 218 73 172 218 73 173 218 73 174 218 73 175 218 73 176 218 73 177 218 73 178 218 73 179 218 73 180 218 73 181 218 73 182 218 73 183 218 73 185 218 73 186 218 73 188 218 73 189 218 73 190 218 73 191 218 73 192 218 73 193 218 73 194 218 73 195 218 73 196 218 73 197 218 73 198 218 73 199 218 73 200 218 73 202 218 73 203 218 73 204 218 73 205 218 73 207 218 73 208 218 73 209 218 73 210 218 73 211 218 73 212 218 73 213 218 73 214 218 73 215 218 73 216 218 73 217 218 73 219 218 73 220 218 73 221 217 73 221 217 73 222 217 73 223 217 73 224 216 73 224 216 73 225 216 73 226 216 73 227 215 72 228 215 72 228 215 72 229 215 72 230 214 72 231 214 72 232 214 72 233 213 72 234 213 72 234 213 72 235 213 72 236 212 71 237 212 71 238 212 71 238 212 71 239 211 71 240 211 71 241 211 71 241 211 71 242 210 71 244 210 71 244 210 71 245 209 71 246 209 70 246 209 70 247 209 70 248 209 70 249 208 70 249 208 70 250 208 70 251 208 70 252 207 70 252 207 70 253 207 70 255 207 70
0 220 73 1 220 73 2 220 73 3 220 73 4 220 73 5 220 73 6 220 73 7 220 73 8 220 73 9 220 73 10 220 73 11 220 73 12 220 73 13 220 73 14 220 73 16 220 73 17 220 73 18 220 73 20 220 73 21 220 73 22 220 73 23 220 73 24 220 73 25 220 73 26 220 73 27 220 73 28 220 73 29 220 73 30 220 73 31 220 73 33 220 73 34 220 73 35 220 73 36 220 73 37 220 73 38 220 73 40 220 73 41 220 73 42 220 73 43 220 73 44 220 73 45 220 73 46 220 73 47 220 73 48 220 73 50 220 73 51 220 73 52 220 73 53 220 73 54 220 73 55 220 73 56 220 73 57 220 73 59 220 73 60 220 73 61 220 73 62 220 73 63 220 73 64 220 73 65 220 73 67 220 73 68 220 73 69 220 73 70 220 73 71 220 73 72 220 73 73 220 73 74 220 73 75 220 73 76 220 73 77 220 73 79 220 73 80 220 73 81 220 73 82 220 73 84 220 73 85 220 73 86 220 73 87 220 73 88 220 73 89 220 73 90 220 73 91 220 73 92 220 73 93 220 73 94 220 73 95 220 73 96 220 73 97 220 73 99 220 73 101 220 73 102 220 73 103 220 73 104 220 73 105 220 73 106 220 73 107 220 73 108 220 73 109 220 73 110 220 73 111 220 73 112 220 73 113 220 73 114 220 73 115 220 73 118 220 73 119 220 73 120 220 73 121 220 73 122 220 73 123 220 73 124 220 73 125 220 73 126 220 73 127 220 73 128 220 73 129 220 73 130 220 73 131 220 73 132 220 73 134 220 73 135 220 73 136 220 73 138 220 73 139 220 73 140 220 73 141 220 73 142 220 73 143 220 73 144 220 73 145 220 73 146 220 73 147 220 73 148 220 73 149 220 73 151 220 73 152 220 73 153 220 73 154 220 73 155 220 73 157 220 73 158 220 73 159 220 73 160 220 73 161 220 73 162 220 73 163 220 73 164 220 73 165 220 73 166 220 73 168 220 73 169 220 73 170 220 73 171 220 73 172 220 73 173 220 73 174 220 73 175 220 73 177 220 73 178 220 73 179 220 73 180 220 73 181 220 73 182 220 73 183 220 73 185 220 73 186 220 73 187 220 73 188 220 73 189 220 73 190 220 73 191 220 73 192 220 73 193 220 73 194 220 73 195 220 73 197 220 73 198 220 73 199 220 73 200 220 73 202 220 73 203 220 73 204 220 73 205 220 73 206 220 73 207 220 73 208 220 73 209 220 73 210 220 73 211 220 73 212 220 73 213 220 73 214 220 73 216 220 73 217 220 73 219 220 73 220 220 73 221 219 73 221 219 73 222 219 73 223 219 73 224 218 73 224 218 73 225 218 73 226 218 73 227 217 72 228 217 72 228 217 72 229 217 72 230 216 72 231 216 72 232 216 72 233 215 72 234 215 72 234 215 72 235 215 72 236 214 71 237 214 71 238 214 71 238 214 71 239 213 71 240 213 71 241 213 71 241 213 71 242 212 71 244 212 71 244 212 71 245 212 71 246 211 70 246 211 70 247 211 70 248 211 70 249 210 70 249 210 70 250 210 70 251 210 70 252 209 70 252 209 70 253 209 70 255 209 70
0 221 73 1 221 73 2 221 73 3 221 73 4 221 73 5 221 73 6 221 73 7 221 73 8 221 73 9 221 73 10 221 73 11 221 73 12 221 73 13 221 73 14 221 73 16 221 73 17 221 73 18 221 73 19 221 73 21 221 73 22 221 73 23 221 73 24 221 73 25 221 73 26 221 73 27 221 73 28 221 73 29 221 73 30 221 73 31 221 73 33 221 73 34 221 73 35 221 73 36 221 73 37 221 73 38 221 73 39 221 73 41 221 73 42 221 73 43 221 73 44 221 73 45 221 73 46 221 73 47 221 73 48 221 73 50 221 73 51 221 73 52 221 73 53 221 73 54 221 73 55 221 73 56 221 73 57 221 73 58 221 73 59 221 73 61 221 73 62 221 73 63 221 73 64 221 73 65 221 73 67 221 73 68 221 73 69 221 73 70 221 73 71 221 73 72 221 73 73 221 73 74 221 73 75 221 73 76 221 73 77 221 73 78 221 73 79 221 73 81 221 73 82 221 73 84 221 73 85 221 73 86 221 73 87 221 73 88 221 73 89 221 73 90 221 73 91 221 73 92 221 73 93 221 73 94 221 73 95 221 73 96 221 73 97 221 73 98 221 73 101 221 73 102 221 73 103 221 73 104 221 73 105 221 73 106 221 73 107 221 73 108 221 73 109 221 73 110 221 73 111 221 73 112 221 73 113 221 73 114 221 73 115 221 73 117 221 73 118 221 73 119 221 73 121 221 73 122 221 73 123 221 73 124 221 73 125 221 73 126 221 73 127 221 73 128 221 73 129 221 73 130 221 73 131 221 73 132 221 73 134 221 73 135 221 73 136 221 73 137 221 73 138 221 73 139 221 73 141 221 73 142 221 73 143 221 73 144 221 73 145 221 73 146 221 73 147 221 73 148 221 73 149 221 73 151 221 73 152 221 73 153 221 73 154 221 73 155 221 73 156 221 73 157 221 73 158 221 73 159 221 73 161 221 73 162 221 73 163 221 73 164 221 73 165 221 73 166 221 73 168 221 73 169 221 73 170 221 73 171 221 73 172 221 73 173 221 73 174 221 73 175 221 73 176 221 73 177 221 73 178 221 73 179 221 73 181 221 73 182 221 73 183 221 73 185 221 73 186 221 73 187 221 73 188 221 73 189 221 73 190 221 73 191 221 73 192 221 73 193 221 73 194 221 73 195 221 73 196 221 73 197 221 73 198 221 73 199 221 73 202 221 73 203 221 73 204 221 73 205 221 73 206 221 73 207 221 73 208 221 73 209 221 73 210 221 73 211 221 73 212 221 73 213 221 73 214 221 73 215 221 73 216 221 73 218 221 73 219 221 73 221 221 73 221 220 73 222 220 73 223 220 73 224 219 73 224 219 73 225 219 73 226 219 73 227 218 72 228 218 72 228 218 72 229 218 72 230 217 72 231 217 72 232 217 72 233 216 72 234 216 72 234 216 72 235 216 72 236 215 71 237 215 71 238 215 71 238 215 71 239 214 71 240 214 71 241 214 71 241 214 71 242 213 71 244 213 71 244 213 71 245 213 71 246 212 70 246 212 70 247 212 70 248 212 70 249 211 70 249 211 70 250 211 70 251 211 70 252 210 70 252 210 70 253 210 70 255 210 70
0 222 73 1 222 73 2 222 73 3 222 73 4 222 73 5 222 73 6 222 73 7 222 73 8 222 73 9 222 73 10 222 73 11 222 73 12 222 73 13 222 73 14 222 73 16 222 73 17 222 73 18 222 73 19 222 73 20 222 73 22 222 73 23 222 73 24 222 73 25 222 73 26 222 73 27 222 73 28 222 73 29 222 73 30 222 73 31 222 73 33 222 73 34 222 73 35 222 73 36 222 73 37 222 73 38 222 73 39 222 73 40 222 73 41 222 73 43 222 73 44 222 73 45 222 73 46 222 73 47 222 73 48 222 73 50 222 73 51 222 73 52 222 73 53 222 73 54 222 73 55 222 73 56 222 73 57 222 73 58 222 73 59 222 73 60 222 73 61 222 73 62 222 73 64 222 73 65 222 73 67 222 73 68 222 73 69 222 73 70 222 73 71 222 73 72 222 73 73 222 73 74 222 73 75 222 73 76 222 73 77 222 73 78 222 73 79 222 73 80 222 73 81 222 73 83 222 73 85 222 73 86 222 73 87 222 73 88 222 73 89 222 73 90 222 73 91 222 73 92 222 73 93 222 73 94 222 73 95 222 73 96 222 73 97 222 73 98 222 73 100 222 73 101 222 73 102 222 73 103 222 73 104 222 73 106 222 73 107 222 73 108 222 73 109 222 73 110 222 73 111 222 73 112 222 73 113 222 73 114 222 73 115 222 73 117 222 73 118 222 73 119 222 73 120 222 73 121 222 73 122 222 73 123 222 73 124 222 73 125 222 73 127 222 73 128 222 73 129 222 73 130 222 73 131 222 73 132 222 73 134 222 73 135 222 73 136 222 73 137 222 73 138 222 73 139 222 73 140 222 73 141 222 73 142 222 73 143 222 73 144 222 73 145 222 73 146 222 73 148 222 73 149 222 73 151 222 73 152 222 73 153 222 73 154 222 73 155 222 73 156 222 73 157 222 73 158 222 73 159 222 73 160 222 73 161 222 73 162 222 73 163 222 73 164 222 73 165 222 73 167 222 73 169 222 73 170 222 73 171 222 73 172 222 73 173 222 73 174 222 73 175 222 73 176 222 73 177 222 73 178 222 73 179 222 73 180 222 73 181 222 73 182 222 73 184 222 73 185 222 73 186 222 73 187 222 73 188 222 73 190 222 73 191 222 73 192 222 73 193 222 73 194 222 73 195 222 73 196 222 73 197 222 73 198 222 73 199 222 73 201 222 73 202 222 73 203 222 73 204 222 73 205 222 73 206 222 73 207 222 73 208 222 73 209 222 73 211 222 73 212 222 73 213 222 73 214 222 73 215 222 73 216 222 73 218 222 73 219 222 73 220 222 73 221 222 73 222 222 73 223 222 73 224 222 73 224 221 73 225 221 73 226 221 73 227 221 72 228 220 72 228 220 72 229 220 72 230 220 72 231 219 72 232 219 72 233 219 72 234 218 72 234 218 72 235 218 72 236 217 71 237 217 71 238 217 71 238 217 71 239 217 71 240 216 71 241 216 71 241 216 71 242 216 71 244 215 71 244 215 71 245 215 71 246 214 70 246 214 70 247 214 70 248 214 70 249 213 70 249 213 70 250 213 70 251 213 70 252 212 70 252 212 70 253 212 70 255 211 70
0 223 73 1 223 73 2 223 73 3 223 73 4 223 73 5 223 73 6 223 73 7 223 73 8 223 73 9 223 73 10 223 73 11 223 73 12 223 73 13 223 73 14 223 73 16 223 73 17 223 73 18 223 73 19 223 73 20 223 73 22 223 73 23 223 73 24 223 73 25 223 73 26 223 73 27 223 73 28 223 73 29 223 73 30 223 73 31 223 73 33 223 73 34 223 73 35 223 73 36 223 73 37 223 73 38 223 73 39 223 73 40 223 73 41 223 73 42 223 73 44 223 73 45 223 73 46 223 73 47 223 73 48 223 73 50 223 73 51 223 73 52 223 73 53 223 73 54 223 73 55 223 73 56 223 73 57 223 73 58 223 73 59 223 73 60 223 73 61 223 73 62 223 73 63 223 73 65 223 73 67 223 73 68 223 73 69 223 73 70 223 73 71 223 73 72 223 73 73 223 73 74 223 73 75 223 73 76 223 73 77 223 73 78 223 73 79 223 73 80 223 73 81 223 73 83 223 73 84 223 73 85 223 73 87 223 73 88 223 73 89 223 73 90 223 73 91 223 73 92 223 73 93 223 73 94 223 73 95 223 73 96 223 73 97 223 73 98 223 73 100 223 73 101 223 73 102 223 73 103 223 73 104 223 73 105 223 73 106 223 73 108 223 73 109 223 73 110 223 73 111 223 73 112 223 73 113 223 73 114 223 73 115 223 73 117 223 73 118 223 73 119 223 73 120 223 73 121 223 73 122 223 73 123 223 73 124 223 73 125 223 73 126 223 73 127 223 73 128 223 73 130 223 73 131 223 73 132 223 73 134 223 73 135 223 73 136 223 73 137 223 73 138 223 73 139 223 73 140 223 73 141 223 73 142 223 73 143 223 73 144 223 73 145 223 73 146 223 73 147 223 73 148 223 73 151 223 73 152 223 73 153 223 73 154 223 73 155 223 73 156 223 73 157 223 73 158 223 73 159 223 73 160 223 73 161 223 73 162 223 73 163 223 73 164 223 73 165 223 73 167 223 73 168 223 73 169 223 73 170 223 73 171 223 73 173 223 73 174 223 73 175 223 73 176 223 73 177 223 73 178 223 73 179 223 73 180 223 73 181 223 73 182 223 73 184 223 73 185 223 73 186 223 73 187 223 73 188 223 73 189 223 73 190 223 73 191 223 73 192 223 73 194 223 73 195 223 73 196 223 73 197 223 73 198 223 73 199 223 73 201 223 73 202 223 73 203 223 73 204 223 73 205 223 73 206 223 73 207 223 73 208 223 73 209 223 73 210 223 73 211 223 73 212 223 73 213 223 73 214 223 73 216 223 73 218 223 73 219 223 73 220 223 73 221 223 73 222 223 73 223 223 73 224 223 73 224 222 73 225 222 73 226 222 73 227 222 72 228 221 72 228 221 72 229 221 72 230 221 72 231 220 72 232 220 72 233 220 72 234 219 72 234 219 72 235 219 72 236 219 71 237 218 71 238 218 71 238 218 71 239 218 71 240 217 71 241 217 71 241 217 71 242 217 71 244 216 71 244 216 71 245 216 71 246 215 70 246 215 70 247 215 70 248 215 70 249 214 70 249 214 70 250 214 70 251 214 70 252 213 70 252 213 70 253 213 70 255 213 70
0 224 73 1 224 73 2 224 73 3 224 73 4 224 73 5 224 73 6 224 73 7 224 73 8 224 73 9 224 73 10 224 73 11 224 73 12 224 73 13 224 73 14 224 73 16 224 73 17 224 73 18 224 73 19 224 73 20 224 73 21 224 73 23 224 73 24 224 73 25 224 73 26 224 73 27 224 73 28 224 73 29 224 73 30 224 73 31 224 73 33 224 73 34 224 73 35 224 73 36 224 73 37 224 73 38 224 73 39 224 73 40 224 73 41 224 73 42 224 73 43 224 73 44 224 73 46 224 73 47 224 73 48 224 73 50 224 73 51 224 73 52 224 73 53 224 73 54 224 73 55 224 73 56 224 73 57 224 73 58 224 73 59 224 73 60 224 73 61 224 73 62 224 73 63 224 73 64 224 73 66 224 73 68 224 73 69 224 73 70 224 73 71 224 73 72 224 73 73 224 73 74 224 73 75 224 73 76 224 73 77 224 73 78 224 73 79 224 73 80 224 73 81 224 73 83 224 73 84 224 73 85 224 73 86 224 73 87 224 73 88 224 73 89 224 73 91 224 73 92 224 73 93 224 73 94 224 73 95 224 73 96 224 73 97 224 73 98 224 73 100 224 73 101 224 73 102 224 73 103 224 73 104 224 73 105 224 73 106 224 73 107 224 73 108 224 73 109 224 73 110 224 73 111 224 73 112 224 73 114 224 73 115 224 73 117 224 73 118 224 73 119 224 73 120 224 73 121 224 73 122 224 73 123 224 73 124 224 73 125 224 73 126 224 73 127 224 73 128 224 73 129 224 73 130 224 73 131 224 73 133 224 73 134 224 73 136 224 73 137 224 73 138 224 73 139 224 73 140 224 73 141 224 73 142 224 73 143 224 73 144 224 73 145 224 73 146 224 73 147 224 73 148 224 73 150 224 73 151 224 73 152 224 73 153 224 73 154 224 73 155 224 73 156 224 73 157 224 73 159 224 73 160 224 73 161 224 73 162 224 73 163 224 73 164 224 73 165 224 73 167 224 73 168 224 73 169 224 73 170 224 73 171 224 73 172 224 73 173 224 73 174 224 73 175 224 73 176 224 73 177 224 73 178 224 73 179 224 73 181 224 73 182 224 73 184 224 73 185 224 73 186 224 73 187 224 73 188 224 73 189 224 73 190 224 73 191 224 73 192 224 73 193 224 73 194 224 73 195 224 73 196 224 73 197 224 73 198 224 73 200 224 73 201 224 73 202 224 73 204 224 73 205 224 73 206 224 73 207 224 73 208 224 73 209 224 73 210 224 73 211 224 73 212 224 73 213 224 73 214 224 73 215 224 73 217 224 73 218 224 73 219 224 73 220 224 73 221 224 73 222 224 73 223 224 73 224 224 73 225 224 73 226 224 73 227 224 72 228 223 72 228 223 72 229 223 72 230 223 72 231 222 72 232 222 72 233 222 72 234 221 72 234 221 72 235 221 72 236 221 71 237 220 71 238 220 71 238 220 71 239 220 71 240 219 71 241 219 71 241 219 71 242 219 71 244 218 71 244 218 71 245 218 71 246 217 70 246 217 70 247 217 70 248 217 70 249 216 70 249 216 70 250 216 70 251 216 70 252 215 70 252 215 70 253 215 70 255 215 70
0 225 73 1 225 73 2 225 73 3 225 73 4 225 73 5 225 73 6 225 73 7 225 73 8 225 73 9 225 73 10 225 73 11 225 73 12 225 73 13 225 73 14 225 73 16 225 73 17 225 73 18 225 73 19 225 73 20 225 73 21 225 73 22 225 73 24 225 73 25 225 73 26 225 73 27 225 73 28 225 73 29 225 73 30 225 73 31 225 73 33 225 73 34 225 73 35 225 73 36 225 73 37 225 73 38 225 73 39 225 73 40 225 73 41 225 73 42 225 73 43 225 73 44 225 73 45 225 73 47 225 73 48 225 73 50 225 73 51 225 73 52 225 73 53 225 73 54 225 73 55 225 73 56 225 73 57 225 73 58 225 73 59 225 73 60 225 73 61 225 73 62 225 73 63 225 73 64 225 73 66 225 73 67 225 73 68 225 73 70 225 73 71 225 73 72 225 73 73 225 73 74 225 73 75 225 73 76 225 73 77 225 73 78 225 73 79 225 73 80 225 73 81 225 73 83 225 73 84 225 73 85 225 73 86 225 73 87 225 73 88 225 73 89 225 73 90 225 73 91 225 73 93 225 73 94 225 73 95 225 73 96 225 73 97 225 73 98 225 73 100 225 73 101 225 73 102 225 73 103 225 73 104 225 73 105 225 73 106 225 73 107 225 73 108 225 73 109 225 73 110 225 73 111 225 73 112 225 73 113 225 73 114 225 73 117 225 73 118 225 73 119 225 73 120 225 73 121 225 73 122 225 73 123 225 73 124 225 73 125 225 73 126 225 73 127 225 73 128 225 73 129 225 73 130 225 73 131 225 73 133 225 73 134 225 73 135 225 73 136 225 73 137 225 73 138 225 73 140 225 73 141 225 73 142 225 73 143 225 73 144 225 73 145 225 73 146 225 73 147 225 73 148 225 73 150 225 73 151 225 73 152 225 73 153 225 73 154 225 73 155 225 73 156 225 73 157 225 73 158 225 73 159 225 73 160 225 73 161 225 73 163 225 73 164 225 73 165 225 73 167 225 73 168 225 73 169 225 73 170 225 73 171 225 73 172 225 73 173 225 73 174 225 73 175 225 73 176 225 73 177 225 73 178 225 73 179 225 73 180 225 73 181 225 73 183 225 73 184 225 73 186 225 73 187 225 73 188 225 73 189 225 73 190 225 73 191 225 73 192 225 73 193 225 73 194 225 73 195 225 73 196 225 73 197 225 73 198 225 73 200 225 73 201 225 73 202 225 73 203 225 73 204 225 73 205 225 73 206 225 73 207 225 73 209 225 73 210 225 73 211 225 73 212 225 73 213 225 73 214 225 73 215 225 73 217 225 73 218 225 73 219 225 73 220 225 73 221 225 73 222 225 73 223 225 73 224 225 73 225 225 73 226 225 73 227 225 72 228 224 72 228 224 72 229 224 72 230 224 72 231 223 72 232 223 72 233 223 72 234 222 72 234 222 72 235 222 72 236 222 71 237 221 71 238 221 71 238 221 71 239 221 71 240 220 71 241 220 71 241 220 71 242 220 71 244 219 71 244 219 71 245 219 71 246 218 70 246 218 70 247 218 70 248 218 70 249 217 70 249 217 70 250 217 70 251 217 70 252 216 70 252 216 70 253 216 70 255 216 70
0 226 73 1 226 73 2 226 73 3 226 73 4 226 73 5 226 73 6 226 73 7 226 73 8 226 73 9 226 73 10 226 73 11 226 73 12 226 73 13 226 73 14 226 73 16 226 73 17 226 73 18 226 73 19 226 73 20 226 73 21 226 73 22 226 73 24 226 73 25 226 73 26 226 73 27 226 73 28 226 73 29 226 73 30 226 73 31 226 73 33 226 73 34 226 73 35 226 73 36 226 73 37 226 73 38 226 73 39 226 73 40 226 73 41 226 73 42 226 73 43 226 73 44 226 73 45 226 73 46 226 73 48 226 73 50 226 73 51 226 73 52 226 73 53 226 73 54 226 73 55 226 73 56 226 73 57 226 73 58 226 73 59 226 73 60 226 73 61 226 73 62 226 73 63 226 73 64 226 73 66 226 73 67 226 73 68 226 73 69 226 73 70 226 73 72 226 73 73 226 73 74 226 73 75 226 73 76 226 73 77 226 73 78 226 73 79 226 73 80 226 73 81 226 73 83 226 73 84 226 73 85 226 73 86 226 73 87 226 73 88 226 73 89 226 73 90 226 73 91 226 73 92 226 73 93 226 73 94 226 73 96 226 73 97 226 73 98 226 73 100 226 73 101 226 73 102 226 73 103 226 73 104 226 73 105 226 73 106 226 73 107 226 73 108 226 73 109 226 73 110 226 73 111 226 73 112 226 73 113 226 73 114 226 73 116 226 73 117 226 73 118 226 73 120 226 73 121 226 73 122 226 73 123 226 73 124 226 73 125 226 73 126 226 73 127 226 73 128 226 73 129 226 73 130 226 73 131 226 73 133 226 73 134 226 73 135 226 73 136 226 73 137 226 73 138 226 73 139 226 73 140 226 73 141 226 73 143 226 73 144 226 73 145 226 73 146 226 73 147 226 73 148 226 73 150 226 73 151 226 73 152 226 73 153 226 73 154 226 73 155 226 73 156 226 73 157 226 73 158 226 73 159 226 73 160 226 73 161 226 73 162 226 73 163 226 73 164 226 73 167 226 73 168 226 73 169 226 73 170 226 73 171 226 73 172 226 73 173 226 73 174 226 73 175 226 73 176 226 73 177 226 73 178 226 73 179 226 73 180 226 73 181 226 73 183 226 73 184 226 73 185 226 73 186 226 73 187 226 73 188 226 73 189 226 73 191 226 73 192 226 73 193 226 73 194 226 73 195 226 73 196 226 73 197 226 73 198 226 73 200 226 73 201 226 73 202 226 73 203 226 73 204 226 73 205 226 73 206 226 73 207 226 73 208 226 73 209 226 73 210 226 73 211 226 73 212 226 73 213 226 73 215 226 73 217 226 73 218 226 73 219 226 73 220 226 73 221 226 73 222 226 73 223 226 73 224 226 73 225 226 73 226 226 73 227 226 72 228 225 72 228 225 72 229 225 72 230 225 72 231 224 72 232 224 72 233 224 72 234 223 72 234 223 72 235 223 72 236 223 71 237 222 71 238 222 71 238 222 71 239 222 71 240 221 71 241 221 71 241 221 71 242 221 71 244 220 71 244 220 71 245 220 71 246 219 70 246 219 70 247 219 70 248 219 70 249 218 70 249 218 70 250 218 70 251 218 70 252 217 70 252 217 70 253 217 70 255 217 70
0 228 72 1 228 72 2 228 72 3 228 72 4 228 72 5 228 72 6 228 72 7 228 72 8 228 72 9 228 72 10 228 72 11 228 72 12 228 72 13 228 72 14 228 72 16 228 72 17 228 72 18 228 72 19 228 72 20 228 72 21 228 72 22 228 72 23 228 72 24 228 72 26 228 72 27 228 72 28 228 72 29 228 72 30 228 72 31 228 72 33 228 72 34 228 72 35 228 72 36 228 72 37 228 72 38 228 72 39 228 72 40 228 72 41 228 72 42 228 72 43 228 72 44 228 72 45 228 72 46 228 72 47 228 72 49 228 72 51 228 72 52 228 72 53 228 72 54 228 72 55 228 72 56 228 72 57 228 72 58 228 72 59 228 72 60 228 72 61 228 72 62 228 72 63 228 72 64 228 72 66 228 72 67 228 72 68 228 72 69 228 72 70 228 72 71 228 72 72 228 72 73 228 72 74 228 72 76 228 72 77 228 72 78 228 72 79 228 72 80 228 72 81 228 72 83 228 72 84 228 72 85 228 72 86 228 72 87 228 72 88 228 72 89 228 72 90 228 72 91 228 72 92 228 72 93 228 72 94 228 72 95 228 72 96 228 72 97 228 72 99 228 72 101 228 72 102 228 72 103 228 72 104 228 72 105 228 72 106 228 72 107 228 72 108 228 72 109 228 72 110 228 72 111 228 72 112 228 72 113 228 72 114 228 72 116 228 72 117 228 72 118 228 72 119 228 72 120 228 72 121 228 72 122 228 72 123 228 72 124 228 72 126 228 72 127 228 72 128 228 72 129 228 72 130 228 72 131 228 72 133 228 72 134 228 72 135 228 72 136 228 72 137 228 72 138 228 72 139 228 72 140 228 72 141 228 72 142 228 72 143 228 72 144 228 72 145 228 72 146 228 72 147 228 72 149 228 72 151 228 72 152 228 72 153 228 72 154 228 72 155 228 72 156 228 72 157 228 72 158 228 72 159 228 72 160 228 72 161 228 72 162 228 72 163 228 72 164 228 72 166 228 72 167 228 72 168 228 72 169 228 72 170 228 72 171 228 72 172 228 72 173 228 72 174 228 72 175 228 72 177 228 72 178 228 72 179 228 72 180 228 72 181 228 72 183 228 72 184 228 72 185 228 72 186 228 72 187 228 72 188 228 72 189 228 72 190 228 72 191 228 72 192 228 72 193 228 72 194 228 72 195 228 72 196 228 72 197 228 72 199 228 72 200 228 72 202 228 72 203 228 72 204 228 72 205 228 72 206 228 72 207 228 72 208 228 72 209 228 72 210 228 72 211 228 72 212 228 72 213 228 72 214 228 72 216 228 72 217 228 72 218 228 72 219 228 72 220 228 72 221 228 72 222 228 72 223 228 72 224 228 72 225 228 72 227 228 72 228 228 72 228 227 72 229 227 72 230 227 72 231 226 72 232 226 72 233 226 72 234 225 72 234 225 72 235 225 72 236 225 71 237 224 71 238 224 71 238 224 71 239 224 71 240 223 71 241 223 71 241 223 71 242 223 71 244 222 71 244 222 71 245 222 71 246 221 70 246 221 70 247 221 70 248 221 70 249 220 70 249 220 70 250 220 70 251 220 70 252 219 70 252 219 70 253 219 70 255 219 70
0 228 72 1 228 72 2 228 72 3 228 72 4 228 72 5 228 72 6 228 72 7 228 72 8 228 72 9 228 72 10 228 72 11 228 72 12 228 72 13 228 72 14 228 72 16 228 72 17 228 72 18 228 72 19 228 72 20 228 72 21 228 72 22 228 72 23 228 72 24 228 72 26 228 72 27 228 72 28 228 72 29 228 72 30 228 72 31 228 72 33 228 72 34 228 72 35 228 72 36 228 72 37 228 72 38 228 72 39 228 72 40 228 72 41 228 72 42 228 72 43 228 72 44 228 72 45 228 72 46 228 72 47 228 72 49 228 72 50 228 72 52 228 72 53 228 72 54 228 72 55 228 72 56 228 72 57 228 72 58 228 72 59 228 72 60 228 72 61 228 72 62 228 72 63 228 72 64 228 72 66 228 72 67 228 72 68 228 72 69 228 72 70 228 72 71 228 72 72 228 72 73 228 72 74 228 72 75 228 72 76 228 72 78 228 72 79 228 72 80 228 72 81 228 72 83 228 72 84 228 72 85 228 72 86 228 72 87 228 72 88 228 72 89 228 72 90 228 72 91 228 72 92 228 72 93 228 72 94 228 72 95 228 72 96 228 72 97 228 72 99 228 72 100 228 72 101 228 72 102 228 72 104 228 72 105 228 72 106 228 72 107 228 72 108 228 72 109 228 72 110 228 72 111 228 72 112 228 72 113 228 72 114 228 72 116 228 72 117 228 72 118 228 72 119 228 72 120 228 72 121 228 72 122 228 72 123 228 72 124 228 72 125 228 72 126 228 72 127 228 72 128 228 72 130 228 72 131 228 72 133 228 72 134 228 72 135 228 72 136 228 72 137 228 72 138 228 72 139 228 72 140 228 72 141 228 72 142 228 72 143 228 72 144 228 72 145 228 72 146 228 72 147 228 72 149 228 72 150 228 72 151 228 72 152 228 72 153 228 72 154 228 72 156 228 72 157 228 72 158 228 72 159 228 72 160 228 72 161 228 72 162 228 72 163 228 72 164 228 72 166 228 72 167 228 72 168 228 72 169 228 72 170 228 72 171 228 72 172 228 72 173 228 72 174 228 72 175 228 72 176 228 72 177 228 72 178 228 72 179 228 72 180 228 72 183 228 72 184 228 72 185 228 72 186 228 72 187 228 72 188 228 72 189 228 72 190 228 72 191 228 72 192 228 72 193 228 72 194 228 72 195 228 72 196 228 72 197 228 72 199 228 72 200 228 72 201 228 72 202 228 72 203 228 72 204 228 72 205 228 72 207 228 72 208 228 72 209 228 72 210 228 72 211 228 72 212 228 72 213 228 72 214 228 72 216 228 72 217 228 72 218 228 72 219 228 72 220 228 72 221 228 72 222 228 72 223 228 72 224 228 72 225 228 72 226 228 72 227 228 72 228 228 72 229 228 72 230 228 72 231 227 72 232 227 72 233 227 72 234 227 72 234 226 72 235 226 72 236 226 71 237 225 71 238 225 71 238 225 71 239 225 71 240 224 71 241 224 71 241 224 71 242 224 71 244 223 71 244 223 71 245 223 71 246 222 70 246 222 70 247 222 70 248 222 70 249 221 70 249 221 70 250 221 70 251 221 70 252 220 70 252 220 70 253 220 70 255 220 70
0 230 72 1 230 72 2 230 72 3 230 72 4 230 72 5 230 72 6 230 72 7 230 72 8 230 72 9 230 72 10 230 72 11 230 72 12 230 72 13 230 72 14 230 72 16 230 72 17 230 72 18 230 72 19 230 72 20 230 72 21 230 72 22 230 72 23 230 72 24 230 72 25 230 72 26 230 72 28 230 72 29 230 72 30 230 72 31 230 72 33 230 72 34 230 72 35 230 72 36 230 72 37 230 72 38 230 72 39 230 72 40 230 72 41 230 72 42 230 72 43 230 72 44 230 72 45 230 72 46 230 72 47 230 72 49 230 72 50 230 72 51 230 72 52 230 72 53 230 72 55 230 72 56 230 72 57 230 72 58 230 72 59 230 72 60 230 72 61 230 72 62 230 72 63 230 72 64 230 72 66 230 72 67 230 72 68 230 72 69 230 72 70 230 72 71 230 72 72 230 72 73 230 72 74 230 72 75 230 72 76 230 72 77 230 72 78 230 72 79 230 72 80 230 72 83 230 72 84 230 72 85 230 72 86 230 72 87 230 72 88 230 72 89 230 72 90 230 72 91 230 72 92 230 72 93 230 72 94 230 72 95 230 72 96 230 72 97 230 72 99 230 72 100 230 72 101 230 72 102 230 72 103 230 72 104 230 72 105 230 72 106 230 72 107 230 72 108 230 72 110 230 72 111 230 72 112 230 72 113 230 72 114 230 72 116 230 72 117 230 72 118 230 72 119 230 72 120 230 72 121 230 72 122 230 72 123 230 72 124 230 72 125 230 72 126 230 72 127 230 72 128 230 72 129 230 72 130 230 72 132 230 72 133 230 72 134 230 72 135 230 72 136 230 72 138 230 72 139 230 72 140 230 72 141 230 72 142 230 72 143 230 72 144 230 72 145 230 72 146 230 72 147 230 72 149 230 72 150 230 72 151 230 72 152 230 72 153 230 72 154 230 72 155 230 72 156 230 72 157 230 72 158 230 72 159 230 72 160 230 72 161 230 72 162 230 72 163 230 72 166 230 72 167 230 72 168 230 72 169 230 72 170 230 72 171 230 72 172 230 72 173 230 72 174 230 72 175 230 72 176 230 72 177 230 72 178 230 72 179 230 72 180 230 72 182 230 72 183 230 72 184 230 72 185 230 72 186 230 72 187 230 72 188 230 72 189 230 72 190 230 72 191 230 72 193 230 72 194 230 72 195 230 72 196 230 72 197 230 72 199 230 72 200 230 72 201 230 72 202 230 72 203 230 72 204 230 72 205 230 72 206 230 72 207 230 72 208 230 72 209 230 72 210 230 72 211 230 72 212 230 72 213 230 72 215 230 72 216 230 72 217 230 72 218 230 72 220 230 72 221 230 72 222 230 72 223 230 72 224 230 72 225 230 72 226 230 72 227 230 72 228 230 72 229 230 72 230 230 72 231 229 72 232 229 72 233 229 72 234 229 72 234 228 72 235 228 72 236 228 71 237 228 71 238 227 71 238 227 71 239 227 71 240 226 71 241 226 71 241 226 71 242 226 71 244 225 71 244 225 71 245 225 71 246 224 70 246 224 70 247 224 70 248 224 70 249 223 70 249 223 70 250 223 70 251 223 70 252 222 70 252 222 70 253 222 70 255 222 70
0 231 72 1 231 72 2 231 72 3 231 72 4 231 72 5 231 72 6 231 72 7 231 72 8 231 72 9 231 72 10 231 72 11 231 72 12 231 72 13 231 72 14 231 72 16 231 72 17 231 72 18 231 72 19 231 72 20 231 72 21 231 72 22 231 72 23 231 72 24 231 72 25 231 72 26 231 72 27 231 72 29 231 72 30 231 72 31 231 72 33 231 72 34 231 72 35 231 72 36 231 72 37 231 72 38 231 72 39 231 72 40 231 72 41 231 72 42 231 72 43 231 72 44 231 72 45 231 72 46 231 72 47 231 72 49 231 72 50 231 72 51 231 72 52 231 72 53 231 72 54 231 72 55 231 72 57 231 72 58 231 72 59 231 72 60 231 72 61 231 72 62 231 72 63 231 72 64 231 72 66 231 72 67 231 72 68 231 72 69 231 72 70 231 72 71 231 72 72 231 72 73 231 72 74 231 72 75 231 72 76 231 72 77 231 72 78 231 72 79 231 72 80 231 72 82 231 72 83 231 72 85 231 72 86 231 72 87 231 72 88 231 72 89 231 72 90 231 72 91 231 72 92 231 72 93 231 72 94 231 72 95 231 72 96 231 72 97 231 72 99 231 72 100 231 72 101 231 72 102 231 72 103 231 72 104 231 72 105 231 72 106 231 72 107 231 72 108 231 72 109 231 72 110 231 72 111 231 72 112 231 72 114 231 72 116 231 72 117 231 72 118 231 72 119 231 72 120 231 72 121 231 72 122 231 72 123 231 72 124 231 72 125 231 72 126 231 72 127 231 72 128 231 72 129 231 72 130 231 72 132 231 72 133 231 72 134 231 72 135 231 72 136 231 72 137 231 72 138 231 72 139 231 72 140 231 72 142 231 72 143 231 72 144 231 72 145 231 72 146 231 72 147 231 72 149 231 72 150 231 72 151 231 72 152 231 72 153 231 72 154 231 72 155 231 72 156 231 72 157 231 72 158 231 72 159 231 72 160 231 72 161 231 72 162 231 72 163 231 72 165 231 72 166 231 72 167 231 72 168 231 72 170 231 72 171 231 72 172 231 72 173 231 72 174 231 72 175 231 72 176 231 72 177 231 72 178 231 72 179 231 72 180 231 72 182 231 72 183 231 72 184 231 72 185 231 72 186 231 72 187 231 72 188 231 72 189 231 72 190 231 72 191 231 72 192 231 72 193 231 72 194 231 72 195 231 72 196 231 72 199 231 72 200 231 72 201 231 72 202 231 72 203 231 72 204 231 72 205 231 72 206 231 72 207 231 72 208 231 72 209 231 72 210 231 72 211 231 72 212 231 72 213 231 72 215 231 72 216 231 72 217 231 72 218 231 72 219 231 72 220 231 72 221 231 72 222 231 72 223 231 72 224 231 72 225 231 72 227 231 72 228 231 72 229 231 72 230 231 72 231 230 72 232 230 72 233 230 72 234 230 72 234 229 72 235 229 72 236 229 71 237 229 71 238 228 71 238 228 71 239 228 71 240 228 71 241 227 71 241 227 71 242 227 71 244 226 71 244 226 71 245 226 71 246 225 70 246 225 70 247 225 70 248 225 70 249 224 70 249 224 70 250 224 70 251 224 70 252 223 70 252 223 70 253 223 70 255 223 70
0 232 72 1 232 72 2 232 72 3 232 72 4 232 72 5 232 72 6 232 72 7 232 72 8 232 72 9 232 72 10 232 72 11 232 72 12 232 72 13 232 72 14 232 72 16 232 72 17 232 72 18 232 72 19 232 72 20 232 72 21 232 72 22 232 72 23 232 72 24 232 72 25 232 72 26 232 72 27 232 72 28 232 72 29 232 72 31 232 72 33 232 72 34 232 72 35 232 72 36 232 72 37 232 72 38 232 72 39 232 72 40 232 72 41 232 72 42 232 72 43 232 72 44 232 72 45 232 72 46 232 72 47 232 72 49 232 72 50 232 72 51 232 72 52 232 72 53 232 72 54 232 72 55 232 72 56 232 72 57 232 72 58 232 72 59 232 72 61 232 72 62 232 72 63 232 72 64 232 72 66 232 72 67 232 72 68 232 72 69 232 72 70 232 72 71 232 72 72 232 72 73 232 72 74 232 72 75 232 72 76 232 72 77 232 72 78 232 72 79 232 72 80 232 72 82 232 72 83 232 72 84 232 72 85 232 72 86 232 72 87 232 72 88 232 72 89 232 72 91 232 72 92 232 72 93 232 72 94 232 72 95 232 72 96 232 72 97 232 72 99 232 72 100 232 72 101 232 72 102 232 72 103 232 72 104 232 72 105 232 72 106 232 72 107 232 72 108 232 72 109 232 72 110 232 72 111 232 72 112 232 72 113 232 72 115 232 72 116 232 72 117 232 72 118 232 72 119 232 72 121 232 72 122 232 72 123 232 72 124 232 72 125 232 72 126 232 72 127 232 72 128 232 72 129 232 72 130 232 72 132 232 72 133 232 72 134 232 72 135 232 72 136 232 72 137 232 72 138 232 72 139 232 72 140 232 72 141 232 72 142 232 72 143 232 72 144 232 72 145 232 72 146 232 72 148 232 72 149 232 72 150 232 72 152 232 72 153 232 72 154 232 72 155 232 72 156 232 72 157 232 72 158 232 72 159 232 72 160 232 72 161 232 72 162 232 72 163 232 72 165 232 72 166 232 72 167 232 72 168 232 72 169 232 72 170 232 72 171 232 72 172 232 72 173 232 72 174 232 72 175 232 72 176 232 72 177 232 72 178 232 72 179 232 72 182 232 72 183 232 72 184 232 72 185 232 72 186 232 72 187 232 72 188 232 72 189 232 72 190 232 72 191 232 72 192 232 72 193 232 72 194 232 72 195 232 72 196 232 72 198 232 72 199 232 72 200 232 72 201 232 72 202 232 72 203 232 72 204 232 72 205 232 72 206 232 72 207 232 72 208 232 72 209 232 72 210 232 72 212 232 72 213 232 72 215 232 72 216 232 72 217 232 72 218 232 72 219 232 72 220 232 72 221 232 72 222 232 72 223 232 72 224 232 72 225 232 72 226 232 72 227 232 72 228 232 72 229 232 72 231 232 72 232 232 72 233 232 72 234 232 72 234 231 72 235 231 72 236 231 71 237 231 71 238 230 71 238 230 71 239 230 71 240 230 71 241 229 71 241 229 71 242 229 71 244 228 71 244 228 71 245 228 71 246 228 70 246 227 70 247 227 70 248 227 70 249 226 70 249 226 70 250 226 70 251 226 70 252 225 70 252 225 70 253 225 70 255 225 70
0 233 72 1 233 72 2 233 72 3 233 72 4 233 72 5 233 72 6 233 72 7 233 72 8 233 72 9 233 72 10 233 72 11 233 72 12 233 72 13 233 72 14 233 72 16 233 72 17 233 72 18 233 72 19 233 72 20 233 72 21 233 72 22 233 72 23 233 72 24 233 72 25 233 72 26 233 72 27 233 72 28 233 72 29 233 72 30 233 72 33 233 72 34 233 72 35 233 72 36 233 72 37 233 72 38 233 72 39 233 72 40 233 72 41 233 72 42 233 72 43 233 72 44 233 72 45 233 72 46 233 72 47 233 72 49 233 72 50 233 72 51 233 72 52 233 72 53 233 72 54 233 72 55 233 72 56 233 72 57 233 72 58 233 72 59 233 72 60 233 72 61 233 72 63 233 72 64 233 72 66 233 72 67 233 72 68 233 72 69 233 72 70 233 72 71 233 72 72 233 72 73 233 72 74 233 72 75 233 72 76 233 72 77 233 72 78 233 72 79 233 72 80 233 72 82 233 72 83 233 72 84 233 72 85 233 72 86 233 72 87 233 72 88 233 72 89 233 72 90 233 72 91 233 72 92 233 72 94 233 72 95 233 72 96 233 72 97 233 72 99 233 72 100 233 72 101 233 72 102 233 72 103 233 72 104 233 72 105 233 72 106 233 72 107 233 72 108 233 72 109 233 72 110 233 72 111 233 72 112 233 72 113 233 72 115 233 72 116 233 72 117 233 72 118 233 72 119 233 72 120 233 72 121 233 72 122 233 72 123 233 72 124 233 72 126 233 72 127 233 72 128 233 72 129 233 72 130 233 72 132 233 72 133 233 72 134 233 72 135 233 72 136 233 72 137 233 72 138 233 72 139 233 72 140 233 72 141 233 72 142 233 72 143 233 72 144 233 72 145 233 72 146 233 72 148 233 72 149 233 72 150 233 72 151 233 72 152 233 72 153 233 72 154 233 72 155 233 72 157 233 72 158 233 72 159 233 72 160 233 72 161 233 72 162 233 72 163 233 72 165 233 72 166 233 72 167 233 72 168 233 72 169 233 72 170 233 72 171 233 72 172 233 72 173 233 72 174 233 72 175 233 72 176 233 72 177 233 72 178 233 72 179 233 72 181 233 72 182 233 72 183 233 72 184 233 72 185 233 72 186 233 72 188 233 72 189 233 72 190 233 72 191 233 72 192 233 72 193 233 72 194 233 72 195 233 72 196 233 72 198 233 72 199 233 72 200 233 72 201 233 72 202 233 72 203 233 72 204 233 72 205 233 72 206 233 72 207 233 72 208 233 72 209 233 72 210 233 72 211 233 72 212 233 72 214 233 72 215 233 72 216 233 72 217 233 72 219 233 72 220 233 72 221 233 72 222 233 72 223 233 72 224 233 72 225 233 72 226 233 72 227 233 72 228 233 72 229 233 72 231 233 72 232 233 72 233 233 72 234 233 72 234 232 72 235 232 72 236 232 71 237 232 71 238 231 71 238 231 71 239 231 71 240 231 71 241 230 71 241 230 71 242 230 71 244 229 71 244 229 71 245 229 71 246 229 70 246 228 70 247 228 70 248 228 70 249 227 70 249 227 70 250 227 70 251 227 70 252 226 70 252 226 70 253 226 70 255 225 70
0 234 72 1 234 72 2 234 72 3 234 72 4 234 72 5 234 72 6 234 72 7 234 72 8 234 72 9 234 72 10 234 72 11 234 72 12 234 72 13 234 72 14 234 72 16 234 72 17 234 72 18 234 72 19 234 72 20 234 72 21 234 72 22 234 72 23 234 72 24 234 72 25 234 72 26 234 72 27 234 72 28 234 72 29 234 72 30 234 72 33 234 72 34 234 72 35 234 72 36 234 72 37 234 72 38 234 72 39 234 72 40 234 72 41 234 72 42 234 72 43 234 72 44 234 72 45 234 72 46 234 72 47 234 72 49 234 72 50 234 72 51 234 72 52 234 72 53 234 72 54 234 72 55 234 72 56 234 72 57 234 72 58 234 72 59 234 72 60 234 72 61 234 72 62 234 72 63 234 72 66 234 72 67 234 72 68 234 72 69 234 72 70 234 72 71 234 72 72 234 72 73 234 72 74 234 72 75 234 72 76 234 72 77 234 72 78 234 72 79 234 72 80 234 72 82 234 72 83 234 72 84 234 72 85 234 72 86 234 72 87 234 72 88 234 72 89 234 72 90 234 72 91 234 72 92 234 72 93 234 72 94 234 72 95 234 72 96 234 72 99 234 72 100 234 72 101 234 72 102 234 72 103 234 72 104 234 72 105 234 72 106 234 72 107 234 72 108 234 72 109 234 72 110 234 72 111 234 72 112 234 72 113 234 72 115 234 72 116 234 72 117 234 72 118 234 72 119 234 72 120 234 72 121 234 72 122 234 72 123 234 72 124 234 72 125 234 72 126 234 72 127 234 72 128 234 72 130 234 72 132 234 72 133 234 72 134 234 72 135 234 72 136 234 72 137 234 72 138 234 72 139 234 72 140 234 72 141 234 72 142 234 72 143 234 72 144 234 72 145 234 72 146 234 72 148 234 72 149 234 72 150 234 72 151 234 72 152 234 72 153 234 72 154 234 72 155 234 72 156 234 72 157 234 72 158 234 72 159 234 72 160 234 72 161 234 72 163 234 72 165 234 72 166 234 72 167 234 72 168 234 72 169 234 72 170 234 72 171 234 72 172 234 72 173 234 72 174 234 72 175 234 72 176 234 72 177 234 72 178 234 72 179 234 72 181 234 72 182 234 72 183 234 72 184 234 72 185 234 72 186 234 72 187 234 72 188 234 72 189 234 72 190 234 72 191 234 72 192 234 72 193 234 72 195 234 72 196 234 72 198 234 72 199 234 72 200 234 72 201 234 72 202 234 72 203 234 72 204 234 72 205 234 72 206 234 72 207 234 72 208 234 72 209 234 72 210 234 72 211 234 72 212 234 72 214 234 72 215 234 72 216 234 72 217 234 72 218 234 72 219 234 72 220 234 72 221 234 72 222 234 72 223 234 72 224 234 72 225 234 72 227 234 72 228 234 72 229 234 72 231 234 72 232 234 72 233 234 72 234 234 72 234 233 72 235 233 72 236 233 71 237 233 71 238 232 71 238 232 71 239 232 71 240 232 71 241 231 71 241 231 71 242 231 71 244 230 71 244 230 71 245 230 71 246 230 70 246 229 70 247 229 70 248 229 70 249 229 70 249 228 70 250 228 70 251 228 70 252 227 70 252 227 70 253 227 70 255 226 70
0 235 72 1 235 72 2 235 72 3 235 72 4 235 72 5 235 72 6 235 72 7 235 72 8 235 72 9 235 72 10 235 72 11 235 72 12 235 72 13 235 72 14 235 72 16 235 72 17 235 72 18 235 72 19 235 72 20 235 72 21 235 72 22 235 72 23 235 72 24 235 72 25 235 72 26 235 72 27 235 72 28 235 72 29 235 72 30 235 72 32 235 72 33 235 72 35 235 72 36 235 72 37 235 72 38 235 72 39 235 72 40 235 72 41 235 72 42 235 72 43 235 72 44 235 72 45 235 72 46 235 72 47 235 72 49 235 72 50 235 72 51 235 72 52 235 72 53 235 72 54 235 72 55 235 72 56 235 72 57 235 72 58 235 72 59 235 72 60 235 72 61 235 72 62 235 72 63 235 72 65 235 72 66 235 72 67 235 72 68 235 72 70 235 72 71 235 72 72 235 72 73 235 72 74 235 72 75 235 72 76 235 72 77 235 72 78 235 72 79 235 72 80 235 72 82 235 72 83 235 72 84 235 72 85 235 72 86 235 72 87 235 72 88 235 72 89 235 72 90 235 72 91 235 72 92 235 72 93 235 72 94 235 72 95 235 72 96 235 72 98 235 72 99 235 72 100 235 72 101 235 72 102 235 72 103 235 72 105 235 72 106 235 72 107 235 72 108 235 72 109 235 72 110 235 72 111 235 72 112 235 72 113 235 72 115 235 72 116 235 72 117 235 72 118 235 72 119 235 72 120 235 72 121 235 72 122 235 72 123 235 72 124 235 72 125 235 72 126 235 72 127 235 72 128 235 72 129 235 72 131 235 72 132 235 72 133 235 72 134 235 72 135 235 72 136 235 72 137 235 72 138 235 72 140 235 72 141 235 72 142 235 72 143 235 72 144 235 72 145 235 72 146 235 72 148 235 72 149 235 72 150 235 72 151 235 72 152 235 72 153 235 72 154 235 72 155 235 72 156 235 72 157 235 72 158 235 72 159 235 72 160 235 72 161 235 72 162 235 72 164 235 72 165 235 72 166 235 72 167 235 72 168 235 72 169 235 72 170 235 72 171 235 72 172 235 72 173 235 72 175 235 72 176 235 72 177 235 72 178 235 72 179 235 72 181 235 72 182 235 72 183 235 72 184 235 72 185 235 72 186 235 72 187 235 72 188 235 72 189 235 72 190 235 72 191 235 72 192 235 72 193 235 72 194 235 72 195 235 72 197 235 72 198 235 72 199 235 72 200 235 72 201 235 72 202 235 72 203 235 72 204 235 72 205 235 72 206 235 72 207 235 72 208 235 72 210 235 72 211 235 72 212 235 72 214 235 72 215 235 72 216 235 72 217 235 72 218 235 72 219 235 72 220 235 72 221 235 72 222 235 72 223 235 72 224 235 72 225 235 72 226 235 72 227 235 72 228 235 72 230 235 72 231 235 72 232 235 72 233 235 72 234 235 72 235 235 72 236 235 71 237 235 71 238 234 71 238 234 71 239 234 71 240 234 71 241 233 71 241 233 71 242 233 71 244 232 71 244 232 71 245 232 71 246 232 70 246 231 70 247 231 70 248 231 70 249 231 70 249 230 70 250 230 70 251 230 70 252 230 70 252 229 70 253 229 70 255 229 70
0 236 71 1 236 71 2 236 71 3 236 71 4 236 71 5 236 71 6 236 71 7 236 71 8 236 71 9 236 71 10 236 71 11 236 71 12 236 71 13 236 71 14 236 71 16 236 71 17 236 71 18 236 71 19 236 71 20 236 71 21 236 71 22 236 71 23 236 71 24 236 71 25 236 71 26 236 71 27 236 71 28 236 71 29 236 71 30 236 71 32 236 71 33 236 71 34 236 71 35 236 71 37 236 71 38 236 71 39 236 71 40 236 71 41 236 71 42 236 71 43 236 71 44 236 71 45 236 71 46 236 71 47 236 71 49 236 71 50 236 71 51 236 71 52 236 71 53 236 71 54 236 71 55 236 71 56 236 71 57 236 71 58 236 71 59 236 71 60 236 71 61 236 71 62 236 71 63 236 71 65 236 71 66 236 71 67 236 71 68 236 71 69 236 71 70 236 71 71 236 71 73 236 71 74 236 71 75 236 71 76 236 71 77 236 71 78 236 71 79 236 71 80 236 71 82 236 71 83 236 71 84 236 71 85 236 71 86 236 71 87 236 71 88 236 71 89 236 71 90 236 71 91 236 71 92 236 71 93 236 71 94 236 71 95 236 71 96 236 71 98 236 71 99 236 71 100 236 71 101 236 71 102 236 71 103 236 71 104 236 71 105 236 71 106 236 71 107 236 71 108 236 71 110 236 71 111 236 71 112 236 71 113 236 71 115 236 71 116 236 71 117 236 71 118 236 71 119 236 71 120 236 71 121 236 71 122 236 71 123 236 71 124 236 71 125 236 71 126 236 71 127 236 71 128 236 71 129 236 71 131 236 71 132 236 71 133 236 71 134 236 71 135 236 71 136 236 71 137 236 71 138 236 71 139 236 71 140 236 71 141 236 71 142 236 71 143 236 71 144 236 71 146 236 71 148 236 71 149 236 71 150 236 71 151 236 71 152 236 71 153 236 71 154 236 71 155 236 71 156 236 71 157 236 71 158 236 71 159 236 71 160 236 71 161 236 71 162 236 71 164 236 71 165 236 71 166 236 71 167 236 71 168 236 71 169 236 71 170 236 71 171 236 71 172 236 71 173 236 71 174 236 71 175 236 71 176 236 71 177 236 71 178 236 71 180 236 71 182 236 71 183 236 71 184 236 71 185 236 71 186 236 71 187 236 71 188 236 71 189 236 71 190 236 71 191 236 71 192 236 71 193 236 71 194 236 71 195 236 71 197 236 71 198 236 71 199 236 71 200 236 71 201 236 71 202 236 71 203 236 71 204 236 71 205 236 71 206 236 71 207 236 71 208 236 71 209 236 71 210 236 71 211 236 71 213 236 71 214 236 71 215 236 71 216 236 71 217 236 71 219 236 71 220 236 71 221 236 71 222 236 71 223 236 71 224 236 71 225 236 71 226 236 71 227 236 71 228 236 71 230 236 71 231 236 71 232 236 71 233 236 71 234 236 71 235 236 71 236 236 71 237 236 71 238 235 71 238 235 71 239 235 71 240 235 71 241 234 71 241 234 71 242 234 71 244 233 71 244 233 71 245 233 71 246 233 70 246 232 70 247 232 70 248 232 70 249 232 70 249 231 70 250 231 70 251 231 70 252 231 70 252 230 70 253 230 70 255 230 70
0 238 71 1 238 71 2 238 71 3 238 71 4 238 71 5 238 71 6 238 71 7 238 71 8 238 71 9 238 71 10 238 71 11 238 71 12 238 71 13 238 71 14 238 71 16 238 71 17 238 71 18 238 71 19 238 71 20 238 71 21 238 71 22 238 71 23 238 71 24 238 71 25 238 71 26 238 71 27 238 71 28 238 71 29 238 71 30 238 71 32 238 71 33 238 71 34 238 71 35 238 71 36 238 71 37 238 71 38 238 71 40 238 71 41 238 71 42 238 71 43 238 71 44 238 71 45 238 71 46 238 71 47 238 71 49 238 71 50 238 71 51 238 71 52 238 71 53 238 71 54 238 71 55 238 71 56 238 71 57 238 71 58 238 71 59 238 71 60 238 71 61 238 71 62 238 71 63 238 71 65 238 71 66 238 71 67 238 71 68 238 71 69 238 71 70 238 71 71 238 71 72 238 71 73 238 71 74 238 71 75 238 71 76 238 71 77 238 71 78 238 71 80 238 71 82 238 71 83 238 71 84 238 71 85 238 71 86 238 71 87 238 71 88 238 71 89 238 71 90 238 71 91 238 71 92 238 71 93 238 71 94 238 71 95 238 71 96 238 71 98 238 71 99 238 71 100 238 71 101 238 71 102 238 71 103 238 71 104 238 71 105 238 71 106 238 71 107 238 71 108 238 71 109 238 71 110 238 71 111 238 71 112 238 71 114 238 71 115 238 71 116 238 71 117 238 71 119 238 71 120 238 71 121 238 71 122 238 71 123 238 71 124 238 71 125 238 71 126 238 71 127 238 71 128 238 71 129 238 71 131 238 71 132 238 71 133 238 71 134 238 71 135 238 71 136 238 71 137 238 71 138 238 71 139 238 71 140 238 71 141 238 71 142 238 71 143 238 71 144 238 71 145 238 71 147 238 71 148 238 71 149 238 71 150 238 71 151 238 71 152 238 71 153 238 71 154 238 71 155 238 71 156 238 71 157 238 71 159 238 71 160 238 71 161 238 71 162 238 71 164 238 71 165 238 71 166 238 71 167 238 71 168 238 71 169 238 71 170 238 71 171 238 71 172 238 71 173 238 71 174 238 71 175 238 71 176 238 71 177 238 71 178 238 71 180 238 71 181 238 71 182 238 71 183 238 71 184 238 71 185 238 71 186 238 71 187 238 71 188 238 71 189 238 71 190 238 71 191 238 71 192 238 71 193 238 71 194 238 71 196 238 71 198 238 71 199 238 71 200 238 71 201 238 71 202 238 71 203 238 71 204 238 71 205 238 71 206 238 71 207 238 71 208 238 71 209 238 71 210 238 71 211 238 71 213 238 71 214 238 71 215 238 71 216 238 71 217 238 71 218 238 71 219 238 71 220 238 71 221 238 71 222 238 71 223 238 71 224 238 71 225 238 71 226 238 71 227 238 71 229 238 71 230 238 71 231 238 71 232 238 71 233 238 71 234 238 71 235 238 71 236 238 71 238 238 71 238 237 71 239 237 71 240 237 71 241 236 71 241 236 71 242 236 71 244 235 71 244 235 71 245 235 71 246 235 70 246 234 70 247 234 70 248 234 70 249 234 70 249 233 70 250 233 70 251 233 70 252 233 70 252 232 70 253 232 70 255 232 70
0 238 71 1 238 71 2 238 71 3 238 71 4 238 71 5 238 71 6 238 71 7 238 71 8 238 71 9 238 71 10 238 71 11 238 71 12 238 71 13 238 71 14 238 71 16 238 71 17 238 71 18 238 71 19 238 71 20 238 71 21 238 71 22 238 71 23 238 71 24 238 71 25 238 71 26 238 71 27 238 71 28 238 71 29 238 71 30 238 71 32 238 71 33 238 71 34 238 71 35 238 71 36 238 71 37 238 71 38 238 71 39 238 71 40 238 71 42 238 71 43 238 71 44 238 71 45 238 71 46 238 71 47 238 71 49 238 71 50 238 71 51 238 71 52 238 71 53 238 71 54 238 71 55 238 71 56 238 71 57 238 71 58 238 71 59 238 71 60 238 71 61 238 71 62 238 71 63 238 71 65 238 71 66 238 71 67 238 71 68 238 71 69 238 71 70 238 71 71 238 71 72 238 71 73 238 71 74 238 71 75 238 71 76 238 71 77 238 71 78 238 71 79 238 71 81 238 71 83 238 71 84 238 71 85 238 71 86 238 71 87 238 71 88 238 71 89 238 71 90 238 71 91 238 71 92 238 71 93 238 71 94 238 71 95 238 71 96 238 71 98 238 71 99 238 71 100 238 71 101 238 71 102 238 71 103 238 71 104 238 71 105 238 71 106 238 71 107 238 71 108 238 71 109 238 71 110 238 71 111 238 71 112 238 71 114 238 71 115 238 71 116 238 71 117 238 71 118 238 71 119 238 71 120 238 71 121 238 71 122 238 71 124 238 71 125 238 71 126 238 71 127 238 71 128 238 71 129 238 71 131 238 71 132 238 71 133 238 71 134 238 71 135 238 71 136 238 71 137 238 71 138 238 71 139 238 71 140 238 71 141 238 71 142 238 71 143 238 71 144 238 71 145 238 71 147 238 71 148 238 71 149 238 71 150 238 71 151 238 71 152 238 71 153 238 71 154 238 71 155 238 71 156 238 71 157 238 71 158 238 71 159 238 71 160 238 71 161 238 71 163 238 71 164 238 71 166 238 71 167 238 71 168 238 71 169 238 71 170 238 71 171 238 71 172 238 71 173 238 71 174 238 71 175 238 71 176 238 71 177 238 71 178 238 71 180 238 71 181 238 71 182 238 71 183 238 71 184 238 71 185 238 71 186 238 71 187 238 71 188 238 71 189 238 71 190 238 71 191 238 71 192 238 71 193 238 71 194 238 71 196 238 71 197 238 71 198 238 71 199 238 71 200 238 71 201 238 71 202 238 71 203 238 71 204 238 71 205 238 71 207 238 71 208 238 71 209 238 71 210 238 71 211 238 71 213 238 71 214 238 71 215 238 71 216 238 71 217 238 71 218 238 71 219 238 71 220 238 71 221 238 71 222 238 71 223 238 71 224 238 71 225 238 71 226 238 71 227 238 71 229 238 71 230 238 71 231 238 71 232 238 71 233 238 71 234 238 71 235 238 71 236 238 71 237 238 71 238 238 71 239 238 71 240 238 71 241 237 71 241 237 71 242 237 71 244 236 71 244 236 71 245 236 71 246 236 70 246 235 70 247 235 70 248 235 70 249 235 70 249 234 70 250 234 70 251 234 70 252 234 70 252 233 70 253 233 70 255 233 70
0 240 71 1 240 71 2 240 71 3 240 71 4 240 71 5 240 71 6 240 71 7 240 71 8 240 71 9 240 71 10 240 71 11 240 71 12 240 71 13 240 71 14 240 71 16 240 71 17 240 71 18 240 71 19 240 71 20 240 71 21 240 71 22 240 71 23 240 71 24 240 71 25 240 71 26 240 71 27 240 71 28 240 71 29 240 71 30 240 71 32 240 71 33 240 71 34 240 71 35 240 71 36 240 71 37 240 71 38 240 71 39 240 71 40 240 71 41 240 71 42 240 71 43 240 71 44 240 71 46 240 71 47 240 71 49 240 71 50 240 71 51 240 71 52 240 71 53 240 71 54 240 71 55 240 71 56 240 71 57 240 71 58 240 71 59 240 71 60 240 71 61 240 71 62 240 71 63 240 71 65 240 71 66 240 71 67 240 71 68 240 71 69 240 71 70 240 71 71 240 71 72 240 71 73 240 71 74 240 71 75 240 71 76 240 71 77 240 71 78 240 71 79 240 71 81 240 71 82 240 71 83 240 71 84 240 71 85 240 71 86 240 71 87 240 71 88 240 71 89 240 71 91 240 71 92 240 71 93 240 71 94 240 71 95 240 71 96 240 71 98 240 71 99 240 71 100 240 71 101 240 71 102 240 71 103 240 71 104 240 71 105 240 71 106 240 71 107 240 71 108 240 71 109 240 71 110 240 71 111 240 71 112 240 71 114 240 71 115 240 71 116 240 71 117 240 71 118 240 71 119 240 71 120 240 71 121 240 71 122 240 71 123 240 71 124 240 71 125 240 71 126 240 71 127 240 71 128 240 71 130 240 71 131 240 71 132 240 71 133 240 71 134 240 71 135 240 71 137 240 71 138 240 71 139 240 71 140 240 71 141 240 71 142 240 71 143 240 71 144 240 71 145 240 71 147 240 71 148 240 71 149 240 71 150 240 71 151 240 71 152 240 71 153 240 71 154 240 71 155 240 71 156 240 71 157 240 71 158 240 71 159 240 71 160 240 71 161 240 71 163 240 71 164 240 71 165 240 71 166 240 71 167 240 71 168 240 71 169 240 71 170 240 71 171 240 71 172 240 71 173 240 71 174 240 71 175 240 71 176 240 71 177 240 71 179 240 71 180 240 71 182 240 71 183 240 71 184 240 71 185 240 71 186 240 71 187 240 71 188 240 71 189 240 71 190 240 71 191 240 71 192 240 71 193 240 71 194 240 71 196 240 71 197 240 71 198 240 71 199 240 71 200 240 71 201 240 71 202 240 71 203 240 71 204 240 71 205 240 71 206 240 71 207 240 71 208 240 71 209 240 71 210 240 71 212 240 71 213 240 71 214 240 71 215 240 71 216 240 71 217 240 71 218 240 71 219 240 71 220 240 71 221 240 71 222 240 71 223 240 71 224 240 71 225 240 71 226 240 71 229 240 71 230 240 71 231 240 71 232 240 71 233 240 71 234 240 71 235 240 71 236 240 71 237 240 71 238 240 71 239 240 71 240 240 71 241 240 71 241 239 71 242 239 71 244 238 71 244 238 71 245 238 71 246 238 70 246 237 70 247 237 70 248 237 70 249 237 70 249 236 70 250 236 70 251 236 70 252 236 70 252 235 70 253 235 70 255 235 70
0 241 71 1 241 71 2 241 71 3 241 71 4 241 71 5 241 71 6 241 71 7 241 71 8 241 71 9 241 71 10 241 71 11 241 71 12 241 71 13 241 71 14 241 71 16 241 71 17 241 71 18 241 71 19 241 71 20 241 71 21 241 71 22 241 71 23 241 71 24 241 71 25 241 71 26 241 71 27 241 71 28 241 71 29 241 71 30 241 71 32 241 71 33 241 71 34 241 71 35 241 71 36 241 71 37 241 71 38 241 71 39 241 71 40 241 71 41 241 71 42 241 71 43 241 71 44 241 71 45 241 71 46 241 71 49 241 71 50 241 71 51 241 71 52 241 71 53 241 71 54 241 71 55 241 71 56 241 71 57 241 71 58 241 71 59 241 71 60 241 71 61 241 71 62 241 71 63 241 71 65 241 71 66 241 71 67 241 71 68 241 71 69 241 71 70 241 71 71 241 71 72 241 71 73 241 71 74 241 71 75 241 71 76 241 71 77 241 71 78 241 71 79 241 71 81 241 71 82 241 71 83 241 71 84 241 71 85 241 71 86 241 71 87 241 71 88 241 71 89 241 71 90 241 71 91 241 71 92 241 71 93 241 71 94 241 71 96 241 71 98 241 71 99 241 71 100 241 71 101 241 71 102 241 71 103 241 71 104 241 71 105 241 71 106 241 71 107 241 71 108 241 71 109 241 71 110 241 71 111 241 71 112 241 71 114 241 71 115 241 71 116 241 71 117 241 71 118 241 71 119 241 71 120 241 71 121 241 71 122 241 71 123 241 71 124 241 71 125 241 71 126 241 71 127 241 71 128 241 71 130 241 71 131 241 71 132 241 71 133 241 71 134 241 71 135 241 71 136 241 71 137 241 71 138 241 71 139 241 71 140 241 71 141 241 71 142 241 71 144 241 71 145 241 71 147 241 71 148 241 71 149 241 71 150 241 71 151 241 71 152 241 71 153 241 71 154 241 71 155 241 71 156 241 71 157 241 71 158 241 71 159 241 71 160 241 71 161 241 71 163 241 71 164 241 71 165 241 71 166 241 71 167 241 71 168 241 71 169 241 71 170 241 71 171 241 71 172 241 71 173 241 71 174 241 71 175 241 71 176 241 71 177 241 71 179 241 71 180 241 71 181 241 71 182 241 71 183 241 71 184 241 71 185 241 71 186 241 71 187 241 71 188 241 71 189 241 71 190 241 71 192 241 71 193 241 71 194 241 71 196 241 71 197 241 71 198 241 71 199 241 71 200 241 71 201 241 71 202 241 71 203 241 71 204 241 71 205 241 71 206 241 71 207 241 71 208 241 71 209 241 71 210 241 71 212 241 71 213 241 71 214 241 71 215 241 71 216 241 71 217 241 71 218 241 71 219 241 71 220 241 71 221 241 71 222 241 71 223 241 71 224 241 71 225 241 71 226 241 71 228 241 71 229 241 71 230 241 71 231 241 71 232 241 71 233 241 71 234 241 71 235 241 71 236 241 71 237 241 71 238 241 71 240 241 71 241 241 71 241 240 71 242 240 71 244 239 71 244 239 71 245 239 71 246 239 70 246 238 70 247 238 70 248 238 70 249 238 70 249 237 70 250 237 70 251 237 70 252 237 70 252 236 70 253 236 70 255 235 70
0 241 71 1 241 71 2 241 71 3 241 71 4 241 71 5 241 71 6 241 71 7 241 71 8 241 71 9 241 71 10 241 71 11 241 71 12 241 71 13 241 71 14 241 71 16 241 71 17 241 71 18 241 71 19 241 71 20 241 71 21 241 71 22 241 71 23 241 71 24 241 71 25 241 71 26 241 71 27 241 71 28 241 71 29 241 71 30 241 71 32 241 71 33 241 71 34 241 71 35 241 71 36 241 71 37 241 71 38 241 71 39 241 71 40 241 71 41 241 71 42 241 71 43 241 71 44 241 71 45 241 71 46 241 71 48 241 71 49 241 71 51 241 71 52 241 71 53 241 71 54 241 71 55 241 71 56 241 71 57 241 71 58 241 71 59 241 71 60 241 71 61 241 71 62 241 71 63 241 71 65 241 71 66 241 71 67 241 71 68 241 71 69 241 71 70 241 71 71 241 71 72 241 71 73 241 71 74 241 71 75 241 71 76 241 71 77 241 71 78 241 71 79 241 71 81 241 71 82 241 71 83 241 71 84 241 71 85 241 71 86 241 71 87 241 71 88 241 71 89 241 71 90 241 71 91 241 71 92 241 71 93 241 71 94 241 71 95 241 71 97 241 71 98 241 71 99 241 71 100 241 71 102 241 71 103 241 71 104 241 71 105 241 71 106 241 71 107 241 71 108 241 71 109 241 71 110 241 71 111 241 71 112 241 71 114 241 71 115 241 71 116 241 71 117 241 71 118 241 71 119 241 71 120 241 71 121 241 71 122 241 71 123 241 71 124 241 71 125 241 71 126 241 71 127 241 71 128 241 71 130 241 71 131 241 71 132 241 71 133 241 71 134 241 71 135 241 71 136 241 71 137 241 71 138 241 71 139 241 71 140 241 71 141 241 71 142 241 71 143 241 71 144 241 71 146 241 71 147 241 71 148 241 71 149 241 71 150 241 71 152 241 71 153 241 71 154 241 71 155 241 71 156 241 71 157 241 71 158 241 71 159 241 71 160 241 71 161 241 71 163 241 71 164 241 71 165 241 71 166 241 71 167 241 71 168 241 71 169 241 71 170 241 71 171 241 71 172 241 71 173 241 71 174 241 71 175 241 71 176 241 71 177 241 71 179 241 71 180 241 71 181 241 71 182 241 71 183 241 71 184 241 71 185 241 71 186 241 71 187 241 71 188 241 71 189 241 71 190 241 71 191 241 71 192 241 71 193 241 71 195 241 71 196 241 71 197 241 71 198 241 71 199 241 71 200 241 71 201 241 71 203 241 71 204 241 71 205 241 71 206 241 71 207 241 71 208 241 71 209 241 71 210 241 71 212 241 71 213 241 71 214 241 71 215 241 71 216 241 71 217 241 71 218 241 71 219 241 71 220 241 71 221 241 71 222 241 71 223 241 71 224 241 71 225 241 71 226 241 71 228 241 71 229 241 71 230 241 71 231 241 71 232 241 71 233 241 71 234 241 71 235 241 71 236 241 71 237 241 71 238 241 71 239 241 71 240 241 71 241 241 71 242 241 71 244 240 71 244 240 71 245 240 71 246 240 70 246 239 70 247 239 70 248 239 70 249 239 70 249 238 70 250 238 70 251 238 70 252 238 70 252 237 70 253 237 70 255 236 70
0 243 71 1 243 71 2 243 71 3 243 71 4 243 71 5 243 71 6 243 71 7 243 71 8 243 71 9 243 71 10 243 71 11 243 71 12 243 71 13 243 71 14 243 71 16 243 71 17 243 71 18 243 71 19 243 71 20 243 71 21 243 71 22 243 71 23 243 71 24 243 71 25 243 71 26 243 71 27 243 71 28 243 71 29 243 71 30 243 71 32 243 71 33 243 71 34 243 71 35 243 71 36 243 71 37 243 71 38 243 71 39 243 71 40 243 71 41 243 71 42 243 71 43 243 71 44 243 71 45 243 71 46 243 71 48 243 71 49 243 71 50 243 71 51 243 71 52 243 71 53 243 71 54 243 71 55 243 71 57 243 71 58 243 71 59 243 71 60 243 71 61 243 71 62 243 71 63 243 71 65 243 71 66 243 71 67 243 71 68 243 71 69 243 71 70 243 71 71 243 71 72 243 71 73 243 71 74 243 71 75 243 71 76 243 71 77 243 71 78 243 71 79 243 71 81 243 71 82 243 71 83 243 71 84 243 71 85 243 71 86 243 71 87 243 71 88 243 71 89 243 71 90 243 71 91 243 71 92 243 71 93 243 71 94 243 71 95 243 71 97 243 71 98 243 71 99 243 71 100 243 71 101 243 71 102 243 71 103 243 71 104 243 71 105 243 71 106 243 71 107 243 71 108 243 71 109 243 71 110 243 71 111 243 71 114 243 71 115 243 71 116 243 71 117 243 71 118 243 71 119 243 71 120 243 71 121 243 71 122 243 71 123 243 71 124 243 71 125 243 71 126 243 71 127 243 71 128 243 71 130 243 71 131 243 71 132 243 71 133 243 71 134 243 71 135 243 71 136 243 71 137 243 71 138 243 71 139 243 71 140 243 71 141 243 71 142 243 71 143 243 71 144 243 71 146 243 71 147 243 71 148 243 71 149 243 71 150 243 71 151 243 71 152 243 71 153 243 71 154 243 71 155 243 71 156 243 71 157 243 71 158 243 71 159 243 71 160 243 71 162 243 71 163 243 71 164 243 71 165 243 71 166 243 71 167 243 71 168 243 71 169 243 71 171 243 71 172 243 71 173 243 71 174 243 71 175 243 71 176 243 71 177 243 71 179 243 71 180 243 71 181 243 71 182 243 71 183 243 71 184 243 71 185 243 71 186 243 71 187 243 71 188 243 71 189 243 71 190 243 71 191 243 71 192 243 71 193 243 71 195 243 71 196 243 71 197 243 71 198 243 71 199 243 71 200 243 71 201 243 71 202 243 71 203 243 71 204 243 71 205 243 71 206 243 71 207 243 71 208 243 71 209 243 71 211 243 71 212 243 71 213 243 71 214 243 71 215 243 71 216 243 71 217 243 71 218 243 71 219 243 71 220 243 71 221 243 71 222 243 71 223 243 71 224 243 71 225 243 71 228 243 71 229 243 71 230 243 71 231 243 71 232 243 71 233 243 71 234 243 71 235 243 71 236 243 71 237 243 71 238 243 71 239 243 71 240 243 71 241 243 71 242 243 71 244 243 71 244 242 71 245 242 71 246 242 70 246 241 70 247 241 70 248 241 70 249 241 70 249 240 70 250 240 70 251 240 70 252 240 70 252 239 70 253 239 70 255 239 70
0 244 71 1 244 71 2 244 71 3 244 71 4 244 71 5 244 71 6 244 71 7 244 71 8 244 71 9 244 71 10 244 71 11 244 71 12 244 71 13 244 71 14 244 71 16 244 71 17 244 71 18 244 71 19 244 71 20 244 71 21 244 71 22 244 71 23 244 71 24 244 71 25 244 71 26 244 71 27 244 71 28 244 71 29 244 71 30 244 71 32 244 71 33 244 71 34 244 71 35 244 71 36 244 71 37 244 71 38 244 71 39 244 71 40 244 71 41 244 71 42 244 71 43 244 71 44 244 71 45 244 71 46 244 71 48 244 71 49 244 71 50 244 71 51 244 71 52 244 71 53 244 71 54 244 71 55 244 71 56 244 71 57 244 71 58 244 71 59 244 71 61 244 71 62 244 71 63 244 71 65 244 71 66 244 71 67 244 71 68 244 71 69 244 71 70 244 71 71 244 71 72 244 71 73 244 71 74 244 71 75 244 71 76 244 71 77 244 71 78 244 71 79 244 71 81 244 71 82 244 71 83 244 71 84 244 71 85 244 71 86 244 71 87 244 71 88 244 71 89 244 71 90 244 71 91 244 71 92 244 71 93 244 71 94 244 71 95 244 71 97 244 71 98 244 71 99 244 71 100 244 71 101 244 71 102 244 71 103 244 71 104 244 71 105 244 71 106 244 71 107 244 71 108 244 71 109 244 71 110 244 71 111 244 71 113 244 71 114 244 71 115 244 71 116 244 71 117 244 71 118 244 71 119 244 71 120 244 71 122 244 71 123 244 71 124 244 71 125 244 71 126 244 71 127 244 71 128 244 71 130 244 71 131 244 71 132 244 71 133 244 71 134 244 71 135 244 71 136 244 71 137 244 71 138 244 71 139 244 71 140 244 71 141 244 71 142 244 71 143 244 71 144 244 71 146 244 71 147 244 71 148 244 71 149 244 71 150 244 71 151 244 71 152 244 71 153 244 71 154 244 71 155 244 71 156 244 71 157 244 71 158 244 71 159 244 71 160 244 71 162 244 71 163 244 71 164 244 71 165 244 71 166 244 71 167 244 71 168 244 71 169 244 71 170 244 71 171 244 71 172 244 71 173 244 71 174 244 71 175 244 71 176 244 71 178 244 71 179 244 71 180 244 71 181 244 71 183 244 71 184 244 71 185 244 71 186 244 71 187 244 71 188 244 71 189 244 71 190 244 71 191 244 71 192 244 71 193 244 71 195 244 71 196 244 71 197 244 71 198 244 71 199 244 71 200 244 71 201 244 71 202 244 71 203 244 71 204 244 71 205 244 71 206 244 71 207 244 71 208 244 71 209 244 71 211 244 71 212 244 71 213 244 71 214 244 71 215 244 71 216 244 71 217 244 71 218 244 71 219 244 71 220 244 71 221 244 71 222 244 71 223 244 71 224 244 71 225 244 71 227 244 71 228 244 71 229 244 71 230 244 71 231 244 71 232 244 71 233 244 71 234 244 71 235 244 71 236 244 71 237 244 71 238 244 71 239 244 71 240 244 71 241 244 71 244 244 71 244 243 71 245 243 71 246 243 70 246 242 70 247 242 70 248 242 70 249 242 70 249 241 70 250 241 70 251 241 70 252 241 70 252 240 70 253 240 70 255 240 70
0 245 71 1 245 71 2 245 71 3 245 71 4 245 71 5 245 71 6 245 71 7 245 71 8 245 71 9 245 71 10 245 71 11 245 71 12 245 71 13 245 71 14 245 71 16 245 71 17 245 71 18 245 71 19 245 71 20 245 71 21 245 71 22 245 71 23 245 71 24 245 71 25 245 71 26 245 71 27 245 71 28 245 71 29 245 71 30 245 71 32 245 71 33 245 71 34 245 71 35 245 71 36 245 71 37 245 71 38 245 71 39 245 71 40 245 71 41 245 71 42 245 71 43 245 71 44 245 71 45 245 71 46 245 71 48 245 71 49 245 71 50 245 71 51 245 71 52 245 71 53 245 71 54 245 71 55 245 71 56 245 71 57 245 71 58 245 71 59 245 71 60 245 71 61 245 71 62 245 71 64 245 71 65 245 71 66 245 71 67 245 71 68 245 71 69 245 71 71 245 71 72 245 71 73 245 71 74 245 71 75 245 71 76 245 71 77 245 71 78 245 71 79 245 71 81 245 71 82 245 71 83 245 71 84 245 71 85 245 71 86 245 71 87 245 71 88 245 71 89 245 71 90 245 71 91 245 71 92 245 71 93 245 71 94 245 71 95 245 71 97 245 71 98 245 71 99 245 71 100 245 71 101 245 71 102 245 71 103 245 71 104 245 71 105 245 71 106 245 71 107 245 71 108 245 71 109 245 71 110 245 71 111 245 71 113 245 71 114 245 71 115 245 71 116 245 71 117 245 71 118 245 71 119 245 71 120 245 71 121 245 71 122 245 71 123 245 71 124 245 71 125 245 71 126 245 71 127 245 71 129 245 71 130 245 71 131 245 71 132 245 71 133 245 71 134 245 71 135 245 71 136 245 71 137 245 71 138 245 71 139 245 71 141 245 71 142 245 71 143 245 71 144 245 71 146 245 71 147 245 71 148 245 71 149 245 71 150 245 71 151 245 71 152 245 71 153 245 71 154 245 71 155 245 71 156 245 71 157 245 71 158 245 71 159 245 71 160 245 71 162 245 71 163 245 71 164 245 71 165 245 71 166 245 71 167 245 71 168 245 71 169 245 71 170 245 71 171 245 71 172 245 71 173 245 71 174 245 71 175 245 71 176 245 71 178 245 71 179 245 71 180 245 71 181 245 71 182 245 71 183 245 71 184 245 71 185 245 71 186 245 71 187 245 71 188 245 71 189 245 71 190 245 71 191 245 71 192 245 71 194 245 71 195 245 71 196 245 71 197 245 71 198 245 71 199 245 71 200 245 71 201 245 71 202 245 71 203 245 71 204 245 71 205 245 71 206 245 71 207 245 71 208 245 71 211 245 71 212 245 71 213 245 71 214 245 71 215 245 71 216 245 71 217 245 71 218 245 71 219 245 71 220 245 71 221 245 71 222 245 71 223 245 71 224 245 71 225 245 71 227 245 71 228 245 71 229 245 71 230 245 71 231 245 71 232 245 71 233 245 71 234 245 71 235 245 71 236 245 71 237 245 71 238 245 71 239 245 71 240 245 71 241 245 71 243 245 71 244 245 71 245 245 71 246 245 70 246 244 70 247 244 70 248 244 70 249 244 70 249 243 70 250 243 70 251 243 70 252 243 70 252 242 70 253 242 70 255 242 70
0 246 70 1 246 70 2 246 70 3 246 70 4 246 70 5 246 70 6 246 70 7 246 70 8 246 70 9 246 70 10 246 70 11 246 70 12 246 70 13 246 70 14 246 70 16 246 70 17 246 70 18 246 70 19 246 70 20 246 70 21 246 70 22 246 70 23 246 70 24 246 70 25 246 70 26 246 70 27 246 70 28 246 70 29 246 70 30 246 70 32 246 70 33 246 70 34 246 70 35 246 70 36 246 70 37 246 70 38 246 70 39 246 70 40 246 70 41 246 70 42 246 70 43 246 70 44 246 70 45 246 70 46 246 70 48 246 70 49 246 70 50 246 70 51 246 70 52 246 70 53 246 70 54 246 70 55 246 70 56 246 70 57 246 70 58 246 70 59 246 70 60 246 70 61 246 70 62 246 70 64 246 70 65 246 70 66 246 70 67 246 70 68 246 70 69 246 70 70 246 70 71 246 70 72 246 70 73 246 70 74 246 70 76 246 70 77 246 70 78 246 70 79 246 70 81 246 70 82 246 70 83 246 70 84 246 70 85 246 70 86 246 70 87 246 70 88 246 70 89 246 70 90 246 70 91 246 70 92 246 70 93 246 70 94 246 70 95 246 70 97 246 70 98 246 70 99 246 70 100 246 70 101 246 70 102 246 70 103 246 70 104 246 70 105 246 70 106 246 70 107 246 70 108 246 70 109 246 70 110 246 70 111 246 70 113 246 70 114 246 70 115 246 70 116 246 70 117 246 70 118 246 70 119 246 70 120 246 70 121 246 70 122 246 70 123 246 70 124 246 70 125 246 70 126 246 70 127 246 70 129 246 70 130 246 70 131 246 70 132 246 70 133 246 70 134 246 70 135 246 70 136 246 70 137 246 70 138 246 70 139 246 70 140 246 70 141 246 70 142 246 70 143 246 70 145 246 70 146 246 70 147 246 70 148 246 70 149 246 70 150 246 70 152 246 70 153 246 70 154 246 70 155 246 70 156 246 70 157 246 70 158 246 70 159 246 70 160 246 70 162 246 70 163 246 70 164 246 70 165 246 70 166 246 70 167 246 70 168 246 70 169 246 70 170 246 70 171 246 70 172 246 70 173 246 70 174 246 70 175 246 70 176 246 70 178 246 70 179 246 70 180 246 70 181 246 70 182 246 70 183 246 70 184 246 70 185 246 70 186 246 70 187 246 70 188 246 70 189 246 70 190 246 70 191 246 70 192 246 70 194 246 70 195 246 70 196 246 70 197 246 70 198 246 70 199 246 70 200 246 70 201 246 70 202 246 70 203 246 70 204 246 70 205 246 70 206 246 70 207 246 70 208 246 70 210 246 70 211 246 70 212 246 70 213 246 70 214 246 70 215 246 70 216 246 70 217 246 70 218 246 70 219 246 70 220 246 70 221 246 70 222 246 70 223 246 70 224 246 70 226 246 70 228 246 70 229 246 70 230 246 70 231 246 70 232 246 70 233 246 70 234 246 70 235 246 70 236 246 70 237 246 70 238 246 70 239 246 70 240 246 70 241 246 70 243 246 70 244 246 70 245 246 70 246 246 70 246 245 70 247 245 70 248 245 70 249 245 70 249 244 70 250 244 70 251 244 70 252 244 70 252 243 70 253 243 70 255 243 70
0 247 70 1 247 70 2 247 70 3 247 70 4 247 70 5 247 70 6 247 70 7 247 70 8 247 70 9 247 70 10 247 70 11 247 70 12 247 70 13 247 70 14 247 70 16 247 70 17 247 70 18 247 70 19 247 70 20 247 70 21 247 70 22 247 70 23 247 70 24 247 70 25 247 70 26 247 70 27 247 70 28 247 70 29 247 70 30 247 70 32 247 70 33 247 70 34 247 70 35 247 70 36 247 70 37 247 70 38 247 70 39 247 70 40 247 70 41 247 70 42 247 70 43 247 70 44 247 70 45 247 70 46 247 70 48 247 70 49 247 70 50 247 70 51 247 70 52 247 70 53 247 70 54 247 70 55 247 70 56 247 70 57 247 70 58 247 70 59 247 70 60 247 70 61 247 70 62 247 70 64 247 70 65 247 70 66 247 70 67 247 70 68 247 70 69 247 70 70 247 70 71 247 70 72 247 70 73 247 70 74 247 70 75 247 70 76 247 70 77 247 70 78 247 70 80 247 70 81 247 70 82 247 70 83 247 70 84 247 70 85 247 70 86 247 70 87 247 70 88 247 70 89 247 70 90 247 70 92 247 70 93 247 70 94 247 70 95 247 70 97 247 70 98 247 70 99 247 70 100 247 70 101 247 70 102 247 70 103 247 70 104 247 70 105 247 70 106 247 70 107 247 70 108 247 70 109 247 70 110 247 70 111 247 70 113 247 70 114 247 70 115 247 70 116 247 70 117 247 70 118 247 70 119 247 70 120 247 70 121 247 70 122 247 70 123 247 70 124 247 70 125 247 70 126 247 70 127 247 70 129 247 70 130 247 70 131 247 70 132 247 70 133 247 70 134 247 70 135 247 70 136 247 70 137 247 70 138 247 70 139 247 70 140 247 70 141 247 70 142 247 70 143 247 70 145 247 70 146 247 70 147 247 70 148 247 70 149 247 70 150 247 70 151 247 70 152 247 70 153 247 70 154 247 70 155 247 70 156 247 70 157 247 70 158 247 70 159 247 70 161 247 70 162 247 70 163 247 70 164 247 70 165 247 70 166 247 70 167 247 70 168 247 70 169 247 70 170 247 70 171 247 70 172 247 70 173 247 70 174 247 70 175 247 70 177 247 70 178 247 70 179 247 70 180 247 70 181 247 70 183 247 70 184 247 70 185 247 70 186 247 70 187 247 70 188 247 70 189 247 70 190 247 70 191 247 70 192 247 70 194 247 70 195 247 70 196 247 70 197 247 70 198 247 70 199 247 70 200 247 70 201 247 70 202 247 70 203 247 70 204 247 70 205 247 70 206 247 70 207 247 70 208 247 70 210 247 70 211 247 70 212 247 70 213 247 70 214 247 70 215 247 70 216 247 70 217 247 70 218 247 70 219 247 70 220 247 70 221 247 70 222 247 70 223 247 70 224 247 70 226 247 70 227 247 70 228 247 70 229 247 70 230 247 70 231 247 70 232 247 70 233 247 70 234 247 70 235 247 70 236 247 70 237 247 70 238 247 70 239 247 70 240 247 70 242 247 70 243 247 70 244 247 70 245 247 70 246 247 70 247 247 70 248 247 70 249 247 70 249 246 70 250 246 70 251 246 70 252 246 70 252 245 70 253 245 70 255 245 70
0 248 70 1 248 70 2 248 70 3 248 70 4 248 70 5 248 70 6 248 70 7 248 70 8 248 70 9 248 70 10 248 70 11 248 70 12 248 70 13 248 70 14 248 70 16 248 70 17 248 70 18 248 70 19 248 70 20 248 70 21 248 70 22 248 70 23 248 70 24 248 70 25 248 70 26 248 70 27 248 70 28 248 70 29 248 70 30 248 70 32 248 70 33 248 70 34 248 70 35 248 70 36 248 70 37 248 70 38 248 70 39 248 70 40 248 70 41 248 70 42 248 70 43 248 70 44 248 70 45 248 70 46 248 70 48 248 70 49 248 70 50 248 70 51 248 70 52 248 70 53 248 70 54 248 70 55 248 70 56 248 70 57 248 70 58 248 70 59 248 70 60 248 70 61 248 70 62 248 70 64 248 70 65 248 70 66 248 70 67 248 70 68 248 70 69 248 70 70 248 70 71 248 70 72 248 70 73 248 70 74 248 70 75 248 70 76 248 70 77 248 70 78 248 70 80 248 70 81 248 70 82 248 70 83 248 70 84 248 70 85 248 70 86 248 70 87 248 70 88 248 70 89 248 70 90 248 70 91 248 70 92 248 70 93 248 70 94 248 70 96 248 70 97 248 70 98 248 70 99 248 70 100 248 70 102 248 70 103 248 70 104 248 70 105 248 70 106 248 70 107 248 70 108 248 70 109 248 70 110 248 70 111 248 70 113 248 70 114 248 70 115 248 70 116 248 70 117 248 70 118 248 70 119 248 70 120 248 70 121 248 70 122 248 70 123 248 70 124 248 70 125 248 70 126 248 70 127 248 70 129 248 70 130 248 70 131 248 70 132 248 70 133 248 70 134 248 70 135 248 70 136 248 70 137 248 70 138 248 70 139 248 70 140 248 70 141 248 70 142 248 70 143 248 70 145 248 70 146 248 70 147 248 70 148 248 70 149 248 70 150 248 70 151 248 70 152 248 70 153 248 70 154 248 70 155 248 70 156 248 70 157 248 70 158 248 70 159 248 70 161 248 70 162 248 70 163 248 70 164 248 70 165 248 70 166 248 70 167 248 70 168 248 70 169 248 70 170 248 70 171 248 70 172 248 70 173 248 70 174 248 70 175 248 70 177 248 70 178 248 70 179 248 70 180 248 70 181 248 70 182 248 70 183 248 70 184 248 70 185 248 70 186 248 70 187 248 70 188 248 70 189 248 70 190 248 70 191 248 70 193 248 70 194 248 70 195 248 70 196 248 70 197 248 70 198 248 70 199 248 70 200 248 70 201 248 70 203 248 70 204 248 70 205 248 70 206 248 70 207 248 70 208 248 70 210 248 70 211 248 70 212 248 70 213 248 70 214 248 70 215 248 70 216 248 70 217 248 70 218 248 70 219 248 70 220 248 70 221 248 70 222 248 70 223 248 70 224 248 70 226 248 70 227 248 70 228 248 70 229 248 70 230 248 70 231 248 70 232 248 70 233 248 70 234 248 70 235 248 70 236 248 70 237 248 70 238 248 70 239 248 70 240 248 70 242 248 70 243 248 70 244 248 70 245 248 70 246 248 70 247 248 70 248 248 70 249 248 70 249 247 70 250 247 70 251 247 70 252 247 70 252 246 70 253 246 70 255 246 70
0 249 70 1 249 70 2 249 70 3 249 70 4 249 70 5 249 70 6 249 70 7 249 70 8 249 70 9 249 70 10 249 70 11 249 70 12 249 70 13 249 70 14 249 70 16 249 70 17 249 70 18 249 70 19 249 70 20 249 70 21 249 70 22 249 70 23 249 70 24 249 70 25 249 70 26 249 70 27 249 70 28 249 70 29 249 70 30 249 70 32 249 70 33 249 70 34 249 70 35 249 70 36 249 70 37 249 70 38 249 70 39 249 70 40 249 70 41 249 70 42 249 70 43 249 70 44 249 70 45 249 70 46 249 70 48 249 70 49 249 70 50 249 70 51 249 70 52 249 70 53 249 70 54 249 70 55 249 70 56 249 70 57 249 70 58 249 70 59 249 70 60 249 70 61 249 70 62 249 70 64 249 70 65 249 70 66 249 70 67 249 70 68 249 70 69 249 70 70 249 70 71 249 70 72 249 70 73 249 70 74 249 70 75 249 70 76 249 70 77 249 70 78 249 70 80 249 70 81 249 70 82 249 70 83 249 70 84 249 70 85 249 70 86 249 70 87 249 70 88 249 70 89 249 70 90 249 70 91 249 70 92 249 70 93 249 70 94 249 70 96 249 70 97 249 70 98 249 70 99 249 70 100 249 70 101 249 70 102 249 70 103 249 70 104 249 70 105 249 70 106 249 70 107 249 70 108 249 70 109 249 70 110 249 70 112 249 70 113 249 70 115 249 70 116 249 70 117 249 70 118 249 70 119 249 70 120 249 70 121 249 70 122 249 70 123 249 70 124 249 70 125 249 70 126 249 70 127 249 70 129 249 70 130 249 70 131 249 70 132 249 70 133 249 70 134 249 70 135 249 70 136 249 70 137 249 70 138 249 70 139 249 70 140 249 70 141 249 70 142 249 70 143 249 70 145 249 70 146 249 70 147 249 70 148 249 70 149 249 70 150 249 70 151 249 70 152 249 70 153 249 70 154 249 70 155 249 70 156 249 70 157 249 70 158 249 70 159 249 70 161 249 70 162 249 70 163 249 70 164 249 70 165 249 70 166 249 70 167 249 70 168 249 70 169 249 70 170 249 70 171 249 70 172 249 70 173 249 70 174 249 70 175 249 70 177 249 70 178 249 70 179 249 70 180 249 70 181 249 70 182 249 70 183 249 70 184 249 70 185 249 70 186 249 70 187 249 70 188 249 70 189 249 70 190 249 70 191 249 70 193 249 70 194 249 70 195 249 70 196 249 70 197 249 70 198 249 70 199 249 70 200 249 70 201 249 70 202 249 70 203 249 70 204 249 70 205 249 70 206 249 70 207 249 70 209 249 70 210 249 70 211 249 70 212 249 70 213 249 70 214 249 70 215 249 70 216 249 70 217 249 70 218 249 70 219 249 70 220 249 70 221 249 70 222 249 70 223 249 70 225 249 70 226 249 70 227 249 70 229 249 70 230 249 70 231 249 70 232 249 70 233 249 70 234 249 70 235 249 70 236 249 70 237 249 70 238 249 70 239 249 70 240 249 70 242 249 70 243 249 70 244 249 70 245 249 70 246 249 70 247 249 70 248 249 70 249 249 70 249 248 70 250 248 70 251 248 70 252 248 70 252 247 70 253 247 70 255 247 70
0 250 70 1 250 70 2 250 70 3 250 70 4 250 70 5 250 70 6 250 70 7 250 70 8 250 70 9 250 70 10 250 70 11 250 70 12 250 70 13 250 70 14 250 70 16 250 70 17 250 70 18 250 70 19 250 70 20 250 70 21 250 70 22 250 70 23 250 70 24 250 70 25 250 70 26 250 70 27 250 70 28 250 70 29 250 70 30 250 70 32 250 70 33 250 70 34 250 70 35 250 70 36 250 70 37 250 70 38 250 70 39 250 70 40 250 70 41 250 70 42 250 70 43 250 70 44 250 70 45 250 70 46 250 70 48 250 70 49 250 70 50 250 70 51 250 70 52 250 70 53 250 70 54 250 70 55 250 70 56 250 70 57 250 70 58 250 70 59 250 70 60 250 70 61 250 70 62 250 70 64 250 70 65 250 70 66 250 70 67 250 70 68 250 70 69 250 70 70 250 70 71 250 70 72 250 70 73 250 70 74 250 70 75 250 70 76 250 70 77 250 70 78 250 70 80 250 70 81 250 70 82 250 70 83 250 70 84 250 70 85 250 70 86 250 70 87 250 70 88 250 70 89 250 70 90 250 70 91 250 70 92 250 70 93 250 70 94 250 70 96 250 70 97 250 70 98 250 70 99 250 70 100 250 70 101 250 70 102 250 70 103 250 70 104 250 70 105 250 70 106 250 70 107 250 70 108 250 70 109 250 70 110 250 70 112 250 70 113 250 70 114 250 70 115 250 70 116 250 70 117 250 70 118 250 70 119 250 70 120 250 70 121 250 70 122 250 70 123 250 70 124 250 70 125 250 70 126 250 70 128 250 70 129 250 70 130 250 70 131 250 70 132 250 70 133 250 70 134 250 70 135 250 70 136 250 70 137 250 70 138 250 70 139 250 70 140 250 70 141 250 70 142 250 70 144 250 70 145 250 70 146 250 70 147 250 70 148 250 70 149 250 70 150 250 70 151 250 70 153 250 70 154 250 70 155 250 70 156 250 70 157 250 70 158 250 70 159 250 70 161 250 70 162 250 70 163 250 70 164 250 70 165 250 70 166 250 70 167 250 70 168 250 70 169 250 70 170 250 70 171 250 70 172 250 70 173 250 70 174 250 70 175 250 70 177 250 70 178 250 70 179 250 70 180 250 70 181 250 70 182 250 70 183 250 70 184 250 70 185 250 70 186 250 70 187 250 70 188 250 70 189 250 70 190 250 70 191 250 70 193 250 70 194 250 70 195 250 70 196 250 70 197 250 70 198 250 70 199 250 70 200 250 70 201 250 70 202 250 70 203 250 70 204 250 70 205 250 70 206 250 70 207 250 70 209 250 70 210 250 70 211 250 70 212 250 70 213 250 70 214 250 70 215 250 70 216 250 70 217 250 70 218 250 70 219 250 70 220 250 70 221 250 70 222 250 70 223 250 70 225 250 70 226 250 70 227 250 70 228 250 70 229 250 70 230 250 70 231 250 70 232 250 70 233 250 70 234 250 70 235 250 70 236 250 70 237 250 70 238 250 70 239 250 70 241 250 70 242 250 70 243 250 70 244 250 70 245 250 70 246 250 70 247 250 70 248 250 70 249 250 70 250 250 70 251 250 70 252 250 70 252 249 70 253 249 70 255 249 70
0 251 70 1 251 70 2 251 70 3 251 70 4 251 70 5 251 70 6 251 70 7 251 70 8 251 70 9 251 70 10 251 70 11 251 70 12 251 70 13 251 70 14 251 70 16 251 70 17 251 70 18 251 70 19 251 70 20 251 70 21 251 70 22 251 70 23 251 70 24 251 70 25 251 70 26 251 70 27 251 70 28 251 70 29 251 70 30 251 70 32 251 70 33 251 70 34 251 70 35 251 70 36 251 70 37 251 70 38 251 70 39 251 70 40 251 70 41 251 70 42 251 70 43 251 70 44 251 70 45 251 70 46 251 70 48 251 70 49 251 70 50 251 70 51 251 70 52 251 70 53 251 70 54 251 70 55 251 70 56 251 70 57 251 70 58 251 70 59 251 70 60 251 70 61 251 70 62 251 70 64 251 70 65 251 70 66 251 70 67 251 70 68 251 70 69 251 70 70 251 70 71 251 70 72 251 70 73 251 70 74 251 70 75 251 70 76 251 70 77 251 70 78 251 70 80 251 70 81 251 70 82 251 70 83 251 70 84 251 70 85 251 70 86 251 70 87 251 70 88 251 70 89 251 70 90 251 70 91 251 70 92 251 70 93 251 70 94 251 70 96 251 70 97 251 70 98 251 70 99 251 70 100 251 70 101 251 70 102 251 70 103 251 70 104 251 70 105 251 70 106 251 70 107 251 70 108 251 70 109 251 70 110 251 70 112 251 70 113 251 70 114 251 70 115 251 70 116 251 70 117 251 70 118 251 70 119 251 70 120 251 70 121 251 70 122 251 70 123 251 70 124 251 70 125 251 70 126 251 70 128 251 70 129 251 70 130 251 70 131 251 70 132 251 70 133 251 70 134 251 70 135 251 70 136 251 70 137 251 70 138 251 70 139 251 70 140 251 70 141 251 70 142 251 70 144 251 70 145 251 70 146 251 70 147 251 70 148 251 70 149 251 70 150 251 70 151 251 70 152 251 70 153 251 70 154 251 70 155 251 70 156 251 70 157 251 70 158 251 70 160 251 70 161 251 70 162 251 70 163 251 70 164 251 70 165 251 70 166 251 70 167 251 70 168 251 70 169 251 70 170 251 70 171 251 70 172 251 70 173 251 70 174 251 70 176 251 70 177 251 70 178 251 70 179 251 70 180 251 70 181 251 70 183 251 70 184 251 70 185 251 70 186 251 70 187 251 70 188 251 70 189 251 70 190 251 70 191 251 70 193 251 70 194 251 70 195 251 70 196 251 70 197 251 70 198 251 70 199 251 70 200 251 70 201 251 70 202 251 70 203 251 70 204 251 70 205 251 70 206 251 70 207 251 70 209 251 70 210 251 70 211 251 70 212 251 70 213 251 70 214 251 70 215 251 70 216 251 70 217 251 70 218 251 70 219 251 70 220 251 70 221 251 70 222 251 70 223 251 70 225 251 70 226 251 70 227 251 70 228 251 70 229 251 70 230 251 70 231 251 70 232 251 70 233 251 70 234 251 70 235 251 70 236 251 70 237 251 70 238 251 70 239 251 70 241 251 70 242 251 70 243 251 70 244 251 70 245 251 70 246 251 70 247 251 70 248 251 70 249 251 70 250 251 70 251 251 70 252 251 70 252 250 70 253 250 70 255 249 70
0 252 70 1 252 70 2 252 70 3 252 70 4 252 70 5 252 70 6 252 70 7 252 70 8 252 70 9 252 70 10 252 70 11 252 70 12 252 70 13 252 70 14 252 70 16 252 70 17 252 70 18 252 70 19 252 70 20 252 70 21 252 70 22 252 70 23 252 70 24 252 70 25 252 70 26 252 70 27 252 70 28 252 70 29 252 70 30 252 70 32 252 70 33 252 70 34 252 70 35 252 70 36 252 70 37 252 70 38 252 70 39 252 70 40 252 70 41 252 70 42 252 70 43 252 70 44 252 70 45 252 70 46 252 70 48 252 70 49 252 70 50 252 70 51 252 70 52 252 70 53 252 70 54 252 70 55 252 70 56 252 70 57 252 70 58 252 70 59 252 70 60 252 70 61 252 70 62 252 70 64 252 70 65 252 70 66 252 70 67 252 70 68 252 70 69 252 70 70 252 70 71 252 70 72 252 70 73 252 70 74 252 70 75 252 70 76 252 70 77 252 70 78 252 70 80 252 70 81 252 70 82 252 70 83 252 70 84 252 70 85 252 70 86 252 70 87 252 70 88 252 70 89 252 70 90 252 70 91 252 70 92 252 70 93 252 70 94 252 70 96 252 70 97 252 70 98 252 70 99 252 70 100 252 70 101 252 70 102 252 70 103 252 70 104 252 70 105 252 70 106 252 70 107 252 70 108 252 70 109 252 70 110 252 70 112 252 70 113 252 70 114 252 70 115 252 70 116 252 70 117 252 70 118 252 70 119 252 70 120 252 70 121 252 70 122 252 70 123 252 70 124 252 70 125 252 70 126 252 70 128 252 70 129 252 70 130 252 70 131 252 70 132 252 70 133 252 70 134 252 70 135 252 70 136 252 70 137 252 70 138 252 70 139 252 70 140 252 70 141 252 70 142 252 70 144 252 70 145 252 70 146 252 70 147 252 70 148 252 70 149 252 70 150 252 70 151 252 70 152 252 70 153 252 70 154 252 70 155 252 70 156 252 70 157 252 70 158 252 70 160 252 70 161 252 70 162 252 70 163 252 70 164 252 70 165 252 70 166 252 70 167 252 70 168 252 70 169 252 70 170 252 70 171 252 70 172 252 70 173 252 70 174 252 70 176 252 70 177 252 70 178 252 70 179 252 70 180 252 70 181 252 70 182 252 70 183 252 70 184 252 70 185 252 70 186 252 70 187 252 70 188 252 70 189 252 70 190 252 70 192 252 70 193 252 70 194 252 70 195 252 70 196 252 70 197 252 70 198 252 70 199 252 70 200 252 70 201 252 70 202 252 70 203 252 70 204 252 70 205 252 70 206 252 70 208 252 70 209 252 70 210 252 70 211 252 70 212 252 70 213 252 70 214 252 70 215 252 70 216 252 70 217 252 70 218 252 70 219 252 70 220 252 70 221 252 70 222 252 70 224 252 70 225 252 70 226 252 70 227 252 70 228 252 70 229 252 70 230 252 70 231 252 70 232 252 70 233 252 70 234 252 70 235 252 70 236 252 70 237 252 70 238 252 70 240 252 70 241 252 70 242 252 70 243 252 70 244 252 70 245 252 70 246 252 70 247 252 70 248 252 70 249 252 70 250 252 70 251 252 70 252 252 70 253 252 70 255 252 70
0 253 70 1 253 70 2 253 70 3 253 70 4 253 70 5 253 70 6 253 70 7 253 70 8 253 70 9 253 70 10 253 70 11 253 70 12 253 70 13 253 70 14 253 70 16 253 70 17 253 70 18 253 70 19 253 70 20 253 70 21 253 70 22 253 70 23 253 70 24 253 70 25 253 70 26 253 70 27 253 70 28 253 70 29 253 70 30 253 70 32 253 70 33 253 70 34 253 70 35 253 70 36 253 70 37 253 70 38 253 70 39 253 70 40 253 70 41 253 70 42 253 70 43 253 70 44 253 70 45 253 70 46 253 70 48 253 70 49 253 70 50 253 70 51 253 70 52 253 70 53 253 70 54 253 70 55 253 70 56 253 70 57 253 70 58 253 70 59 253 70 60 253 70 61 253 70 62 253 70 64 253 70 65 253 70 66 253 70 67 253 70 68 253 70 69 253 70 70 253 70 71 253 70 72 253 70 73 253 70 74 253 70 75 253 70 76 253 70 77 253 70 78 253 70 80 253 70 81 253 70 82 253 70 83 253 70 84 253 70 85 253 70 86 253 70 87 253 70 88 253 70 89 253 70 90 253 70 91 253 70 92 253 70 93 253 70 94 253 70 96 253 70 97 253 70 98 253 70 99 253 70 100 253 70 101 253 70 102 253 70 103 253 70 104 253 70 105 253 70 106 253 70 107 253 70 108 253 70 109 253 70 110 253 70 112 253 70 113 253 70 114 253 70 115 253 70 116 253 70 117 253 70 118 253 70 119 253 70 120 253 70 121 253 70 122 253 70 123 253 70 124 253 70 125 253 70 126 253 70 128 253 70 129 253 70 130 253 70 131 253 70 132 253 70 133 253 70 134 253 70 135 253 70 136 253 70 137 253 70 138 253 70 139 253 70 140 253 70 141 253 70 142 253 70 144 253 70 145 253 70 146 253 70 147 253 70 148 253 70 149 253 70 150 253 70 151 253 70 152 253 70 153 253 70 154 253 70 155 253 70 156 253 70 157 253 70 158 253 70 160 253 70 161 253 70 162 253 70 163 253 70 164 253 70 165 253 70 166 253 70 167 253 70 168 253 70 169 253 70 170 253 70 171 253 70 172 253 70 173 253 70 174 253 70 176 253 70 177 253 70 178 253 70 179 253 70 180 253 70 181 253 70 182 253 70 183 253 70 184 253 70 185 253 70 186 253 70 187 253 70 188 253 70 189 253 70 190 253 70 192 253 70 193 253 70 194 253 70 195 253 70 196 253 70 197 253 70 198 253 70 199 253 70 200 253 70 201 253 70 202 253 70 203 253 70 204 253 70 205 253 70 206 253 70 208 253 70 209 253 70 210 253 70 211 253 70 212 253 70 213 253 70 214 253 70 215 253 70 216 253 70 217 253 70 218 253 70 219 253 70 220 253 70 221 253 70 222 253 70 224 253 70 225 253 70 226 253 70 227 253 70 228 253 70 229 253 70 230 253 70 231 253 70 232 253 70 233 253 70 234 253 70 235 253 70 236 253 70 237 253 70 238 253 70 240 253 70 241 253 70 242 253 70 243 253 70 244 253 70 245 253 70 246 253 70 247 253 70 248 253 70 249 253 70 250 253 70 251 253 70 252 253 70 253 253 70 255 253 70
0 255 69 0 255 69 1 255 70 2 255 69 3 255 70 5 255 69 6 255 70 7 255 69 8 255 69 8 255 70 9 255 70 10 255 70 12 255 70 13 255 70 14 255 70 16 255 70 16 255 70 17 255 69 18 255 70 19 255 70 21 255 70 22 255 70 23 255 69 24 255 70 24 255 70 25 255 70 26 255 70 28 255 70 29 255 70 30 255 70 32 255 70 32 255 70 33 255 70 34 255 70 35 255 70 37 255 69 38 255 70 39 255 70 40 255 70 40 255 70 41 255 70 43 255 70 44 255 69 45 255 70 46 255 70 48 255 70 48 255 70 49 255 70 50 255 70 51 255 70 53 255 70 54 255 70 55 255 70 56 255 70 56 255 70 57 255 70 59 255 69 60 255 69 61 255 69 62 255 70 64 255 70 65 255 69 65 255 70 66 255 70 67 255 70 68 255 69 70 255 70 71 255 70 72 255 70 72 255 70 74 255 70 75 255 70 76 255 70 77 255 70 78 255 70 80 255 70 80 255 70 81 255 70 82 255 70 84 255 70 84 255 70 86 255 70 87 255 70 88 255 70 88 255 70 90 255 70 91 255 70 92 255 70 93 255 70 94 255 70 96 255 70 96 255 70 97 255 70 98 255 70 100 255 70 100 255 70 102 255 70 103 255 70 104 255 70 104 255 70 106 255 70 107 255 70 108 255 70 109 255 70 110 255 70 112 255 70 112 255 70 113 255 70 114 255 70 116 255 70 116 255 70 118 255 70 119 255 70 120 255 70 120 255 70 122 255 70 123 255 70 124 255 70 125 255 70 126 255 70 128 255 70 129 255 70 129 255 70 130 255 70 132 255 70 133 255 70 134 255 70 135 255 70 135 255 70 136 255 70 137 255 70 139 255 70 140 255 70 141 255 70 142 255 70 144 255 70 145 255 70 145 255 70 146 255 70 148 255 70 149 255 70 150 255 70 151 255 70 151 255 70 152 255 70 153 255 70 154 255 70 156 255 70 157 255 70 158 255 70 160 255 70 161 255 70 161 255 70 162 255 70 164 255 70 165 255 70 166 255 70 167 255 70 167 255 70 168 255 70 169 255 70 170 255 70 172 255 70 173 255 70 174 255 70 176 255 70 177 255 70 177 255 70 178 255 70 180 255 70 181 255 70 182 255 70 183 255 70 183 255 70 184 255 70 185 255 70 186 255 70 188 255 70 189 255 70 190 255 70 192 255 70 193 255 70 193 255 70 194 255 70 196 255 70 197 255 70 198 255 70 199 255 70 200 255 70 200 255 70 201 255 70 202 255 70 204 255 70 205 255 70 206 255 70 208 255 70 209 255 70 209 255 70 210 255 70 212 255 70 213 255 70 214 255 70 215 255 70 216 255 70 216 255 70 217 255 70 218 255 70 220 255 70 221 255 70 222 255 70 224 255 70 225 255 70 225 255 70 226 255 70 228 255 70 229 255 70 230 255 70 231 255 70 232 255 70 232 255 70 233 255 70 234 255 70 236 255 70 237 255 70 238 255 70 240 255 70 241 255 70 241 255 70 242 255 70 244 255 70 245 255 70 246 255 70 247 255 70 248 255 70 249 255 70 249 255 70 250 255 70 252 255 70 253 255 70 255 255 70
