P3
240 180
255
0 0 255 0 0 255 0 0 255 0 0 255 0 0 255 0 0 255 0 0 255 1 0 255 1 0 255 1 0 255 1 0 255 1 0 255 1 0 255 2 0 255 2 0 255 2 0 255 2 0 255 2 0 255 2 0 255 3 0 255 3 0 255 3 0 255 3 0 255 3 0 255 3 0 255 4 0 255 4 0 255 4 0 255 4 0 255 4 0 255 5 0 255 5 0 255 5 0 255 5 0 255 5 0 255 5 0 255 5 0 255 6 0 255 6 0 255 6 0 255 6 0 255 6 0 255 6 0 255 7 0 255 7 0 255 7 0 255 7 0 255 7 0 255 8 0 255 8 0 255 8 0 255 8 0 255 8 0 255 8 0 255 8 0 255 9 0 255 9 0 255 9 0 255 9 0 255 9 0 255 10 0 255 10 0 255 10 0 255 10 0 255 10 0 255 10 0 255 10 0 255 11 0 255 11 0 255 11 0 255 11 0 255 11 0 255 11 0 255 12 0 255 12 0 255 12 0 255 12 0 255 12 0 255 13 0 255 13 0 255 13 0 255 13 0 255 13 0 255 13 0 255 13 0 255 14 0 255 14 0 255 14 0 255 14 0 255 14 0 255 15 0 255 15 0 255 15 0 255 15 0 255 15 0 255 15 0 255 16 0 255 16 0 255 16 0 255 16 0 255 16 0 255 16 0 255 16 0 255 17 0 255 17 0 255 17 0 255 17 0 255 17 0 255 18 0 255 18 0 255 18 0 255 18 0 255 18 0 255 18 0 255 18 0 255 19 0 255 19 0 255 19 0 255 19 0 255 19 0 255 20 128 255 20 129 255 20 130 255 20 131 255 20 132 255 20 133 255 21 134 255 21 135 255 21 136 255 21 137 255 21 138 255 21 139 255 21 140 255 22 141 255 22 142 255 22 144 255 22 145 255 22 146 255 23 147 255 23 148 255 23 149 255 23 150 255 23 151 255 23 152 255 24 153 255 24 154 255 24 155 255 24 156 255 24 157 255 24 158 255 25 160 255 25 161 255 25 162 255 25 163 255 25 164 255 25 165 255 26 166 255 26 167 255 26 168 255 26 169 255 26 170 255 26 171 255 26 172 255 27 173 255 27 174 255 27 176 255 27 177 255 27 178 255 28 179 255 28 180 255 28 181 255 28 182 255 28 183 255 28 184 255 29 185 255 29 186 255 29 187 255 29 188 255 29 189 255 29 190 255 30 192 255 30 193 255 30 194 255 30 195 255 30 196 255 30 197 255 31 198 255 31 199 255 31 200 255 31 201 255 31 202 255 31 203 255 32 204 255 32 205 255 32 206 255 32 208 255 32 209 255 32 210 255 33 211 255 33 212 255 33 213 255 33 214 255 33 215 255 33 216 255 34 217 255 34 218 255 34 219 255 34 220 255 34 221 255 34 222 255 35 224 255 35 225 255 35 226 255 35 227 255 35 228 255 35 229 255 36 230 255 36 231 255 36 232 255 36 233 255 36 234 255 36 235 255 37 236 255 37 237 255 37 238 255 37 240 255 37 241 255 37 242 255 38 243 255 38 244 255 38 245 255 38 246 255 38 247 255 38 248 255 39 249 255 39 250 255 39 251 255 39 252 255 39 253 255 40 255 255
0 0 253 0 0 253 0 0 253 0 0 253 0 0 253 0 0 253 0 0 253 1 0 253 1 0 253 1 0 253 1 0 253 1 0 253 1 0 253 2 0 253 2 0 253 2 0 253 2 0 253 2 0 253 2 0 253 3 0 253 3 0 253 3 0 253 3 0 253 3 0 253 3 0 253 4 0 253 4 0 253 4 0 253 4 0 253 4 0 253 5 0 253 5 0 253 5 0 253 5 0 253 5 0 253 5 0 253 5 0 253 6 0 253 6 0 253 6 0 253 6 0 253 6 0 253 6 0 253 7 0 253 7 0 253 7 0 253 7 0 253 7 0 253 8 0 253 8 0 253 8 0 253 8 0 253 8 0 253 8 0 253 8 0 253 9 0 253 9 0 253 9 0 253 9 0 253 9 0 253 10 0 253 10 0 253 10 0 253 10 0 253 10 0 253 10 0 253 10 0 253 11 0 253 11 0 253 11 0 253 11 0 253 11 0 253 11 0 253 12 0 253 12 0 253 12 0 253 12 0 253 12 0 253 13 0 253 13 0 253 13 0 253 13 0 253 13 0 253 13 0 253 13 0 253 14 0 253 14 0 253 14 0 253 14 0 253 14 0 253 15 0 253 15 0 253 15 0 253 15 0 253 15 0 253 15 0 253 16 0 253 16 0 253 16 0 253 16 0 253 16 0 253 16 0 253 16 0 253 17 0 253 17 0 253 17 0 253 17 0 253 17 0 253 18 0 253 18 0 253 18 0 253 18 0 253 18 0 253 18 0 253 18 0 253 19 0 253 19 0 253 19 0 253 19 0 253 19 0 253 20 128 253 20 129 253 20 130 253 20 131 253 20 132 253 20 133 253 21 134 253 21 135 253 21 136 253 21 137 253 21 138 253 21 139 253 21 140 253 22 141 253 22 142 253 22 144 253 22 145 253 22 146 253 23 147 253 23 148 253 23 149 253 23 150 253 23 151 253 23 152 253 24 153 253 24 154 253 24 155 253 24 156 253 24 157 253 24 158 253 25 160 253 25 161 253 25 162 253 25 163 253 25 164 253 25 165 253 26 166 253 26 167 253 26 168 253 26 169 253 26 170 253 26 171 253 26 172 253 27 173 253 27 174 253 27 176 253 27 177 253 27 178 253 28 179 253 28 180 253 28 181 253 28 182 253 28 183 253 28 184 253 29 185 253 29 186 253 29 187 253 29 188 253 29 189 253 29 190 253 30 192 253 30 193 253 30 194 253 30 195 253 30 196 253 30 197 253 31 198 253 31 199 253 31 200 253 31 201 253 31 202 253 31 203 253 32 204 253 32 205 253 32 206 253 32 208 253 32 209 253 32 210 253 33 211 253 33 212 253 33 213 253 33 214 253 33 215 253 33 216 253 34 217 253 34 218 253 34 219 253 34 220 253 34 221 253 34 222 253 35 224 253 35 225 253 35 226 253 35 227 253 35 228 253 35 229 253 36 230 253 36 231 253 36 232 253 36 233 253 36 234 253 36 235 253 37 236 253 37 237 253 37 238 253 37 240 253 37 241 253 37 242 253 38 243 253 38 244 253 38 245 253 38 246 253 38 247 253 38 248 253 39 249 253 39 250 253 39 251 253 39 252 253 39 253 253 40 255 253
0 0 252 0 0 252 0 0 252 0 0 252 0 0 252 0 0 252 0 0 252 1 0 252 1 0 252 1 0 252 1 0 252 1 0 252 1 0 252 2 0 252 2 0 252 2 0 252 2 0 252 2 0 252 2 0 252 3 0 252 3 0 252 3 0 252 3 0 252 3 0 252 3 0 252 4 0 252 4 0 252 4 0 252 4 0 252 4 0 252 5 0 252 5 0 252 5 0 252 5 0 252 5 0 252 5 0 252 5 0 252 6 0 252 6 0 252 6 0 252 6 0 252 6 0 252 6 0 252 7 0 252 7 0 252 7 0 252 7 0 252 7 0 252 8 0 252 8 0 252 8 0 252 8 0 252 8 0 252 8 0 252 8 0 252 9 0 252 9 0 252 9 0 252 9 0 252 9 0 252 10 0 252 10 0 252 10 0 252 10 0 252 10 0 252 10 0 252 10 0 252 11 0 252 11 0 252 11 0 252 11 0 252 11 0 252 11 0 252 12 0 252 12 0 252 12 0 252 12 0 252 12 0 252 13 0 252 13 0 252 13 0 252 13 0 252 13 0 252 13 0 252 13 0 252 14 0 252 14 0 252 14 0 252 14 0 252 14 0 252 15 0 252 15 0 252 15 0 252 15 0 252 15 0 252 15 0 252 16 0 252 16 0 252 16 0 252 16 0 252 16 0 252 16 0 252 16 0 252 17 0 252 17 0 252 17 0 252 17 0 252 17 0 252 18 0 252 18 0 252 18 0 252 18 0 252 18 0 252 18 0 252 18 0 252 19 0 252 19 0 252 19 0 252 19 0 252 19 0 252 20 128 252 20 129 252 20 130 252 20 131 252 20 132 252 20 133 252 21 134 252 21 135 252 21 136 252 21 137 252 21 138 252 21 139 252 21 140 252 22 141 252 22 142 252 22 144 252 22 145 252 22 146 252 23 147 252 23 148 252 23 149 252 23 150 252 23 151 252 23 152 252 24 153 252 24 154 252 24 155 252 24 156 252 24 157 252 24 158 252 25 160 252 25 161 252 25 162 252 25 163 252 25 164 252 25 165 252 26 166 252 26 167 252 26 168 252 26 169 252 26 170 252 26 171 252 26 172 252 27 173 252 27 174 252 27 176 252 27 177 252 27 178 252 28 179 252 28 180 252 28 181 252 28 182 252 28 183 252 28 184 252 29 185 252 29 186 252 29 187 252 29 188 252 29 189 252 29 190 252 30 192 252 30 193 252 30 194 252 30 195 252 30 196 252 30 197 252 31 198 252 31 199 252 31 200 252 31 201 252 31 202 252 31 203 252 32 204 252 32 205 252 32 206 252 32 208 252 32 209 252 32 210 252 33 211 252 33 212 252 33 213 252 33 214 252 33 215 252 33 216 252 34 217 252 34 218 252 34 219 252 34 220 252 34 221 252 34 222 252 35 224 252 35 225 252 35 226 252 35 227 252 35 228 252 35 229 252 36 230 252 36 231 252 36 232 252 36 233 252 36 234 252 36 235 252 37 236 252 37 237 252 37 238 252 37 240 252 37 241 252 37 242 252 38 243 252 38 244 252 38 245 252 38 246 252 38 247 252 38 248 252 39 249 252 39 250 252 39 251 252 39 252 252 39 253 252 40 255 252
0 0 251 0 0 251 0 0 251 0 0 251 0 0 251 0 0 251 0 0 251 1 0 251 1 0 251 1 0 251 1 0 251 1 0 251 1 0 251 2 0 251 2 0 251 2 0 251 2 0 251 2 0 251 2 0 251 3 0 251 3 0 251 3 0 251 3 0 251 3 0 251 3 0 251 4 0 251 4 0 251 4 0 251 4 0 251 4 0 251 5 0 251 5 0 251 5 0 251 5 0 251 5 0 251 5 0 251 5 0 251 6 0 251 6 0 251 6 0 251 6 0 251 6 0 251 6 0 251 7 0 251 7 0 251 7 0 251 7 0 251 7 0 251 8 0 251 8 0 251 8 0 251 8 0 251 8 0 251 8 0 251 8 0 251 9 0 251 9 0 251 9 0 251 9 0 251 9 0 251 10 1 251 10 1 251 10 1 251 10 1 251 10 1 251 10 1 251 10 1 251 11 1 251 11 1 251 11 1 251 11 1 251 11 1 251 11 1 251 12 1 251 12 1 251 12 1 251 12 1 251 12 1 251 13 1 251 13 1 251 13 1 251 13 1 251 13 1 251 13 1 251 13 1 251 14 1 251 14 1 251 14 1 251 14 1 251 14 1 251 15 1 251 15 1 251 15 1 251 15 1 251 15 1 251 15 1 251 16 1 251 16 1 251 16 1 251 16 1 251 16 1 251 16 1 251 16 1 251 17 1 251 17 1 251 17 1 251 17 1 251 17 1 251 18 1 251 18 1 251 18 1 251 18 1 251 18 1 251 18 1 251 18 1 251 19 1 251 19 1 251 19 1 251 19 1 251 19 1 251 20 129 251 20 130 251 20 131 251 20 132 251 20 133 251 20 134 251 21 135 251 21 136 251 21 137 251 21 138 251 21 139 251 21 140 251 21 141 251 22 142 251 22 143 251 22 145 251 22 146 251 22 147 251 23 148 251 23 149 251 23 150 251 23 151 251 23 152 251 23 153 251 24 154 251 24 155 251 24 156 251 24 157 251 24 158 251 24 159 251 25 161 251 25 162 251 25 163 251 25 164 251 25 165 251 25 166 251 26 167 251 26 168 251 26 169 251 26 170 251 26 171 251 26 172 251 26 173 251 27 174 251 27 175 251 27 177 251 27 178 251 27 179 251 28 180 251 28 181 251 28 182 251 28 183 251 28 184 251 28 185 251 29 186 251 29 187 251 29 188 251 29 189 251 29 190 251 29 191 251 30 192 251 30 193 251 30 194 251 30 195 251 30 196 251 30 197 251 31 198 251 31 199 251 31 200 251 31 201 251 31 202 251 31 203 251 32 204 251 32 205 251 32 206 251 32 208 251 32 209 251 32 210 251 33 211 251 33 212 251 33 213 251 33 214 251 33 215 251 33 216 251 34 217 251 34 218 251 34 219 251 34 220 251 34 221 251 34 222 251 35 224 251 35 225 251 35 226 251 35 227 251 35 228 251 35 229 251 36 230 251 36 231 251 36 232 251 36 233 251 36 234 251 36 235 251 37 236 251 37 237 251 37 238 251 37 240 251 37 241 251 37 242 251 38 243 251 38 244 251 38 245 251 38 246 251 38 247 251 38 248 251 39 249 251 39 250 251 39 251 251 39 252 251 39 253 251 40 255 251
0 0 250 0 0 250 0 0 250 0 0 250 0 0 250 0 0 250 0 0 250 1 0 250 1 0 250 1 0 250 1 0 250 1 0 250 1 0 250 2 0 250 2 0 250 2 0 250 2 0 250 2 0 250 2 0 250 3 0 250 3 0 250 3 0 250 3 0 250 3 0 250 3 0 250 4 0 250 4 0 250 4 0 250 4 0 250 4 0 250 5 0 250 5 0 250 5 0 250 5 0 250 5 0 250 5 0 250 5 0 250 6 0 250 6 0 250 6 0 250 6 0 250 6 0 250 6 0 250 7 0 250 7 0 250 7 0 250 7 0 250 7 0 250 8 1 250 8 1 250 8 1 250 8 1 250 8 1 250 8 1 250 8 1 250 9 1 250 9 1 250 9 1 250 9 1 250 9 1 250 10 1 250 10 1 250 10 1 250 10 1 250 10 1 250 10 1 250 10 1 250 11 1 250 11 1 250 11 1 250 11 1 250 11 1 250 11 1 250 12 1 250 12 1 250 12 1 250 12 1 250 12 1 250 13 1 250 13 1 250 13 1 250 13 1 250 13 1 250 13 1 250 13 1 250 14 1 250 14 1 250 14 1 250 14 1 250 14 1 250 15 1 250 15 1 250 15 1 250 15 1 250 15 1 250 15 1 250 16 2 250 16 2 250 16 2 250 16 2 250 16 2 250 16 2 250 16 2 250 17 2 250 17 2 250 17 2 250 17 2 250 17 2 250 18 2 250 18 2 250 18 2 250 18 2 250 18 2 250 18 2 250 18 2 250 19 2 250 19 2 250 19 2 250 19 2 250 19 2 250 20 130 250 20 131 250 20 132 250 20 133 250 20 134 250 20 135 250 21 136 250 21 137 250 21 138 250 21 139 250 21 140 250 21 141 250 21 142 250 22 143 250 22 144 250 22 146 250 22 147 250 22 148 250 23 149 250 23 150 250 23 151 250 23 152 250 23 153 250 23 154 250 24 155 250 24 155 250 24 156 250 24 157 250 24 158 250 24 159 250 25 161 250 25 162 250 25 163 250 25 164 250 25 165 250 25 166 250 26 167 250 26 168 250 26 169 250 26 170 250 26 171 250 26 172 250 26 173 250 27 174 250 27 175 250 27 177 250 27 178 250 27 179 250 28 180 250 28 181 250 28 182 250 28 183 250 28 184 250 28 185 250 29 186 250 29 187 250 29 188 250 29 189 250 29 190 250 29 191 250 30 193 250 30 194 250 30 195 250 30 196 250 30 197 250 30 198 250 31 199 250 31 200 250 31 201 250 31 202 250 31 203 250 31 204 250 32 205 250 32 205 250 32 206 250 32 208 250 32 209 250 32 210 250 33 211 250 33 212 250 33 213 250 33 214 250 33 215 250 33 216 250 34 217 250 34 218 250 34 219 250 34 220 250 34 221 250 34 222 250 35 224 250 35 225 250 35 226 250 35 227 250 35 228 250 35 229 250 36 230 250 36 231 250 36 232 250 36 233 250 36 234 250 36 235 250 37 236 250 37 237 250 37 238 250 37 240 250 37 241 250 37 242 250 38 243 250 38 244 250 38 245 250 38 246 250 38 247 250 38 248 250 39 249 250 39 250 250 39 251 250 39 252 250 39 253 250 40 255 250
0 0 249 0 0 249 0 0 249 0 0 249 0 0 249 0 0 249 0 0 249 1 0 249 1 0 249 1 0 249 1 0 249 1 0 249 1 0 249 2 0 249 2 0 249 2 0 249 2 0 249 2 0 249 2 0 249 3 0 249 3 0 249 3 0 249 3 0 249 3 0 249 3 0 249 4 0 249 4 0 249 4 0 249 4 0 249 4 0 249 5 0 249 5 0 249 5 0 249 5 0 249 5 0 249 5 1 249 5 1 249 6 1 249 6 1 249 6 1 249 6 1 249 6 1 249 6 1 249 7 1 249 7 1 249 7 1 249 7 1 249 7 1 249 8 1 249 8 1 249 8 1 249 8 1 249 8 1 249 8 1 249 8 1 249 9 1 249 9 1 249 9 1 249 9 1 249 9 1 249 10 1 249 10 1 249 10 1 249 10 1 249 10 1 249 10 1 249 10 1 249 11 1 249 11 1 249 11 2 249 11 2 249 11 2 249 11 2 249 12 2 249 12 2 249 12 2 249 12 2 249 12 2 249 13 2 249 13 2 249 13 2 249 13 2 249 13 2 249 13 2 249 13 2 249 14 2 249 14 2 249 14 2 249 14 2 249 14 2 249 15 2 249 15 2 249 15 2 249 15 2 249 15 2 249 15 2 249 16 2 249 16 2 249 16 2 249 16 2 249 16 2 249 16 2 249 16 2 249 17 2 249 17 3 249 17 3 249 17 3 249 17 3 249 18 3 249 18 3 249 18 3 249 18 3 249 18 3 249 18 3 249 18 3 249 19 3 249 19 3 249 19 3 249 19 3 249 19 3 249 20 131 249 20 132 249 20 133 249 20 134 249 20 135 249 20 136 249 21 137 249 21 138 249 21 139 249 21 140 249 21 141 249 21 142 249 21 143 249 22 144 249 22 145 249 22 147 249 22 148 249 22 148 249 23 149 249 23 150 249 23 151 249 23 152 249 23 153 249 23 154 249 24 155 249 24 156 249 24 157 249 24 158 249 24 159 249 24 160 249 25 162 249 25 163 249 25 164 249 25 165 249 25 166 249 25 167 249 26 168 249 26 169 249 26 170 249 26 171 249 26 172 249 26 173 249 26 174 249 27 175 249 27 176 249 27 178 249 27 179 249 27 180 249 28 181 249 28 182 249 28 183 249 28 184 249 28 184 249 28 185 249 29 186 249 29 187 249 29 188 249 29 189 249 29 190 249 29 191 249 30 193 249 30 194 249 30 195 249 30 196 249 30 197 249 30 198 249 31 199 249 31 200 249 31 201 249 31 202 249 31 203 249 31 204 249 32 205 249 32 206 249 32 207 249 32 209 249 32 210 249 32 211 249 33 212 249 33 213 249 33 214 249 33 215 249 33 216 249 33 217 249 34 218 249 34 219 249 34 219 249 34 220 249 34 221 249 34 222 249 35 224 249 35 225 249 35 226 249 35 227 249 35 228 249 35 229 249 36 230 249 36 231 249 36 232 249 36 233 249 36 234 249 36 235 249 37 236 249 37 237 249 37 238 249 37 240 249 37 241 249 37 242 249 38 243 249 38 244 249 38 245 249 38 246 249 38 247 249 38 248 249 39 249 249 39 250 249 39 251 249 39 252 249 39 253 249 40 255 249
0 0 248 0 0 248 0 0 248 0 0 248 0 0 248 0 0 248 0 0 248 1 0 248 1 0 248 1 0 248 1 0 248 1 0 248 1 0 248 2 0 248 2 0 248 2 0 248 2 0 248 2 0 248 2 0 248 3 0 248 3 0 248 3 0 248 3 0 248 3 0 248 3 0 248 4 0 248 4 0 248 4 0 248 4 0 248 4 0 248 5 1 248 5 1 248 5 1 248 5 1 248 5 1 248 5 1 248 5 1 248 6 1 248 6 1 248 6 1 248 6 1 248 6 1 248 6 1 248 7 1 248 7 1 248 7 1 248 7 1 248 7 1 248 8 1 248 8 1 248 8 1 248 8 1 248 8 1 248 8 1 248 8 1 248 9 1 248 9 1 248 9 1 248 9 1 248 9 1 248 10 2 248 10 2 248 10 2 248 10 2 248 10 2 248 10 2 248 10 2 248 11 2 248 11 2 248 11 2 248 11 2 248 11 2 248 11 2 248 12 2 248 12 2 248 12 2 248 12 2 248 12 2 248 13 2 248 13 2 248 13 2 248 13 2 248 13 2 248 13 2 248 13 2 248 14 2 248 14 2 248 14 2 248 14 2 248 14 2 248 15 3 248 15 3 248 15 3 248 15 3 248 15 3 248 15 3 248 16 3 248 16 3 248 16 3 248 16 3 248 16 3 248 16 3 248 16 3 248 17 3 248 17 3 248 17 3 248 17 3 248 17 3 248 18 3 248 18 3 248 18 3 248 18 3 248 18 3 248 18 3 248 18 3 248 19 3 248 19 3 248 19 3 248 19 3 248 19 3 248 20 131 248 20 132 248 20 133 248 20 134 248 20 135 248 20 136 248 21 137 248 21 138 248 21 139 248 21 140 248 21 141 248 21 142 248 21 143 248 22 144 248 22 145 248 22 147 248 22 148 248 22 149 248 23 150 248 23 151 248 23 152 248 23 153 248 23 154 248 23 155 248 24 156 248 24 157 248 24 158 248 24 159 248 24 160 248 24 161 248 25 162 248 25 163 248 25 164 248 25 165 248 25 166 248 25 167 248 26 168 248 26 169 248 26 170 248 26 171 248 26 172 248 26 173 248 26 174 248 27 175 248 27 176 248 27 178 248 27 179 248 27 180 248 28 181 248 28 182 248 28 183 248 28 184 248 28 185 248 28 186 248 29 187 248 29 188 248 29 189 248 29 190 248 29 191 248 29 192 248 30 193 248 30 194 248 30 195 248 30 196 248 30 197 248 30 198 248 31 199 248 31 200 248 31 201 248 31 202 248 31 203 248 31 204 248 32 205 248 32 206 248 32 207 248 32 209 248 32 210 248 32 211 248 33 212 248 33 213 248 33 214 248 33 215 248 33 216 248 33 217 248 34 218 248 34 219 248 34 220 248 34 221 248 34 222 248 34 223 248 35 224 248 35 225 248 35 226 248 35 227 248 35 228 248 35 229 248 36 230 248 36 231 248 36 232 248 36 233 248 36 234 248 36 235 248 37 236 248 37 237 248 37 238 248 37 240 248 37 241 248 37 242 248 38 243 248 38 244 248 38 245 248 38 246 248 38 247 248 38 248 248 39 249 248 39 250 248 39 251 248 39 252 248 39 253 248 40 255 248
0 0 247 0 0 247 0 0 247 0 0 247 0 0 247 0 0 247 0 0 247 1 0 247 1 0 247 1 0 247 1 0 247 1 0 247 1 0 247 2 0 247 2 0 247 2 0 247 2 0 247 2 0 247 2 0 247 3 0 247 3 0 247 3 0 247 3 0 247 3 0 247 3 0 247 4 0 247 4 0 247 4 0 247 4 1 247 4 1 247 5 1 247 5 1 247 5 1 247 5 1 247 5 1 247 5 1 247 5 1 247 6 1 247 6 1 247 6 1 247 6 1 247 6 1 247 6 1 247 7 1 247 7 1 247 7 1 247 7 1 247 7 1 247 8 1 247 8 1 247 8 1 247 8 1 247 8 1 247 8 1 247 8 2 247 9 2 247 9 2 247 9 2 247 9 2 247 9 2 247 10 2 247 10 2 247 10 2 247 10 2 247 10 2 247 10 2 247 10 2 247 11 2 247 11 2 247 11 2 247 11 2 247 11 2 247 11 2 247 12 2 247 12 2 247 12 2 247 12 2 247 12 2 247 13 2 247 13 2 247 13 3 247 13 3 247 13 3 247 13 3 247 13 3 247 14 3 247 14 3 247 14 3 247 14 3 247 14 3 247 15 3 247 15 3 247 15 3 247 15 3 247 15 3 247 15 3 247 16 3 247 16 3 247 16 3 247 16 3 247 16 3 247 16 3 247 16 3 247 17 3 247 17 3 247 17 3 247 17 3 247 17 4 247 18 4 247 18 4 247 18 4 247 18 4 247 18 4 247 18 4 247 18 4 247 19 4 247 19 4 247 19 4 247 19 4 247 19 4 247 20 132 247 20 133 247 20 134 247 20 135 247 20 136 247 20 137 247 21 138 247 21 139 247 21 140 247 21 141 247 21 142 247 21 143 247 21 144 247 22 145 247 22 145 247 22 147 247 22 148 247 22 149 247 23 150 247 23 151 247 23 152 247 23 153 247 23 154 247 23 155 247 24 156 247 24 157 247 24 158 247 24 159 247 24 160 247 24 161 247 25 163 247 25 164 247 25 165 247 25 166 247 25 167 247 25 168 247 26 169 247 26 170 247 26 171 247 26 172 247 26 173 247 26 173 247 26 174 247 27 175 247 27 176 247 27 178 247 27 179 247 27 180 247 28 181 247 28 182 247 28 183 247 28 184 247 28 185 247 28 186 247 29 187 247 29 188 247 29 189 247 29 190 247 29 191 247 29 192 247 30 194 247 30 195 247 30 196 247 30 197 247 30 198 247 30 199 247 31 200 247 31 200 247 31 201 247 31 202 247 31 203 247 31 204 247 32 205 247 32 206 247 32 207 247 32 209 247 32 210 247 32 211 247 33 212 247 33 213 247 33 214 247 33 215 247 33 216 247 33 217 247 34 218 247 34 219 247 34 220 247 34 221 247 34 222 247 34 223 247 35 225 247 35 226 247 35 227 247 35 227 247 35 228 247 35 229 247 36 230 247 36 231 247 36 232 247 36 233 247 36 234 247 36 235 247 37 236 247 37 237 247 37 238 247 37 240 247 37 241 247 37 242 247 38 243 247 38 244 247 38 245 247 38 246 247 38 247 247 38 248 247 39 249 247 39 250 247 39 251 247 39 252 247 39 253 247 40 255 247
0 0 246 0 0 246 0 0 246 0 0 246 0 0 246 0 0 246 0 0 246 1 0 246 1 0 246 1 0 246 1 0 246 1 0 246 1 0 246 2 0 246 2 0 246 2 0 246 2 0 246 2 0 246 2 0 246 3 0 246 3 0 246 3 0 246 3 0 246 3 1 246 3 1 246 4 1 246 4 1 246 4 1 246 4 1 246 4 1 246 5 1 246 5 1 246 5 1 246 5 1 246 5 1 246 5 1 246 5 1 246 6 1 246 6 1 246 6 1 246 6 1 246 6 1 246 6 1 246 7 1 246 7 1 246 7 2 246 7 2 246 7 2 246 8 2 246 8 2 246 8 2 246 8 2 246 8 2 246 8 2 246 8 2 246 9 2 246 9 2 246 9 2 246 9 2 246 9 2 246 10 2 246 10 2 246 10 2 246 10 2 246 10 2 246 10 2 246 10 3 246 11 3 246 11 3 246 11 3 246 11 3 246 11 3 246 11 3 246 12 3 246 12 3 246 12 3 246 12 3 246 12 3 246 13 3 246 13 3 246 13 3 246 13 3 246 13 3 246 13 3 246 13 3 246 14 3 246 14 3 246 14 3 246 14 4 246 14 4 246 15 4 246 15 4 246 15 4 246 15 4 246 15 4 246 15 4 246 16 4 246 16 4 246 16 4 246 16 4 246 16 4 246 16 4 246 16 4 246 17 4 246 17 4 246 17 4 246 17 4 246 17 4 246 18 4 246 18 5 246 18 5 246 18 5 246 18 5 246 18 5 246 18 5 246 19 5 246 19 5 246 19 5 246 19 5 246 19 5 246 20 133 246 20 134 246 20 135 246 20 136 246 20 137 246 20 138 246 21 139 246 21 140 246 21 141 246 21 142 246 21 143 246 21 144 246 21 144 246 22 145 246 22 146 246 22 148 246 22 149 246 22 150 246 23 151 246 23 152 246 23 153 246 23 154 246 23 155 246 23 156 246 24 157 246 24 158 246 24 159 246 24 160 246 24 161 246 24 162 246 25 164 246 25 165 246 25 166 246 25 166 246 25 167 246 25 168 246 26 169 246 26 170 246 26 171 246 26 172 246 26 173 246 26 174 246 26 175 246 27 176 246 27 177 246 27 179 246 27 180 246 27 181 246 28 182 246 28 183 246 28 184 246 28 185 246 28 186 246 28 187 246 29 188 246 29 188 246 29 189 246 29 190 246 29 191 246 29 192 246 30 194 246 30 195 246 30 196 246 30 197 246 30 198 246 30 199 246 31 200 246 31 201 246 31 202 246 31 203 246 31 204 246 31 205 246 32 206 246 32 207 246 32 208 246 32 210 246 32 210 246 32 211 246 33 212 246 33 213 246 33 214 246 33 215 246 33 216 246 33 217 246 34 218 246 34 219 246 34 220 246 34 221 246 34 222 246 34 223 246 35 225 246 35 226 246 35 227 246 35 228 246 35 229 246 35 230 246 36 231 246 36 232 246 36 232 246 36 233 246 36 234 246 36 235 246 37 236 246 37 237 246 37 238 246 37 240 246 37 241 246 37 242 246 38 243 246 38 244 246 38 245 246 38 246 246 38 247 246 38 248 246 39 249 246 39 250 246 39 251 246 39 252 246 39 253 246 40 255 246
0 0 245 0 0 245 0 0 245 0 0 245 0 0 245 0 0 245 0 0 245 1 0 245 1 0 245 1 0 245 1 0 245 1 0 245 1 0 245 2 0 245 2 0 245 2 0 245 2 0 245 2 0 245 2 0 245 3 0 245 3 0 245 3 1 245 3 1 245 3 1 245 3 1 245 4 1 245 4 1 245 4 1 245 4 1 245 4 1 245 5 1 245 5 1 245 5 1 245 5 1 245 5 1 245 5 1 245 5 1 245 6 1 245 6 1 245 6 1 245 6 1 245 6 2 245 6 2 245 7 2 245 7 2 245 7 2 245 7 2 245 7 2 245 8 2 245 8 2 245 8 2 245 8 2 245 8 2 245 8 2 245 8 2 245 9 2 245 9 2 245 9 2 245 9 2 245 9 2 245 10 3 245 10 3 245 10 3 245 10 3 245 10 3 245 10 3 245 10 3 245 11 3 245 11 3 245 11 3 245 11 3 245 11 3 245 11 3 245 12 3 245 12 3 245 12 3 245 12 3 245 12 3 245 13 3 245 13 3 245 13 4 245 13 4 245 13 4 245 13 4 245 13 4 245 14 4 245 14 4 245 14 4 245 14 4 245 14 4 245 15 4 245 15 4 245 15 4 245 15 4 245 15 4 245 15 4 245 16 4 245 16 4 245 16 4 245 16 4 245 16 4 245 16 5 245 16 5 245 17 5 245 17 5 245 17 5 245 17 5 245 17 5 245 18 5 245 18 5 245 18 5 245 18 5 245 18 5 245 18 5 245 18 5 245 19 5 245 19 5 245 19 5 245 19 5 245 19 5 245 20 133 245 20 134 245 20 135 245 20 136 245 20 137 245 20 138 245 21 139 245 21 140 245 21 141 245 21 142 245 21 143 245 21 144 245 21 145 245 22 146 245 22 147 245 22 149 245 22 150 245 22 151 245 23 152 245 23 153 245 23 153 245 23 154 245 23 155 245 23 156 245 24 157 245 24 158 245 24 159 245 24 160 245 24 161 245 24 162 245 25 164 245 25 165 245 25 166 245 25 167 245 25 168 245 25 169 245 26 170 245 26 171 245 26 172 245 26 173 245 26 174 245 26 174 245 26 175 245 27 176 245 27 177 245 27 179 245 27 180 245 27 181 245 28 182 245 28 183 245 28 184 245 28 185 245 28 186 245 28 187 245 29 188 245 29 189 245 29 190 245 29 191 245 29 192 245 29 193 245 30 194 245 30 195 245 30 196 245 30 197 245 30 198 245 30 199 245 31 200 245 31 201 245 31 202 245 31 203 245 31 204 245 31 205 245 32 206 245 32 207 245 32 208 245 32 210 245 32 211 245 32 212 245 33 213 245 33 214 245 33 214 245 33 215 245 33 216 245 33 217 245 34 218 245 34 219 245 34 220 245 34 221 245 34 222 245 34 223 245 35 225 245 35 226 245 35 227 245 35 228 245 35 229 245 35 230 245 36 231 245 36 232 245 36 233 245 36 234 245 36 234 245 36 235 245 37 236 245 37 237 245 37 238 245 37 240 245 37 241 245 37 242 245 38 243 245 38 244 245 38 245 245 38 246 245 38 247 245 38 248 245 39 249 245 39 250 245 39 251 245 39 252 245 39 253 245 40 255 245
0 0 244 0 0 244 0 0 244 0 0 244 0 0 244 0 0 244 0 0 244 1 0 244 1 0 244 1 0 244 1 0 244 1 0 244 1 0 244 2 0 244 2 0 244 2 0 244 2 0 244 2 0 244 2 1 244 3 1 244 3 1 244 3 1 244 3 1 244 3 1 244 3 1 244 4 1 244 4 1 244 4 1 244 4 1 244 4 1 244 5 1 244 5 1 244 5 1 244 5 1 244 5 1 244 5 2 244 5 2 244 6 2 244 6 2 244 6 2 244 6 2 244 6 2 244 6 2 244 7 2 244 7 2 244 7 2 244 7 2 244 7 2 244 8 2 244 8 2 244 8 2 244 8 2 244 8 3 244 8 3 244 8 3 244 9 3 244 9 3 244 9 3 244 9 3 244 9 3 244 10 3 244 10 3 244 10 3 244 10 3 244 10 3 244 10 3 244 10 3 244 11 3 244 11 3 244 11 4 244 11 4 244 11 4 244 11 4 244 12 4 244 12 4 244 12 4 244 12 4 244 12 4 244 13 4 244 13 4 244 13 4 244 13 4 244 13 4 244 13 4 244 13 4 244 14 4 244 14 4 244 14 5 244 14 5 244 14 5 244 15 5 244 15 5 244 15 5 244 15 5 244 15 5 244 15 5 244 16 5 244 16 5 244 16 5 244 16 5 244 16 5 244 16 5 244 16 5 244 17 5 244 17 6 244 17 6 244 17 6 244 17 6 244 18 6 244 18 6 244 18 6 244 18 6 244 18 6 244 18 6 244 18 6 244 19 6 244 19 6 244 19 6 244 19 6 244 19 6 244 20 134 244 20 135 244 20 136 244 20 137 244 20 138 244 20 139 244 21 140 244 21 141 244 21 142 244 21 143 244 21 144 244 21 145 244 21 146 244 22 147 244 22 148 244 22 150 244 22 151 244 22 151 244 23 152 244 23 153 244 23 154 244 23 155 244 23 156 244 23 157 244 24 158 244 24 159 244 24 160 244 24 161 244 24 162 244 24 163 244 25 165 244 25 166 244 25 167 244 25 168 244 25 168 244 25 169 244 26 170 244 26 171 244 26 172 244 26 173 244 26 174 244 26 175 244 26 176 244 27 177 244 27 178 244 27 180 244 27 181 244 27 182 244 28 183 244 28 184 244 28 185 244 28 186 244 28 186 244 28 187 244 29 188 244 29 189 244 29 190 244 29 191 244 29 192 244 29 193 244 30 195 244 30 196 244 30 197 244 30 198 244 30 199 244 30 200 244 31 201 244 31 202 244 31 203 244 31 203 244 31 204 244 31 205 244 32 206 244 32 207 244 32 208 244 32 210 244 32 211 244 32 212 244 33 213 244 33 214 244 33 215 244 33 216 244 33 217 244 33 218 244 34 219 244 34 220 244 34 220 244 34 221 244 34 222 244 34 223 244 35 225 244 35 226 244 35 227 244 35 228 244 35 229 244 35 230 244 36 231 244 36 232 244 36 233 244 36 234 244 36 235 244 36 236 244 37 237 244 37 237 244 37 238 244 37 240 244 37 241 244 37 242 244 38 243 244 38 244 244 38 245 244 38 246 244 38 247 244 38 248 244 39 249 244 39 250 244 39 251 244 39 252 244 39 253 244 40 255 244
0 0 243 0 0 243 0 0 243 0 0 243 0 0 243 0 0 243 0 0 243 1 0 243 1 0 243 1 0 243 1 0 243 1 0 243 1 0 243 2 0 243 2 0 243 2 0 243 2 1 243 2 1 243 2 1 243 3 1 243 3 1 243 3 1 243 3 1 243 3 1 243 3 1 243 4 1 243 4 1 243 4 1 243 4 1 243 4 1 243 5 1 243 5 1 243 5 2 243 5 2 243 5 2 243 5 2 243 5 2 243 6 2 243 6 2 243 6 2 243 6 2 243 6 2 243 6 2 243 7 2 243 7 2 243 7 2 243 7 2 243 7 2 243 8 3 243 8 3 243 8 3 243 8 3 243 8 3 243 8 3 243 8 3 243 9 3 243 9 3 243 9 3 243 9 3 243 9 3 243 10 3 243 10 3 243 10 3 243 10 3 243 10 4 243 10 4 243 10 4 243 11 4 243 11 4 243 11 4 243 11 4 243 11 4 243 11 4 243 12 4 243 12 4 243 12 4 243 12 4 243 12 4 243 13 4 243 13 4 243 13 5 243 13 5 243 13 5 243 13 5 243 13 5 243 14 5 243 14 5 243 14 5 243 14 5 243 14 5 243 15 5 243 15 5 243 15 5 243 15 5 243 15 5 243 15 5 243 16 6 243 16 6 243 16 6 243 16 6 243 16 6 243 16 6 243 16 6 243 17 6 243 17 6 243 17 6 243 17 6 243 17 6 243 18 6 243 18 6 243 18 6 243 18 6 243 18 7 243 18 7 243 18 7 243 19 7 243 19 7 243 19 7 243 19 7 243 19 7 243 20 135 243 20 136 243 20 137 243 20 138 243 20 139 243 20 140 243 21 141 243 21 142 243 21 143 243 21 143 243 21 144 243 21 145 243 21 146 243 22 147 243 22 148 243 22 150 243 22 151 243 22 152 243 23 153 243 23 154 243 23 155 243 23 156 243 23 157 243 23 158 243 24 159 243 24 159 243 24 160 243 24 161 243 24 162 243 24 163 243 25 165 243 25 166 243 25 167 243 25 168 243 25 169 243 25 170 243 26 171 243 26 172 243 26 173 243 26 174 243 26 175 243 26 175 243 26 176 243 27 177 243 27 178 243 27 180 243 27 181 243 27 182 243 28 183 243 28 184 243 28 185 243 28 186 243 28 187 243 28 188 243 29 189 243 29 190 243 29 191 243 29 191 243 29 192 243 29 193 243 30 195 243 30 196 243 30 197 243 30 198 243 30 199 243 30 200 243 31 201 243 31 202 243 31 203 243 31 204 243 31 205 243 31 206 243 32 207 243 32 207 243 32 208 243 32 210 243 32 211 243 32 212 243 33 213 243 33 214 243 33 215 243 33 216 243 33 217 243 33 218 243 34 219 243 34 220 243 34 221 243 34 222 243 34 223 243 34 223 243 35 225 243 35 226 243 35 227 243 35 228 243 35 229 243 35 230 243 36 231 243 36 232 243 36 233 243 36 234 243 36 235 243 36 236 243 37 237 243 37 238 243 37 239 243 37 240 243 37 241 243 37 242 243 38 243 243 38 244 243 38 245 243 38 246 243 38 247 243 38 248 243 39 249 243 39 250 243 39 251 243 39 252 243 39 253 243 40 255 243
0 0 241 0 0 241 0 0 241 0 0 241 0 0 241 0 0 241 0 0 241 1 0 241 1 0 241 1 0 241 1 0 241 1 0 241 1 0 241 2 0 241 2 0 241 2 1 241 2 1 241 2 1 241 2 1 241 3 1 241 3 1 241 3 1 241 3 1 241 3 1 241 3 1 241 4 1 241 4 1 241 4 1 241 4 1 241 4 2 241 5 2 241 5 2 241 5 2 241 5 2 241 5 2 241 5 2 241 5 2 241 6 2 241 6 2 241 6 2 241 6 2 241 6 2 241 6 2 241 7 3 241 7 3 241 7 3 241 7 3 241 7 3 241 8 3 241 8 3 241 8 3 241 8 3 241 8 3 241 8 3 241 8 3 241 9 3 241 9 3 241 9 4 241 9 4 241 9 4 241 10 4 241 10 4 241 10 4 241 10 4 241 10 4 241 10 4 241 10 4 241 11 4 241 11 4 241 11 4 241 11 4 241 11 5 241 11 5 241 12 5 241 12 5 241 12 5 241 12 5 241 12 5 241 13 5 241 13 5 241 13 5 241 13 5 241 13 5 241 13 5 241 13 5 241 14 6 241 14 6 241 14 6 241 14 6 241 14 6 241 15 6 241 15 6 241 15 6 241 15 6 241 15 6 241 15 6 241 16 6 241 16 6 241 16 6 241 16 7 241 16 7 241 16 7 241 16 7 241 17 7 241 17 7 241 17 7 241 17 7 241 17 7 241 18 7 241 18 7 241 18 7 241 18 7 241 18 7 241 18 8 241 18 8 241 19 8 241 19 8 241 19 8 241 19 8 241 19 8 241 20 136 241 20 137 241 20 138 241 20 139 241 20 140 241 20 141 241 21 142 241 21 143 241 21 143 241 21 144 241 21 145 241 21 146 241 21 147 241 22 148 241 22 149 241 22 151 241 22 152 241 22 153 241 23 154 241 23 155 241 23 156 241 23 157 241 23 157 241 23 158 241 24 159 241 24 160 241 24 161 241 24 162 241 24 163 241 24 164 241 25 166 241 25 167 241 25 168 241 25 169 241 25 170 241 25 171 241 26 171 241 26 172 241 26 173 241 26 174 241 26 175 241 26 176 241 26 177 241 27 178 241 27 179 241 27 181 241 27 182 241 27 183 241 28 184 241 28 185 241 28 185 241 28 186 241 28 187 241 28 188 241 29 189 241 29 190 241 29 191 241 29 192 241 29 193 241 29 194 241 30 196 241 30 197 241 30 198 241 30 198 241 30 199 241 30 200 241 31 201 241 31 202 241 31 203 241 31 204 241 31 205 241 31 206 241 32 207 241 32 208 241 32 209 241 32 211 241 32 212 241 32 212 241 33 213 241 33 214 241 33 215 241 33 216 241 33 217 241 33 218 241 34 219 241 34 220 241 34 221 241 34 222 241 34 223 241 34 224 241 35 226 241 35 227 241 35 227 241 35 228 241 35 229 241 35 230 241 36 231 241 36 232 241 36 233 241 36 234 241 36 235 241 36 236 241 37 237 241 37 238 241 37 239 241 37 241 241 37 241 241 37 242 241 38 243 241 38 244 241 38 245 241 38 246 241 38 247 241 38 248 241 39 249 241 39 250 241 39 251 241 39 252 241 39 253 241 40 255 241
0 0 241 0 0 241 0 0 241 0 0 241 0 0 241 0 0 241 0 0 241 1 0 241 1 0 241 1 0 241 1 0 241 1 0 241 1 0 241 2 0 241 2 0 241 2 1 241 2 1 241 2 1 241 2 1 241 3 1 241 3 1 241 3 1 241 3 1 241 3 1 241 3 1 241 4 1 241 4 1 241 4 1 241 4 2 241 4 2 241 5 2 241 5 2 241 5 2 241 5 2 241 5 2 241 5 2 241 5 2 241 6 2 241 6 2 241 6 2 241 6 2 241 6 3 241 6 3 241 7 3 241 7 3 241 7 3 241 7 3 241 7 3 241 8 3 241 8 3 241 8 3 241 8 3 241 8 3 241 8 3 241 8 4 241 9 4 241 9 4 241 9 4 241 9 4 241 9 4 241 10 4 241 10 4 241 10 4 241 10 4 241 10 4 241 10 4 241 10 4 241 11 5 241 11 5 241 11 5 241 11 5 241 11 5 241 11 5 241 12 5 241 12 5 241 12 5 241 12 5 241 12 5 241 13 5 241 13 5 241 13 6 241 13 6 241 13 6 241 13 6 241 13 6 241 14 6 241 14 6 241 14 6 241 14 6 241 14 6 241 15 6 241 15 6 241 15 6 241 15 6 241 15 7 241 15 7 241 16 7 241 16 7 241 16 7 241 16 7 241 16 7 241 16 7 241 16 7 241 17 7 241 17 7 241 17 7 241 17 7 241 17 8 241 18 8 241 18 8 241 18 8 241 18 8 241 18 8 241 18 8 241 18 8 241 19 8 241 19 8 241 19 8 241 19 8 241 19 8 241 20 136 241 20 137 241 20 138 241 20 139 241 20 140 241 20 141 241 21 142 241 21 143 241 21 144 241 21 145 241 21 146 241 21 147 241 21 148 241 22 149 241 22 149 241 22 151 241 22 152 241 22 153 241 23 154 241 23 155 241 23 156 241 23 157 241 23 158 241 23 159 241 24 160 241 24 161 241 24 162 241 24 162 241 24 163 241 24 164 241 25 166 241 25 167 241 25 168 241 25 169 241 25 170 241 25 171 241 26 172 241 26 173 241 26 174 241 26 175 241 26 176 241 26 176 241 26 177 241 27 178 241 27 179 241 27 181 241 27 182 241 27 183 241 28 184 241 28 185 241 28 186 241 28 187 241 28 188 241 28 189 241 29 189 241 29 190 241 29 191 241 29 192 241 29 193 241 29 194 241 30 196 241 30 197 241 30 198 241 30 199 241 30 200 241 30 201 241 31 202 241 31 202 241 31 203 241 31 204 241 31 205 241 31 206 241 32 207 241 32 208 241 32 209 241 32 211 241 32 212 241 32 213 241 33 214 241 33 215 241 33 215 241 33 216 241 33 217 241 33 218 241 34 219 241 34 220 241 34 221 241 34 222 241 34 223 241 34 224 241 35 226 241 35 227 241 35 228 241 35 228 241 35 229 241 35 230 241 36 231 241 36 232 241 36 233 241 36 234 241 36 235 241 36 236 241 37 237 241 37 238 241 37 239 241 37 241 241 37 241 241 37 242 241 38 243 241 38 244 241 38 245 241 38 246 241 38 247 241 38 248 241 39 249 241 39 250 241 39 251 241 39 252 241 39 253 241 40 255 241
0 0 240 0 0 240 0 0 240 0 0 240 0 0 240 0 0 240 0 0 240 1 0 240 1 0 240 1 0 240 1 0 240 1 0 240 1 0 240 2 0 240 2 1 240 2 1 240 2 1 240 2 1 240 2 1 240 3 1 240 3 1 240 3 1 240 3 1 240 3 1 240 3 1 240 4 1 240 4 2 240 4 2 240 4 2 240 4 2 240 5 2 240 5 2 240 5 2 240 5 2 240 5 2 240 5 2 240 5 2 240 6 2 240 6 2 240 6 3 240 6 3 240 6 3 240 6 3 240 7 3 240 7 3 240 7 3 240 7 3 240 7 3 240 8 3 240 8 3 240 8 3 240 8 4 240 8 4 240 8 4 240 8 4 240 9 4 240 9 4 240 9 4 240 9 4 240 9 4 240 10 4 240 10 4 240 10 4 240 10 4 240 10 5 240 10 5 240 10 5 240 11 5 240 11 5 240 11 5 240 11 5 240 11 5 240 11 5 240 12 5 240 12 5 240 12 5 240 12 6 240 12 6 240 13 6 240 13 6 240 13 6 240 13 6 240 13 6 240 13 6 240 13 6 240 14 6 240 14 6 240 14 6 240 14 6 240 14 7 240 15 7 240 15 7 240 15 7 240 15 7 240 15 7 240 15 7 240 16 7 240 16 7 240 16 7 240 16 7 240 16 7 240 16 7 240 16 8 240 17 8 240 17 8 240 17 8 240 17 8 240 17 8 240 18 8 240 18 8 240 18 8 240 18 8 240 18 8 240 18 8 240 18 9 240 19 9 240 19 9 240 19 9 240 19 9 240 19 9 240 20 137 240 20 138 240 20 139 240 20 140 240 20 141 240 20 142 240 21 143 240 21 143 240 21 144 240 21 145 240 21 146 240 21 147 240 21 148 240 22 149 240 22 150 240 22 152 240 22 153 240 22 154 240 23 155 240 23 155 240 23 156 240 23 157 240 23 158 240 23 159 240 24 160 240 24 161 240 24 162 240 24 163 240 24 164 240 24 165 240 25 167 240 25 168 240 25 168 240 25 169 240 25 170 240 25 171 240 26 172 240 26 173 240 26 174 240 26 175 240 26 176 240 26 177 240 26 178 240 27 179 240 27 180 240 27 181 240 27 182 240 27 183 240 28 184 240 28 185 240 28 186 240 28 187 240 28 188 240 28 189 240 29 190 240 29 191 240 29 192 240 29 192 240 29 193 240 29 194 240 30 196 240 30 197 240 30 198 240 30 199 240 30 200 240 30 201 240 31 202 240 31 203 240 31 204 240 31 205 240 31 205 240 31 206 240 32 207 240 32 208 240 32 209 240 32 211 240 32 212 240 32 213 240 33 214 240 33 215 240 33 216 240 33 217 240 33 217 240 33 218 240 34 219 240 34 220 240 34 221 240 34 222 240 34 223 240 34 224 240 35 226 240 35 227 240 35 228 240 35 229 240 35 230 240 35 230 240 36 231 240 36 232 240 36 233 240 36 234 240 36 235 240 36 236 240 37 237 240 37 238 240 37 239 240 37 241 240 37 242 240 37 242 240 38 243 240 38 244 240 38 245 240 38 246 240 38 247 240 38 248 240 39 249 240 39 250 240 39 251 240 39 252 240 39 253 240 40 255 240
0 0 239 0 0 239 0 0 239 0 0 239 0 0 239 0 0 239 0 0 239 1 0 239 1 0 239 1 0 239 1 0 239 1 0 239 1 0 239 2 1 239 2 1 239 2 1 239 2 1 239 2 1 239 2 1 239 3 1 239 3 1 239 3 1 239 3 1 239 3 1 239 3 2 239 4 2 239 4 2 239 4 2 239 4 2 239 4 2 239 5 2 239 5 2 239 5 2 239 5 2 239 5 2 239 5 3 239 5 3 239 6 3 239 6 3 239 6 3 239 6 3 239 6 3 239 6 3 239 7 3 239 7 3 239 7 3 239 7 4 239 7 4 239 8 4 239 8 4 239 8 4 239 8 4 239 8 4 239 8 4 239 8 4 239 9 4 239 9 4 239 9 4 239 9 5 239 9 5 239 10 5 239 10 5 239 10 5 239 10 5 239 10 5 239 10 5 239 10 5 239 11 5 239 11 5 239 11 6 239 11 6 239 11 6 239 11 6 239 12 6 239 12 6 239 12 6 239 12 6 239 12 6 239 13 6 239 13 6 239 13 7 239 13 7 239 13 7 239 13 7 239 13 7 239 14 7 239 14 7 239 14 7 239 14 7 239 14 7 239 15 7 239 15 7 239 15 8 239 15 8 239 15 8 239 15 8 239 16 8 239 16 8 239 16 8 239 16 8 239 16 8 239 16 8 239 16 8 239 17 8 239 17 9 239 17 9 239 17 9 239 17 9 239 18 9 239 18 9 239 18 9 239 18 9 239 18 9 239 18 9 239 18 9 239 19 10 239 19 10 239 19 10 239 19 10 239 19 10 239 20 138 239 20 139 239 20 140 239 20 141 239 20 142 239 20 143 239 21 143 239 21 144 239 21 145 239 21 146 239 21 147 239 21 148 239 21 149 239 22 150 239 22 151 239 22 153 239 22 154 239 22 154 239 23 155 239 23 156 239 23 157 239 23 158 239 23 159 239 23 160 239 24 161 239 24 162 239 24 163 239 24 164 239 24 165 239 24 165 239 25 167 239 25 168 239 25 169 239 25 170 239 25 171 239 25 172 239 26 173 239 26 174 239 26 175 239 26 176 239 26 177 239 26 177 239 26 178 239 27 179 239 27 180 239 27 182 239 27 183 239 27 184 239 28 185 239 28 186 239 28 187 239 28 188 239 28 188 239 28 189 239 29 190 239 29 191 239 29 192 239 29 193 239 29 194 239 29 195 239 30 197 239 30 198 239 30 199 239 30 199 239 30 200 239 30 201 239 31 202 239 31 203 239 31 204 239 31 205 239 31 206 239 31 207 239 32 208 239 32 209 239 32 210 239 32 211 239 32 212 239 32 213 239 33 214 239 33 215 239 33 216 239 33 217 239 33 218 239 33 219 239 34 220 239 34 221 239 34 221 239 34 222 239 34 223 239 34 224 239 35 226 239 35 227 239 35 228 239 35 229 239 35 230 239 35 231 239 36 232 239 36 232 239 36 233 239 36 234 239 36 235 239 36 236 239 37 237 239 37 238 239 37 239 239 37 241 239 37 242 239 37 243 239 38 243 239 38 244 239 38 245 239 38 246 239 38 247 239 38 248 239 39 249 239 39 250 239 39 251 239 39 252 239 39 253 239 40 255 239
0 0 238 0 0 238 0 0 238 0 0 238 0 0 238 0 0 238 0 0 238 1 0 238 1 0 238 1 0 238 1 0 238 1 0 238 1 1 238 2 1 238 2 1 238 2 1 238 2 1 238 2 1 238 2 1 238 3 1 238 3 1 238 3 1 238 3 1 238 3 2 238 3 2 238 4 2 238 4 2 238 4 2 238 4 2 238 4 2 238 5 2 238 5 2 238 5 2 238 5 3 238 5 3 238 5 3 238 5 3 238 6 3 238 6 3 238 6 3 238 6 3 238 6 3 238 6 3 238 7 3 238 7 3 238 7 4 238 7 4 238 7 4 238 8 4 238 8 4 238 8 4 238 8 4 238 8 4 238 8 4 238 8 4 238 9 5 238 9 5 238 9 5 238 9 5 238 9 5 238 10 5 238 10 5 238 10 5 238 10 5 238 10 5 238 10 5 238 10 6 238 11 6 238 11 6 238 11 6 238 11 6 238 11 6 238 11 6 238 12 6 238 12 6 238 12 6 238 12 6 238 12 7 238 13 7 238 13 7 238 13 7 238 13 7 238 13 7 238 13 7 238 13 7 238 14 7 238 14 7 238 14 7 238 14 8 238 14 8 238 15 8 238 15 8 238 15 8 238 15 8 238 15 8 238 15 8 238 16 8 238 16 8 238 16 8 238 16 9 238 16 9 238 16 9 238 16 9 238 17 9 238 17 9 238 17 9 238 17 9 238 17 9 238 18 9 238 18 10 238 18 10 238 18 10 238 18 10 238 18 10 238 18 10 238 19 10 238 19 10 238 19 10 238 19 10 238 19 10 238 20 138 238 20 139 238 20 140 238 20 141 238 20 142 238 20 143 238 21 144 238 21 145 238 21 146 238 21 147 238 21 148 238 21 149 238 21 149 238 22 150 238 22 151 238 22 153 238 22 154 238 22 155 238 23 156 238 23 157 238 23 158 238 23 159 238 23 159 238 23 160 238 24 161 238 24 162 238 24 163 238 24 164 238 24 165 238 24 166 238 25 168 238 25 169 238 25 170 238 25 170 238 25 171 238 25 172 238 26 173 238 26 174 238 26 175 238 26 176 238 26 177 238 26 178 238 26 179 238 27 180 238 27 180 238 27 182 238 27 183 238 27 184 238 28 185 238 28 186 238 28 187 238 28 188 238 28 189 238 28 190 238 29 191 238 29 191 238 29 192 238 29 193 238 29 194 238 29 195 238 30 197 238 30 198 238 30 199 238 30 200 238 30 201 238 30 202 238 31 202 238 31 203 238 31 204 238 31 205 238 31 206 238 31 207 238 32 208 238 32 209 238 32 210 238 32 212 238 32 212 238 32 213 238 33 214 238 33 215 238 33 216 238 33 217 238 33 218 238 33 219 238 34 220 238 34 221 238 34 222 238 34 223 238 34 223 238 34 224 238 35 226 238 35 227 238 35 228 238 35 229 238 35 230 238 35 231 238 36 232 238 36 233 238 36 233 238 36 234 238 36 235 238 36 236 238 37 237 238 37 238 238 37 239 238 37 241 238 37 242 238 37 243 238 38 244 238 38 244 238 38 245 238 38 246 238 38 247 238 38 248 238 39 249 238 39 250 238 39 251 238 39 252 238 39 253 238 40 255 238
0 0 236 0 0 236 0 0 236 0 0 236 0 0 236 0 0 236 0 0 236 1 0 236 1 0 236 1 0 236 1 0 236 1 1 236 1 1 236 2 1 236 2 1 236 2 1 236 2 1 236 2 1 236 2 1 236 3 1 236 3 1 236 3 2 236 3 2 236 3 2 236 3 2 236 4 2 236 4 2 236 4 2 236 4 2 236 4 2 236 5 3 236 5 3 236 5 3 236 5 3 236 5 3 236 5 3 236 5 3 236 6 3 236 6 3 236 6 3 236 6 3 236 6 4 236 6 4 236 7 4 236 7 4 236 7 4 236 7 4 236 7 4 236 8 4 236 8 4 236 8 4 236 8 5 236 8 5 236 8 5 236 8 5 236 9 5 236 9 5 236 9 5 236 9 5 236 9 5 236 10 6 236 10 6 236 10 6 236 10 6 236 10 6 236 10 6 236 10 6 236 11 6 236 11 6 236 11 6 236 11 6 236 11 7 236 11 7 236 12 7 236 12 7 236 12 7 236 12 7 236 12 7 236 13 7 236 13 7 236 13 8 236 13 8 236 13 8 236 13 8 236 13 8 236 14 8 236 14 8 236 14 8 236 14 8 236 14 8 236 15 9 236 15 9 236 15 9 236 15 9 236 15 9 236 15 9 236 16 9 236 16 9 236 16 9 236 16 9 236 16 9 236 16 10 236 16 10 236 17 10 236 17 10 236 17 10 236 17 10 236 17 10 236 18 10 236 18 10 236 18 11 236 18 11 236 18 11 236 18 11 236 18 11 236 19 11 236 19 11 236 19 11 236 19 11 236 19 11 236 20 139 236 20 140 236 20 141 236 20 142 236 20 143 236 20 144 236 21 145 236 21 146 236 21 147 236 21 148 236 21 149 236 21 149 236 21 150 236 22 151 236 22 152 236 22 154 236 22 155 236 22 156 236 23 157 236 23 158 236 23 158 236 23 159 236 23 160 236 23 161 236 24 162 236 24 163 236 24 164 236 24 165 236 24 166 236 24 167 236 25 168 236 25 169 236 25 170 236 25 171 236 25 172 236 25 173 236 26 174 236 26 175 236 26 176 236 26 177 236 26 178 236 26 178 236 26 179 236 27 180 236 27 181 236 27 183 236 27 184 236 27 185 236 28 186 236 28 187 236 28 187 236 28 188 236 28 189 236 28 190 236 29 191 236 29 192 236 29 193 236 29 194 236 29 195 236 29 196 236 30 197 236 30 198 236 30 199 236 30 200 236 30 201 236 30 202 236 31 203 236 31 204 236 31 205 236 31 206 236 31 206 236 31 207 236 32 208 236 32 209 236 32 210 236 32 212 236 32 213 236 32 214 236 33 215 236 33 216 236 33 216 236 33 217 236 33 218 236 33 219 236 34 220 236 34 221 236 34 222 236 34 223 236 34 224 236 34 225 236 35 226 236 35 227 236 35 228 236 35 229 236 35 230 236 35 231 236 36 232 236 36 233 236 36 234 236 36 235 236 36 235 236 36 236 236 37 237 236 37 238 236 37 239 236 37 241 236 37 242 236 37 243 236 38 244 236 38 245 236 38 245 236 38 246 236 38 247 236 38 248 236 39 249 236 39 250 236 39 251 236 39 252 236 39 253 236 40 255 236
0 0 236 0 0 236 0 0 236 0 0 236 0 0 236 0 0 236 0 0 236 1 0 236 1 0 236 1 0 236 1 0 236 1 1 236 1 1 236 2 1 236 2 1 236 2 1 236 2 1 236 2 1 236 2 1 236 3 1 236 3 2 236 3 2 236 3 2 236 3 2 236 3 2 236 4 2 236 4 2 236 4 2 236 4 2 236 4 2 236 5 3 236 5 3 236 5 3 236 5 3 236 5 3 236 5 3 236 5 3 236 6 3 236 6 3 236 6 4 236 6 4 236 6 4 236 6 4 236 7 4 236 7 4 236 7 4 236 7 4 236 7 4 236 8 5 236 8 5 236 8 5 236 8 5 236 8 5 236 8 5 236 8 5 236 9 5 236 9 5 236 9 5 236 9 5 236 9 6 236 10 6 236 10 6 236 10 6 236 10 6 236 10 6 236 10 6 236 10 6 236 11 6 236 11 7 236 11 7 236 11 7 236 11 7 236 11 7 236 12 7 236 12 7 236 12 7 236 12 7 236 12 8 236 13 8 236 13 8 236 13 8 236 13 8 236 13 8 236 13 8 236 13 8 236 14 8 236 14 8 236 14 9 236 14 9 236 14 9 236 15 9 236 15 9 236 15 9 236 15 9 236 15 9 236 15 9 236 16 10 236 16 10 236 16 10 236 16 10 236 16 10 236 16 10 236 16 10 236 17 10 236 17 10 236 17 10 236 17 11 236 17 11 236 18 11 236 18 11 236 18 11 236 18 11 236 18 11 236 18 11 236 18 11 236 19 11 236 19 12 236 19 12 236 19 12 236 19 12 236 20 140 236 20 141 236 20 142 236 20 143 236 20 144 236 20 144 236 21 145 236 21 146 236 21 147 236 21 148 236 21 149 236 21 150 236 21 151 236 22 152 236 22 153 236 22 154 236 22 155 236 22 156 236 23 157 236 23 158 236 23 159 236 23 160 236 23 161 236 23 162 236 24 163 236 24 163 236 24 164 236 24 165 236 24 166 236 24 167 236 25 169 236 25 170 236 25 171 236 25 172 236 25 172 236 25 173 236 26 174 236 26 175 236 26 176 236 26 177 236 26 178 236 26 179 236 26 180 236 27 181 236 27 181 236 27 183 236 27 184 236 27 185 236 28 186 236 28 187 236 28 188 236 28 189 236 28 190 236 28 190 236 29 191 236 29 192 236 29 193 236 29 194 236 29 195 236 29 196 236 30 198 236 30 199 236 30 199 236 30 200 236 30 201 236 30 202 236 31 203 236 31 204 236 31 205 236 31 206 236 31 207 236 31 208 236 32 209 236 32 209 236 32 210 236 32 212 236 32 213 236 32 214 236 33 215 236 33 216 236 33 217 236 33 218 236 33 218 236 33 219 236 34 220 236 34 221 236 34 222 236 34 223 236 34 224 236 34 225 236 35 227 236 35 227 236 35 228 236 35 229 236 35 230 236 35 231 236 36 232 236 36 233 236 36 234 236 36 235 236 36 236 236 36 236 236 37 237 236 37 238 236 37 239 236 37 241 236 37 242 236 37 243 236 38 244 236 38 245 236 38 245 236 38 246 236 38 247 236 38 248 236 39 249 236 39 250 236 39 251 236 39 252 236 39 253 236 40 255 236
0 0 234 0 0 234 0 0 234 0 0 234 0 0 234 0 0 234 0 0 234 1 0 234 1 0 234 1 0 234 1 1 234 1 1 234 1 1 234 2 1 234 2 1 234 2 1 234 2 1 234 2 1 234 2 2 234 3 2 234 3 2 234 3 2 234 3 2 234 3 2 234 3 2 234 4 2 234 4 2 234 4 2 234 4 3 234 4 3 234 5 3 234 5 3 234 5 3 234 5 3 234 5 3 234 5 3 234 5 4 234 6 4 234 6 4 234 6 4 234 6 4 234 6 4 234 6 4 234 7 4 234 7 4 234 7 5 234 7 5 234 7 5 234 8 5 234 8 5 234 8 5 234 8 5 234 8 5 234 8 5 234 8 6 234 9 6 234 9 6 234 9 6 234 9 6 234 9 6 234 10 6 234 10 6 234 10 6 234 10 7 234 10 7 234 10 7 234 10 7 234 11 7 234 11 7 234 11 7 234 11 7 234 11 7 234 11 8 234 12 8 234 12 8 234 12 8 234 12 8 234 12 8 234 13 8 234 13 8 234 13 9 234 13 9 234 13 9 234 13 9 234 13 9 234 14 9 234 14 9 234 14 9 234 14 9 234 14 9 234 15 10 234 15 10 234 15 10 234 15 10 234 15 10 234 15 10 234 16 10 234 16 10 234 16 11 234 16 11 234 16 11 234 16 11 234 16 11 234 17 11 234 17 11 234 17 11 234 17 11 234 17 12 234 18 12 234 18 12 234 18 12 234 18 12 234 18 12 234 18 12 234 18 12 234 19 12 234 19 13 234 19 13 234 19 13 234 19 13 234 20 141 234 20 142 234 20 143 234 20 144 234 20 145 234 20 145 234 21 146 234 21 147 234 21 148 234 21 149 234 21 150 234 21 151 234 21 152 234 22 153 234 22 153 234 22 155 234 22 156 234 22 157 234 23 158 234 23 159 234 23 160 234 23 161 234 23 162 234 23 162 234 24 163 234 24 164 234 24 165 234 24 166 234 24 167 234 24 168 234 25 170 234 25 170 234 25 171 234 25 172 234 25 173 234 25 174 234 26 175 234 26 176 234 26 177 234 26 178 234 26 179 234 26 179 234 26 180 234 27 181 234 27 182 234 27 184 234 27 185 234 27 186 234 28 187 234 28 187 234 28 188 234 28 189 234 28 190 234 28 191 234 29 192 234 29 193 234 29 194 234 29 195 234 29 195 234 29 196 234 30 198 234 30 199 234 30 200 234 30 201 234 30 202 234 30 203 234 31 204 234 31 204 234 31 205 234 31 206 234 31 207 234 31 208 234 32 209 234 32 210 234 32 211 234 32 212 234 32 213 234 32 214 234 33 215 234 33 216 234 33 217 234 33 218 234 33 219 234 33 220 234 34 221 234 34 221 234 34 222 234 34 223 234 34 224 234 34 225 234 35 227 234 35 228 234 35 229 234 35 229 234 35 230 234 35 231 234 36 232 234 36 233 234 36 234 234 36 235 234 36 236 234 36 237 234 37 238 234 37 238 234 37 239 234 37 241 234 37 242 234 37 243 234 38 244 234 38 245 234 38 246 234 38 246 234 38 247 234 38 248 234 39 249 234 39 250 234 39 251 234 39 252 234 39 253 234 40 255 234
0 0 233 0 0 233 0 0 233 0 0 233 0 0 233 0 0 233 0 0 233 1 0 233 1 0 233 1 0 233 1 1 233 1 1 233 1 1 233 2 1 233 2 1 233 2 1 233 2 1 233 2 1 233 2 2 233 3 2 233 3 2 233 3 2 233 3 2 233 3 2 233 3 2 233 4 2 233 4 2 233 4 3 233 4 3 233 4 3 233 5 3 233 5 3 233 5 3 233 5 3 233 5 3 233 5 4 233 5 4 233 6 4 233 6 4 233 6 4 233 6 4 233 6 4 233 6 4 233 7 4 233 7 5 233 7 5 233 7 5 233 7 5 233 8 5 233 8 5 233 8 5 233 8 5 233 8 6 233 8 6 233 8 6 233 9 6 233 9 6 233 9 6 233 9 6 233 9 6 233 10 7 233 10 7 233 10 7 233 10 7 233 10 7 233 10 7 233 10 7 233 11 7 233 11 7 233 11 8 233 11 8 233 11 8 233 11 8 233 12 8 233 12 8 233 12 8 233 12 8 233 12 9 233 13 9 233 13 9 233 13 9 233 13 9 233 13 9 233 13 9 233 13 9 233 14 9 233 14 9 233 14 10 233 14 10 233 14 10 233 15 10 233 15 10 233 15 10 233 15 10 233 15 10 233 15 11 233 16 11 233 16 11 233 16 11 233 16 11 233 16 11 233 16 11 233 16 11 233 17 11 233 17 12 233 17 12 233 17 12 233 17 12 233 18 12 233 18 12 233 18 12 233 18 12 233 18 13 233 18 13 233 18 13 233 19 13 233 19 13 233 19 13 233 19 13 233 19 13 233 20 141 233 20 142 233 20 143 233 20 144 233 20 145 233 20 146 233 21 147 233 21 148 233 21 149 233 21 149 233 21 150 233 21 151 233 21 152 233 22 153 233 22 154 233 22 156 233 22 157 233 22 157 233 23 158 233 23 159 233 23 160 233 23 161 233 23 162 233 23 163 233 24 164 233 24 165 233 24 165 233 24 166 233 24 167 233 24 168 233 25 170 233 25 171 233 25 172 233 25 173 233 25 173 233 25 174 233 26 175 233 26 176 233 26 177 233 26 178 233 26 179 233 26 180 233 26 181 233 27 182 233 27 182 233 27 184 233 27 185 233 27 186 233 28 187 233 28 188 233 28 189 233 28 190 233 28 190 233 28 191 233 29 192 233 29 193 233 29 194 233 29 195 233 29 196 233 29 197 233 30 198 233 30 199 233 30 200 233 30 201 233 30 202 233 30 203 233 31 204 233 31 205 233 31 206 233 31 206 233 31 207 233 31 208 233 32 209 233 32 210 233 32 211 233 32 213 233 32 214 233 32 214 233 33 215 233 33 216 233 33 217 233 33 218 233 33 219 233 33 220 233 34 221 233 34 222 233 34 222 233 34 223 233 34 224 233 34 225 233 35 227 233 35 228 233 35 229 233 35 230 233 35 230 233 35 231 233 36 232 233 36 233 233 36 234 233 36 235 233 36 236 233 36 237 233 37 238 233 37 238 233 37 239 233 37 241 233 37 242 233 37 243 233 38 244 233 38 245 233 38 246 233 38 246 233 38 247 233 38 248 233 39 249 233 39 250 233 39 251 233 39 252 233 39 253 233 40 255 233
0 0 233 0 0 233 0 0 233 0 0 233 0 0 233 0 0 233 0 0 233 1 0 233 1 0 233 1 1 233 1 1 233 1 1 233 1 1 233 2 1 233 2 1 233 2 1 233 2 1 233 2 2 233 2 2 233 3 2 233 3 2 233 3 2 233 3 2 233 3 2 233 3 2 233 4 2 233 4 3 233 4 3 233 4 3 233 4 3 233 5 3 233 5 3 233 5 3 233 5 3 233 5 4 233 5 4 233 5 4 233 6 4 233 6 4 233 6 4 233 6 4 233 6 4 233 6 5 233 7 5 233 7 5 233 7 5 233 7 5 233 7 5 233 8 5 233 8 5 233 8 6 233 8 6 233 8 6 233 8 6 233 8 6 233 9 6 233 9 6 233 9 6 233 9 6 233 9 7 233 10 7 233 10 7 233 10 7 233 10 7 233 10 7 233 10 7 233 10 7 233 11 8 233 11 8 233 11 8 233 11 8 233 11 8 233 11 8 233 12 8 233 12 8 233 12 9 233 12 9 233 12 9 233 13 9 233 13 9 233 13 9 233 13 9 233 13 9 233 13 10 233 13 10 233 14 10 233 14 10 233 14 10 233 14 10 233 14 10 233 15 10 233 15 11 233 15 11 233 15 11 233 15 11 233 15 11 233 16 11 233 16 11 233 16 11 233 16 11 233 16 12 233 16 12 233 16 12 233 17 12 233 17 12 233 17 12 233 17 12 233 17 12 233 18 13 233 18 13 233 18 13 233 18 13 233 18 13 233 18 13 233 18 13 233 19 13 233 19 13 233 19 14 233 19 14 233 19 14 233 20 142 233 20 143 233 20 144 233 20 145 233 20 145 233 20 146 233 21 147 233 21 148 233 21 149 233 21 150 233 21 151 233 21 152 233 21 153 233 22 153 233 22 154 233 22 156 233 22 157 233 22 158 233 23 159 233 23 160 233 23 161 233 23 161 233 23 162 233 23 163 233 24 164 233 24 165 233 24 166 233 24 167 233 24 168 233 24 169 233 25 170 233 25 171 233 25 172 233 25 173 233 25 174 233 25 175 233 26 176 233 26 177 233 26 177 233 26 178 233 26 179 233 26 180 233 26 181 233 27 182 233 27 183 233 27 184 233 27 185 233 27 186 233 28 187 233 28 188 233 28 189 233 28 190 233 28 191 233 28 192 233 29 192 233 29 193 233 29 194 233 29 195 233 29 196 233 29 197 233 30 199 233 30 200 233 30 200 233 30 201 233 30 202 233 30 203 233 31 204 233 31 205 233 31 206 233 31 207 233 31 208 233 31 208 233 32 209 233 32 210 233 32 211 233 32 213 233 32 214 233 32 215 233 33 216 233 33 216 233 33 217 233 33 218 233 33 219 233 33 220 233 34 221 233 34 222 233 34 223 233 34 223 233 34 224 233 34 225 233 35 227 233 35 228 233 35 229 233 35 230 233 35 231 233 35 231 233 36 232 233 36 233 233 36 234 233 36 235 233 36 236 233 36 237 233 37 238 233 37 239 233 37 239 233 37 241 233 37 242 233 37 243 233 38 244 233 38 245 233 38 246 233 38 247 233 38 247 233 38 248 233 39 249 233 39 250 233 39 251 233 39 252 233 39 253 233 40 255 233
0 0 231 0 0 231 0 0 231 0 0 231 0 0 231 0 0 231 0 0 231 1 0 231 1 0 231 1 1 231 1 1 231 1 1 231 1 1 231 2 1 231 2 1 231 2 1 231 2 2 231 2 2 231 2 2 231 3 2 231 3 2 231 3 2 231 3 2 231 3 2 231 3 3 231 4 3 231 4 3 231 4 3 231 4 3 231 4 3 231 5 3 231 5 4 231 5 4 231 5 4 231 5 4 231 5 4 231 5 4 231 6 4 231 6 4 231 6 4 231 6 5 231 6 5 231 6 5 231 7 5 231 7 5 231 7 5 231 7 5 231 7 6 231 8 6 231 8 6 231 8 6 231 8 6 231 8 6 231 8 6 231 8 6 231 9 7 231 9 7 231 9 7 231 9 7 231 9 7 231 10 7 231 10 7 231 10 8 231 10 8 231 10 8 231 10 8 231 10 8 231 11 8 231 11 8 231 11 8 231 11 8 231 11 9 231 11 9 231 12 9 231 12 9 231 12 9 231 12 9 231 12 9 231 13 10 231 13 10 231 13 10 231 13 10 231 13 10 231 13 10 231 13 10 231 14 10 231 14 11 231 14 11 231 14 11 231 14 11 231 15 11 231 15 11 231 15 11 231 15 12 231 15 12 231 15 12 231 16 12 231 16 12 231 16 12 231 16 12 231 16 12 231 16 13 231 16 13 231 17 13 231 17 13 231 17 13 231 17 13 231 17 13 231 18 13 231 18 14 231 18 14 231 18 14 231 18 14 231 18 14 231 18 14 231 19 14 231 19 14 231 19 15 231 19 15 231 19 15 231 20 143 231 20 144 231 20 145 231 20 146 231 20 146 231 20 147 231 21 148 231 21 149 231 21 150 231 21 151 231 21 152 231 21 153 231 21 153 231 22 154 231 22 155 231 22 157 231 22 158 231 22 159 231 23 160 231 23 161 231 23 161 231 23 162 231 23 163 231 23 164 231 24 165 231 24 166 231 24 167 231 24 168 231 24 168 231 24 169 231 25 171 231 25 172 231 25 173 231 25 174 231 25 175 231 25 175 231 26 176 231 26 177 231 26 178 231 26 179 231 26 180 231 26 181 231 26 182 231 27 182 231 27 183 231 27 185 231 27 186 231 27 187 231 28 188 231 28 189 231 28 189 231 28 190 231 28 191 231 28 192 231 29 193 231 29 194 231 29 195 231 29 196 231 29 197 231 29 197 231 30 199 231 30 200 231 30 201 231 30 202 231 30 203 231 30 204 231 31 204 231 31 205 231 31 206 231 31 207 231 31 208 231 31 209 231 32 210 231 32 211 231 32 211 231 32 213 231 32 214 231 32 215 231 33 216 231 33 217 231 33 218 231 33 218 231 33 219 231 33 220 231 34 221 231 34 222 231 34 223 231 34 224 231 34 225 231 34 226 231 35 227 231 35 228 231 35 229 231 35 230 231 35 231 231 35 232 231 36 233 231 36 233 231 36 234 231 36 235 231 36 236 231 36 237 231 37 238 231 37 239 231 37 240 231 37 241 231 37 242 231 37 243 231 38 244 231 38 245 231 38 246 231 38 247 231 38 247 231 38 248 231 39 249 231 39 250 231 39 251 231 39 252 231 39 253 231 40 255 231
0 0 231 0 0 231 0 0 231 0 0 231 0 0 231 0 0 231 0 0 231 1 0 231 1 1 231 1 1 231 1 1 231 1 1 231 1 1 231 2 1 231 2 1 231 2 2 231 2 2 231 2 2 231 2 2 231 3 2 231 3 2 231 3 2 231 3 2 231 3 3 231 3 3 231 4 3 231 4 3 231 4 3 231 4 3 231 4 3 231 5 4 231 5 4 231 5 4 231 5 4 231 5 4 231 5 4 231 5 4 231 6 4 231 6 5 231 6 5 231 6 5 231 6 5 231 6 5 231 7 5 231 7 5 231 7 6 231 7 6 231 7 6 231 8 6 231 8 6 231 8 6 231 8 6 231 8 6 231 8 7 231 8 7 231 9 7 231 9 7 231 9 7 231 9 7 231 9 7 231 10 8 231 10 8 231 10 8 231 10 8 231 10 8 231 10 8 231 10 8 231 11 8 231 11 9 231 11 9 231 11 9 231 11 9 231 11 9 231 12 9 231 12 9 231 12 10 231 12 10 231 12 10 231 13 10 231 13 10 231 13 10 231 13 10 231 13 10 231 13 11 231 13 11 231 14 11 231 14 11 231 14 11 231 14 11 231 14 11 231 15 12 231 15 12 231 15 12 231 15 12 231 15 12 231 15 12 231 16 12 231 16 12 231 16 13 231 16 13 231 16 13 231 16 13 231 16 13 231 17 13 231 17 13 231 17 14 231 17 14 231 17 14 231 18 14 231 18 14 231 18 14 231 18 14 231 18 14 231 18 15 231 18 15 231 19 15 231 19 15 231 19 15 231 19 15 231 19 15 231 20 143 231 20 144 231 20 145 231 20 146 231 20 147 231 20 148 231 21 149 231 21 150 231 21 150 231 21 151 231 21 152 231 21 153 231 21 154 231 22 155 231 22 156 231 22 157 231 22 158 231 22 159 231 23 160 231 23 161 231 23 162 231 23 163 231 23 164 231 23 164 231 24 165 231 24 166 231 24 167 231 24 168 231 24 169 231 24 170 231 25 171 231 25 172 231 25 173 231 25 174 231 25 175 231 25 176 231 26 177 231 26 178 231 26 178 231 26 179 231 26 180 231 26 181 231 26 182 231 27 183 231 27 184 231 27 185 231 27 186 231 27 187 231 28 188 231 28 189 231 28 190 231 28 191 231 28 192 231 28 192 231 29 193 231 29 194 231 29 195 231 29 196 231 29 197 231 29 198 231 30 199 231 30 200 231 30 201 231 30 202 231 30 203 231 30 204 231 31 205 231 31 206 231 31 206 231 31 207 231 31 208 231 31 209 231 32 210 231 32 211 231 32 212 231 32 213 231 32 214 231 32 215 231 33 216 231 33 217 231 33 218 231 33 219 231 33 220 231 33 220 231 34 221 231 34 222 231 34 223 231 34 224 231 34 225 231 34 226 231 35 227 231 35 228 231 35 229 231 35 230 231 35 231 231 35 232 231 36 233 231 36 234 231 36 234 231 36 235 231 36 236 231 36 237 231 37 238 231 37 239 231 37 240 231 37 241 231 37 242 231 37 243 231 38 244 231 38 245 231 38 246 231 38 247 231 38 248 231 38 248 231 39 249 231 39 250 231 39 251 231 39 252 231 39 253 231 40 255 231
0 0 229 0 0 229 0 0 229 0 0 229 0 0 229 0 0 229 0 0 229 1 0 229 1 1 229 1 1 229 1 1 229 1 1 229 1 1 229 2 1 229 2 1 229 2 2 229 2 2 229 2 2 229 2 2 229 3 2 229 3 2 229 3 2 229 3 3 229 3 3 229 3 3 229 4 3 229 4 3 229 4 3 229 4 3 229 4 4 229 5 4 229 5 4 229 5 4 229 5 4 229 5 4 229 5 4 229 5 5 229 6 5 229 6 5 229 6 5 229 6 5 229 6 5 229 6 5 229 7 6 229 7 6 229 7 6 229 7 6 229 7 6 229 8 6 229 8 6 229 8 7 229 8 7 229 8 7 229 8 7 229 8 7 229 9 7 229 9 7 229 9 8 229 9 8 229 9 8 229 10 8 229 10 8 229 10 8 229 10 8 229 10 9 229 10 9 229 10 9 229 11 9 229 11 9 229 11 9 229 11 9 229 11 10 229 11 10 229 12 10 229 12 10 229 12 10 229 12 10 229 12 10 229 13 11 229 13 11 229 13 11 229 13 11 229 13 11 229 13 11 229 13 11 229 14 12 229 14 12 229 14 12 229 14 12 229 14 12 229 15 12 229 15 12 229 15 13 229 15 13 229 15 13 229 15 13 229 16 13 229 16 13 229 16 13 229 16 14 229 16 14 229 16 14 229 16 14 229 17 14 229 17 14 229 17 14 229 17 15 229 17 15 229 18 15 229 18 15 229 18 15 229 18 15 229 18 15 229 18 16 229 18 16 229 19 16 229 19 16 229 19 16 229 19 16 229 19 16 229 20 144 229 20 145 229 20 146 229 20 147 229 20 148 229 20 149 229 21 150 229 21 151 229 21 151 229 21 152 229 21 153 229 21 154 229 21 155 229 22 156 229 22 157 229 22 158 229 22 159 229 22 160 229 23 161 229 23 162 229 23 163 229 23 163 229 23 164 229 23 165 229 24 166 229 24 167 229 24 168 229 24 169 229 24 170 229 24 170 229 25 172 229 25 173 229 25 174 229 25 175 229 25 176 229 25 177 229 26 177 229 26 178 229 26 179 229 26 180 229 26 181 229 26 182 229 26 183 229 27 183 229 27 184 229 27 186 229 27 187 229 27 188 229 28 189 229 28 190 229 28 190 229 28 191 229 28 192 229 28 193 229 29 194 229 29 195 229 29 196 229 29 196 229 29 197 229 29 198 229 30 200 229 30 201 229 30 202 229 30 203 229 30 203 229 30 204 229 31 205 229 31 206 229 31 207 229 31 208 229 31 209 229 31 209 229 32 210 229 32 211 229 32 212 229 32 214 229 32 215 229 32 216 229 33 216 229 33 217 229 33 218 229 33 219 229 33 220 229 33 221 229 34 222 229 34 222 229 34 223 229 34 224 229 34 225 229 34 226 229 35 228 229 35 228 229 35 229 229 35 230 229 35 231 229 35 232 229 36 233 229 36 234 229 36 235 229 36 235 229 36 236 229 36 237 229 37 238 229 37 239 229 37 240 229 37 242 229 37 242 229 37 243 229 38 244 229 38 245 229 38 246 229 38 247 229 38 248 229 38 248 229 39 249 229 39 250 229 39 251 229 39 252 229 39 253 229 40 255 229
0 0 228 0 0 228 0 0 228 0 0 228 0 0 228 0 0 228 0 0 228 1 0 228 1 1 228 1 1 228 1 1 228 1 1 228 1 1 228 2 1 228 2 1 228 2 2 228 2 2 228 2 2 228 2 2 228 3 2 228 3 2 228 3 3 228 3 3 228 3 3 228 3 3 228 4 3 228 4 3 228 4 3 228 4 3 228 4 4 228 5 4 228 5 4 228 5 4 228 5 4 228 5 4 228 5 5 228 5 5 228 6 5 228 6 5 228 6 5 228 6 5 228 6 5 228 6 6 228 7 6 228 7 6 228 7 6 228 7 6 228 7 6 228 8 7 228 8 7 228 8 7 228 8 7 228 8 7 228 8 7 228 8 7 228 9 7 228 9 8 228 9 8 228 9 8 228 9 8 228 10 8 228 10 8 228 10 9 228 10 9 228 10 9 228 10 9 228 10 9 228 11 9 228 11 9 228 11 10 228 11 10 228 11 10 228 11 10 228 12 10 228 12 10 228 12 10 228 12 11 228 12 11 228 13 11 228 13 11 228 13 11 228 13 11 228 13 11 228 13 12 228 13 12 228 14 12 228 14 12 228 14 12 228 14 12 228 14 12 228 15 13 228 15 13 228 15 13 228 15 13 228 15 13 228 15 13 228 16 14 228 16 14 228 16 14 228 16 14 228 16 14 228 16 14 228 16 14 228 17 14 228 17 15 228 17 15 228 17 15 228 17 15 228 18 15 228 18 15 228 18 16 228 18 16 228 18 16 228 18 16 228 18 16 228 19 16 228 19 16 228 19 17 228 19 17 228 19 17 228 20 145 228 20 146 228 20 147 228 20 148 228 20 148 228 20 149 228 21 150 228 21 151 228 21 152 228 21 153 228 21 154 228 21 154 228 21 155 228 22 156 228 22 157 228 22 159 228 22 160 228 22 160 228 23 161 228 23 162 228 23 163 228 23 164 228 23 165 228 23 166 228 24 166 228 24 167 228 24 168 228 24 169 228 24 170 228 24 171 228 25 173 228 25 173 228 25 174 228 25 175 228 25 176 228 25 177 228 26 178 228 26 179 228 26 179 228 26 180 228 26 181 228 26 182 228 26 183 228 27 184 228 27 185 228 27 186 228 27 187 228 27 188 228 28 189 228 28 190 228 28 191 228 28 192 228 28 192 228 28 193 228 29 194 228 29 195 228 29 196 228 29 197 228 29 198 228 29 198 228 30 200 228 30 201 228 30 202 228 30 203 228 30 204 228 30 204 228 31 205 228 31 206 228 31 207 228 31 208 228 31 209 228 31 210 228 32 211 228 32 211 228 32 212 228 32 214 228 32 215 228 32 216 228 33 217 228 33 217 228 33 218 228 33 219 228 33 220 228 33 221 228 34 222 228 34 223 228 34 223 228 34 224 228 34 225 228 34 226 228 35 228 228 35 229 228 35 229 228 35 230 228 35 231 228 35 232 228 36 233 228 36 234 228 36 235 228 36 236 228 36 236 228 36 237 228 37 238 228 37 239 228 37 240 228 37 242 228 37 242 228 37 243 228 38 244 228 38 245 228 38 246 228 38 247 228 38 248 228 38 248 228 39 249 228 39 250 228 39 251 228 39 252 228 39 253 228 40 255 228
0 0 227 0 0 227 0 0 227 0 0 227 0 0 227 0 0 227 0 0 227 1 1 227 1 1 227 1 1 227 1 1 227 1 1 227 1 1 227 2 1 227 2 2 227 2 2 227 2 2 227 2 2 227 2 2 227 3 2 227 3 3 227 3 3 227 3 3 227 3 3 227 3 3 227 4 3 227 4 3 227 4 4 227 4 4 227 4 4 227 5 4 227 5 4 227 5 4 227 5 5 227 5 5 227 5 5 227 5 5 227 6 5 227 6 5 227 6 5 227 6 6 227 6 6 227 6 6 227 7 6 227 7 6 227 7 6 227 7 7 227 7 7 227 8 7 227 8 7 227 8 7 227 8 7 227 8 7 227 8 8 227 8 8 227 9 8 227 9 8 227 9 8 227 9 8 227 9 8 227 10 9 227 10 9 227 10 9 227 10 9 227 10 9 227 10 10 227 10 10 227 11 10 227 11 10 227 11 10 227 11 10 227 11 10 227 11 11 227 12 11 227 12 11 227 12 11 227 12 11 227 12 11 227 13 12 227 13 12 227 13 12 227 13 12 227 13 12 227 13 12 227 13 12 227 14 13 227 14 13 227 14 13 227 14 13 227 14 13 227 15 13 227 15 14 227 15 14 227 15 14 227 15 14 227 15 14 227 16 14 227 16 14 227 16 15 227 16 15 227 16 15 227 16 15 227 16 15 227 17 15 227 17 15 227 17 16 227 17 16 227 17 16 227 18 16 227 18 16 227 18 16 227 18 17 227 18 17 227 18 17 227 18 17 227 19 17 227 19 17 227 19 17 227 19 18 227 19 18 227 20 146 227 20 147 227 20 148 227 20 148 227 20 149 227 20 150 227 21 151 227 21 152 227 21 153 227 21 154 227 21 154 227 21 155 227 21 156 227 22 157 227 22 158 227 22 160 227 22 160 227 22 161 227 23 162 227 23 163 227 23 164 227 23 165 227 23 166 227 23 166 227 24 167 227 24 168 227 24 169 227 24 170 227 24 171 227 24 172 227 25 173 227 25 174 227 25 175 227 25 176 227 25 177 227 25 178 227 26 178 227 26 179 227 26 180 227 26 181 227 26 182 227 26 183 227 26 184 227 27 184 227 27 185 227 27 187 227 27 188 227 27 189 227 28 190 227 28 190 227 28 191 227 28 192 227 28 193 227 28 194 227 29 195 227 29 196 227 29 196 227 29 197 227 29 198 227 29 199 227 30 201 227 30 201 227 30 202 227 30 203 227 30 204 227 30 205 227 31 206 227 31 207 227 31 207 227 31 208 227 31 209 227 31 210 227 32 211 227 32 212 227 32 213 227 32 214 227 32 215 227 32 216 227 33 217 227 33 218 227 33 219 227 33 219 227 33 220 227 33 221 227 34 222 227 34 223 227 34 224 227 34 225 227 34 225 227 34 226 227 35 228 227 35 229 227 35 230 227 35 231 227 35 231 227 35 232 227 36 233 227 36 234 227 36 235 227 36 236 227 36 237 227 36 237 227 37 238 227 37 239 227 37 240 227 37 242 227 37 243 227 37 243 227 38 244 227 38 245 227 38 246 227 38 247 227 38 248 227 38 249 227 39 249 227 39 250 227 39 251 227 39 252 227 39 253 227 40 255 227
0 0 226 0 0 226 0 0 226 0 0 226 0 0 226 0 0 226 0 0 226 1 1 226 1 1 226 1 1 226 1 1 226 1 1 226 1 1 226 2 1 226 2 2 226 2 2 226 2 2 226 2 2 226 2 2 226 3 2 226 3 3 226 3 3 226 3 3 226 3 3 226 3 3 226 4 3 226 4 4 226 4 4 226 4 4 226 4 4 226 5 4 226 5 4 226 5 5 226 5 5 226 5 5 226 5 5 226 5 5 226 6 5 226 6 5 226 6 6 226 6 6 226 6 6 226 6 6 226 7 6 226 7 6 226 7 7 226 7 7 226 7 7 226 8 7 226 8 7 226 8 7 226 8 8 226 8 8 226 8 8 226 8 8 226 9 8 226 9 8 226 9 8 226 9 9 226 9 9 226 10 9 226 10 9 226 10 9 226 10 9 226 10 10 226 10 10 226 10 10 226 11 10 226 11 10 226 11 10 226 11 11 226 11 11 226 11 11 226 12 11 226 12 11 226 12 11 226 12 12 226 12 12 226 13 12 226 13 12 226 13 12 226 13 12 226 13 12 226 13 13 226 13 13 226 14 13 226 14 13 226 14 13 226 14 13 226 14 14 226 15 14 226 15 14 226 15 14 226 15 14 226 15 14 226 15 15 226 16 15 226 16 15 226 16 15 226 16 15 226 16 15 226 16 15 226 16 16 226 17 16 226 17 16 226 17 16 226 17 16 226 17 16 226 18 17 226 18 17 226 18 17 226 18 17 226 18 17 226 18 17 226 18 18 226 19 18 226 19 18 226 19 18 226 19 18 226 19 18 226 20 146 226 20 147 226 20 148 226 20 149 226 20 150 226 20 151 226 21 152 226 21 152 226 21 153 226 21 154 226 21 155 226 21 156 226 21 157 226 22 157 226 22 158 226 22 160 226 22 161 226 22 162 226 23 163 226 23 163 226 23 164 226 23 165 226 23 166 226 23 167 226 24 168 226 24 169 226 24 169 226 24 170 226 24 171 226 24 172 226 25 174 226 25 175 226 25 175 226 25 176 226 25 177 226 25 178 226 26 179 226 26 180 226 26 180 226 26 181 226 26 182 226 26 183 226 26 184 226 27 185 226 27 186 226 27 187 226 27 188 226 27 189 226 28 190 226 28 191 226 28 192 226 28 192 226 28 193 226 28 194 226 29 195 226 29 196 226 29 197 226 29 197 226 29 198 226 29 199 226 30 201 226 30 202 226 30 203 226 30 203 226 30 204 226 30 205 226 31 206 226 31 207 226 31 208 226 31 209 226 31 209 226 31 210 226 32 211 226 32 212 226 32 213 226 32 215 226 32 215 226 32 216 226 33 217 226 33 218 226 33 219 226 33 220 226 33 220 226 33 221 226 34 222 226 34 223 226 34 224 226 34 225 226 34 226 226 34 226 226 35 228 226 35 229 226 35 230 226 35 231 226 35 232 226 35 232 226 36 233 226 36 234 226 36 235 226 36 236 226 36 237 226 36 237 226 37 238 226 37 239 226 37 240 226 37 242 226 37 243 226 37 243 226 38 244 226 38 245 226 38 246 226 38 247 226 38 248 226 38 249 226 39 249 226 39 250 226 39 251 226 39 252 226 39 253 226 40 255 226
0 0 225 0 0 225 0 0 225 0 0 225 0 0 225 0 0 225 0 0 225 1 1 225 1 1 225 1 1 225 1 1 225 1 1 225 1 1 225 2 1 225 2 2 225 2 2 225 2 2 225 2 2 225 2 2 225 3 3 225 3 3 225 3 3 225 3 3 225 3 3 225 3 3 225 4 3 225 4 4 225 4 4 225 4 4 225 4 4 225 5 4 225 5 5 225 5 5 225 5 5 225 5 5 225 5 5 225 5 5 225 6 5 225 6 6 225 6 6 225 6 6 225 6 6 225 6 6 225 7 6 225 7 7 225 7 7 225 7 7 225 7 7 225 8 7 225 8 7 225 8 8 225 8 8 225 8 8 225 8 8 225 8 8 225 9 8 225 9 9 225 9 9 225 9 9 225 9 9 225 10 9 225 10 9 225 10 10 225 10 10 225 10 10 225 10 10 225 10 10 225 11 10 225 11 11 225 11 11 225 11 11 225 11 11 225 11 11 225 12 11 225 12 11 225 12 12 225 12 12 225 12 12 225 13 12 225 13 12 225 13 13 225 13 13 225 13 13 225 13 13 225 13 13 225 14 13 225 14 13 225 14 14 225 14 14 225 14 14 225 15 14 225 15 14 225 15 14 225 15 15 225 15 15 225 15 15 225 16 15 225 16 15 225 16 15 225 16 16 225 16 16 225 16 16 225 16 16 225 17 16 225 17 16 225 17 17 225 17 17 225 17 17 225 18 17 225 18 17 225 18 17 225 18 18 225 18 18 225 18 18 225 18 18 225 19 18 225 19 18 225 19 18 225 19 19 225 19 19 225 20 147 225 20 148 225 20 149 225 20 149 225 20 150 225 20 151 225 21 152 225 21 153 225 21 154 225 21 155 225 21 155 225 21 156 225 21 157 225 22 158 225 22 159 225 22 160 225 22 161 225 22 162 225 23 163 225 23 164 225 23 165 225 23 166 225 23 166 225 23 167 225 24 168 225 24 169 225 24 170 225 24 171 225 24 171 225 24 172 225 25 174 225 25 175 225 25 176 225 25 177 225 25 177 225 25 178 225 26 179 225 26 180 225 26 181 225 26 182 225 26 182 225 26 183 225 26 184 225 27 185 225 27 186 225 27 188 225 27 188 225 27 189 225 28 190 225 28 191 225 28 192 225 28 193 225 28 194 225 28 194 225 29 195 225 29 196 225 29 197 225 29 198 225 29 199 225 29 199 225 30 201 225 30 202 225 30 203 225 30 204 225 30 205 225 30 205 225 31 206 225 31 207 225 31 208 225 31 209 225 31 210 225 31 210 225 32 211 225 32 212 225 32 213 225 32 215 225 32 216 225 32 216 225 33 217 225 33 218 225 33 219 225 33 220 225 33 221 225 33 221 225 34 222 225 34 223 225 34 224 225 34 225 225 34 226 225 34 227 225 35 228 225 35 229 225 35 230 225 35 231 225 35 232 225 35 232 225 36 233 225 36 234 225 36 235 225 36 236 225 36 237 225 36 238 225 37 238 225 37 239 225 37 240 225 37 242 225 37 243 225 37 243 225 38 244 225 38 245 225 38 246 225 38 247 225 38 248 225 38 249 225 39 249 225 39 250 225 39 251 225 39 252 225 39 253 225 40 255 225
0 0 224 0 0 224 0 0 224 0 0 224 0 0 224 0 0 224 0 0 224 1 1 224 1 1 224 1 1 224 1 1 224 1 1 224 1 1 224 2 2 224 2 2 224 2 2 224 2 2 224 2 2 224 2 3 224 3 3 224 3 3 224 3 3 224 3 3 224 3 3 224 3 4 224 4 4 224 4 4 224 4 4 224 4 4 224 4 4 224 5 5 224 5 5 224 5 5 224 5 5 224 5 5 224 5 5 224 5 6 224 6 6 224 6 6 224 6 6 224 6 6 224 6 6 224 6 7 224 7 7 224 7 7 224 7 7 224 7 7 224 7 8 224 8 8 224 8 8 224 8 8 224 8 8 224 8 8 224 8 9 224 8 9 224 9 9 224 9 9 224 9 9 224 9 9 224 9 9 224 10 10 224 10 10 224 10 10 224 10 10 224 10 10 224 10 11 224 10 11 224 11 11 224 11 11 224 11 11 224 11 11 224 11 12 224 11 12 224 12 12 224 12 12 224 12 12 224 12 13 224 12 13 224 13 13 224 13 13 224 13 13 224 13 13 224 13 13 224 13 14 224 13 14 224 14 14 224 14 14 224 14 14 224 14 14 224 14 15 224 15 15 224 15 15 224 15 15 224 15 15 224 15 16 224 15 16 224 16 16 224 16 16 224 16 16 224 16 16 224 16 17 224 16 17 224 16 17 224 17 17 224 17 17 224 17 18 224 17 18 224 17 18 224 18 18 224 18 18 224 18 18 224 18 18 224 18 19 224 18 19 224 18 19 224 19 19 224 19 19 224 19 19 224 19 20 224 19 20 224 20 148 224 20 149 224 20 150 224 20 150 224 20 151 224 20 152 224 21 153 224 21 154 224 21 155 224 21 155 224 21 156 224 21 157 224 21 158 224 22 159 224 22 160 224 22 161 224 22 162 224 22 163 224 23 164 224 23 165 224 23 166 224 23 166 224 23 167 224 23 168 224 24 169 224 24 170 224 24 171 224 24 171 224 24 172 224 24 173 224 25 175 224 25 176 224 25 176 224 25 177 224 25 178 224 25 179 224 26 180 224 26 181 224 26 181 224 26 182 224 26 183 224 26 184 224 26 185 224 27 186 224 27 187 224 27 188 224 27 189 224 27 190 224 28 191 224 28 192 224 28 192 224 28 193 224 28 194 224 28 195 224 29 196 224 29 197 224 29 197 224 29 198 224 29 199 224 29 200 224 30 202 224 30 202 224 30 203 224 30 204 224 30 205 224 30 206 224 31 207 224 31 208 224 31 208 224 31 209 224 31 210 224 31 211 224 32 212 224 32 213 224 32 213 224 32 215 224 32 216 224 32 217 224 33 218 224 33 218 224 33 219 224 33 220 224 33 221 224 33 222 224 34 223 224 34 223 224 34 224 224 34 225 224 34 226 224 34 227 224 35 228 224 35 229 224 35 230 224 35 231 224 35 232 224 35 233 224 36 234 224 36 234 224 36 235 224 36 236 224 36 237 224 36 238 224 37 239 224 37 239 224 37 240 224 37 242 224 37 243 224 37 244 224 38 244 224 38 245 224 38 246 224 38 247 224 38 248 224 38 249 224 39 249 224 39 250 224 39 251 224 39 252 224 39 253 224 40 255 224
0 0 223 0 0 223 0 0 223 0 0 223 0 0 223 0 0 223 0 0 223 1 1 223 1 1 223 1 1 223 1 1 223 1 1 223 1 1 223 2 2 223 2 2 223 2 2 223 2 2 223 2 2 223 2 3 223 3 3 223 3 3 223 3 3 223 3 3 223 3 3 223 3 4 223 4 4 223 4 4 223 4 4 223 4 4 223 4 4 223 5 5 223 5 5 223 5 5 223 5 5 223 5 5 223 5 6 223 5 6 223 6 6 223 6 6 223 6 6 223 6 6 223 6 7 223 6 7 223 7 7 223 7 7 223 7 7 223 7 8 223 7 8 223 8 8 223 8 8 223 8 8 223 8 8 223 8 9 223 8 9 223 8 9 223 9 9 223 9 9 223 9 9 223 9 10 223 9 10 223 10 10 223 10 10 223 10 10 223 10 11 223 10 11 223 10 11 223 10 11 223 11 11 223 11 11 223 11 12 223 11 12 223 11 12 223 11 12 223 12 12 223 12 12 223 12 13 223 12 13 223 12 13 223 13 13 223 13 13 223 13 14 223 13 14 223 13 14 223 13 14 223 13 14 223 14 14 223 14 14 223 14 15 223 14 15 223 14 15 223 15 15 223 15 15 223 15 16 223 15 16 223 15 16 223 15 16 223 16 16 223 16 16 223 16 17 223 16 17 223 16 17 223 16 17 223 16 17 223 17 17 223 17 18 223 17 18 223 17 18 223 17 18 223 18 18 223 18 19 223 18 19 223 18 19 223 18 19 223 18 19 223 18 19 223 19 20 223 19 20 223 19 20 223 19 20 223 19 20 223 20 148 223 20 149 223 20 150 223 20 151 223 20 152 223 20 153 223 21 153 223 21 154 223 21 155 223 21 156 223 21 157 223 21 158 223 21 158 223 22 159 223 22 160 223 22 162 223 22 163 223 22 163 223 23 164 223 23 165 223 23 166 223 23 167 223 23 168 223 23 168 223 24 169 223 24 170 223 24 171 223 24 172 223 24 173 223 24 173 223 25 175 223 25 176 223 25 177 223 25 178 223 25 178 223 25 179 223 26 180 223 26 181 223 26 182 223 26 183 223 26 183 223 26 184 223 26 185 223 27 186 223 27 187 223 27 189 223 27 189 223 27 190 223 28 191 223 28 192 223 28 193 223 28 194 223 28 194 223 28 195 223 29 196 223 29 197 223 29 198 223 29 199 223 29 199 223 29 200 223 30 202 223 30 203 223 30 204 223 30 204 223 30 205 223 30 206 223 31 207 223 31 208 223 31 209 223 31 209 223 31 210 223 31 211 223 32 212 223 32 213 223 32 214 223 32 215 223 32 216 223 32 217 223 33 218 223 33 219 223 33 219 223 33 220 223 33 221 223 33 222 223 34 223 223 34 224 223 34 224 223 34 225 223 34 226 223 34 227 223 35 229 223 35 229 223 35 230 223 35 231 223 35 232 223 35 233 223 36 234 223 36 234 223 36 235 223 36 236 223 36 237 223 36 238 223 37 239 223 37 239 223 37 240 223 37 242 223 37 243 223 37 244 223 38 244 223 38 245 223 38 246 223 38 247 223 38 248 223 38 249 223 39 249 223 39 250 223 39 251 223 39 252 223 39 253 223 40 255 223
0 0 222 0 0 222 0 0 222 0 0 222 0 0 222 0 0 222 0 1 222 1 1 222 1 1 222 1 1 222 1 1 222 1 1 222 1 2 222 2 2 222 2 2 222 2 2 222 2 2 222 2 3 222 2 3 222 3 3 222 3 3 222 3 3 222 3 3 222 3 4 222 3 4 222 4 4 222 4 4 222 4 4 222 4 5 222 4 5 222 5 5 222 5 5 222 5 5 222 5 6 222 5 6 222 5 6 222 5 6 222 6 6 222 6 6 222 6 7 222 6 7 222 6 7 222 6 7 222 7 7 222 7 7 222 7 8 222 7 8 222 7 8 222 8 8 222 8 8 222 8 9 222 8 9 222 8 9 222 8 9 222 8 9 222 9 10 222 9 10 222 9 10 222 9 10 222 9 10 222 10 11 222 10 11 222 10 11 222 10 11 222 10 11 222 10 11 222 10 12 222 11 12 222 11 12 222 11 12 222 11 12 222 11 12 222 11 13 222 12 13 222 12 13 222 12 13 222 12 13 222 12 14 222 13 14 222 13 14 222 13 14 222 13 14 222 13 15 222 13 15 222 13 15 222 14 15 222 14 15 222 14 15 222 14 16 222 14 16 222 15 16 222 15 16 222 15 16 222 15 17 222 15 17 222 15 17 222 16 17 222 16 17 222 16 17 222 16 18 222 16 18 222 16 18 222 16 18 222 17 18 222 17 18 222 17 19 222 17 19 222 17 19 222 18 19 222 18 20 222 18 20 222 18 20 222 18 20 222 18 20 222 18 20 222 19 21 222 19 21 222 19 21 222 19 21 222 19 21 222 20 149 222 20 150 222 20 151 222 20 152 222 20 153 222 20 154 222 21 154 222 21 155 222 21 156 222 21 157 222 21 158 222 21 159 222 21 159 222 22 160 222 22 161 222 22 163 222 22 163 222 22 164 222 23 165 222 23 166 222 23 167 222 23 168 222 23 168 222 23 169 222 24 170 222 24 171 222 24 172 222 24 173 222 24 173 222 24 174 222 25 176 222 25 177 222 25 178 222 25 178 222 25 179 222 25 180 222 26 181 222 26 182 222 26 183 222 26 183 222 26 184 222 26 185 222 26 186 222 27 187 222 27 187 222 27 189 222 27 190 222 27 191 222 28 192 222 28 192 222 28 193 222 28 194 222 28 195 222 28 196 222 29 197 222 29 197 222 29 198 222 29 199 222 29 200 222 29 201 222 30 202 222 30 203 222 30 204 222 30 205 222 30 206 222 30 207 222 31 207 222 31 208 222 31 209 222 31 210 222 31 211 222 31 211 222 32 212 222 32 213 222 32 214 222 32 216 222 32 216 222 32 217 222 33 218 222 33 219 222 33 220 222 33 221 222 33 221 222 33 222 222 34 223 222 34 224 222 34 225 222 34 226 222 34 226 222 34 227 222 35 229 222 35 230 222 35 231 222 35 231 222 35 232 222 35 233 222 36 234 222 36 235 222 36 235 222 36 236 222 36 237 222 36 238 222 37 239 222 37 240 222 37 240 222 37 242 222 37 243 222 37 244 222 38 245 222 38 245 222 38 246 222 38 247 222 38 248 222 38 249 222 39 250 222 39 250 222 39 251 222 39 252 222 39 253 222 40 255 222
0 0 221 0 0 221 0 0 221 0 0 221 0 0 221 0 0 221 0 1 221 1 1 221 1 1 221 1 1 221 1 1 221 1 1 221 1 2 221 2 2 221 2 2 221 2 2 221 2 3 221 2 3 221 2 3 221 3 3 221 3 3 221 3 3 221 3 4 221 3 4 221 3 4 221 4 4 221 4 4 221 4 4 221 4 5 221 4 5 221 5 5 221 5 5 221 5 6 221 5 6 221 5 6 221 5 6 221 5 6 221 6 6 221 6 7 221 6 7 221 6 7 221 6 7 221 6 7 221 7 7 221 7 8 221 7 8 221 7 8 221 7 8 221 8 9 221 8 9 221 8 9 221 8 9 221 8 9 221 8 9 221 8 10 221 9 10 221 9 10 221 9 10 221 9 10 221 9 10 221 10 11 221 10 11 221 10 11 221 10 11 221 10 12 221 10 12 221 10 12 221 11 12 221 11 12 221 11 12 221 11 13 221 11 13 221 11 13 221 12 13 221 12 13 221 12 14 221 12 14 221 12 14 221 13 14 221 13 14 221 13 15 221 13 15 221 13 15 221 13 15 221 13 15 221 14 15 221 14 16 221 14 16 221 14 16 221 14 16 221 15 16 221 15 17 221 15 17 221 15 17 221 15 17 221 15 17 221 16 18 221 16 18 221 16 18 221 16 18 221 16 18 221 16 18 221 16 19 221 17 19 221 17 19 221 17 19 221 17 19 221 17 20 221 18 20 221 18 20 221 18 20 221 18 20 221 18 21 221 18 21 221 18 21 221 19 21 221 19 21 221 19 21 221 19 22 221 19 22 221 20 150 221 20 151 221 20 152 221 20 152 221 20 153 221 20 154 221 21 155 221 21 156 221 21 157 221 21 157 221 21 158 221 21 159 221 21 160 221 22 161 221 22 161 221 22 163 221 22 164 221 22 165 221 23 166 221 23 166 221 23 167 221 23 168 221 23 169 221 23 170 221 24 171 221 24 171 221 24 172 221 24 173 221 24 174 221 24 175 221 25 176 221 25 177 221 25 178 221 25 179 221 25 180 221 25 180 221 26 181 221 26 182 221 26 183 221 26 184 221 26 185 221 26 185 221 26 186 221 27 187 221 27 188 221 27 189 221 27 190 221 27 191 221 28 192 221 28 193 221 28 194 221 28 194 221 28 195 221 28 196 221 29 197 221 29 198 221 29 199 221 29 199 221 29 200 221 29 201 221 30 203 221 30 203 221 30 204 221 30 205 221 30 206 221 30 207 221 31 208 221 31 208 221 31 209 221 31 210 221 31 211 221 31 212 221 32 213 221 32 213 221 32 214 221 32 216 221 32 217 221 32 217 221 33 218 221 33 219 221 33 220 221 33 221 221 33 222 221 33 222 221 34 223 221 34 224 221 34 225 221 34 226 221 34 227 221 34 227 221 35 229 221 35 230 221 35 231 221 35 231 221 35 232 221 35 233 221 36 234 221 36 235 221 36 236 221 36 236 221 36 237 221 36 238 221 37 239 221 37 240 221 37 241 221 37 242 221 37 243 221 37 244 221 38 245 221 38 245 221 38 246 221 38 247 221 38 248 221 38 249 221 39 250 221 39 250 221 39 251 221 39 252 221 39 253 221 40 255 221
0 0 220 0 0 220 0 0 220 0 0 220 0 0 220 0 0 220 0 1 220 1 1 220 1 1 220 1 1 220 1 1 220 1 2 220 1 2 220 2 2 220 2 2 220 2 2 220 2 3 220 2 3 220 2 3 220 3 3 220 3 3 220 3 4 220 3 4 220 3 4 220 3 4 220 4 4 220 4 4 220 4 5 220 4 5 220 4 5 220 5 5 220 5 6 220 5 6 220 5 6 220 5 6 220 5 6 220 5 7 220 6 7 220 6 7 220 6 7 220 6 7 220 6 7 220 6 8 220 7 8 220 7 8 220 7 8 220 7 9 220 7 9 220 8 9 220 8 9 220 8 9 220 8 9 220 8 10 220 8 10 220 8 10 220 9 10 220 9 10 220 9 11 220 9 11 220 9 11 220 10 11 220 10 11 220 10 12 220 10 12 220 10 12 220 10 12 220 10 12 220 11 13 220 11 13 220 11 13 220 11 13 220 11 13 220 11 14 220 12 14 220 12 14 220 12 14 220 12 14 220 12 15 220 13 15 220 13 15 220 13 15 220 13 15 220 13 16 220 13 16 220 13 16 220 14 16 220 14 16 220 14 16 220 14 17 220 14 17 220 15 17 220 15 17 220 15 18 220 15 18 220 15 18 220 15 18 220 16 18 220 16 18 220 16 19 220 16 19 220 16 19 220 16 19 220 16 19 220 17 20 220 17 20 220 17 20 220 17 20 220 17 21 220 18 21 220 18 21 220 18 21 220 18 21 220 18 21 220 18 22 220 18 22 220 19 22 220 19 22 220 19 22 220 19 23 220 19 23 220 20 151 220 20 152 220 20 153 220 20 153 220 20 154 220 20 155 220 21 156 220 21 157 220 21 157 220 21 158 220 21 159 220 21 160 220 21 161 220 22 162 220 22 162 220 22 164 220 22 165 220 22 166 220 23 166 220 23 167 220 23 168 220 23 169 220 23 170 220 23 170 220 24 171 220 24 172 220 24 173 220 24 174 220 24 175 220 24 175 220 25 177 220 25 178 220 25 179 220 25 179 220 25 180 220 25 181 220 26 182 220 26 183 220 26 184 220 26 184 220 26 185 220 26 186 220 26 187 220 27 188 220 27 188 220 27 190 220 27 191 220 27 192 220 28 193 220 28 193 220 28 194 220 28 195 220 28 196 220 28 197 220 29 197 220 29 198 220 29 199 220 29 200 220 29 201 220 29 201 220 30 203 220 30 204 220 30 205 220 30 206 220 30 206 220 30 207 220 31 208 220 31 209 220 31 210 220 31 210 220 31 211 220 31 212 220 32 213 220 32 214 220 32 215 220 32 216 220 32 217 220 32 218 220 33 219 220 33 219 220 33 220 220 33 221 220 33 222 220 33 223 220 34 224 220 34 224 220 34 225 220 34 226 220 34 227 220 34 228 220 35 229 220 35 230 220 35 231 220 35 232 220 35 232 220 35 233 220 36 234 220 36 235 220 36 236 220 36 237 220 36 237 220 36 238 220 37 239 220 37 240 220 37 241 220 37 242 220 37 243 220 37 244 220 38 245 220 38 246 220 38 246 220 38 247 220 38 248 220 38 249 220 39 250 220 39 250 220 39 251 220 39 252 220 39 253 220 40 255 220
0 0 219 0 0 219 0 0 219 0 0 219 0 0 219 0 0 219 0 1 219 1 1 219 1 1 219 1 1 219 1 1 219 1 2 219 1 2 219 2 2 219 2 2 219 2 3 219 2 3 219 2 3 219 2 3 219 3 3 219 3 3 219 3 4 219 3 4 219 3 4 219 3 4 219 4 4 219 4 5 219 4 5 219 4 5 219 4 5 219 5 6 219 5 6 219 5 6 219 5 6 219 5 6 219 5 6 219 5 7 219 6 7 219 6 7 219 6 7 219 6 7 219 6 8 219 6 8 219 7 8 219 7 8 219 7 9 219 7 9 219 7 9 219 8 9 219 8 9 219 8 9 219 8 10 219 8 10 219 8 10 219 8 10 219 9 10 219 9 11 219 9 11 219 9 11 219 9 11 219 10 12 219 10 12 219 10 12 219 10 12 219 10 12 219 10 12 219 10 13 219 11 13 219 11 13 219 11 13 219 11 13 219 11 14 219 11 14 219 12 14 219 12 14 219 12 15 219 12 15 219 12 15 219 13 15 219 13 15 219 13 16 219 13 16 219 13 16 219 13 16 219 13 16 219 14 16 219 14 17 219 14 17 219 14 17 219 14 17 219 15 18 219 15 18 219 15 18 219 15 18 219 15 18 219 15 19 219 16 19 219 16 19 219 16 19 219 16 19 219 16 19 219 16 20 219 16 20 219 17 20 219 17 20 219 17 21 219 17 21 219 17 21 219 18 21 219 18 21 219 18 22 219 18 22 219 18 22 219 18 22 219 18 22 219 19 22 219 19 23 219 19 23 219 19 23 219 19 23 219 20 151 219 20 152 219 20 153 219 20 154 219 20 155 219 20 155 219 21 156 219 21 157 219 21 158 219 21 159 219 21 160 219 21 160 219 21 161 219 22 162 219 22 163 219 22 164 219 22 165 219 22 166 219 23 167 219 23 168 219 23 168 219 23 169 219 23 170 219 23 171 219 24 172 219 24 173 219 24 173 219 24 174 219 24 175 219 24 176 219 25 177 219 25 178 219 25 179 219 25 180 219 25 181 219 25 181 219 26 182 219 26 183 219 26 184 219 26 185 219 26 186 219 26 186 219 26 187 219 27 188 219 27 189 219 27 190 219 27 191 219 27 192 219 28 193 219 28 194 219 28 194 219 28 195 219 28 196 219 28 197 219 29 198 219 29 198 219 29 199 219 29 200 219 29 201 219 29 202 219 30 203 219 30 204 219 30 205 219 30 206 219 30 207 219 30 207 219 31 208 219 31 209 219 31 210 219 31 211 219 31 211 219 31 212 219 32 213 219 32 214 219 32 215 219 32 216 219 32 217 219 32 218 219 33 219 219 33 220 219 33 220 219 33 221 219 33 222 219 33 223 219 34 224 219 34 224 219 34 225 219 34 226 219 34 227 219 34 228 219 35 229 219 35 230 219 35 231 219 35 232 219 35 233 219 35 233 219 36 234 219 36 235 219 36 236 219 36 237 219 36 237 219 36 238 219 37 239 219 37 240 219 37 241 219 37 242 219 37 243 219 37 244 219 38 245 219 38 246 219 38 246 219 38 247 219 38 248 219 38 249 219 39 250 219 39 250 219 39 251 219 39 252 219 39 253 219 40 255 219
0 0 218 0 0 218 0 0 218 0 0 218 0 0 218 0 0 218 0 1 218 1 1 218 1 1 218 1 1 218 1 1 218 1 2 218 1 2 218 2 2 218 2 2 218 2 3 218 2 3 218 2 3 218 2 3 218 3 3 218 3 4 218 3 4 218 3 4 218 3 4 218 3 4 218 4 4 218 4 5 218 4 5 218 4 5 218 4 5 218 5 6 218 5 6 218 5 6 218 5 6 218 5 6 218 5 7 218 5 7 218 6 7 218 6 7 218 6 7 218 6 8 218 6 8 218 6 8 218 7 8 218 7 8 218 7 9 218 7 9 218 7 9 218 8 9 218 8 9 218 8 10 218 8 10 218 8 10 218 8 10 218 8 10 218 9 11 218 9 11 218 9 11 218 9 11 218 9 11 218 10 12 218 10 12 218 10 12 218 10 12 218 10 13 218 10 13 218 10 13 218 11 13 218 11 13 218 11 14 218 11 14 218 11 14 218 11 14 218 12 14 218 12 14 218 12 15 218 12 15 218 12 15 218 13 15 218 13 16 218 13 16 218 13 16 218 13 16 218 13 16 218 13 17 218 14 17 218 14 17 218 14 17 218 14 17 218 14 18 218 15 18 218 15 18 218 15 18 218 15 19 218 15 19 218 15 19 218 16 19 218 16 19 218 16 19 218 16 20 218 16 20 218 16 20 218 16 20 218 17 20 218 17 21 218 17 21 218 17 21 218 17 21 218 18 22 218 18 22 218 18 22 218 18 22 218 18 22 218 18 23 218 18 23 218 19 23 218 19 23 218 19 23 218 19 24 218 19 24 218 20 152 218 20 153 218 20 154 218 20 154 218 20 155 218 20 156 218 21 157 218 21 158 218 21 158 218 21 159 218 21 160 218 21 161 218 21 162 218 22 162 218 22 163 218 22 165 218 22 166 218 22 166 218 23 167 218 23 168 218 23 169 218 23 170 218 23 170 218 23 171 218 24 172 218 24 173 218 24 174 218 24 175 218 24 175 218 24 176 218 25 178 218 25 179 218 25 179 218 25 180 218 25 181 218 25 182 218 26 183 218 26 183 218 26 184 218 26 185 218 26 186 218 26 187 218 26 187 218 27 188 218 27 189 218 27 191 218 27 191 218 27 192 218 28 193 218 28 194 218 28 195 218 28 196 218 28 196 218 28 197 218 29 198 218 29 199 218 29 200 218 29 200 218 29 201 218 29 202 218 30 204 218 30 204 218 30 205 218 30 206 218 30 207 218 30 208 218 31 208 218 31 209 218 31 210 218 31 211 218 31 212 218 31 212 218 32 213 218 32 214 218 32 215 218 32 217 218 32 217 218 32 218 218 33 219 218 33 220 218 33 221 218 33 221 218 33 222 218 33 223 218 34 224 218 34 225 218 34 225 218 34 226 218 34 227 218 34 228 218 35 229 218 35 230 218 35 231 218 35 232 218 35 233 218 35 233 218 36 234 218 36 235 218 36 236 218 36 237 218 36 238 218 36 238 218 37 239 218 37 240 218 37 241 218 37 242 218 37 243 218 37 244 218 38 245 218 38 246 218 38 246 218 38 247 218 38 248 218 38 249 218 39 250 218 39 250 218 39 251 218 39 252 218 39 253 218 40 255 218
0 0 217 0 0 217 0 0 217 0 0 217 0 0 217 0 1 217 0 1 217 1 1 217 1 1 217 1 1 217 1 2 217 1 2 217 1 2 217 2 2 217 2 2 217 2 3 217 2 3 217 2 3 217 2 3 217 3 4 217 3 4 217 3 4 217 3 4 217 3 4 217 3 5 217 4 5 217 4 5 217 4 5 217 4 5 217 4 6 217 5 6 217 5 6 217 5 6 217 5 7 217 5 7 217 5 7 217 5 7 217 6 7 217 6 8 217 6 8 217 6 8 217 6 8 217 6 8 217 7 9 217 7 9 217 7 9 217 7 9 217 7 10 217 8 10 217 8 10 217 8 10 217 8 10 217 8 11 217 8 11 217 8 11 217 9 11 217 9 11 217 9 12 217 9 12 217 9 12 217 10 12 217 10 13 217 10 13 217 10 13 217 10 13 217 10 13 217 10 14 217 11 14 217 11 14 217 11 14 217 11 14 217 11 15 217 11 15 217 12 15 217 12 15 217 12 16 217 12 16 217 12 16 217 13 16 217 13 16 217 13 17 217 13 17 217 13 17 217 13 17 217 13 17 217 14 18 217 14 18 217 14 18 217 14 18 217 14 18 217 15 19 217 15 19 217 15 19 217 15 19 217 15 20 217 15 20 217 16 20 217 16 20 217 16 20 217 16 21 217 16 21 217 16 21 217 16 21 217 17 21 217 17 22 217 17 22 217 17 22 217 17 22 217 18 23 217 18 23 217 18 23 217 18 23 217 18 23 217 18 24 217 18 24 217 19 24 217 19 24 217 19 24 217 19 25 217 19 25 217 20 153 217 20 154 217 20 155 217 20 155 217 20 156 217 20 157 217 21 158 217 21 159 217 21 159 217 21 160 217 21 161 217 21 162 217 21 163 217 22 163 217 22 164 217 22 166 217 22 166 217 22 167 217 23 168 217 23 169 217 23 170 217 23 171 217 23 171 217 23 172 217 24 173 217 24 174 217 24 175 217 24 175 217 24 176 217 24 177 217 25 179 217 25 179 217 25 180 217 25 181 217 25 182 217 25 183 217 26 183 217 26 184 217 26 185 217 26 186 217 26 187 217 26 187 217 26 188 217 27 189 217 27 190 217 27 191 217 27 192 217 27 193 217 28 194 217 28 195 217 28 195 217 28 196 217 28 197 217 28 198 217 29 199 217 29 199 217 29 200 217 29 201 217 29 202 217 29 203 217 30 204 217 30 205 217 30 206 217 30 207 217 30 207 217 30 208 217 31 209 217 31 210 217 31 211 217 31 211 217 31 212 217 31 213 217 32 214 217 32 215 217 32 215 217 32 217 217 32 218 217 32 219 217 33 219 217 33 220 217 33 221 217 33 222 217 33 223 217 33 223 217 34 224 217 34 225 217 34 226 217 34 227 217 34 227 217 34 228 217 35 230 217 35 231 217 35 231 217 35 232 217 35 233 217 35 234 217 36 235 217 36 235 217 36 236 217 36 237 217 36 238 217 36 239 217 37 239 217 37 240 217 37 241 217 37 243 217 37 243 217 37 244 217 38 245 217 38 246 217 38 247 217 38 247 217 38 248 217 38 249 217 39 250 217 39 251 217 39 251 217 39 252 217 39 253 217 40 255 217
0 0 216 0 0 216 0 0 216 0 0 216 0 0 216 0 1 216 0 1 216 1 1 216 1 1 216 1 1 216 1 2 216 1 2 216 1 2 216 2 2 216 2 2 216 2 3 216 2 3 216 2 3 216 2 3 216 3 4 216 3 4 216 3 4 216 3 4 216 3 4 216 3 5 216 4 5 216 4 5 216 4 5 216 4 5 216 4 6 216 5 6 216 5 6 216 5 6 216 5 7 216 5 7 216 5 7 216 5 7 216 6 7 216 6 8 216 6 8 216 6 8 216 6 8 216 6 8 216 7 9 216 7 9 216 7 9 216 7 9 216 7 10 216 8 10 216 8 10 216 8 10 216 8 11 216 8 11 216 8 11 216 8 11 216 9 11 216 9 12 216 9 12 216 9 12 216 9 12 216 10 13 216 10 13 216 10 13 216 10 13 216 10 13 216 10 14 216 10 14 216 11 14 216 11 14 216 11 14 216 11 15 216 11 15 216 11 15 216 12 15 216 12 15 216 12 16 216 12 16 216 12 16 216 13 16 216 13 17 216 13 17 216 13 17 216 13 17 216 13 17 216 13 18 216 14 18 216 14 18 216 14 18 216 14 18 216 14 19 216 15 19 216 15 19 216 15 19 216 15 20 216 15 20 216 15 20 216 16 20 216 16 21 216 16 21 216 16 21 216 16 21 216 16 21 216 16 22 216 17 22 216 17 22 216 17 22 216 17 23 216 17 23 216 18 23 216 18 23 216 18 23 216 18 24 216 18 24 216 18 24 216 18 24 216 19 24 216 19 25 216 19 25 216 19 25 216 19 25 216 20 153 216 20 154 216 20 155 216 20 156 216 20 157 216 20 157 216 21 158 216 21 159 216 21 160 216 21 161 216 21 161 216 21 162 216 21 163 216 22 164 216 22 165 216 22 166 216 22 167 216 22 168 216 23 169 216 23 169 216 23 170 216 23 171 216 23 172 216 23 173 216 24 173 216 24 174 216 24 175 216 24 176 216 24 176 216 24 177 216 25 179 216 25 180 216 25 180 216 25 181 216 25 182 216 25 183 216 26 184 216 26 184 216 26 185 216 26 186 216 26 187 216 26 188 216 26 188 216 27 189 216 27 190 216 27 192 216 27 192 216 27 193 216 28 194 216 28 195 216 28 196 216 28 196 216 28 197 216 28 198 216 29 199 216 29 200 216 29 200 216 29 201 216 29 202 216 29 203 216 30 204 216 30 205 216 30 206 216 30 207 216 30 208 216 30 208 216 31 209 216 31 210 216 31 211 216 31 212 216 31 212 216 31 213 216 32 214 216 32 215 216 32 215 216 32 217 216 32 218 216 32 219 216 33 219 216 33 220 216 33 221 216 33 222 216 33 223 216 33 223 216 34 224 216 34 225 216 34 226 216 34 227 216 34 227 216 34 228 216 35 230 216 35 231 216 35 231 216 35 232 216 35 233 216 35 234 216 36 235 216 36 235 216 36 236 216 36 237 216 36 238 216 36 239 216 37 239 216 37 240 216 37 241 216 37 243 216 37 243 216 37 244 216 38 245 216 38 246 216 38 247 216 38 247 216 38 248 216 38 249 216 39 250 216 39 251 216 39 251 216 39 252 216 39 253 216 40 255 216
0 0 215 0 0 215 0 0 215 0 0 215 0 0 215 0 1 215 0 1 215 1 1 215 1 1 215 1 1 215 1 2 215 1 2 215 1 2 215 2 2 215 2 2 215 2 3 215 2 3 215 2 3 215 2 4 215 3 4 215 3 4 215 3 4 215 3 4 215 3 5 215 3 5 215 4 5 215 4 5 215 4 5 215 4 6 215 4 6 215 5 6 215 5 6 215 5 7 215 5 7 215 5 7 215 5 7 215 5 8 215 6 8 215 6 8 215 6 8 215 6 8 215 6 9 215 6 9 215 7 9 215 7 9 215 7 10 215 7 10 215 7 10 215 8 10 215 8 11 215 8 11 215 8 11 215 8 11 215 8 11 215 8 12 215 9 12 215 9 12 215 9 12 215 9 12 215 9 13 215 10 13 215 10 13 215 10 13 215 10 14 215 10 14 215 10 14 215 10 14 215 11 15 215 11 15 215 11 15 215 11 15 215 11 15 215 11 16 215 12 16 215 12 16 215 12 16 215 12 17 215 12 17 215 13 17 215 13 17 215 13 18 215 13 18 215 13 18 215 13 18 215 13 18 215 14 19 215 14 19 215 14 19 215 14 19 215 14 19 215 15 20 215 15 20 215 15 20 215 15 20 215 15 21 215 15 21 215 16 21 215 16 21 215 16 22 215 16 22 215 16 22 215 16 22 215 16 22 215 17 23 215 17 23 215 17 23 215 17 23 215 17 24 215 18 24 215 18 24 215 18 24 215 18 24 215 18 25 215 18 25 215 18 25 215 19 25 215 19 26 215 19 26 215 19 26 215 19 26 215 20 154 215 20 155 215 20 156 215 20 157 215 20 158 215 20 158 215 21 159 215 21 160 215 21 161 215 21 161 215 21 162 215 21 163 215 21 164 215 22 165 215 22 165 215 22 167 215 22 168 215 22 169 215 23 169 215 23 170 215 23 171 215 23 172 215 23 173 215 23 173 215 24 174 215 24 175 215 24 176 215 24 176 215 24 177 215 24 178 215 25 180 215 25 180 215 25 181 215 25 182 215 25 183 215 25 184 215 26 184 215 26 185 215 26 186 215 26 187 215 26 188 215 26 188 215 26 189 215 27 190 215 27 191 215 27 192 215 27 193 215 27 194 215 28 195 215 28 195 215 28 196 215 28 197 215 28 198 215 28 199 215 29 199 215 29 200 215 29 201 215 29 202 215 29 202 215 29 203 215 30 205 215 30 206 215 30 206 215 30 207 215 30 208 215 30 209 215 31 210 215 31 210 215 31 211 215 31 212 215 31 213 215 31 214 215 32 214 215 32 215 215 32 216 215 32 217 215 32 218 215 32 219 215 33 220 215 33 221 215 33 221 215 33 222 215 33 223 215 33 224 215 34 225 215 34 225 215 34 226 215 34 227 215 34 228 215 34 228 215 35 230 215 35 231 215 35 232 215 35 232 215 35 233 215 35 234 215 36 235 215 36 236 215 36 236 215 36 237 215 36 238 215 36 239 215 37 240 215 37 240 215 37 241 215 37 243 215 37 243 215 37 244 215 38 245 215 38 246 215 38 247 215 38 247 215 38 248 215 38 249 215 39 250 215 39 251 215 39 251 215 39 252 215 39 253 215 40 255 215
0 0 214 0 0 214 0 0 214 0 0 214 0 0 214 0 1 214 0 1 214 1 1 214 1 1 214 1 1 214 1 2 214 1 2 214 1 2 214 2 2 214 2 3 214 2 3 214 2 3 214 2 3 214 2 4 214 3 4 214 3 4 214 3 4 214 3 4 214 3 5 214 3 5 214 4 5 214 4 5 214 4 6 214 4 6 214 4 6 214 5 6 214 5 7 214 5 7 214 5 7 214 5 7 214 5 7 214 5 8 214 6 8 214 6 8 214 6 8 214 6 9 214 6 9 214 6 9 214 7 9 214 7 9 214 7 10 214 7 10 214 7 10 214 8 11 214 8 11 214 8 11 214 8 11 214 8 11 214 8 12 214 8 12 214 9 12 214 9 12 214 9 12 214 9 13 214 9 13 214 10 13 214 10 14 214 10 14 214 10 14 214 10 14 214 10 14 214 10 15 214 11 15 214 11 15 214 11 15 214 11 15 214 11 16 214 11 16 214 12 16 214 12 16 214 12 17 214 12 17 214 12 17 214 13 17 214 13 18 214 13 18 214 13 18 214 13 18 214 13 18 214 13 19 214 14 19 214 14 19 214 14 19 214 14 20 214 14 20 214 15 20 214 15 20 214 15 21 214 15 21 214 15 21 214 15 21 214 16 22 214 16 22 214 16 22 214 16 22 214 16 22 214 16 23 214 16 23 214 17 23 214 17 23 214 17 24 214 17 24 214 17 24 214 18 24 214 18 25 214 18 25 214 18 25 214 18 25 214 18 25 214 18 26 214 19 26 214 19 26 214 19 26 214 19 26 214 19 27 214 20 155 214 20 156 214 20 156 214 20 157 214 20 158 214 20 159 214 21 160 214 21 160 214 21 161 214 21 162 214 21 163 214 21 164 214 21 164 214 22 165 214 22 166 214 22 167 214 22 168 214 22 169 214 23 170 214 23 171 214 23 171 214 23 172 214 23 173 214 23 174 214 24 175 214 24 175 214 24 176 214 24 177 214 24 178 214 24 178 214 25 180 214 25 181 214 25 182 214 25 182 214 25 183 214 25 184 214 26 185 214 26 185 214 26 186 214 26 187 214 26 188 214 26 189 214 26 189 214 27 190 214 27 191 214 27 193 214 27 193 214 27 194 214 28 195 214 28 196 214 28 196 214 28 197 214 28 198 214 28 199 214 29 200 214 29 200 214 29 201 214 29 202 214 29 203 214 29 204 214 30 205 214 30 206 214 30 207 214 30 207 214 30 208 214 30 209 214 31 210 214 31 211 214 31 211 214 31 212 214 31 213 214 31 214 214 32 215 214 32 215 214 32 216 214 32 218 214 32 218 214 32 219 214 33 220 214 33 221 214 33 222 214 33 222 214 33 223 214 33 224 214 34 225 214 34 225 214 34 226 214 34 227 214 34 228 214 34 229 214 35 230 214 35 231 214 35 232 214 35 233 214 35 233 214 35 234 214 36 235 214 36 236 214 36 236 214 36 237 214 36 238 214 36 239 214 37 240 214 37 240 214 37 241 214 37 243 214 37 244 214 37 244 214 38 245 214 38 246 214 38 247 214 38 247 214 38 248 214 38 249 214 39 250 214 39 251 214 39 251 214 39 252 214 39 253 214 40 255 214
0 0 213 0 0 213 0 0 213 0 0 213 0 0 213 0 1 213 0 1 213 1 1 213 1 1 213 1 1 213 1 2 213 1 2 213 1 2 213 2 2 213 2 3 213 2 3 213 2 3 213 2 3 213 2 4 213 3 4 213 3 4 213 3 4 213 3 5 213 3 5 213 3 5 213 4 5 213 4 5 213 4 6 213 4 6 213 4 6 213 5 7 213 5 7 213 5 7 213 5 7 213 5 7 213 5 8 213 5 8 213 6 8 213 6 8 213 6 9 213 6 9 213 6 9 213 6 9 213 7 9 213 7 10 213 7 10 213 7 10 213 7 10 213 8 11 213 8 11 213 8 11 213 8 11 213 8 12 213 8 12 213 8 12 213 9 12 213 9 12 213 9 13 213 9 13 213 9 13 213 10 14 213 10 14 213 10 14 213 10 14 213 10 14 213 10 15 213 10 15 213 11 15 213 11 15 213 11 16 213 11 16 213 11 16 213 11 16 213 12 16 213 12 17 213 12 17 213 12 17 213 12 18 213 13 18 213 13 18 213 13 18 213 13 18 213 13 19 213 13 19 213 13 19 213 14 19 213 14 19 213 14 20 213 14 20 213 14 20 213 15 21 213 15 21 213 15 21 213 15 21 213 15 21 213 15 22 213 16 22 213 16 22 213 16 22 213 16 23 213 16 23 213 16 23 213 16 23 213 17 23 213 17 24 213 17 24 213 17 24 213 17 25 213 18 25 213 18 25 213 18 25 213 18 25 213 18 26 213 18 26 213 18 26 213 19 26 213 19 27 213 19 27 213 19 27 213 19 27 213 20 155 213 20 156 213 20 157 213 20 158 213 20 159 213 20 159 213 21 160 213 21 161 213 21 162 213 21 162 213 21 163 213 21 164 213 21 165 213 22 166 213 22 166 213 22 168 213 22 169 213 22 169 213 23 170 213 23 171 213 23 172 213 23 173 213 23 173 213 23 174 213 24 175 213 24 176 213 24 176 213 24 177 213 24 178 213 24 179 213 25 180 213 25 181 213 25 182 213 25 183 213 25 183 213 25 184 213 26 185 213 26 186 213 26 187 213 26 187 213 26 188 213 26 189 213 26 190 213 27 191 213 27 191 213 27 193 213 27 194 213 27 194 213 28 195 213 28 196 213 28 197 213 28 198 213 28 198 213 28 199 213 29 200 213 29 201 213 29 201 213 29 202 213 29 203 213 29 204 213 30 205 213 30 206 213 30 207 213 30 208 213 30 208 213 30 209 213 31 210 213 31 211 213 31 212 213 31 212 213 31 213 213 31 214 213 32 215 213 32 215 213 32 216 213 32 218 213 32 219 213 32 219 213 33 220 213 33 221 213 33 222 213 33 223 213 33 223 213 33 224 213 34 225 213 34 226 213 34 226 213 34 227 213 34 228 213 34 229 213 35 230 213 35 231 213 35 232 213 35 233 213 35 233 213 35 234 213 36 235 213 36 236 213 36 237 213 36 237 213 36 238 213 36 239 213 37 240 213 37 240 213 37 241 213 37 243 213 37 244 213 37 244 213 38 245 213 38 246 213 38 247 213 38 247 213 38 248 213 38 249 213 39 250 213 39 251 213 39 251 213 39 252 213 39 253 213 40 255 213
0 0 212 0 0 212 0 0 212 0 0 212 0 0 212 0 1 212 0 1 212 1 1 212 1 1 212 1 2 212 1 2 212 1 2 212 1 2 212 2 2 212 2 3 212 2 3 212 2 3 212 2 4 212 2 4 212 3 4 212 3 4 212 3 5 212 3 5 212 3 5 212 3 5 212 4 5 212 4 6 212 4 6 212 4 6 212 4 6 212 5 7 212 5 7 212 5 7 212 5 7 212 5 8 212 5 8 212 5 8 212 6 8 212 6 9 212 6 9 212 6 9 212 6 9 212 6 10 212 7 10 212 7 10 212 7 10 212 7 11 212 7 11 212 8 11 212 8 11 212 8 12 212 8 12 212 8 12 212 8 12 212 8 12 212 9 13 212 9 13 212 9 13 212 9 13 212 9 14 212 10 14 212 10 14 212 10 15 212 10 15 212 10 15 212 10 15 212 10 15 212 11 16 212 11 16 212 11 16 212 11 16 212 11 17 212 11 17 212 12 17 212 12 17 212 12 18 212 12 18 212 12 18 212 13 18 212 13 19 212 13 19 212 13 19 212 13 19 212 13 20 212 13 20 212 14 20 212 14 20 212 14 20 212 14 21 212 14 21 212 15 21 212 15 22 212 15 22 212 15 22 212 15 22 212 15 22 212 16 23 212 16 23 212 16 23 212 16 23 212 16 24 212 16 24 212 16 24 212 17 24 212 17 25 212 17 25 212 17 25 212 17 25 212 18 26 212 18 26 212 18 26 212 18 26 212 18 27 212 18 27 212 18 27 212 19 27 212 19 27 212 19 28 212 19 28 212 19 28 212 20 156 212 20 157 212 20 158 212 20 159 212 20 159 212 20 160 212 21 161 212 21 162 212 21 163 212 21 163 212 21 164 212 21 165 212 21 166 212 22 166 212 22 167 212 22 169 212 22 170 212 22 170 212 23 171 212 23 172 212 23 173 212 23 173 212 23 174 212 23 175 212 24 176 212 24 176 212 24 177 212 24 178 212 24 179 212 24 180 212 25 181 212 25 182 212 25 183 212 25 183 212 25 184 212 25 185 212 26 186 212 26 187 212 26 187 212 26 188 212 26 189 212 26 190 212 26 190 212 27 191 212 27 192 212 27 193 212 27 194 212 27 195 212 28 196 212 28 197 212 28 197 212 28 198 212 28 199 212 28 200 212 29 200 212 29 201 212 29 202 212 29 203 212 29 204 212 29 204 212 30 206 212 30 207 212 30 207 212 30 208 212 30 209 212 30 210 212 31 210 212 31 211 212 31 212 212 31 213 212 31 214 212 31 214 212 32 215 212 32 216 212 32 217 212 32 218 212 32 219 212 32 220 212 33 221 212 33 221 212 33 222 212 33 223 212 33 224 212 33 224 212 34 225 212 34 226 212 34 227 212 34 227 212 34 228 212 34 229 212 35 231 212 35 231 212 35 232 212 35 233 212 35 234 212 35 234 212 36 235 212 36 236 212 36 237 212 36 238 212 36 238 212 36 239 212 37 240 212 37 241 212 37 241 212 37 243 212 37 244 212 37 244 212 38 245 212 38 246 212 38 247 212 38 248 212 38 248 212 38 249 212 39 250 212 39 251 212 39 251 212 39 252 212 39 253 212 40 255 212
0 0 211 0 0 211 0 0 211 0 0 211 0 0 211 0 1 211 0 1 211 1 1 211 1 1 211 1 2 211 1 2 211 1 2 211 1 2 211 2 3 211 2 3 211 2 3 211 2 3 211 2 4 211 2 4 211 3 4 211 3 4 211 3 5 211 3 5 211 3 5 211 3 5 211 4 6 211 4 6 211 4 6 211 4 6 211 4 6 211 5 7 211 5 7 211 5 7 211 5 8 211 5 8 211 5 8 211 5 8 211 6 9 211 6 9 211 6 9 211 6 9 211 6 9 211 6 10 211 7 10 211 7 10 211 7 11 211 7 11 211 7 11 211 8 11 211 8 12 211 8 12 211 8 12 211 8 12 211 8 12 211 8 13 211 9 13 211 9 13 211 9 13 211 9 14 211 9 14 211 10 14 211 10 15 211 10 15 211 10 15 211 10 15 211 10 15 211 10 16 211 11 16 211 11 16 211 11 16 211 11 17 211 11 17 211 11 17 211 12 17 211 12 18 211 12 18 211 12 18 211 12 18 211 13 19 211 13 19 211 13 19 211 13 19 211 13 20 211 13 20 211 13 20 211 14 20 211 14 21 211 14 21 211 14 21 211 14 21 211 15 22 211 15 22 211 15 22 211 15 22 211 15 23 211 15 23 211 16 23 211 16 23 211 16 24 211 16 24 211 16 24 211 16 24 211 16 24 211 17 25 211 17 25 211 17 25 211 17 26 211 17 26 211 18 26 211 18 26 211 18 27 211 18 27 211 18 27 211 18 27 211 18 27 211 19 28 211 19 28 211 19 28 211 19 28 211 19 29 211 20 157 211 20 158 211 20 158 211 20 159 211 20 160 211 20 161 211 21 161 211 21 162 211 21 163 211 21 164 211 21 165 211 21 165 211 21 166 211 22 167 211 22 168 211 22 169 211 22 170 211 22 171 211 23 171 211 23 172 211 23 173 211 23 174 211 23 175 211 23 175 211 24 176 211 24 177 211 24 178 211 24 178 211 24 179 211 24 180 211 25 181 211 25 182 211 25 183 211 25 184 211 25 185 211 25 185 211 26 186 211 26 187 211 26 188 211 26 188 211 26 189 211 26 190 211 26 191 211 27 191 211 27 192 211 27 194 211 27 195 211 27 195 211 28 196 211 28 197 211 28 198 211 28 198 211 28 199 211 28 200 211 29 201 211 29 201 211 29 202 211 29 203 211 29 204 211 29 205 211 30 206 211 30 207 211 30 208 211 30 208 211 30 209 211 30 210 211 31 211 211 31 211 211 31 212 211 31 213 211 31 214 211 31 215 211 32 215 211 32 216 211 32 217 211 32 218 211 32 219 211 32 220 211 33 221 211 33 221 211 33 222 211 33 223 211 33 224 211 33 225 211 34 225 211 34 226 211 34 227 211 34 228 211 34 228 211 34 229 211 35 231 211 35 231 211 35 232 211 35 233 211 35 234 211 35 235 211 36 235 211 36 236 211 36 237 211 36 238 211 36 238 211 36 239 211 37 240 211 37 241 211 37 241 211 37 243 211 37 244 211 37 245 211 38 245 211 38 246 211 38 247 211 38 248 211 38 248 211 38 249 211 39 250 211 39 251 211 39 251 211 39 252 211 39 253 211 40 255 211
0 0 210 0 0 210 0 0 210 0 0 210 0 0 210 0 1 210 0 1 210 1 1 210 1 1 210 1 2 210 1 2 210 1 2 210 1 2 210 2 3 210 2 3 210 2 3 210 2 4 210 2 4 210 2 4 210 3 4 210 3 5 210 3 5 210 3 5 210 3 5 210 3 5 210 4 6 210 4 6 210 4 6 210 4 6 210 4 7 210 5 7 210 5 7 210 5 8 210 5 8 210 5 8 210 5 8 210 5 9 210 6 9 210 6 9 210 6 9 210 6 10 210 6 10 210 6 10 210 7 10 210 7 11 210 7 11 210 7 11 210 7 11 210 8 12 210 8 12 210 8 12 210 8 12 210 8 13 210 8 13 210 8 13 210 9 13 210 9 14 210 9 14 210 9 14 210 9 14 210 10 15 210 10 15 210 10 15 210 10 16 210 10 16 210 10 16 210 10 16 210 11 16 210 11 17 210 11 17 210 11 17 210 11 17 210 11 18 210 12 18 210 12 18 210 12 19 210 12 19 210 12 19 210 13 19 210 13 20 210 13 20 210 13 20 210 13 20 210 13 21 210 13 21 210 14 21 210 14 21 210 14 22 210 14 22 210 14 22 210 15 22 210 15 23 210 15 23 210 15 23 210 15 23 210 15 24 210 16 24 210 16 24 210 16 24 210 16 25 210 16 25 210 16 25 210 16 25 210 17 26 210 17 26 210 17 26 210 17 27 210 17 27 210 18 27 210 18 27 210 18 27 210 18 28 210 18 28 210 18 28 210 18 28 210 19 29 210 19 29 210 19 29 210 19 29 210 19 30 210 20 158 210 20 159 210 20 159 210 20 160 210 20 161 210 20 162 210 21 162 210 21 163 210 21 164 210 21 165 210 21 165 210 21 166 210 21 167 210 22 168 210 22 169 210 22 170 210 22 171 210 22 172 210 23 172 210 23 173 210 23 174 210 23 175 210 23 175 210 23 176 210 24 177 210 24 178 210 24 178 210 24 179 210 24 180 210 24 181 210 25 182 210 25 183 210 25 184 210 25 185 210 25 185 210 25 186 210 26 187 210 26 188 210 26 188 210 26 189 210 26 190 210 26 191 210 26 191 210 27 192 210 27 193 210 27 194 210 27 195 210 27 196 210 28 197 210 28 197 210 28 198 210 28 199 210 28 200 210 28 200 210 29 201 210 29 202 210 29 203 210 29 204 210 29 204 210 29 205 210 30 207 210 30 207 210 30 208 210 30 209 210 30 210 210 30 210 210 31 211 210 31 212 210 31 213 210 31 213 210 31 214 210 31 215 210 32 216 210 32 216 210 32 217 210 32 219 210 32 220 210 32 220 210 33 221 210 33 222 210 33 223 210 33 223 210 33 224 210 33 225 210 34 226 210 34 226 210 34 227 210 34 228 210 34 229 210 34 229 210 35 231 210 35 232 210 35 232 210 35 233 210 35 234 210 35 235 210 36 235 210 36 236 210 36 237 210 36 238 210 36 239 210 36 239 210 37 240 210 37 241 210 37 242 210 37 243 210 37 244 210 37 245 210 38 245 210 38 246 210 38 247 210 38 248 210 38 248 210 38 249 210 39 250 210 39 251 210 39 251 210 39 252 210 39 253 210 40 255 210
0 0 209 0 0 209 0 0 209 0 0 209 0 0 209 0 1 209 0 1 209 1 1 209 1 1 209 1 2 209 1 2 209 1 2 209 1 2 209 2 3 209 2 3 209 2 3 209 2 4 209 2 4 209 2 4 209 3 4 209 3 5 209 3 5 209 3 5 209 3 5 209 3 6 209 4 6 209 4 6 209 4 6 209 4 7 209 4 7 209 5 7 209 5 8 209 5 8 209 5 8 209 5 8 209 5 8 209 5 9 209 6 9 209 6 9 209 6 9 209 6 10 209 6 10 209 6 10 209 7 10 209 7 11 209 7 11 209 7 11 209 7 12 209 8 12 209 8 12 209 8 12 209 8 13 209 8 13 209 8 13 209 8 13 209 9 14 209 9 14 209 9 14 209 9 14 209 9 15 209 10 15 209 10 15 209 10 16 209 10 16 209 10 16 209 10 16 209 10 17 209 11 17 209 11 17 209 11 17 209 11 17 209 11 18 209 11 18 209 12 18 209 12 18 209 12 19 209 12 19 209 12 19 209 13 20 209 13 20 209 13 20 209 13 20 209 13 21 209 13 21 209 13 21 209 14 21 209 14 22 209 14 22 209 14 22 209 14 22 209 15 23 209 15 23 209 15 23 209 15 24 209 15 24 209 15 24 209 16 24 209 16 25 209 16 25 209 16 25 209 16 25 209 16 26 209 16 26 209 17 26 209 17 26 209 17 27 209 17 27 209 17 27 209 18 27 209 18 28 209 18 28 209 18 28 209 18 28 209 18 29 209 18 29 209 19 29 209 19 29 209 19 30 209 19 30 209 19 30 209 20 158 209 20 159 209 20 160 209 20 161 209 20 161 209 20 162 209 21 163 209 21 164 209 21 164 209 21 165 209 21 166 209 21 167 209 21 167 209 22 168 209 22 169 209 22 170 209 22 171 209 22 172 209 23 173 209 23 174 209 23 174 209 23 175 209 23 176 209 23 177 209 24 177 209 24 178 209 24 179 209 24 180 209 24 180 209 24 181 209 25 183 209 25 183 209 25 184 209 25 185 209 25 186 209 25 186 209 26 187 209 26 188 209 26 189 209 26 189 209 26 190 209 26 191 209 26 192 209 27 192 209 27 193 209 27 195 209 27 195 209 27 196 209 28 197 209 28 198 209 28 198 209 28 199 209 28 200 209 28 201 209 29 202 209 29 202 209 29 203 209 29 204 209 29 205 209 29 205 209 30 207 209 30 208 209 30 208 209 30 209 209 30 210 209 30 211 209 31 211 209 31 212 209 31 213 209 31 214 209 31 214 209 31 215 209 32 216 209 32 217 209 32 217 209 32 219 209 32 220 209 32 220 209 33 221 209 33 222 209 33 223 209 33 223 209 33 224 209 33 225 209 34 226 209 34 226 209 34 227 209 34 228 209 34 229 209 34 230 209 35 231 209 35 232 209 35 233 209 35 233 209 35 234 209 35 235 209 36 236 209 36 236 209 36 237 209 36 238 209 36 239 209 36 239 209 37 240 209 37 241 209 37 242 209 37 243 209 37 244 209 37 245 209 38 245 209 38 246 209 38 247 209 38 248 209 38 248 209 38 249 209 39 250 209 39 251 209 39 251 209 39 252 209 39 253 209 40 255 209
0 0 207 0 0 207 0 0 207 0 0 207 0 1 207 0 1 207 0 1 207 1 1 207 1 2 207 1 2 207 1 2 207 1 2 207 1 3 207 2 3 207 2 3 207 2 4 207 2 4 207 2 4 207 2 4 207 3 5 207 3 5 207 3 5 207 3 5 207 3 6 207 3 6 207 4 6 207 4 6 207 4 7 207 4 7 207 4 7 207 5 8 207 5 8 207 5 8 207 5 8 207 5 9 207 5 9 207 5 9 207 6 9 207 6 10 207 6 10 207 6 10 207 6 10 207 6 11 207 7 11 207 7 11 207 7 12 207 7 12 207 7 12 207 8 12 207 8 13 207 8 13 207 8 13 207 8 13 207 8 14 207 8 14 207 9 14 207 9 14 207 9 15 207 9 15 207 9 15 207 10 16 207 10 16 207 10 16 207 10 16 207 10 17 207 10 17 207 10 17 207 11 17 207 11 18 207 11 18 207 11 18 207 11 18 207 11 19 207 12 19 207 12 19 207 12 20 207 12 20 207 12 20 207 13 20 207 13 21 207 13 21 207 13 21 207 13 21 207 13 22 207 13 22 207 14 22 207 14 22 207 14 23 207 14 23 207 14 23 207 15 24 207 15 24 207 15 24 207 15 24 207 15 25 207 15 25 207 16 25 207 16 25 207 16 26 207 16 26 207 16 26 207 16 26 207 16 27 207 17 27 207 17 27 207 17 28 207 17 28 207 17 28 207 18 28 207 18 29 207 18 29 207 18 29 207 18 29 207 18 30 207 18 30 207 19 30 207 19 30 207 19 31 207 19 31 207 19 31 207 20 159 207 20 160 207 20 161 207 20 162 207 20 162 207 20 163 207 21 164 207 21 165 207 21 165 207 21 166 207 21 167 207 21 168 207 21 168 207 22 169 207 22 170 207 22 171 207 22 172 207 22 173 207 23 174 207 23 174 207 23 175 207 23 176 207 23 177 207 23 177 207 24 178 207 24 179 207 24 180 207 24 180 207 24 181 207 24 182 207 25 183 207 25 184 207 25 185 207 25 186 207 25 186 207 25 187 207 26 188 207 26 189 207 26 189 207 26 190 207 26 191 207 26 192 207 26 192 207 27 193 207 27 194 207 27 195 207 27 196 207 27 197 207 28 198 207 28 198 207 28 199 207 28 200 207 28 201 207 28 201 207 29 202 207 29 203 207 29 204 207 29 204 207 29 205 207 29 206 207 30 207 207 30 208 207 30 209 207 30 210 207 30 210 207 30 211 207 31 212 207 31 213 207 31 213 207 31 214 207 31 215 207 31 216 207 32 216 207 32 217 207 32 218 207 32 219 207 32 220 207 32 221 207 33 222 207 33 222 207 33 223 207 33 224 207 33 225 207 33 225 207 34 226 207 34 227 207 34 228 207 34 228 207 34 229 207 34 230 207 35 231 207 35 232 207 35 233 207 35 234 207 35 234 207 35 235 207 36 236 207 36 237 207 36 237 207 36 238 207 36 239 207 36 240 207 37 240 207 37 241 207 37 242 207 37 243 207 37 244 207 37 245 207 38 246 207 38 246 207 38 247 207 38 248 207 38 249 207 38 249 207 39 250 207 39 251 207 39 252 207 39 252 207 39 253 207 40 255 207
0 0 207 0 0 207 0 0 207 0 0 207 0 1 207 0 1 207 0 1 207 1 1 207 1 2 207 1 2 207 1 2 207 1 2 207 1 3 207 2 3 207 2 3 207 2 4 207 2 4 207 2 4 207 2 4 207 3 5 207 3 5 207 3 5 207 3 5 207 3 6 207 3 6 207 4 6 207 4 6 207 4 7 207 4 7 207 4 7 207 5 8 207 5 8 207 5 8 207 5 8 207 5 9 207 5 9 207 5 9 207 6 9 207 6 10 207 6 10 207 6 10 207 6 10 207 6 11 207 7 11 207 7 11 207 7 12 207 7 12 207 7 12 207 8 13 207 8 13 207 8 13 207 8 13 207 8 14 207 8 14 207 8 14 207 9 14 207 9 15 207 9 15 207 9 15 207 9 15 207 10 16 207 10 16 207 10 16 207 10 17 207 10 17 207 10 17 207 10 17 207 11 18 207 11 18 207 11 18 207 11 18 207 11 19 207 11 19 207 12 19 207 12 19 207 12 20 207 12 20 207 12 20 207 13 21 207 13 21 207 13 21 207 13 21 207 13 22 207 13 22 207 13 22 207 14 22 207 14 23 207 14 23 207 14 23 207 14 23 207 15 24 207 15 24 207 15 24 207 15 25 207 15 25 207 15 25 207 16 26 207 16 26 207 16 26 207 16 26 207 16 27 207 16 27 207 16 27 207 17 27 207 17 28 207 17 28 207 17 28 207 17 29 207 18 29 207 18 29 207 18 29 207 18 30 207 18 30 207 18 30 207 18 30 207 19 31 207 19 31 207 19 31 207 19 31 207 19 32 207 20 160 207 20 161 207 20 161 207 20 162 207 20 163 207 20 164 207 21 164 207 21 165 207 21 166 207 21 167 207 21 167 207 21 168 207 21 169 207 22 170 207 22 170 207 22 172 207 22 173 207 22 173 207 23 174 207 23 175 207 23 176 207 23 176 207 23 177 207 23 178 207 24 179 207 24 179 207 24 180 207 24 181 207 24 181 207 24 182 207 25 184 207 25 184 207 25 185 207 25 186 207 25 187 207 25 187 207 26 188 207 26 189 207 26 190 207 26 190 207 26 191 207 26 192 207 26 193 207 27 193 207 27 194 207 27 196 207 27 196 207 27 197 207 28 198 207 28 199 207 28 199 207 28 200 207 28 201 207 28 202 207 29 202 207 29 203 207 29 204 207 29 205 207 29 205 207 29 206 207 30 208 207 30 208 207 30 209 207 30 210 207 30 211 207 30 211 207 31 212 207 31 213 207 31 214 207 31 214 207 31 215 207 31 216 207 32 217 207 32 217 207 32 218 207 32 219 207 32 220 207 32 221 207 33 222 207 33 222 207 33 223 207 33 224 207 33 225 207 33 225 207 34 226 207 34 227 207 34 228 207 34 228 207 34 229 207 34 230 207 35 231 207 35 232 207 35 233 207 35 234 207 35 234 207 35 235 207 36 236 207 36 237 207 36 237 207 36 238 207 36 239 207 36 240 207 37 240 207 37 241 207 37 242 207 37 243 207 37 244 207 37 245 207 38 246 207 38 246 207 38 247 207 38 248 207 38 249 207 38 249 207 39 250 207 39 251 207 39 252 207 39 252 207 39 253 207 40 255 207
0 0 206 0 0 206 0 0 206 0 0 206 0 1 206 0 1 206 0 1 206 1 1 206 1 2 206 1 2 206 1 2 206 1 2 206 1 3 206 2 3 206 2 3 206 2 4 206 2 4 206 2 4 206 2 4 206 3 5 206 3 5 206 3 5 206 3 5 206 3 6 206 3 6 206 4 6 206 4 6 206 4 7 206 4 7 206 4 7 206 5 8 206 5 8 206 5 8 206 5 9 206 5 9 206 5 9 206 5 9 206 6 10 206 6 10 206 6 10 206 6 10 206 6 11 206 6 11 206 7 11 206 7 11 206 7 12 206 7 12 206 7 12 206 8 13 206 8 13 206 8 13 206 8 13 206 8 14 206 8 14 206 8 14 206 9 15 206 9 15 206 9 15 206 9 15 206 9 16 206 10 16 206 10 16 206 10 17 206 10 17 206 10 17 206 10 17 206 10 18 206 11 18 206 11 18 206 11 18 206 11 19 206 11 19 206 11 19 206 12 19 206 12 20 206 12 20 206 12 20 206 12 21 206 13 21 206 13 21 206 13 22 206 13 22 206 13 22 206 13 22 206 13 23 206 14 23 206 14 23 206 14 23 206 14 24 206 14 24 206 15 24 206 15 25 206 15 25 206 15 25 206 15 25 206 15 26 206 16 26 206 16 26 206 16 26 206 16 27 206 16 27 206 16 27 206 16 27 206 17 28 206 17 28 206 17 28 206 17 29 206 17 29 206 18 29 206 18 30 206 18 30 206 18 30 206 18 30 206 18 31 206 18 31 206 19 31 206 19 31 206 19 32 206 19 32 206 19 32 206 20 160 206 20 161 206 20 162 206 20 163 206 20 163 206 20 164 206 21 165 206 21 166 206 21 166 206 21 167 206 21 168 206 21 169 206 21 169 206 22 170 206 22 171 206 22 172 206 22 173 206 22 174 206 23 174 206 23 175 206 23 176 206 23 177 206 23 177 206 23 178 206 24 179 206 24 180 206 24 180 206 24 181 206 24 182 206 24 183 206 25 184 206 25 185 206 25 186 206 25 186 206 25 187 206 25 188 206 26 189 206 26 189 206 26 190 206 26 191 206 26 192 206 26 192 206 26 193 206 27 194 206 27 194 206 27 196 206 27 197 206 27 197 206 28 198 206 28 199 206 28 200 206 28 200 206 28 201 206 28 202 206 29 203 206 29 203 206 29 204 206 29 205 206 29 206 206 29 206 206 30 208 206 30 209 206 30 209 206 30 210 206 30 211 206 30 212 206 31 212 206 31 213 206 31 214 206 31 214 206 31 215 206 31 216 206 32 217 206 32 217 206 32 218 206 32 220 206 32 220 206 32 221 206 33 222 206 33 223 206 33 223 206 33 224 206 33 225 206 33 226 206 34 226 206 34 227 206 34 228 206 34 229 206 34 229 206 34 230 206 35 232 206 35 232 206 35 233 206 35 234 206 35 234 206 35 235 206 36 236 206 36 237 206 36 237 206 36 238 206 36 239 206 36 240 206 37 240 206 37 241 206 37 242 206 37 243 206 37 244 206 37 245 206 38 246 206 38 246 206 38 247 206 38 248 206 38 249 206 38 249 206 39 250 206 39 251 206 39 252 206 39 252 206 39 253 206 40 255 206
0 0 204 0 0 204 0 0 204 0 0 204 0 1 204 0 1 204 0 1 204 1 1 204 1 2 204 1 2 204 1 2 204 1 2 204 1 3 204 2 3 204 2 3 204 2 4 204 2 4 204 2 4 204 2 5 204 3 5 204 3 5 204 3 5 204 3 6 204 3 6 204 3 6 204 4 6 204 4 7 204 4 7 204 4 7 204 4 8 204 5 8 204 5 8 204 5 9 204 5 9 204 5 9 204 5 9 204 5 10 204 6 10 204 6 10 204 6 10 204 6 11 204 6 11 204 6 11 204 7 12 204 7 12 204 7 12 204 7 13 204 7 13 204 8 13 204 8 13 204 8 14 204 8 14 204 8 14 204 8 14 204 8 15 204 9 15 204 9 15 204 9 16 204 9 16 204 9 16 204 10 17 204 10 17 204 10 17 204 10 17 204 10 18 204 10 18 204 10 18 204 11 18 204 11 19 204 11 19 204 11 19 204 11 20 204 11 20 204 12 20 204 12 20 204 12 21 204 12 21 204 12 21 204 13 22 204 13 22 204 13 22 204 13 22 204 13 23 204 13 23 204 13 23 204 14 24 204 14 24 204 14 24 204 14 24 204 14 25 204 15 25 204 15 25 204 15 26 204 15 26 204 15 26 204 15 26 204 16 27 204 16 27 204 16 27 204 16 28 204 16 28 204 16 28 204 16 28 204 17 29 204 17 29 204 17 29 204 17 30 204 17 30 204 18 30 204 18 30 204 18 31 204 18 31 204 18 31 204 18 32 204 18 32 204 19 32 204 19 32 204 19 33 204 19 33 204 19 33 204 20 161 204 20 162 204 20 163 204 20 164 204 20 164 204 20 165 204 21 166 204 21 166 204 21 167 204 21 168 204 21 169 204 21 169 204 21 170 204 22 171 204 22 172 204 22 173 204 22 174 204 22 175 204 23 175 204 23 176 204 23 177 204 23 178 204 23 178 204 23 179 204 24 180 204 24 180 204 24 181 204 24 182 204 24 183 204 24 183 204 25 185 204 25 186 204 25 186 204 25 187 204 25 188 204 25 189 204 26 189 204 26 190 204 26 191 204 26 191 204 26 192 204 26 193 204 26 194 204 27 194 204 27 195 204 27 197 204 27 197 204 27 198 204 28 199 204 28 200 204 28 200 204 28 201 204 28 202 204 28 202 204 29 203 204 29 204 204 29 205 204 29 205 204 29 206 204 29 207 204 30 208 204 30 209 204 30 210 204 30 211 204 30 211 204 30 212 204 31 213 204 31 213 204 31 214 204 31 215 204 31 216 204 31 216 204 32 217 204 32 218 204 32 219 204 32 220 204 32 221 204 32 222 204 33 222 204 33 223 204 33 224 204 33 224 204 33 225 204 33 226 204 34 227 204 34 227 204 34 228 204 34 229 204 34 230 204 34 230 204 35 232 204 35 233 204 35 233 204 35 234 204 35 235 204 35 235 204 36 236 204 36 237 204 36 238 204 36 238 204 36 239 204 36 240 204 37 241 204 37 241 204 37 242 204 37 243 204 37 244 204 37 245 204 38 246 204 38 246 204 38 247 204 38 248 204 38 249 204 38 249 204 39 250 204 39 251 204 39 252 204 39 252 204 39 253 204 40 255 204
0 0 204 0 0 204 0 0 204 0 0 204 0 1 204 0 1 204 0 1 204 1 1 204 1 2 204 1 2 204 1 2 204 1 2 204 1 3 204 2 3 204 2 3 204 2 4 204 2 4 204 2 4 204 2 5 204 3 5 204 3 5 204 3 5 204 3 6 204 3 6 204 3 6 204 4 7 204 4 7 204 4 7 204 4 7 204 4 8 204 5 8 204 5 8 204 5 9 204 5 9 204 5 9 204 5 10 204 5 10 204 6 10 204 6 10 204 6 11 204 6 11 204 6 11 204 6 11 204 7 12 204 7 12 204 7 12 204 7 13 204 7 13 204 8 13 204 8 14 204 8 14 204 8 14 204 8 14 204 8 15 204 8 15 204 9 15 204 9 15 204 9 16 204 9 16 204 9 16 204 10 17 204 10 17 204 10 17 204 10 18 204 10 18 204 10 18 204 10 18 204 11 19 204 11 19 204 11 19 204 11 20 204 11 20 204 11 20 204 12 20 204 12 21 204 12 21 204 12 21 204 12 22 204 13 22 204 13 22 204 13 22 204 13 23 204 13 23 204 13 23 204 13 24 204 14 24 204 14 24 204 14 24 204 14 25 204 14 25 204 15 25 204 15 26 204 15 26 204 15 26 204 15 27 204 15 27 204 16 27 204 16 27 204 16 28 204 16 28 204 16 28 204 16 28 204 16 29 204 17 29 204 17 29 204 17 30 204 17 30 204 17 30 204 18 31 204 18 31 204 18 31 204 4 18 212 4 18 212 4 18 212 4 18 212 4 19 212 4 19 212 4 19 212 4 19 212 4 19 212 4 147 212 4 148 212 4 149 212 4 150 212 4 151 212 4 152 212 4 152 212 4 153 212 4 154 212 4 155 212 21 169 204 21 170 204 21 171 204 22 171 204 22 172 204 22 174 204 22 174 204 22 175 204 23 176 204 23 176 204 23 177 204 23 178 204 23 179 204 23 179 204 24 180 204 24 181 204 24 182 204 24 182 204 24 183 204 24 184 204 25 185 204 25 186 204 25 187 204 25 187 204 25 188 204 25 189 204 26 190 204 26 190 204 26 191 204 26 192 204 26 193 204 26 193 204 26 194 204 27 195 204 27 195 204 27 197 204 27 198 204 27 198 204 28 199 204 28 200 204 28 201 204 28 201 204 28 202 204 28 203 204 29 203 204 29 204 204 29 205 204 29 206 204 29 206 204 29 207 204 30 209 204 30 209 204 30 210 204 30 211 204 30 211 204 30 212 204 31 213 204 31 214 204 31 214 204 31 215 204 31 216 204 31 217 204 32 217 204 32 218 204 32 219 204 32 220 204 32 221 204 32 222 204 33 222 204 33 223 204 33 224 204 33 225 204 33 225 204 33 226 204 34 227 204 34 228 204 34 228 204 34 229 204 34 230 204 34 230 204 35 232 204 35 233 204 35 233 204 35 234 204 35 235 204 35 236 204 36 236 204 36 237 204 36 238 204 36 238 204 36 239 204 36 240 204 37 241 204 37 241 204 37 242 204 37 244 204 37 244 204 37 245 204 38 246 204 38 246 204 38 247 204 38 248 204 38 249 204 38 249 204 39 250 204 39 251 204 39 252 204 39 252 204 39 253 204 40 255 204
0 0 202 0 0 202 0 0 202 0 0 202 0 1 202 0 1 202 0 1 202 1 1 202 1 2 202 1 2 202 1 2 202 1 3 202 1 3 202 2 3 202 2 3 202 2 4 202 2 4 202 2 5 202 2 5 202 3 5 202 3 5 202 3 6 202 3 6 202 3 6 202 3 6 202 4 7 202 4 7 202 4 7 202 4 8 202 4 8 202 5 8 202 5 9 202 5 9 202 5 9 202 5 10 202 5 10 202 5 10 202 6 10 202 6 11 202 6 11 202 6 11 202 6 11 202 6 12 202 7 12 202 7 12 202 7 13 202 7 13 202 7 13 202 8 14 202 8 14 202 8 14 202 8 15 202 8 15 202 8 15 202 8 15 202 9 16 202 9 16 202 9 16 202 9 16 202 9 17 202 10 17 202 10 18 202 10 18 202 10 18 202 10 18 202 10 19 202 10 19 202 11 19 202 11 20 202 11 20 202 11 20 202 11 20 202 11 21 202 12 21 202 12 21 202 12 22 202 12 22 202 12 22 202 13 23 202 13 23 202 13 23 202 13 23 202 13 24 202 13 24 202 13 24 202 14 25 202 14 25 202 14 25 202 14 25 202 14 26 202 15 26 202 15 27 202 15 27 202 15 27 202 15 27 202 15 28 202 16 28 202 16 28 202 16 28 202 16 29 202 16 29 202 16 29 202 16 30 202 17 30 202 17 30 202 17 31 202 17 31 202 17 31 202 4 18 211 4 18 211 4 18 211 4 18 211 4 18 211 4 18 211 4 18 211 4 19 211 4 19 211 4 19 211 4 19 211 4 19 211 4 147 211 4 148 211 4 149 211 4 150 211 4 151 211 4 152 211 4 152 211 4 153 211 4 154 211 4 155 211 4 156 211 4 157 211 4 158 211 22 172 202 22 173 202 22 174 202 22 175 202 22 176 202 23 177 202 23 177 202 23 178 202 23 179 202 23 179 202 23 180 202 24 181 202 24 182 202 24 182 202 24 183 202 24 184 202 24 185 202 25 186 202 25 187 202 25 187 202 25 188 202 25 189 202 25 190 202 26 190 202 26 191 202 26 192 202 26 192 202 26 193 202 26 194 202 26 195 202 27 195 202 27 196 202 27 197 202 27 198 202 27 199 202 28 200 202 28 200 202 28 201 202 28 202 202 28 203 202 28 203 202 29 204 202 29 205 202 29 205 202 29 206 202 29 207 202 29 208 202 30 209 202 30 210 202 30 210 202 30 211 202 30 212 202 30 213 202 31 213 202 31 214 202 31 215 202 31 216 202 31 216 202 31 217 202 32 218 202 32 218 202 32 219 202 32 221 202 32 221 202 32 222 202 33 223 202 33 223 202 33 224 202 33 225 202 33 226 202 33 226 202 34 227 202 34 228 202 34 229 202 34 229 202 34 230 202 34 231 202 35 232 202 35 233 202 35 234 202 35 234 202 35 235 202 35 236 202 36 236 202 36 237 202 36 238 202 36 239 202 36 239 202 36 240 202 37 241 202 37 242 202 37 242 202 37 244 202 37 244 202 37 245 202 38 246 202 38 247 202 38 247 202 38 248 202 38 249 202 38 249 202 39 250 202 39 251 202 39 252 202 39 252 202 39 253 202 40 255 202
0 0 202 0 0 202 0 0 202 0 0 202 0 1 202 0 1 202 0 1 202 1 1 202 1 2 202 1 2 202 1 2 202 1 3 202 1 3 202 2 3 202 2 3 202 2 4 202 2 4 202 2 5 202 2 5 202 3 5 202 3 5 202 3 6 202 3 6 202 3 6 202 3 7 202 4 7 202 4 7 202 4 7 202 4 8 202 4 8 202 5 9 202 5 9 202 5 9 202 5 9 202 5 10 202 5 10 202 5 10 202 6 11 202 6 11 202 6 11 202 6 11 202 6 12 202 6 12 202 7 12 202 7 12 202 7 13 202 7 13 202 7 14 202 8 14 202 8 14 202 8 14 202 8 15 202 8 15 202 8 15 202 8 16 202 9 16 202 9 16 202 9 16 202 9 17 202 9 17 202 10 18 202 10 18 202 10 18 202 10 18 202 10 19 202 10 19 202 10 19 202 11 20 202 11 20 202 11 20 202 11 20 202 11 21 202 11 21 202 12 21 202 12 22 202 12 22 202 12 22 202 12 23 202 13 23 202 13 23 202 13 24 202 13 24 202 13 24 202 13 24 202 13 25 202 14 25 202 14 25 202 14 25 202 14 26 202 14 26 202 15 27 202 15 27 202 15 27 202 15 27 202 15 28 202 15 28 202 16 28 202 16 29 202 16 29 202 16 29 202 16 29 202 16 30 202 16 30 202 17 30 202 17 31 202 4 17 210 4 17 210 4 17 210 4 18 210 4 18 210 4 18 210 4 18 210 4 18 210 4 18 210 4 18 210 4 19 210 4 19 210 4 19 210 4 19 210 4 19 210 4 147 210 4 148 210 4 149 210 4 150 210 4 151 210 4 152 210 4 152 210 4 153 210 4 154 210 4 155 210 4 156 210 4 157 210 4 158 210 4 158 210 4 159 210 4 161 210 22 176 202 22 176 202 23 177 202 23 178 202 23 178 202 23 179 202 23 180 202 23 181 202 24 181 202 24 182 202 24 183 202 24 183 202 24 184 202 24 185 202 25 186 202 25 187 202 25 188 202 25 188 202 25 189 202 25 190 202 26 191 202 26 191 202 26 192 202 26 193 202 26 194 202 26 194 202 26 195 202 27 196 202 27 196 202 27 198 202 27 199 202 27 199 202 28 200 202 28 201 202 28 201 202 28 202 202 28 203 202 28 204 202 29 204 202 29 205 202 29 206 202 29 206 202 29 207 202 29 208 202 30 209 202 30 210 202 30 211 202 30 211 202 30 212 202 30 213 202 31 214 202 31 214 202 31 215 202 31 216 202 31 216 202 31 217 202 32 218 202 32 219 202 32 219 202 32 221 202 32 221 202 32 222 202 33 223 202 33 224 202 33 224 202 33 225 202 33 226 202 33 227 202 34 227 202 34 228 202 34 229 202 34 229 202 34 230 202 34 231 202 35 232 202 35 233 202 35 234 202 35 234 202 35 235 202 35 236 202 36 237 202 36 237 202 36 238 202 36 239 202 36 239 202 36 240 202 37 241 202 37 242 202 37 242 202 37 244 202 37 244 202 37 245 202 38 246 202 38 247 202 38 247 202 38 248 202 38 249 202 38 249 202 39 250 202 39 251 202 39 252 202 39 252 202 39 253 202 40 255 202
0 0 200 0 0 200 0 0 200 0 0 200 0 1 200 0 1 200 0 1 200 1 2 200 1 2 200 1 2 200 1 2 200 1 3 200 1 3 200 2 3 200 2 4 200 2 4 200 2 4 200 2 5 200 2 5 200 3 5 200 3 6 200 3 6 200 3 6 200 3 6 200 3 7 200 4 7 200 4 7 200 4 8 200 4 8 200 4 8 200 5 9 200 5 9 200 5 9 200 5 10 200 5 10 200 5 10 200 5 11 200 6 11 200 6 11 200 6 11 200 6 12 200 6 12 200 6 12 200 7 13 200 7 13 200 7 13 200 7 14 200 7 14 200 8 14 200 8 15 200 8 15 200 8 15 200 8 15 200 8 16 200 8 16 200 9 16 200 9 17 200 9 17 200 9 17 200 9 17 200 10 18 200 10 18 200 10 19 200 10 19 200 10 19 200 10 20 200 10 20 200 11 20 200 11 20 200 11 21 200 11 21 200 11 21 200 11 22 200 12 22 200 12 22 200 12 23 200 12 23 200 12 23 200 13 24 200 13 24 200 13 24 200 13 24 200 13 25 200 13 25 200 13 25 200 14 26 200 14 26 200 14 26 200 14 26 200 14 27 200 15 27 200 15 28 200 15 28 200 15 28 200 15 29 200 15 29 200 16 29 200 16 29 200 16 30 200 16 30 200 16 30 200 16 31 200 16 31 200 4 17 209 4 17 209 4 17 209 4 17 209 4 17 209 4 18 209 4 18 209 4 18 209 4 18 209 4 18 209 4 18 209 4 18 209 4 19 209 4 19 209 4 19 209 4 19 209 4 19 209 4 147 209 4 148 209 4 149 209 4 150 209 4 151 209 4 152 209 4 152 209 4 153 209 4 154 209 4 155 209 4 156 209 4 157 209 4 158 209 4 158 209 4 159 209 4 161 209 4 162 209 4 163 209 23 178 200 23 179 200 23 179 200 23 180 200 23 181 200 23 181 200 24 182 200 24 183 200 24 184 200 24 184 200 24 185 200 24 186 200 25 187 200 25 188 200 25 188 200 25 189 200 25 190 200 25 191 200 26 191 200 26 192 200 26 193 200 26 193 200 26 194 200 26 195 200 26 196 200 27 196 200 27 197 200 27 198 200 27 199 200 27 200 200 28 201 200 28 201 200 28 202 200 28 203 200 28 203 200 28 204 200 29 205 200 29 206 200 29 206 200 29 207 200 29 208 200 29 208 200 30 210 200 30 210 200 30 211 200 30 212 200 30 213 200 30 213 200 31 214 200 31 215 200 31 215 200 31 216 200 31 217 200 31 218 200 32 218 200 32 219 200 32 220 200 32 221 200 32 222 200 32 223 200 33 223 200 33 224 200 33 225 200 33 225 200 33 226 200 33 227 200 34 228 200 34 228 200 34 229 200 34 230 200 34 230 200 34 231 200 35 232 200 35 233 200 35 234 200 35 235 200 35 235 200 35 236 200 36 237 200 36 237 200 36 238 200 36 239 200 36 240 200 36 240 200 37 241 200 37 242 200 37 242 200 37 244 200 37 245 200 37 245 200 38 246 200 38 247 200 38 247 200 38 248 200 38 249 200 38 250 200 39 250 200 39 251 200 39 252 200 39 252 200 39 253 200 40 255 200
0 0 199 0 0 199 0 0 199 0 0 199 0 1 199 0 1 199 0 1 199 1 2 199 1 2 199 1 2 199 1 2 199 1 3 199 1 3 199 2 3 199 2 4 199 2 4 199 2 5 199 2 5 199 2 5 199 3 5 199 3 6 199 3 6 199 3 6 199 3 7 199 3 7 199 4 7 199 4 7 199 4 8 199 4 8 199 4 8 199 5 9 199 5 9 199 5 10 199 5 10 199 5 10 199 5 10 199 5 11 199 6 11 199 6 11 199 6 12 199 6 12 199 6 12 199 6 12 199 7 13 199 7 13 199 7 14 199 7 14 199 7 14 199 8 15 199 8 15 199 8 15 199 8 15 199 8 16 199 8 16 199 8 16 199 9 17 199 9 17 199 9 17 199 9 17 199 9 18 199 10 18 199 10 19 199 10 19 199 10 19 199 10 20 199 10 20 199 10 20 199 11 20 199 11 21 199 11 21 199 11 21 199 11 22 199 11 22 199 12 22 199 12 22 199 12 23 199 12 23 199 12 24 199 13 24 199 13 24 199 13 25 199 13 25 199 13 25 199 13 25 199 13 26 199 14 26 199 14 26 199 14 27 199 14 27 199 14 27 199 15 28 199 15 28 199 15 28 199 15 29 199 15 29 199 15 29 199 16 30 199 16 30 199 16 30 199 16 30 199 16 31 199 4 16 208 4 16 208 4 17 208 4 17 208 4 17 208 4 17 208 4 17 208 4 18 208 4 18 208 4 18 208 4 18 208 4 18 208 4 18 208 4 18 208 4 19 208 4 19 208 4 19 208 4 19 208 4 19 208 4 147 208 4 148 208 4 149 208 4 150 208 4 151 208 4 152 208 4 152 208 4 153 208 4 154 208 4 155 208 4 156 208 4 157 208 4 158 208 4 158 208 4 159 208 4 161 208 4 162 208 4 163 208 4 163 208 4 164 208 23 180 199 23 180 199 23 181 199 23 182 199 24 183 199 24 183 199 24 184 199 24 185 199 24 185 199 24 186 199 25 187 199 25 188 199 25 189 199 25 190 199 25 190 199 25 191 199 26 192 199 26 192 199 26 193 199 26 194 199 26 195 199 26 195 199 26 196 199 27 197 199 27 197 199 27 199 199 27 199 199 27 200 199 28 201 199 28 202 199 28 202 199 28 203 199 28 204 199 28 204 199 29 205 199 29 206 199 29 207 199 29 207 199 29 208 199 29 209 199 30 210 199 30 211 199 30 211 199 30 212 199 30 213 199 30 214 199 31 214 199 31 215 199 31 216 199 31 216 199 31 217 199 31 218 199 32 219 199 32 219 199 32 220 199 32 221 199 32 222 199 32 223 199 33 223 199 33 224 199 33 225 199 33 226 199 33 226 199 33 227 199 34 228 199 34 228 199 34 229 199 34 230 199 34 231 199 34 231 199 35 233 199 35 233 199 35 234 199 35 235 199 35 235 199 35 236 199 36 237 199 36 238 199 36 238 199 36 239 199 36 240 199 36 240 199 37 241 199 37 242 199 37 243 199 37 244 199 37 245 199 37 245 199 38 246 199 38 247 199 38 247 199 38 248 199 38 249 199 38 250 199 39 250 199 39 251 199 39 252 199 39 252 199 39 253 199 40 255 199
0 0 199 0 0 199 0 0 199 0 0 199 0 1 199 0 1 199 0 1 199 1 2 199 1 2 199 1 2 199 1 2 199 1 3 199 1 3 199 2 3 199 2 4 199 2 4 199 2 5 199 2 5 199 2 5 199 3 5 199 3 6 199 3 6 199 3 6 199 3 7 199 3 7 199 4 7 199 4 8 199 4 8 199 4 8 199 4 8 199 5 9 199 5 9 199 5 10 199 5 10 199 5 10 199 5 11 199 5 11 199 6 11 199 6 11 199 6 12 199 6 12 199 6 12 199 6 13 199 7 13 199 7 13 199 7 14 199 7 14 199 7 14 199 8 15 199 8 15 199 8 15 199 8 16 199 8 16 199 8 16 199 8 16 199 9 17 199 9 17 199 9 17 199 9 18 199 9 18 199 10 19 199 10 19 199 10 19 199 10 19 199 10 20 199 10 20 199 10 20 199 11 21 199 11 21 199 11 21 199 11 22 199 11 22 199 11 22 199 12 22 199 12 23 199 12 23 199 12 24 199 12 24 199 13 24 199 13 25 199 13 25 199 13 25 199 13 25 199 13 26 199 13 26 199 14 26 199 14 27 199 14 27 199 14 27 199 14 28 199 15 28 199 15 28 199 15 29 199 15 29 199 15 29 199 15 30 199 16 30 199 16 30 199 16 30 199 4 16 208 4 16 208 4 16 208 4 16 208 4 17 208 4 17 208 4 17 208 4 17 208 4 17 208 4 18 208 4 18 208 4 18 208 4 18 208 4 18 208 4 18 208 4 18 208 4 19 208 4 19 208 4 19 208 4 19 208 4 19 208 4 147 208 4 148 208 4 149 208 4 150 208 4 151 208 4 152 208 4 152 208 4 153 208 4 154 208 4 155 208 4 156 208 4 157 208 4 158 208 4 158 208 4 159 208 4 161 208 4 162 208 4 163 208 4 163 208 4 164 208 4 165 208 4 166 208 23 181 199 23 182 199 24 183 199 24 184 199 24 184 199 24 185 199 24 186 199 24 186 199 25 188 199 25 189 199 25 189 199 25 190 199 25 191 199 25 191 199 26 192 199 26 193 199 26 193 199 26 194 199 26 195 199 26 196 199 26 196 199 27 197 199 27 198 199 27 199 199 27 200 199 27 200 199 28 201 199 28 202 199 28 203 199 28 203 199 28 204 199 28 205 199 29 205 199 29 206 199 29 207 199 29 207 199 29 208 199 29 209 199 30 210 199 30 211 199 30 212 199 30 212 199 30 213 199 30 214 199 31 214 199 31 215 199 31 216 199 31 217 199 31 217 199 31 218 199 32 219 199 32 219 199 32 220 199 32 222 199 32 222 199 32 223 199 33 224 199 33 224 199 33 225 199 33 226 199 33 226 199 33 227 199 34 228 199 34 229 199 34 229 199 34 230 199 34 231 199 34 231 199 35 233 199 35 233 199 35 234 199 35 235 199 35 236 199 35 236 199 36 237 199 36 238 199 36 238 199 36 239 199 36 240 199 36 240 199 37 241 199 37 242 199 37 243 199 37 244 199 37 245 199 37 245 199 38 246 199 38 247 199 38 247 199 38 248 199 38 249 199 38 250 199 39 250 199 39 251 199 39 252 199 39 252 199 39 253 199 40 255 199
0 0 197 0 0 197 0 0 197 0 0 197 0 1 197 0 1 197 0 1 197 1 2 197 1 2 197 1 2 197 1 3 197 1 3 197 1 3 197 2 3 197 2 4 197 2 4 197 2 5 197 2 5 197 2 5 197 3 6 197 3 6 197 3 6 197 3 7 197 3 7 197 3 7 197 4 7 197 4 8 197 4 8 197 4 8 197 4 9 197 5 9 197 5 10 197 5 10 197 5 10 197 5 11 197 5 11 197 5 11 197 6 11 197 6 12 197 6 12 197 6 12 197 6 13 197 6 13 197 7 13 197 7 14 197 7 14 197 7 14 197 7 15 197 8 15 197 8 15 197 8 16 197 8 16 197 8 16 197 8 17 197 8 17 197 9 17 197 9 18 197 9 18 197 9 18 197 9 18 197 10 19 197 10 19 197 10 20 197 10 20 197 10 20 197 10 21 197 10 21 197 11 21 197 11 22 197 11 22 197 11 22 197 11 22 197 11 23 197 12 23 197 12 23 197 12 24 197 12 24 197 12 25 197 13 25 197 13 25 197 13 26 197 13 26 197 13 26 197 13 26 197 13 27 197 14 27 197 14 27 197 14 28 197 14 28 197 14 28 197 15 29 197 15 29 197 15 29 197 15 30 197 15 30 197 15 30 197 16 31 197 4 16 206 4 16 206 4 16 206 4 16 206 4 16 206 4 16 206 4 17 206 4 17 206 4 17 206 4 17 206 4 17 206 4 18 206 4 18 206 4 18 206 4 18 206 4 18 206 4 18 206 4 18 206 4 19 206 4 19 206 4 19 206 4 19 206 4 19 206 4 147 206 4 148 206 4 149 206 4 150 206 4 151 206 4 152 206 4 152 206 4 153 206 4 154 206 4 155 206 4 156 206 4 157 206 4 158 206 4 158 206 4 159 206 4 161 206 4 162 206 4 163 206 4 163 206 4 164 206 4 165 206 4 166 206 4 167 206 4 168 206 24 184 197 24 184 197 24 185 197 24 186 197 24 186 197 24 187 197 25 189 197 25 189 197 25 190 197 25 191 197 25 191 197 25 192 197 26 193 197 26 193 197 26 194 197 26 195 197 26 195 197 26 196 197 26 197 197 27 198 197 27 198 197 27 200 197 27 200 197 27 201 197 28 202 197 28 202 197 28 203 197 28 204 197 28 205 197 28 205 197 29 206 197 29 207 197 29 207 197 29 208 197 29 209 197 29 209 197 30 211 197 30 211 197 30 212 197 30 213 197 30 214 197 30 214 197 31 215 197 31 216 197 31 216 197 31 217 197 31 218 197 31 218 197 32 219 197 32 220 197 32 220 197 32 222 197 32 223 197 32 223 197 33 224 197 33 225 197 33 225 197 33 226 197 33 227 197 33 227 197 34 228 197 34 229 197 34 230 197 34 230 197 34 231 197 34 232 197 35 233 197 35 234 197 35 234 197 35 235 197 35 236 197 35 236 197 36 237 197 36 238 197 36 239 197 36 239 197 36 240 197 36 241 197 37 241 197 37 242 197 37 243 197 37 244 197 37 245 197 37 245 197 38 246 197 38 247 197 38 248 197 38 248 197 38 249 197 38 250 197 39 250 197 39 251 197 39 252 197 39 252 197 39 253 197 40 255 197
0 0 196 0 0 196 0 0 196 0 0 196 0 1 196 0 1 196 0 1 196 1 2 196 1 2 196 1 2 196 1 3 196 1 3 196 1 3 196 2 4 196 2 4 196 2 4 196 2 5 196 2 5 196 2 5 196 3 6 196 3 6 196 3 6 196 3 7 196 3 7 196 3 7 196 4 8 196 4 8 196 4 8 196 4 8 196 4 9 196 5 9 196 5 10 196 5 10 196 5 10 196 5 11 196 5 11 196 5 11 196 6 12 196 6 12 196 6 12 196 6 13 196 6 13 196 6 13 196 7 13 196 7 14 196 7 14 196 226 203 19 226 203 19 227 203 19 227 203 19 227 203 19 227 203 19 227 203 19 227 203 19 227 203 19 227 203 19 228 203 19 228 203 19 228 203 19 228 203 19 228 203 19 228 203 19 229 203 19 229 203 19 229 203 19 229 203 19 229 203 19 229 203 19 229 203 19 230 203 19 230 203 19 230 203 19 230 203 19 230 203 19 230 203 19 230 203 19 231 203 19 231 203 19 231 203 19 231 203 19 231 203 19 231 203 19 231 203 19 232 203 19 232 203 19 232 203 19 232 203 19 232 203 19 232 203 19 232 203 19 233 203 19 233 203 19 233 203 19 233 203 19 233 203 19 233 203 19 224 191 27 224 191 27 224 191 27 224 191 27 224 191 27 224 191 27 224 191 27 224 191 27 224 191 27 224 191 27 224 191 27 224 191 27 224 191 27 224 191 27 224 191 27 224 191 27 224 191 27 224 191 27 224 191 27 224 191 27 224 191 27 224 191 27 224 191 27 224 191 27 224 191 27 224 191 27 224 191 27 224 191 27 224 191 27 224 191 27 224 191 27 224 191 27 224 191 27 224 191 27 224 191 27 224 191 27 224 191 27 224 191 27 224 191 27 224 191 27 224 191 27 224 191 27 224 191 27 224 191 27 224 191 27 224 191 27 224 191 27 224 191 27 224 191 27 241 203 19 241 203 19 241 203 19 241 203 19 241 203 19 241 203 19 242 203 19 242 203 19 242 203 19 242 203 19 242 203 19 242 203 19 242 203 19 243 203 19 243 203 19 243 203 19 243 203 19 243 203 19 243 203 19 243 203 19 244 203 19 244 203 19 244 203 19 244 203 19 244 203 19 244 203 19 244 203 19 245 203 19 245 203 19 245 203 19 245 203 19 245 203 19 245 203 19 245 203 19 246 203 19 246 203 19 246 203 19 246 203 19 246 203 19 246 203 19 247 203 19 247 203 19 247 203 19 247 203 19 247 203 19 247 203 19 247 203 19 248 203 19 248 203 19 248 203 19 32 222 196 32 223 196 32 223 196 33 224 196 33 225 196 33 226 196 33 226 196 33 227 196 33 228 196 34 228 196 34 229 196 34 230 196 34 230 196 34 231 196 34 232 196 35 233 196 35 234 196 35 234 196 35 235 196 35 236 196 35 237 196 36 237 196 36 238 196 36 239 196 36 239 196 36 240 196 36 241 196 37 241 196 37 242 196 37 243 196 37 244 196 37 245 196 37 246 196 38 246 196 38 247 196 38 248 196 38 248 196 38 249 196 38 250 196 39 250 196 39 251 196 39 252 196 39 252 196 39 253 196 40 255 196
0 0 195 0 0 195 0 0 195 0 0 195 0 1 195 0 1 195 0 1 195 1 2 195 1 2 195 1 2 195 1 3 195 1 3 195 1 3 195 2 4 195 2 4 195 2 5 195 2 5 195 2 5 195 2 6 195 3 6 195 3 6 195 3 6 195 3 7 195 3 7 195 3 7 195 4 8 195 4 8 195 4 8 195 4 9 195 4 9 195 5 10 195 5 10 195 5 10 195 5 11 195 5 11 195 5 11 195 5 12 195 6 12 195 6 12 195 6 13 195 6 13 195 6 13 195 6 13 195 7 14 195 7 14 195 7 15 195 226 203 19 226 203 19 227 203 19 227 203 19 227 203 19 227 203 19 227 203 19 227 203 19 227 203 19 227 203 19 228 203 19 228 203 19 228 203 19 228 203 19 228 203 19 228 203 19 229 203 19 229 203 19 229 203 19 229 203 19 229 203 19 229 203 19 229 203 19 230 203 19 230 203 19 230 203 19 230 203 19 230 203 19 230 203 19 230 203 19 231 203 19 231 203 19 231 203 19 231 203 19 231 203 19 231 203 19 231 203 19 232 203 19 232 203 19 232 203 19 232 203 19 232 203 19 232 203 19 232 203 19 233 203 19 233 203 19 233 203 19 233 203 19 233 203 19 224 191 27 224 191 27 224 191 27 224 191 27 224 191 27 224 191 27 224 191 27 224 191 27 224 191 27 224 191 27 224 191 27 224 191 27 224 191 27 224 191 27 224 191 27 224 191 27 224 191 27 224 191 27 224 191 27 224 191 27 224 191 27 224 191 27 224 191 27 224 191 27 224 191 27 224 191 27 224 191 27 224 191 27 224 191 27 224 191 27 224 191 27 224 191 27 224 191 27 224 191 27 224 191 27 224 191 27 224 191 27 224 191 27 224 191 27 224 191 27 224 191 27 224 191 27 224 191 27 224 191 27 224 191 27 224 191 27 224 191 27 224 191 27 224 191 27 224 191 27 224 191 27 241 203 19 241 203 19 241 203 19 241 203 19 241 203 19 242 203 19 242 203 19 242 203 19 242 203 19 242 203 19 242 203 19 242 203 19 243 203 19 243 203 19 243 203 19 243 203 19 243 203 19 243 203 19 243 203 19 244 203 19 244 203 19 244 203 19 244 203 19 244 203 19 244 203 19 244 203 19 245 203 19 245 203 19 245 203 19 245 203 19 245 203 19 245 203 19 245 203 19 246 203 19 246 203 19 246 203 19 246 203 19 246 203 19 246 203 19 247 203 19 247 203 19 247 203 19 247 203 19 247 203 19 247 203 19 247 203 19 248 203 19 248 203 19 248 203 19 32 222 195 32 223 195 32 224 195 33 224 195 33 225 195 33 226 195 33 227 195 33 227 195 33 228 195 34 229 195 34 229 195 34 230 195 34 231 195 34 231 195 34 232 195 35 233 195 35 234 195 35 235 195 35 235 195 35 236 195 35 237 195 36 237 195 36 238 195 36 239 195 36 239 195 36 240 195 36 241 195 37 242 195 37 242 195 37 243 195 37 244 195 37 245 195 37 246 195 38 246 195 38 247 195 38 248 195 38 248 195 38 249 195 38 250 195 39 250 195 39 251 195 39 252 195 39 252 195 39 253 195 40 255 195
0 0 194 0 0 194 0 0 194 0 0 194 0 1 194 0 1 194 0 1 194 1 2 194 1 2 194 1 2 194 1 3 194 1 3 194 1 3 194 2 4 194 2 4 194 2 5 194 2 5 194 2 5 194 2 6 194 3 6 194 3 6 194 3 7 194 3 7 194 3 7 194 3 8 194 4 8 194 4 8 194 4 9 194 4 9 194 4 9 194 5 10 194 5 10 194 5 10 194 5 11 194 5 11 194 5 11 194 5 12 194 6 12 194 6 12 194 6 13 194 6 13 194 6 13 194 6 14 194 7 14 194 7 14 194 7 15 194 226 204 19 226 204 19 227 204 19 227 204 19 227 204 19 227 204 19 227 204 19 227 204 19 227 204 19 227 204 19 228 204 19 228 204 19 228 204 19 228 204 19 228 204 19 228 204 19 229 204 19 229 204 19 229 204 19 229 204 19 229 204 19 229 204 19 229 204 19 230 204 19 230 204 19 230 204 19 230 204 19 230 204 19 230 204 19 230 204 19 231 204 19 231 204 19 231 204 19 231 204 19 231 204 19 231 204 19 231 204 19 232 204 19 232 204 19 232 204 19 232 204 19 232 204 19 232 204 19 232 204 19 233 204 19 233 204 19 233 204 19 224 191 27 224 191 27 224 191 27 224 191 27 224 191 27 224 191 27 224 191 27 224 191 27 224 191 27 224 191 27 224 191 27 224 191 27 224 191 27 224 191 27 224 191 27 224 191 27 224 191 27 224 191 27 224 191 27 224 191 27 224 191 27 224 191 27 224 191 27 224 191 27 224 191 27 224 191 27 224 191 27 224 191 27 224 191 27 224 191 27 224 191 27 224 191 27 224 191 27 224 191 27 224 191 27 224 191 27 224 191 27 224 191 27 224 191 27 224 191 27 224 191 27 224 191 27 224 191 27 224 191 27 224 191 27 224 191 27 224 191 27 224 191 27 224 191 27 224 191 27 224 191 27 224 191 27 224 191 27 224 191 27 224 191 27 241 204 19 241 204 19 241 204 19 242 204 19 242 204 19 242 204 19 242 204 19 242 204 19 242 204 19 242 204 19 243 204 19 243 204 19 243 204 19 243 204 19 243 204 19 243 204 19 243 204 19 244 204 19 244 204 19 244 204 19 244 204 19 244 204 19 244 204 19 244 204 19 245 204 19 245 204 19 245 204 19 245 204 19 245 204 19 245 204 19 245 204 19 246 204 19 246 204 19 246 204 19 246 204 19 246 204 19 246 204 19 247 204 19 247 204 19 247 204 19 247 204 19 247 204 19 247 204 19 247 204 19 248 204 19 248 204 19 248 204 19 32 223 194 32 223 194 32 224 194 33 225 194 33 225 194 33 226 194 33 227 194 33 227 194 33 228 194 34 229 194 34 229 194 34 230 194 34 231 194 34 231 194 34 232 194 35 233 194 35 234 194 35 235 194 35 236 194 35 236 194 35 237 194 36 238 194 36 238 194 36 239 194 36 240 194 36 240 194 36 241 194 37 242 194 37 242 194 37 243 194 37 244 194 37 245 194 37 246 194 38 246 194 38 247 194 38 248 194 38 248 194 38 249 194 38 250 194 39 250 194 39 251 194 39 252 194 39 252 194 39 253 194 40 255 194
0 0 193 0 0 193 0 0 193 0 0 193 0 1 193 0 1 193 0 1 193 1 2 193 1 2 193 1 2 193 1 3 193 1 3 193 1 3 193 2 4 193 2 4 193 2 5 193 2 5 193 2 5 193 2 6 193 3 6 193 3 6 193 3 7 193 3 7 193 3 7 193 3 8 193 4 8 193 4 8 193 4 9 193 4 9 193 4 9 193 5 10 193 5 10 193 5 11 193 5 11 193 5 11 193 5 12 193 5 12 193 6 12 193 6 13 193 6 13 193 6 13 193 6 14 193 6 14 193 7 14 193 7 15 193 7 15 193 226 204 19 226 204 19 227 204 19 227 204 19 227 204 19 227 204 19 227 204 19 227 204 19 227 204 19 227 204 19 228 204 19 228 204 19 228 204 19 228 204 19 228 204 19 228 204 19 229 204 19 229 204 19 229 204 19 229 204 19 229 204 19 229 204 19 229 204 19 230 204 19 230 204 19 230 204 19 230 204 19 230 204 19 230 204 19 230 204 19 231 204 19 231 204 19 231 204 19 231 204 19 231 204 19 231 204 19 231 204 19 232 204 19 232 204 19 232 204 19 232 204 19 232 204 19 232 204 19 232 204 19 233 204 19 233 204 19 224 191 27 224 191 27 224 191 27 224 191 27 224 191 27 224 191 27 224 191 27 224 191 27 224 191 27 224 191 27 224 191 27 224 191 27 224 191 27 224 191 27 224 191 27 224 191 27 224 191 27 224 191 27 224 191 27 224 191 27 224 191 27 224 191 27 224 191 27 224 191 27 224 191 27 224 191 27 224 191 27 224 191 27 224 191 27 224 191 27 224 191 27 224 191 27 224 191 27 224 191 27 224 191 27 224 191 27 224 191 27 224 191 27 224 191 27 224 191 27 224 191 27 224 191 27 224 191 27 224 191 27 224 191 27 224 191 27 224 191 27 224 191 27 224 191 27 224 191 27 224 191 27 224 191 27 224 191 27 224 191 27 224 191 27 224 191 27 224 191 27 241 204 19 241 204 19 242 204 19 242 204 19 242 204 19 242 204 19 242 204 19 242 204 19 242 204 19 243 204 19 243 204 19 243 204 19 243 204 19 243 204 19 243 204 19 243 204 19 244 204 19 244 204 19 244 204 19 244 204 19 244 204 19 244 204 19 244 204 19 245 204 19 245 204 19 245 204 19 245 204 19 245 204 19 245 204 19 245 204 19 246 204 19 246 204 19 246 204 19 246 204 19 246 204 19 246 204 19 247 204 19 247 204 19 247 204 19 247 204 19 247 204 19 247 204 19 247 204 19 248 204 19 248 204 19 248 204 19 32 223 193 32 224 193 32 224 193 33 225 193 33 226 193 33 226 193 33 227 193 33 228 193 33 228 193 34 229 193 34 230 193 34 230 193 34 231 193 34 232 193 34 232 193 35 234 193 35 234 193 35 235 193 35 236 193 35 236 193 35 237 193 36 238 193 36 238 193 36 239 193 36 240 193 36 240 193 36 241 193 37 242 193 37 242 193 37 243 193 37 244 193 37 245 193 37 246 193 38 246 193 38 247 193 38 248 193 38 248 193 38 249 193 38 250 193 39 250 193 39 251 193 39 252 193 39 252 193 39 253 193 40 255 193
0 0 192 0 0 192 0 0 192 0 1 192 0 1 192 0 1 192 0 2 192 1 2 192 1 2 192 1 3 192 1 3 192 1 3 192 1 4 192 2 4 192 2 4 192 2 5 192 2 5 192 2 6 192 2 6 192 3 6 192 3 7 192 3 7 192 3 7 192 3 8 192 3 8 192 4 8 192 4 9 192 4 9 192 4 9 192 4 10 192 5 10 192 5 11 192 5 11 192 5 11 192 5 12 192 5 12 192 5 12 192 6 13 192 6 13 192 6 13 192 6 14 192 6 14 192 6 14 192 7 15 192 7 15 192 7 16 192 226 205 19 226 205 19 227 205 19 227 205 19 227 205 19 227 205 19 227 205 19 227 205 19 227 205 19 227 205 19 228 205 19 228 205 19 228 205 19 228 205 19 228 205 19 228 205 19 229 205 19 229 205 19 229 205 19 229 205 19 229 205 19 229 205 19 229 205 19 230 205 19 230 205 19 230 205 19 230 205 19 230 205 19 230 205 19 230 205 19 231 205 19 231 205 19 231 205 19 231 205 19 231 205 19 231 205 19 231 205 19 232 205 19 232 205 19 232 205 19 232 205 19 232 205 19 232 205 19 232 205 19 233 205 19 224 191 27 224 191 27 224 191 27 224 191 27 224 191 27 224 191 27 224 191 27 224 191 27 224 191 27 224 191 27 224 191 27 224 191 27 224 191 27 224 191 27 224 191 27 224 191 27 224 191 27 224 191 27 224 191 27 224 191 27 224 191 27 224 191 27 224 191 27 224 191 27 224 191 27 224 191 27 224 191 27 224 191 27 224 191 27 224 191 27 224 191 27 224 191 27 224 191 27 224 191 27 224 191 27 224 191 27 224 191 27 224 191 27 224 191 27 224 191 27 224 191 27 224 191 27 224 191 27 224 191 27 224 191 27 224 191 27 224 191 27 224 191 27 224 191 27 224 191 27 224 191 27 224 191 27 224 191 27 224 191 27 224 191 27 224 191 27 224 191 27 224 191 27 224 191 27 241 205 19 242 205 19 242 205 19 242 205 19 242 205 19 242 205 19 242 205 19 242 205 19 243 205 19 243 205 19 243 205 19 243 205 19 243 205 19 243 205 19 243 205 19 244 205 19 244 205 19 244 205 19 244 205 19 244 205 19 244 205 19 244 205 19 245 205 19 245 205 19 245 205 19 245 205 19 245 205 19 245 205 19 245 205 19 246 205 19 246 205 19 246 205 19 246 205 19 246 205 19 246 205 19 247 205 19 247 205 19 247 205 19 247 205 19 247 205 19 247 205 19 247 205 19 248 205 19 248 205 19 248 205 19 32 223 192 32 224 192 32 225 192 33 225 192 33 226 192 33 227 192 33 227 192 33 228 192 33 229 192 34 229 192 34 230 192 34 231 192 34 231 192 34 232 192 34 233 192 35 234 192 35 235 192 35 235 192 35 236 192 35 237 192 35 237 192 36 238 192 36 239 192 36 239 192 36 240 192 36 241 192 36 241 192 37 242 192 37 243 192 37 243 192 37 245 192 37 245 192 37 246 192 38 247 192 38 247 192 38 248 192 38 249 192 38 249 192 38 250 192 39 251 192 39 251 192 39 252 192 39 253 192 39 253 192 40 255 192
0 0 191 0 0 191 0 0 191 0 1 191 0 1 191 0 1 191 0 2 191 1 2 191 1 2 191 1 3 191 1 3 191 1 3 191 1 4 191 2 4 191 2 4 191 2 5 191 2 5 191 2 6 191 2 6 191 3 6 191 3 7 191 3 7 191 3 7 191 3 8 191 3 8 191 4 8 191 4 9 191 4 9 191 4 9 191 4 10 191 5 10 191 5 11 191 5 11 191 5 11 191 5 12 191 5 12 191 5 12 191 6 13 191 6 13 191 6 13 191 6 14 191 6 14 191 6 14 191 7 15 191 7 15 191 7 16 191 226 205 19 226 205 19 227 205 19 227 205 19 227 205 19 227 205 19 227 205 19 227 205 19 227 205 19 227 205 19 228 205 19 228 205 19 228 205 19 228 205 19 228 205 19 228 205 19 229 205 19 229 205 19 229 205 19 229 205 19 229 205 19 229 205 19 229 205 19 230 205 19 230 205 19 230 205 19 230 205 19 230 205 19 230 205 19 230 205 19 231 205 19 231 205 19 231 205 19 231 205 19 231 205 19 231 205 19 231 205 19 232 205 19 232 205 19 232 205 19 232 205 19 232 205 19 232 205 19 232 205 19 224 191 27 224 191 27 224 191 27 224 191 27 224 191 27 224 191 27 224 191 27 224 191 27 224 191 27 224 191 27 224 191 27 224 191 27 224 191 27 224 191 27 224 191 27 224 191 27 224 191 27 224 191 27 224 191 27 224 191 27 224 191 27 224 191 27 224 191 27 224 191 27 224 191 27 224 191 27 224 191 27 224 191 27 224 191 27 224 191 27 224 191 27 224 191 27 224 191 27 224 191 27 224 191 27 224 191 27 224 191 27 224 191 27 224 191 27 224 191 27 224 191 27 224 191 27 224 191 27 224 191 27 224 191 27 224 191 27 224 191 27 224 191 27 224 191 27 224 191 27 224 191 27 224 191 27 224 191 27 224 191 27 224 191 27 224 191 27 224 191 27 224 191 27 224 191 27 224 191 27 224 191 27 242 205 19 242 205 19 242 205 19 242 205 19 242 205 19 242 205 19 242 205 19 243 205 19 243 205 19 243 205 19 243 205 19 243 205 19 243 205 19 243 205 19 244 205 19 244 205 19 244 205 19 244 205 19 244 205 19 244 205 19 244 205 19 245 205 19 245 205 19 245 205 19 245 205 19 245 205 19 245 205 19 245 205 19 246 205 19 246 205 19 246 205 19 246 205 19 246 205 19 246 205 19 247 205 19 247 205 19 247 205 19 247 205 19 247 205 19 247 205 19 247 205 19 248 205 19 248 205 19 248 205 19 32 223 191 32 224 191 32 225 191 33 225 191 33 226 191 33 227 191 33 227 191 33 228 191 33 229 191 34 229 191 34 230 191 34 231 191 34 231 191 34 232 191 34 233 191 35 234 191 35 235 191 35 235 191 35 236 191 35 237 191 35 237 191 36 238 191 36 239 191 36 239 191 36 240 191 36 241 191 36 241 191 37 242 191 37 243 191 37 243 191 37 245 191 37 245 191 37 246 191 38 247 191 38 247 191 38 248 191 38 249 191 38 249 191 38 250 191 39 251 191 39 251 191 39 252 191 39 253 191 39 253 191 40 255 191
0 0 190 0 0 190 0 0 190 0 1 190 0 1 190 0 1 190 0 2 190 1 2 190 1 2 190 1 3 190 1 3 190 1 3 190 1 4 190 2 4 190 2 4 190 2 5 190 2 5 190 2 6 190 2 6 190 3 6 190 3 7 190 3 7 190 3 7 190 3 8 190 3 8 190 4 8 190 4 9 190 4 9 190 4 10 190 4 10 190 5 11 190 5 11 190 5 11 190 5 12 190 5 12 190 5 12 190 5 13 190 6 13 190 6 13 190 6 14 190 6 14 190 6 14 190 6 15 190 7 15 190 7 15 190 7 16 190 226 205 19 226 205 19 227 205 19 227 205 19 227 205 19 227 205 19 227 205 19 227 205 19 227 205 19 227 205 19 228 205 19 228 205 19 228 205 19 228 205 19 228 205 19 228 205 19 229 205 19 229 205 19 229 205 19 229 205 19 229 205 19 229 205 19 229 205 19 230 205 19 230 205 19 230 205 19 230 205 19 230 205 19 230 205 19 230 205 19 231 205 19 231 205 19 231 205 19 231 205 19 231 205 19 231 205 19 231 205 19 232 205 19 232 205 19 232 205 19 232 205 19 232 205 19 232 205 19 224 191 27 224 191 27 224 191 27 224 191 27 224 191 27 224 191 27 224 191 27 224 191 27 224 191 27 224 191 27 224 191 27 224 191 27 224 191 27 224 191 27 224 191 27 224 191 27 224 191 27 224 191 27 224 191 27 224 191 27 224 191 27 224 191 27 224 191 27 224 191 27 224 191 27 224 191 27 224 191 27 224 191 27 224 191 27 224 191 27 224 191 27 224 191 27 224 191 27 224 191 27 224 191 27 224 191 27 224 191 27 224 191 27 224 191 27 224 191 27 224 191 27 224 191 27 224 191 27 224 191 27 224 191 27 224 191 27 224 191 27 224 191 27 224 191 27 224 191 27 224 191 27 224 191 27 224 191 27 224 191 27 224 191 27 224 191 27 224 191 27 224 191 27 224 191 27 224 191 27 224 191 27 224 191 27 224 191 27 242 205 19 242 205 19 242 205 19 242 205 19 242 205 19 242 205 19 243 205 19 243 205 19 243 205 19 243 205 19 243 205 19 243 205 19 243 205 19 244 205 19 244 205 19 244 205 19 244 205 19 244 205 19 244 205 19 244 205 19 245 205 19 245 205 19 245 205 19 245 205 19 245 205 19 245 205 19 245 205 19 246 205 19 246 205 19 246 205 19 246 205 19 246 205 19 246 205 19 247 205 19 247 205 19 247 205 19 247 205 19 247 205 19 247 205 19 247 205 19 248 205 19 248 205 19 248 205 19 32 224 190 32 224 190 32 225 190 33 226 190 33 226 190 33 227 190 33 228 190 33 228 190 33 229 190 34 230 190 34 230 190 34 231 190 34 232 190 34 232 190 34 233 190 35 234 190 35 235 190 35 236 190 35 236 190 35 237 190 35 237 190 36 238 190 36 239 190 36 239 190 36 240 190 36 241 190 36 241 190 37 242 190 37 243 190 37 243 190 37 245 190 37 245 190 37 246 190 38 247 190 38 247 190 38 248 190 38 249 190 38 249 190 38 250 190 39 251 190 39 251 190 39 252 190 39 253 190 39 253 190 40 255 190
0 0 189 0 0 189 0 0 189 0 1 189 0 1 189 0 1 189 0 2 189 1 2 189 1 2 189 1 3 189 1 3 189 1 3 189 1 4 189 2 4 189 2 4 189 2 5 189 2 5 189 2 6 189 2 6 189 3 6 189 3 7 189 3 7 189 3 8 189 3 8 189 3 8 189 4 9 189 4 9 189 4 9 189 4 10 189 4 10 189 5 11 189 5 11 189 5 11 189 5 12 189 5 12 189 5 12 189 5 13 189 6 13 189 6 13 189 6 14 189 6 14 189 6 15 189 6 15 189 7 15 189 7 16 189 7 16 189 226 206 19 226 206 19 227 206 19 227 206 19 227 206 19 227 206 19 227 206 19 227 206 19 227 206 19 227 206 19 228 206 19 228 206 19 228 206 19 228 206 19 228 206 19 228 206 19 229 206 19 229 206 19 229 206 19 229 206 19 229 206 19 229 206 19 229 206 19 230 206 19 230 206 19 230 206 19 230 206 19 230 206 19 230 206 19 230 206 19 231 206 19 231 206 19 231 206 19 231 206 19 231 206 19 231 206 19 231 206 19 232 206 19 232 206 19 232 206 19 232 206 19 232 206 19 224 191 27 224 191 27 224 191 27 224 191 27 224 191 27 224 191 27 224 191 27 224 191 27 224 191 27 224 191 27 224 191 27 224 191 27 224 191 27 224 191 27 224 191 27 224 191 27 224 191 27 224 191 27 224 191 27 224 191 27 224 191 27 224 191 27 224 191 27 224 191 27 224 191 27 224 191 27 224 191 27 224 191 27 224 191 27 224 191 27 224 191 27 224 191 27 224 191 27 224 191 27 224 191 27 224 191 27 224 191 27 224 191 27 224 191 27 224 191 27 224 191 27 224 191 27 224 191 27 224 191 27 224 191 27 224 191 27 224 191 27 224 191 27 224 191 27 224 191 27 224 191 27 224 191 27 224 191 27 224 191 27 224 191 27 224 191 27 224 191 27 224 191 27 224 191 27 224 191 27 224 191 27 224 191 27 224 191 27 224 191 27 224 191 27 242 206 19 242 206 19 242 206 19 242 206 19 242 206 19 243 206 19 243 206 19 243 206 19 243 206 19 243 206 19 243 206 19 243 206 19 244 206 19 244 206 19 244 206 19 244 206 19 244 206 19 244 206 19 244 206 19 245 206 19 245 206 19 245 206 19 245 206 19 245 206 19 245 206 19 245 206 19 246 206 19 246 206 19 246 206 19 246 206 19 246 206 19 246 206 19 247 206 19 247 206 19 247 206 19 247 206 19 247 206 19 247 206 19 247 206 19 248 206 19 248 206 19 248 206 19 32 224 189 32 225 189 32 225 189 33 226 189 33 227 189 33 227 189 33 228 189 33 228 189 33 229 189 34 230 189 34 230 189 34 231 189 34 232 189 34 232 189 34 233 189 35 234 189 35 235 189 35 236 189 35 236 189 35 237 189 35 238 189 36 238 189 36 239 189 36 240 189 36 240 189 36 241 189 36 241 189 37 242 189 37 243 189 37 243 189 37 245 189 37 245 189 37 246 189 38 247 189 38 247 189 38 248 189 38 249 189 38 249 189 38 250 189 39 251 189 39 251 189 39 252 189 39 253 189 39 253 189 40 255 189
0 0 188 0 0 188 0 0 188 0 1 188 0 1 188 0 1 188 0 2 188 1 2 188 1 2 188 1 3 188 1 3 188 1 3 188 1 4 188 2 4 188 2 4 188 2 5 188 2 6 188 2 6 188 2 6 188 3 7 188 3 7 188 3 7 188 3 8 188 3 8 188 3 8 188 4 9 188 4 9 188 4 9 188 4 10 188 4 10 188 5 11 188 5 11 188 5 12 188 5 12 188 5 12 188 5 13 188 5 13 188 6 13 188 6 14 188 6 14 188 6 14 188 6 15 188 6 15 188 7 16 188 7 16 188 7 17 188 226 206 19 226 206 19 227 206 19 227 206 19 227 206 19 227 206 19 227 206 19 227 206 19 227 206 19 227 206 19 228 206 19 228 206 19 228 206 19 228 206 19 228 206 19 228 206 19 229 206 19 229 206 19 229 206 19 229 206 19 229 206 19 229 206 19 229 206 19 230 206 19 230 206 19 230 206 19 230 206 19 230 206 19 230 206 19 230 206 19 231 206 19 231 206 19 231 206 19 231 206 19 231 206 19 231 206 19 231 206 19 232 206 19 232 206 19 232 206 19 232 206 19 232 206 19 224 191 27 224 191 27 224 191 27 224 191 27 224 191 27 224 191 27 224 191 27 224 191 27 224 191 27 224 191 27 224 191 27 224 191 27 224 191 27 224 191 27 224 191 27 224 191 27 224 191 27 224 191 27 224 191 27 224 191 27 224 191 27 224 191 27 224 191 27 224 191 27 224 191 27 224 191 27 224 191 27 224 191 27 224 191 27 224 191 27 224 191 27 224 191 27 224 191 27 224 191 27 224 191 27 224 191 27 224 191 27 224 191 27 224 191 27 224 191 27 224 191 27 224 191 27 224 191 27 224 191 27 224 191 27 224 191 27 224 191 27 224 191 27 224 191 27 224 191 27 224 191 27 224 191 27 224 191 27 224 191 27 224 191 27 224 191 27 224 191 27 224 191 27 224 191 27 224 191 27 224 191 27 224 191 27 224 191 27 224 191 27 224 191 27 242 206 19 242 206 19 242 206 19 242 206 19 242 206 19 243 206 19 243 206 19 243 206 19 243 206 19 243 206 19 243 206 19 243 206 19 244 206 19 244 206 19 244 206 19 244 206 19 244 206 19 244 206 19 244 206 19 245 206 19 245 206 19 245 206 19 245 206 19 245 206 19 245 206 19 245 206 19 246 206 19 246 206 19 246 206 19 246 206 19 246 206 19 246 206 19 247 206 19 247 206 19 247 206 19 247 206 19 247 206 19 247 206 19 247 206 19 248 206 19 248 206 19 248 206 19 32 224 188 32 225 188 32 226 188 33 226 188 33 227 188 33 227 188 33 228 188 33 229 188 33 229 188 34 230 188 34 231 188 34 231 188 34 232 188 34 233 188 34 233 188 35 235 188 35 235 188 35 236 188 35 236 188 35 237 188 35 238 188 36 238 188 36 239 188 36 240 188 36 240 188 36 241 188 36 242 188 37 242 188 37 243 188 37 244 188 37 245 188 37 245 188 37 246 188 38 247 188 38 247 188 38 248 188 38 249 188 38 249 188 38 250 188 39 251 188 39 251 188 39 252 188 39 253 188 39 253 188 40 255 188
0 0 187 0 0 187 0 0 187 0 1 187 0 1 187 0 1 187 0 2 187 1 2 187 1 2 187 1 3 187 1 3 187 1 3 187 1 4 187 2 4 187 2 5 187 2 5 187 2 6 187 2 6 187 2 6 187 3 7 187 3 7 187 3 7 187 3 8 187 3 8 187 3 9 187 4 9 187 4 9 187 4 10 187 4 10 187 4 10 187 5 11 187 5 11 187 5 12 187 5 12 187 5 12 187 5 13 187 5 13 187 6 14 187 6 14 187 6 14 187 6 15 187 6 15 187 6 15 187 7 16 187 7 16 187 7 17 187 226 207 19 226 207 19 227 207 19 227 207 19 227 207 19 227 207 19 227 207 19 227 207 19 227 207 19 227 207 19 228 207 19 228 207 19 228 207 19 228 207 19 228 207 19 228 207 19 229 207 19 229 207 19 229 207 19 229 207 19 229 207 19 229 207 19 229 207 19 230 207 19 230 207 19 230 207 19 230 207 19 230 207 19 230 207 19 230 207 19 231 207 19 231 207 19 231 207 19 231 207 19 231 207 19 231 207 19 231 207 19 232 207 19 232 207 19 232 207 19 232 207 19 224 191 27 224 191 27 224 191 27 224 191 27 224 191 27 224 191 27 224 191 27 224 191 27 224 191 27 224 191 27 224 191 27 224 191 27 224 191 27 224 191 27 224 191 27 224 191 27 224 191 27 224 191 27 224 191 27 224 191 27 224 191 27 224 191 27 224 191 27 224 191 27 224 191 27 224 191 27 224 191 27 224 191 27 224 191 27 224 191 27 224 191 27 224 191 27 224 191 27 224 191 27 224 191 27 224 191 27 224 191 27 224 191 27 224 191 27 224 191 27 224 191 27 224 191 27 224 191 27 224 191 27 224 191 27 224 191 27 224 191 27 224 191 27 224 191 27 224 191 27 224 191 27 224 191 27 224 191 27 224 191 27 224 191 27 224 191 27 224 191 27 224 191 27 224 191 27 224 191 27 224 191 27 224 191 27 224 191 27 224 191 27 224 191 27 224 191 27 224 191 27 242 207 19 242 207 19 242 207 19 242 207 19 243 207 19 243 207 19 243 207 19 243 207 19 243 207 19 243 207 19 243 207 19 244 207 19 244 207 19 244 207 19 244 207 19 244 207 19 244 207 19 244 207 19 245 207 19 245 207 19 245 207 19 245 207 19 245 207 19 245 207 19 245 207 19 246 207 19 246 207 19 246 207 19 246 207 19 246 207 19 246 207 19 247 207 19 247 207 19 247 207 19 247 207 19 247 207 19 247 207 19 247 207 19 248 207 19 248 207 19 248 207 19 32 224 187 32 225 187 32 226 187 33 226 187 33 227 187 33 228 187 33 228 187 33 229 187 33 230 187 34 230 187 34 231 187 34 231 187 34 232 187 34 233 187 34 233 187 35 235 187 35 235 187 35 236 187 35 237 187 35 237 187 35 238 187 36 239 187 36 239 187 36 240 187 36 240 187 36 241 187 36 242 187 37 242 187 37 243 187 37 244 187 37 245 187 37 246 187 37 246 187 38 247 187 38 247 187 38 248 187 38 249 187 38 249 187 38 250 187 39 251 187 39 251 187 39 252 187 39 253 187 39 253 187 40 255 187
0 0 186 0 0 186 0 0 186 0 1 186 0 1 186 0 1 186 0 2 186 1 2 186 1 2 186 1 3 186 1 3 186 1 4 186 1 4 186 2 4 186 2 5 186 2 5 186 2 6 186 2 6 186 2 7 186 3 7 186 3 7 186 3 8 186 3 8 186 3 8 186 3 9 186 4 9 186 4 9 186 4 10 186 4 10 186 4 11 186 5 11 186 5 12 186 5 12 186 5 12 186 5 13 186 5 13 186 5 14 186 6 14 186 6 14 186 6 15 186 6 15 186 6 15 186 6 16 186 7 16 186 7 16 186 7 17 186 226 207 19 226 207 19 227 207 19 227 207 19 227 207 19 227 207 19 227 207 19 227 207 19 227 207 19 227 207 19 228 207 19 228 207 19 228 207 19 228 207 19 228 207 19 228 207 19 229 207 19 229 207 19 229 207 19 229 207 19 229 207 19 229 207 19 229 207 19 230 207 19 230 207 19 230 207 19 230 207 19 230 207 19 230 207 19 230 207 19 231 207 19 231 207 19 231 207 19 231 207 19 231 207 19 231 207 19 231 207 19 232 207 19 232 207 19 232 207 19 224 191 27 224 191 27 224 191 27 224 191 27 224 191 27 224 191 27 224 191 27 224 191 27 224 191 27 224 191 27 224 191 27 224 191 27 224 191 27 224 191 27 224 191 27 224 191 27 224 191 27 224 191 27 224 191 27 224 191 27 224 191 27 224 191 27 224 191 27 224 191 27 224 191 27 224 191 27 224 191 27 224 191 27 224 191 27 224 191 27 224 191 27 224 191 27 224 191 27 224 191 27 224 191 27 224 191 27 224 191 27 224 191 27 224 191 27 224 191 27 224 191 27 224 191 27 224 191 27 224 191 27 224 191 27 224 191 27 224 191 27 224 191 27 224 191 27 224 191 27 224 191 27 224 191 27 224 191 27 224 191 27 224 191 27 224 191 27 224 191 27 224 191 27 224 191 27 224 191 27 224 191 27 224 191 27 224 191 27 224 191 27 224 191 27 224 191 27 224 191 27 224 191 27 224 191 27 242 207 19 242 207 19 242 207 19 243 207 19 243 207 19 243 207 19 243 207 19 243 207 19 243 207 19 243 207 19 244 207 19 244 207 19 244 207 19 244 207 19 244 207 19 244 207 19 244 207 19 245 207 19 245 207 19 245 207 19 245 207 19 245 207 19 245 207 19 245 207 19 246 207 19 246 207 19 246 207 19 246 207 19 246 207 19 246 207 19 247 207 19 247 207 19 247 207 19 247 207 19 247 207 19 247 207 19 247 207 19 248 207 19 248 207 19 248 207 19 32 225 186 32 225 186 32 226 186 33 227 186 33 227 186 33 228 186 33 229 186 33 229 186 33 230 186 34 231 186 34 231 186 34 232 186 34 232 186 34 233 186 34 234 186 35 235 186 35 236 186 35 236 186 35 237 186 35 237 186 35 238 186 36 239 186 36 239 186 36 240 186 36 241 186 36 241 186 36 242 186 37 243 186 37 243 186 37 244 186 37 245 186 37 246 186 37 246 186 38 247 186 38 248 186 38 248 186 38 249 186 38 249 186 38 250 186 39 251 186 39 251 186 39 252 186 39 253 186 39 253 186 40 255 186
0 0 185 0 0 185 0 0 185 0 1 185 0 1 185 0 1 185 0 2 185 1 2 185 1 2 185 1 3 185 1 3 185 1 4 185 1 4 185 2 4 185 2 5 185 2 5 185 2 6 185 2 6 185 2 7 185 3 7 185 3 7 185 3 8 185 3 8 185 3 8 185 3 9 185 4 9 185 4 10 185 4 10 185 4 10 185 4 11 185 5 11 185 5 12 185 5 12 185 5 13 185 5 13 185 5 13 185 5 14 185 6 14 185 6 14 185 6 15 185 6 15 185 6 16 185 6 16 185 7 16 185 7 17 185 7 17 185 226 207 19 226 207 19 227 207 19 227 207 19 227 207 19 227 207 19 227 207 19 227 207 19 227 207 19 227 207 19 228 207 19 228 207 19 228 207 19 228 207 19 228 207 19 228 207 19 229 207 19 229 207 19 229 207 19 229 207 19 229 207 19 229 207 19 229 207 19 230 207 19 230 207 19 230 207 19 230 207 19 230 207 19 230 207 19 230 207 19 231 207 19 231 207 19 231 207 19 231 207 19 231 207 19 231 207 19 231 207 19 232 207 19 232 207 19 224 191 27 224 191 27 224 191 27 224 191 27 224 191 27 224 191 27 224 191 27 224 191 27 224 191 27 224 191 27 224 191 27 224 191 27 224 191 27 224 191 27 224 191 27 224 191 27 224 191 27 224 191 27 224 191 27 224 191 27 224 191 27 224 191 27 224 191 27 224 191 27 224 191 27 224 191 27 224 191 27 224 191 27 224 191 27 224 191 27 224 191 27 224 191 27 224 191 27 224 191 27 224 191 27 224 191 27 224 191 27 224 191 27 224 191 27 224 191 27 224 191 27 224 191 27 224 191 27 224 191 27 224 191 27 224 191 27 224 191 27 224 191 27 224 191 27 224 191 27 224 191 27 224 191 27 224 191 27 224 191 27 224 191 27 224 191 27 224 191 27 224 191 27 224 191 27 224 191 27 224 191 27 224 191 27 224 191 27 224 191 27 224 191 27 224 191 27 224 191 27 224 191 27 224 191 27 224 191 27 224 191 27 242 207 19 242 207 19 243 207 19 243 207 19 243 207 19 243 207 19 243 207 19 243 207 19 243 207 19 244 207 19 244 207 19 244 207 19 244 207 19 244 207 19 244 207 19 244 207 19 245 207 19 245 207 19 245 207 19 245 207 19 245 207 19 245 207 19 245 207 19 246 207 19 246 207 19 246 207 19 246 207 19 246 207 19 246 207 19 247 207 19 247 207 19 247 207 19 247 207 19 247 207 19 247 207 19 247 207 19 248 207 19 248 207 19 248 207 19 32 225 185 32 226 185 32 226 185 33 227 185 33 228 185 33 228 185 33 229 185 33 229 185 33 230 185 34 231 185 34 231 185 34 232 185 34 233 185 34 233 185 34 234 185 35 235 185 35 236 185 35 236 185 35 237 185 35 238 185 35 238 185 36 239 185 36 239 185 36 240 185 36 241 185 36 241 185 36 242 185 37 243 185 37 243 185 37 244 185 37 245 185 37 246 185 37 246 185 38 247 185 38 248 185 38 248 185 38 249 185 38 249 185 38 250 185 39 251 185 39 251 185 39 252 185 39 253 185 39 253 185 40 255 185
0 0 184 0 0 184 0 0 184 0 1 184 0 1 184 0 1 184 0 2 184 1 2 184 1 3 184 1 3 184 1 3 184 1 4 184 1 4 184 2 4 184 2 5 184 2 6 184 2 6 184 2 6 184 2 7 184 3 7 184 3 7 184 3 8 184 3 8 184 3 9 184 3 9 184 4 9 184 4 10 184 4 10 184 4 10 184 4 11 184 5 12 184 5 12 184 5 12 184 5 13 184 5 13 184 5 13 184 5 14 184 6 14 184 6 15 184 6 15 184 6 15 184 6 16 184 6 16 184 7 16 184 7 17 184 7 18 184 226 208 19 226 208 19 227 208 19 227 208 19 227 208 19 227 208 19 227 208 19 227 208 19 227 208 19 227 208 19 228 208 19 228 208 19 228 208 19 228 208 19 228 208 19 228 208 19 229 208 19 229 208 19 229 208 19 229 208 19 229 208 19 229 208 19 229 208 19 230 208 19 230 208 19 230 208 19 230 208 19 230 208 19 230 208 19 230 208 19 231 208 19 231 208 19 231 208 19 231 208 19 231 208 19 231 208 19 231 208 19 232 208 19 232 208 19 224 191 27 224 191 27 224 191 27 224 191 27 224 191 27 224 191 27 224 191 27 224 191 27 224 191 27 224 191 27 224 191 27 224 191 27 224 191 27 224 191 27 224 191 27 224 191 27 224 191 27 224 191 27 224 191 27 224 191 27 224 191 27 224 191 27 224 191 27 224 191 27 224 191 27 224 191 27 224 191 27 224 191 27 224 191 27 224 191 27 224 191 27 224 191 27 224 191 27 224 191 27 224 191 27 224 191 27 224 191 27 224 191 27 224 191 27 224 191 27 224 191 27 224 191 27 224 191 27 224 191 27 224 191 27 224 191 27 224 191 27 224 191 27 224 191 27 224 191 27 224 191 27 224 191 27 224 191 27 224 191 27 224 191 27 224 191 27 224 191 27 224 191 27 224 191 27 224 191 27 224 191 27 224 191 27 224 191 27 224 191 27 224 191 27 224 191 27 224 191 27 224 191 27 224 191 27 224 191 27 224 191 27 242 208 19 242 208 19 243 208 19 243 208 19 243 208 19 243 208 19 243 208 19 243 208 19 243 208 19 244 208 19 244 208 19 244 208 19 244 208 19 244 208 19 244 208 19 244 208 19 245 208 19 245 208 19 245 208 19 245 208 19 245 208 19 245 208 19 245 208 19 246 208 19 246 208 19 246 208 19 246 208 19 246 208 19 246 208 19 247 208 19 247 208 19 247 208 19 247 208 19 247 208 19 247 208 19 247 208 19 248 208 19 248 208 19 248 208 19 32 225 184 32 226 184 32 226 184 33 227 184 33 228 184 33 228 184 33 229 184 33 230 184 33 230 184 34 231 184 34 231 184 34 232 184 34 233 184 34 233 184 34 234 184 35 235 184 35 236 184 35 236 184 35 237 184 35 238 184 35 238 184 36 239 184 36 240 184 36 240 184 36 241 184 36 241 184 36 242 184 37 243 184 37 243 184 37 244 184 37 245 184 37 246 184 37 246 184 38 247 184 38 248 184 38 248 184 38 249 184 38 250 184 38 250 184 39 251 184 39 251 184 39 252 184 39 253 184 39 253 184 40 255 184
0 0 183 0 0 183 0 0 183 0 1 183 0 1 183 0 1 183 0 2 183 1 2 183 1 3 183 1 3 183 1 3 183 1 4 183 1 4 183 2 4 183 2 5 183 2 6 183 2 6 183 2 6 183 2 7 183 3 7 183 3 8 183 3 8 183 3 8 183 3 9 183 3 9 183 4 9 183 4 10 183 4 10 183 4 11 183 4 11 183 5 12 183 5 12 183 5 13 183 5 13 183 5 13 183 5 14 183 5 14 183 6 14 183 6 15 183 6 15 183 6 16 183 6 16 183 6 16 183 7 17 183 7 17 183 7 18 183 226 208 19 226 208 19 227 208 19 227 208 19 227 208 19 227 208 19 227 208 19 227 208 19 227 208 19 227 208 19 228 208 19 228 208 19 228 208 19 228 208 19 228 208 19 228 208 19 229 208 19 229 208 19 229 208 19 229 208 19 229 208 19 229 208 19 229 208 19 230 208 19 230 208 19 230 208 19 230 208 19 230 208 19 230 208 19 230 208 19 231 208 19 231 208 19 231 208 19 231 208 19 231 208 19 231 208 19 231 208 19 232 208 19 224 191 27 224 191 27 224 191 27 224 191 27 224 191 27 224 191 27 224 191 27 224 191 27 224 191 27 224 191 27 224 191 27 224 191 27 224 191 27 224 191 27 224 191 27 224 191 27 224 191 27 224 191 27 224 191 27 224 191 27 224 191 27 224 191 27 224 191 27 224 191 27 224 191 27 224 191 27 224 191 27 224 191 27 224 191 27 224 191 27 224 191 27 224 191 27 224 191 27 224 191 27 224 191 27 224 191 27 224 191 27 224 191 27 224 191 27 224 191 27 224 191 27 224 191 27 224 191 27 224 191 27 224 191 27 224 191 27 224 191 27 224 191 27 224 191 27 224 191 27 224 191 27 224 191 27 224 191 27 224 191 27 224 191 27 224 191 27 224 191 27 224 191 27 224 191 27 224 191 27 224 191 27 224 191 27 224 191 27 224 191 27 224 191 27 224 191 27 224 191 27 224 191 27 224 191 27 224 191 27 224 191 27 224 191 27 224 191 27 242 208 19 243 208 19 243 208 19 243 208 19 243 208 19 243 208 19 243 208 19 243 208 19 244 208 19 244 208 19 244 208 19 244 208 19 244 208 19 244 208 19 244 208 19 245 208 19 245 208 19 245 208 19 245 208 19 245 208 19 245 208 19 245 208 19 246 208 19 246 208 19 246 208 19 246 208 19 246 208 19 246 208 19 247 208 19 247 208 19 247 208 19 247 208 19 247 208 19 247 208 19 247 208 19 248 208 19 248 208 19 248 208 19 32 226 183 32 226 183 32 227 183 33 227 183 33 228 183 33 229 183 33 229 183 33 230 183 33 230 183 34 231 183 34 232 183 34 232 183 34 233 183 34 234 183 34 234 183 35 235 183 35 236 183 35 237 183 35 237 183 35 238 183 35 238 183 36 239 183 36 240 183 36 240 183 36 241 183 36 242 183 36 242 183 37 243 183 37 243 183 37 244 183 37 245 183 37 246 183 37 246 183 38 247 183 38 248 183 38 248 183 38 249 183 38 250 183 38 250 183 39 251 183 39 251 183 39 252 183 39 253 183 39 253 183 40 255 183
0 0 182 0 0 182 0 0 182 0 1 182 0 1 182 0 1 182 0 2 182 1 2 182 1 3 182 1 3 182 1 3 182 1 4 182 1 4 182 2 5 182 2 5 182 2 6 182 2 6 182 2 6 182 2 7 182 3 7 182 3 8 182 3 8 182 3 8 182 3 9 182 3 9 182 4 10 182 4 10 182 4 10 182 4 11 182 4 11 182 5 12 182 5 12 182 5 13 182 5 13 182 5 13 182 5 14 182 5 14 182 6 15 182 6 15 182 6 15 182 6 16 182 6 16 182 6 17 182 7 17 182 7 17 182 7 18 182 226 209 19 226 209 19 227 209 19 227 209 19 227 209 19 227 209 19 227 209 19 227 209 19 227 209 19 227 209 19 228 209 19 228 209 19 228 209 19 228 209 19 228 209 19 228 209 19 229 209 19 229 209 19 229 209 19 229 209 19 229 209 19 229 209 19 229 209 19 230 209 19 230 209 19 230 209 19 230 209 19 230 209 19 230 209 19 230 209 19 231 209 19 231 209 19 231 209 19 231 209 19 231 209 19 231 209 19 231 209 19 232 209 19 224 191 27 224 191 27 224 191 27 224 191 27 224 191 27 224 191 27 224 191 27 224 191 27 224 191 27 224 191 27 224 191 27 224 191 27 224 191 27 224 191 27 224 191 27 224 191 27 224 191 27 224 191 27 224 191 27 224 191 27 224 191 27 224 191 27 224 191 27 224 191 27 224 191 27 224 191 27 224 191 27 224 191 27 224 191 27 224 191 27 224 191 27 224 191 27 224 191 27 224 191 27 224 191 27 224 191 27 224 191 27 224 191 27 224 191 27 224 191 27 224 191 27 224 191 27 224 191 27 224 191 27 224 191 27 224 191 27 224 191 27 224 191 27 224 191 27 224 191 27 224 191 27 224 191 27 224 191 27 224 191 27 224 191 27 224 191 27 224 191 27 224 191 27 224 191 27 224 191 27 224 191 27 224 191 27 224 191 27 224 191 27 224 191 27 224 191 27 224 191 27 224 191 27 224 191 27 224 191 27 224 191 27 224 191 27 224 191 27 242 209 19 243 209 19 243 209 19 243 209 19 243 209 19 243 209 19 243 209 19 243 209 19 244 209 19 244 209 19 244 209 19 244 209 19 244 209 19 244 209 19 244 209 19 245 209 19 245 209 19 245 209 19 245 209 19 245 209 19 245 209 19 245 209 19 246 209 19 246 209 19 246 209 19 246 209 19 246 209 19 246 209 19 247 209 19 247 209 19 247 209 19 247 209 19 247 209 19 247 209 19 247 209 19 248 209 19 248 209 19 248 209 19 32 226 182 32 226 182 32 227 182 33 228 182 33 228 182 33 229 182 33 229 182 33 230 182 33 231 182 34 231 182 34 232 182 34 232 182 34 233 182 34 234 182 34 234 182 35 236 182 35 236 182 35 237 182 35 237 182 35 238 182 35 239 182 36 239 182 36 240 182 36 240 182 36 241 182 36 242 182 36 242 182 37 243 182 37 243 182 37 244 182 37 245 182 37 246 182 37 247 182 38 247 182 38 248 182 38 248 182 38 249 182 38 250 182 38 250 182 39 251 182 39 251 182 39 252 182 39 253 182 39 253 182 40 255 182
0 0 180 0 0 180 0 0 180 0 1 180 0 1 180 0 1 180 0 2 180 1 2 180 1 3 180 1 3 180 1 3 180 1 4 180 1 4 180 2 5 180 2 5 180 2 6 180 2 6 180 2 7 180 2 7 180 3 7 180 3 8 180 3 8 180 3 9 180 3 9 180 3 9 180 4 10 180 4 10 180 4 11 180 4 11 180 4 11 180 5 12 180 5 13 180 5 13 180 5 13 180 5 14 180 5 14 180 5 15 180 6 15 180 6 15 180 6 16 180 6 16 180 6 17 180 6 17 180 7 17 180 7 18 180 7 19 180 226 209 19 226 209 19 227 209 19 227 209 19 227 209 19 227 209 19 227 209 19 227 209 19 227 209 19 227 209 19 228 209 19 228 209 19 228 209 19 228 209 19 228 209 19 228 209 19 229 209 19 229 209 19 229 209 19 229 209 19 229 209 19 229 209 19 229 209 19 230 209 19 230 209 19 230 209 19 230 209 19 230 209 19 230 209 19 230 209 19 231 209 19 231 209 19 231 209 19 231 209 19 231 209 19 231 209 19 231 209 19 224 191 27 224 191 27 224 191 27 224 191 27 224 191 27 224 191 27 224 191 27 224 191 27 224 191 27 224 191 27 224 191 27 224 191 27 224 191 27 224 191 27 224 191 27 224 191 27 224 191 27 224 191 27 224 191 27 224 191 27 224 191 27 224 191 27 224 191 27 224 191 27 224 191 27 224 191 27 224 191 27 224 191 27 224 191 27 224 191 27 224 191 27 224 191 27 224 191 27 224 191 27 224 191 27 224 191 27 224 191 27 224 191 27 224 191 27 224 191 27 224 191 27 224 191 27 224 191 27 224 191 27 224 191 27 224 191 27 224 191 27 224 191 27 224 191 27 224 191 27 224 191 27 224 191 27 224 191 27 224 191 27 224 191 27 224 191 27 224 191 27 224 191 27 224 191 27 224 191 27 224 191 27 224 191 27 224 191 27 224 191 27 224 191 27 224 191 27 224 191 27 224 191 27 224 191 27 224 191 27 224 191 27 224 191 27 224 191 27 224 191 27 224 191 27 243 209 19 243 209 19 243 209 19 243 209 19 243 209 19 243 209 19 243 209 19 244 209 19 244 209 19 244 209 19 244 209 19 244 209 19 244 209 19 244 209 19 245 209 19 245 209 19 245 209 19 245 209 19 245 209 19 245 209 19 245 209 19 246 209 19 246 209 19 246 209 19 246 209 19 246 209 19 246 209 19 247 209 19 247 209 19 247 209 19 247 209 19 247 209 19 247 209 19 247 209 19 248 209 19 248 209 19 248 209 19 32 226 180 32 227 180 32 227 180 33 228 180 33 229 180 33 229 180 33 230 180 33 230 180 33 231 180 34 232 180 34 232 180 34 233 180 34 233 180 34 234 180 34 235 180 35 236 180 35 236 180 35 237 180 35 238 180 35 238 180 35 239 180 36 239 180 36 240 180 36 241 180 36 241 180 36 242 180 36 242 180 37 243 180 37 244 180 37 244 180 37 245 180 37 246 180 37 247 180 38 247 180 38 248 180 38 248 180 38 249 180 38 250 180 38 250 180 39 251 180 39 251 180 39 252 180 39 253 180 39 253 180 40 255 180
0 0 180 0 0 180 0 0 180 0 1 180 0 1 180 0 2 180 0 2 180 1 2 180 1 3 180 1 3 180 1 4 180 1 4 180 1 4 180 2 5 180 2 5 180 2 6 180 2 6 180 2 7 180 2 7 180 3 8 180 3 8 180 3 8 180 3 9 180 3 9 180 3 10 180 4 10 180 4 10 180 4 11 180 4 11 180 4 12 180 5 12 180 5 13 180 5 13 180 5 14 180 5 14 180 5 14 180 5 15 180 6 15 180 6 16 180 6 16 180 6 16 180 6 17 180 6 17 180 7 18 180 7 18 180 7 19 180 226 210 19 226 210 19 227 210 19 227 210 19 227 210 19 227 210 19 227 210 19 227 210 19 227 210 19 227 210 19 228 210 19 228 210 19 228 210 19 228 210 19 228 210 19 228 210 19 229 210 19 229 210 19 229 210 19 229 210 19 229 210 19 229 210 19 229 210 19 230 210 19 230 210 19 230 210 19 230 210 19 230 210 19 230 210 19 230 210 19 231 210 19 231 210 19 231 210 19 231 210 19 231 210 19 231 210 19 231 210 19 224 191 27 224 191 27 224 191 27 224 191 27 224 191 27 224 191 27 224 191 27 224 191 27 224 191 27 224 191 27 224 191 27 224 191 27 224 191 27 224 191 27 224 191 27 224 191 27 224 191 27 224 191 27 224 191 27 224 191 27 224 191 27 224 191 27 224 191 27 224 191 27 224 191 27 224 191 27 224 191 27 224 191 27 224 191 27 224 191 27 224 191 27 224 191 27 224 191 27 224 191 27 224 191 27 224 191 27 224 191 27 224 191 27 224 191 27 224 191 27 224 191 27 224 191 27 224 191 27 224 191 27 224 191 27 224 191 27 224 191 27 224 191 27 224 191 27 224 191 27 224 191 27 224 191 27 224 191 27 224 191 27 224 191 27 224 191 27 224 191 27 224 191 27 224 191 27 224 191 27 224 191 27 224 191 27 224 191 27 224 191 27 224 191 27 224 191 27 224 191 27 224 191 27 224 191 27 224 191 27 224 191 27 224 191 27 224 191 27 224 191 27 224 191 27 243 210 19 243 210 19 243 210 19 243 210 19 243 210 19 243 210 19 243 210 19 244 210 19 244 210 19 244 210 19 244 210 19 244 210 19 244 210 19 244 210 19 245 210 19 245 210 19 245 210 19 245 210 19 245 210 19 245 210 19 245 210 19 246 210 19 246 210 19 246 210 19 246 210 19 246 210 19 246 210 19 247 210 19 247 210 19 247 210 19 247 210 19 247 210 19 247 210 19 247 210 19 248 210 19 248 210 19 248 210 19 32 226 180 32 227 180 32 227 180 33 228 180 33 229 180 33 229 180 33 230 180 33 231 180 33 231 180 34 232 180 34 232 180 34 233 180 34 234 180 34 234 180 34 235 180 35 236 180 35 237 180 35 237 180 35 238 180 35 238 180 35 239 180 36 240 180 36 240 180 36 241 180 36 241 180 36 242 180 36 243 180 37 243 180 37 244 180 37 244 180 37 246 180 37 246 180 37 247 180 38 247 180 38 248 180 38 249 180 38 249 180 38 250 180 38 250 180 39 251 180 39 251 180 39 252 180 39 253 180 39 253 180 40 255 180
0 0 179 0 0 179 0 0 179 0 1 179 0 1 179 0 2 179 0 2 179 1 2 179 1 3 179 1 3 179 1 4 179 1 4 179 1 4 179 2 5 179 2 5 179 2 6 179 2 6 179 2 7 179 2 7 179 3 8 179 3 8 179 3 8 179 3 9 179 3 9 179 3 10 179 4 10 179 4 10 179 4 11 179 4 11 179 4 12 179 5 12 179 5 13 179 5 13 179 5 14 179 5 14 179 5 14 179 5 15 179 6 15 179 6 16 179 6 16 179 6 16 179 6 17 179 6 17 179 7 18 179 7 18 179 7 19 179 226 210 19 226 210 19 227 210 19 227 210 19 227 210 19 227 210 19 227 210 19 227 210 19 227 210 19 227 210 19 228 210 19 228 210 19 228 210 19 228 210 19 228 210 19 228 210 19 229 210 19 229 210 19 229 210 19 229 210 19 229 210 19 229 210 19 229 210 19 230 210 19 230 210 19 230 210 19 230 210 19 230 210 19 230 210 19 230 210 19 231 210 19 231 210 19 231 210 19 231 210 19 231 210 19 231 210 19 224 191 27 224 191 27 224 191 27 224 191 27 224 191 27 224 191 27 224 191 27 224 191 27 224 191 27 224 191 27 224 191 27 224 191 27 224 191 27 224 191 27 224 191 27 224 191 27 224 191 27 224 191 27 224 191 27 224 191 27 224 191 27 224 191 27 224 191 27 224 191 27 224 191 27 224 191 27 224 191 27 224 191 27 224 191 27 224 191 27 224 191 27 224 191 27 224 191 27 224 191 27 224 191 27 224 191 27 224 191 27 224 191 27 224 191 27 224 191 27 224 191 27 224 191 27 224 191 27 224 191 27 224 191 27 224 191 27 224 191 27 224 191 27 224 191 27 224 191 27 224 191 27 224 191 27 224 191 27 224 191 27 224 191 27 224 191 27 224 191 27 224 191 27 224 191 27 224 191 27 224 191 27 224 191 27 224 191 27 224 191 27 224 191 27 224 191 27 224 191 27 224 191 27 224 191 27 224 191 27 224 191 27 224 191 27 224 191 27 224 191 27 224 191 27 224 191 27 224 191 27 243 210 19 243 210 19 243 210 19 243 210 19 243 210 19 243 210 19 244 210 19 244 210 19 244 210 19 244 210 19 244 210 19 244 210 19 244 210 19 245 210 19 245 210 19 245 210 19 245 210 19 245 210 19 245 210 19 245 210 19 246 210 19 246 210 19 246 210 19 246 210 19 246 210 19 246 210 19 247 210 19 247 210 19 247 210 19 247 210 19 247 210 19 247 210 19 247 210 19 248 210 19 248 210 19 248 210 19 32 226 179 32 227 179 32 228 179 33 228 179 33 229 179 33 229 179 33 230 179 33 231 179 33 231 179 34 232 179 34 232 179 34 233 179 34 234 179 34 234 179 34 235 179 35 236 179 35 237 179 35 237 179 35 238 179 35 238 179 35 239 179 36 240 179 36 240 179 36 241 179 36 241 179 36 242 179 36 243 179 37 243 179 37 244 179 37 244 179 37 246 179 37 246 179 37 247 179 38 247 179 38 248 179 38 249 179 38 249 179 38 250 179 38 250 179 39 251 179 39 252 179 39 252 179 39 253 179 39 253 179 40 255 179
0 0 178 0 0 178 0 0 178 0 1 178 0 1 178 0 2 178 0 2 178 1 2 178 1 3 178 1 3 178 1 4 178 1 4 178 1 4 178 2 5 178 2 5 178 2 6 178 2 7 178 2 7 178 2 7 178 3 8 178 3 8 178 3 9 178 3 9 178 3 9 178 3 10 178 4 10 178 4 11 178 4 11 178 4 11 178 4 12 178 5 13 178 5 13 178 5 14 178 5 14 178 5 14 178 5 15 178 5 15 178 6 16 178 6 16 178 6 16 178 6 17 178 6 17 178 6 18 178 7 18 178 7 18 178 7 19 178 226 210 19 226 210 19 227 210 19 227 210 19 227 210 19 227 210 19 227 210 19 227 210 19 227 210 19 227 210 19 228 210 19 228 210 19 228 210 19 228 210 19 228 210 19 228 210 19 229 210 19 229 210 19 229 210 19 229 210 19 229 210 19 229 210 19 229 210 19 230 210 19 230 210 19 230 210 19 230 210 19 230 210 19 230 210 19 230 210 19 231 210 19 231 210 19 231 210 19 231 210 19 231 210 19 231 210 19 224 191 27 224 191 27 224 191 27 224 191 27 224 191 27 224 191 27 224 191 27 224 191 27 224 191 27 224 191 27 224 191 27 224 191 27 224 191 27 224 191 27 224 191 27 224 191 27 224 191 27 224 191 27 224 191 27 224 191 27 224 191 27 224 191 27 224 191 27 224 191 27 224 191 27 224 191 27 224 191 27 224 191 27 224 191 27 224 191 27 224 191 27 224 191 27 224 191 27 224 191 27 224 191 27 224 191 27 224 191 27 224 191 27 224 191 27 224 191 27 224 191 27 224 191 27 224 191 27 224 191 27 224 191 27 224 191 27 224 191 27 224 191 27 224 191 27 224 191 27 224 191 27 224 191 27 224 191 27 224 191 27 224 191 27 224 191 27 224 191 27 224 191 27 224 191 27 224 191 27 224 191 27 224 191 27 224 191 27 224 191 27 224 191 27 224 191 27 224 191 27 224 191 27 224 191 27 224 191 27 224 191 27 224 191 27 224 191 27 224 191 27 224 191 27 224 191 27 224 191 27 243 210 19 243 210 19 243 210 19 243 210 19 243 210 19 243 210 19 244 210 19 244 210 19 244 210 19 244 210 19 244 210 19 244 210 19 244 210 19 245 210 19 245 210 19 245 210 19 245 210 19 245 210 19 245 210 19 245 210 19 246 210 19 246 210 19 246 210 19 246 210 19 246 210 19 246 210 19 247 210 19 247 210 19 247 210 19 247 210 19 247 210 19 247 210 19 247 210 19 248 210 19 248 210 19 248 210 19 32 227 178 32 227 178 32 228 178 33 229 178 33 229 178 33 230 178 33 230 178 33 231 178 33 232 178 34 232 178 34 233 178 34 233 178 34 234 178 34 235 178 34 235 178 35 236 178 35 237 178 35 237 178 35 238 178 35 239 178 35 239 178 36 240 178 36 240 178 36 241 178 36 242 178 36 242 178 36 243 178 37 243 178 37 244 178 37 245 178 37 246 178 37 246 178 37 247 178 38 247 178 38 248 178 38 249 178 38 249 178 38 250 178 38 250 178 39 251 178 39 252 178 39 252 178 39 253 178 39 253 178 40 255 178
0 0 177 0 0 177 0 0 177 0 1 177 0 1 177 0 2 177 0 2 177 1 2 177 1 3 177 1 3 177 1 4 177 1 4 177 1 4 177 2 5 177 2 5 177 2 6 177 2 7 177 2 7 177 2 7 177 3 8 177 3 8 177 3 9 177 3 9 177 3 9 177 3 10 177 4 10 177 4 11 177 4 11 177 4 12 177 4 12 177 5 13 177 5 13 177 5 14 177 5 14 177 5 14 177 5 15 177 5 15 177 6 16 177 6 16 177 6 17 177 6 17 177 6 17 177 6 18 177 7 18 177 7 19 177 7 19 177 226 211 19 226 211 19 227 211 19 227 211 19 227 211 19 227 211 19 227 211 19 227 211 19 227 211 19 227 211 19 228 211 19 228 211 19 228 211 19 228 211 19 228 211 19 228 211 19 229 211 19 229 211 19 229 211 19 229 211 19 229 211 19 229 211 19 229 211 19 230 211 19 230 211 19 230 211 19 230 211 19 230 211 19 230 211 19 230 211 19 231 211 19 231 211 19 231 211 19 231 211 19 231 211 19 224 191 27 224 191 27 224 191 27 224 191 27 224 191 27 224 191 27 224 191 27 224 191 27 224 191 27 224 191 27 224 191 27 224 191 27 224 191 27 224 191 27 224 191 27 224 191 27 224 191 27 224 191 27 224 191 27 224 191 27 224 191 27 224 191 27 224 191 27 224 191 27 224 191 27 224 191 27 224 191 27 224 191 27 224 191 27 224 191 27 224 191 27 224 191 27 224 191 27 224 191 27 224 191 27 224 191 27 224 191 27 224 191 27 224 191 27 224 191 27 224 191 27 224 191 27 224 191 27 224 191 27 224 191 27 224 191 27 224 191 27 224 191 27 224 191 27 224 191 27 224 191 27 224 191 27 224 191 27 224 191 27 224 191 27 224 191 27 224 191 27 224 191 27 224 191 27 224 191 27 224 191 27 224 191 27 224 191 27 224 191 27 224 191 27 224 191 27 224 191 27 224 191 27 224 191 27 224 191 27 224 191 27 224 191 27 224 191 27 224 191 27 224 191 27 224 191 27 224 191 27 224 191 27 224 191 27 243 211 19 243 211 19 243 211 19 243 211 19 243 211 19 244 211 19 244 211 19 244 211 19 244 211 19 244 211 19 244 211 19 244 211 19 245 211 19 245 211 19 245 211 19 245 211 19 245 211 19 245 211 19 245 211 19 246 211 19 246 211 19 246 211 19 246 211 19 246 211 19 246 211 19 247 211 19 247 211 19 247 211 19 247 211 19 247 211 19 247 211 19 247 211 19 248 211 19 248 211 19 248 211 19 32 227 177 32 228 177 32 228 177 33 229 177 33 229 177 33 230 177 33 231 177 33 231 177 33 232 177 34 232 177 34 233 177 34 233 177 34 234 177 34 235 177 34 235 177 35 236 177 35 237 177 35 238 177 35 238 177 35 239 177 35 239 177 36 240 177 36 240 177 36 241 177 36 242 177 36 242 177 36 243 177 37 243 177 37 244 177 37 245 177 37 246 177 37 246 177 37 247 177 38 247 177 38 248 177 38 249 177 38 249 177 38 250 177 38 250 177 39 251 177 39 252 177 39 252 177 39 253 177 39 253 177 40 255 177
0 0 175 0 0 175 0 0 175 0 1 175 0 1 175 0 2 175 0 2 175 1 2 175 1 3 175 1 3 175 1 4 175 1 4 175 1 5 175 2 5 175 2 5 175 2 6 175 2 7 175 2 7 175 2 8 175 3 8 175 3 8 175 3 9 175 3 9 175 3 10 175 3 10 175 4 11 175 4 11 175 4 11 175 4 12 175 4 12 175 5 13 175 5 13 175 5 14 175 5 14 175 5 15 175 5 15 175 5 16 175 6 16 175 6 16 175 6 17 175 6 17 175 6 18 175 6 18 175 7 19 175 7 19 175 7 20 175 226 211 19 226 211 19 227 211 19 227 211 19 227 211 19 227 211 19 227 211 19 227 211 19 227 211 19 227 211 19 228 211 19 228 211 19 228 211 19 228 211 19 228 211 19 228 211 19 229 211 19 229 211 19 229 211 19 229 211 19 229 211 19 229 211 19 229 211 19 230 211 19 230 211 19 230 211 19 230 211 19 230 211 19 230 211 19 230 211 19 231 211 19 231 211 19 231 211 19 231 211 19 231 211 19 224 191 27 224 191 27 224 191 27 224 191 27 224 191 27 224 191 27 224 191 27 224 191 27 224 191 27 224 191 27 224 191 27 224 191 27 224 191 27 224 191 27 224 191 27 224 191 27 224 191 27 224 191 27 224 191 27 224 191 27 224 191 27 224 191 27 224 191 27 224 191 27 224 191 27 224 191 27 224 191 27 224 191 27 224 191 27 224 191 27 224 191 27 224 191 27 224 191 27 224 191 27 224 191 27 224 191 27 224 191 27 224 191 27 224 191 27 224 191 27 224 191 27 224 191 27 224 191 27 224 191 27 224 191 27 224 191 27 224 191 27 224 191 27 224 191 27 224 191 27 224 191 27 224 191 27 224 191 27 224 191 27 224 191 27 224 191 27 224 191 27 224 191 27 224 191 27 224 191 27 224 191 27 224 191 27 224 191 27 224 191 27 224 191 27 224 191 27 224 191 27 224 191 27 224 191 27 224 191 27 224 191 27 224 191 27 224 191 27 224 191 27 224 191 27 224 191 27 224 191 27 224 191 27 224 191 27 243 211 19 243 211 19 243 211 19 243 211 19 243 211 19 244 211 19 244 211 19 244 211 19 244 211 19 244 211 19 244 211 19 244 211 19 245 211 19 245 211 19 245 211 19 245 211 19 245 211 19 245 211 19 245 211 19 246 211 19 246 211 19 246 211 19 246 211 19 246 211 19 246 211 19 247 211 19 247 211 19 247 211 19 247 211 19 247 211 19 247 211 19 247 211 19 248 211 19 248 211 19 248 211 19 32 227 175 32 228 175 32 229 175 33 229 175 33 230 175 33 230 175 33 231 175 33 231 175 33 232 175 34 233 175 34 233 175 34 234 175 34 234 175 34 235 175 34 235 175 35 237 175 35 237 175 35 238 175 35 238 175 35 239 175 35 240 175 36 240 175 36 241 175 36 241 175 36 242 175 36 242 175 36 243 175 37 244 175 37 244 175 37 245 175 37 246 175 37 246 175 37 247 175 38 248 175 38 248 175 38 249 175 38 249 175 38 250 175 38 250 175 39 251 175 39 252 175 39 252 175 39 253 175 39 253 175 40 255 175
0 0 175 0 0 175 0 0 175 0 1 175 0 1 175 0 2 175 0 2 175 1 2 175 1 3 175 1 3 175 1 4 175 1 4 175 1 5 175 2 5 175 2 5 175 2 6 175 2 7 175 2 7 175 2 8 175 3 8 175 3 8 175 3 9 175 3 9 175 3 10 175 3 10 175 4 11 175 4 11 175 4 11 175 4 12 175 4 12 175 5 13 175 5 14 175 5 14 175 5 14 175 5 15 175 5 15 175 5 16 175 6 16 175 6 17 175 6 17 175 6 17 175 6 18 175 6 18 175 7 19 175 7 19 175 7 20 175 226 212 19 226 212 19 227 212 19 227 212 19 227 212 19 227 212 19 227 212 19 227 212 19 227 212 19 227 212 19 228 212 19 228 212 19 228 212 19 228 212 19 228 212 19 228 212 19 229 212 19 229 212 19 229 212 19 229 212 19 229 212 19 229 212 19 229 212 19 230 212 19 230 212 19 230 212 19 230 212 19 230 212 19 230 212 19 230 212 19 231 212 19 231 212 19 231 212 19 231 212 19 231 212 19 224 191 27 224 191 27 224 191 27 224 191 27 224 191 27 224 191 27 224 191 27 224 191 27 224 191 27 224 191 27 224 191 27 224 191 27 224 191 27 224 191 27 224 191 27 224 191 27 224 191 27 224 191 27 224 191 27 224 191 27 224 191 27 224 191 27 224 191 27 224 191 27 224 191 27 224 191 27 224 191 27 224 191 27 224 191 27 224 191 27 224 191 27 224 191 27 224 191 27 224 191 27 224 191 27 224 191 27 224 191 27 224 191 27 224 191 27 224 191 27 224 191 27 224 191 27 224 191 27 224 191 27 224 191 27 224 191 27 224 191 27 224 191 27 224 191 27 224 191 27 224 191 27 224 191 27 224 191 27 224 191 27 224 191 27 224 191 27 224 191 27 224 191 27 224 191 27 224 191 27 224 191 27 224 191 27 224 191 27 224 191 27 224 191 27 224 191 27 224 191 27 224 191 27 224 191 27 224 191 27 224 191 27 224 191 27 224 191 27 224 191 27 224 191 27 224 191 27 224 191 27 224 191 27 224 191 27 243 212 19 243 212 19 243 212 19 243 212 19 243 212 19 244 212 19 244 212 19 244 212 19 244 212 19 244 212 19 244 212 19 244 212 19 245 212 19 245 212 19 245 212 19 245 212 19 245 212 19 245 212 19 245 212 19 246 212 19 246 212 19 246 212 19 246 212 19 246 212 19 246 212 19 247 212 19 247 212 19 247 212 19 247 212 19 247 212 19 247 212 19 247 212 19 248 212 19 248 212 19 248 212 19 32 228 175 32 228 175 32 229 175 33 229 175 33 230 175 33 230 175 33 231 175 33 232 175 33 232 175 34 233 175 34 233 175 34 234 175 34 234 175 34 235 175 34 236 175 35 237 175 35 237 175 35 238 175 35 238 175 35 239 175 35 240 175 36 240 175 36 241 175 36 241 175 36 242 175 36 242 175 36 243 175 37 244 175 37 244 175 37 245 175 37 246 175 37 246 175 37 247 175 38 248 175 38 248 175 38 249 175 38 249 175 38 250 175 38 250 175 39 251 175 39 252 175 39 252 175 39 253 175 39 253 175 40 255 175
0 0 173 0 0 173 0 0 173 0 1 173 0 1 173 0 2 173 0 2 173 1 3 173 1 3 173 1 3 173 1 4 173 1 4 173 1 5 173 2 5 173 2 6 173 2 6 173 2 7 173 2 7 173 2 8 173 3 8 173 3 9 173 3 9 173 3 10 173 3 10 173 3 10 173 4 11 173 4 11 173 4 12 173 4 12 173 4 13 173 5 13 173 5 14 173 5 14 173 5 15 173 5 15 173 5 16 173 5 16 173 6 16 173 6 17 173 6 17 173 6 18 173 6 18 173 6 19 173 7 19 173 7 20 173 7 20 173 226 212 19 226 212 19 227 212 19 227 212 19 227 212 19 227 212 19 227 212 19 227 212 19 227 212 19 227 212 19 228 212 19 228 212 19 228 212 19 228 212 19 228 212 19 228 212 19 229 212 19 229 212 19 229 212 19 229 212 19 229 212 19 229 212 19 229 212 19 230 212 19 230 212 19 230 212 19 230 212 19 230 212 19 230 212 19 230 212 19 231 212 19 231 212 19 231 212 19 231 212 19 224 191 27 224 191 27 224 191 27 224 191 27 224 191 27 224 191 27 224 191 27 224 191 27 224 191 27 224 191 27 224 191 27 224 191 27 224 191 27 224 191 27 224 191 27 224 191 27 224 191 27 224 191 27 224 191 27 224 191 27 224 191 27 224 191 27 224 191 27 224 191 27 224 191 27 224 191 27 224 191 27 224 191 27 224 191 27 224 191 27 224 191 27 224 191 27 224 191 27 224 191 27 224 191 27 224 191 27 224 191 27 224 191 27 224 191 27 224 191 27 224 191 27 224 191 27 224 191 27 224 191 27 224 191 27 224 191 27 224 191 27 224 191 27 224 191 27 224 191 27 224 191 27 224 191 27 224 191 27 224 191 27 224 191 27 224 191 27 224 191 27 224 191 27 224 191 27 224 191 27 224 191 27 224 191 27 224 191 27 224 191 27 224 191 27 224 191 27 224 191 27 224 191 27 224 191 27 224 191 27 224 191 27 224 191 27 224 191 27 224 191 27 224 191 27 224 191 27 224 191 27 224 191 27 224 191 27 224 191 27 224 191 27 243 212 19 243 212 19 243 212 19 243 212 19 244 212 19 244 212 19 244 212 19 244 212 19 244 212 19 244 212 19 244 212 19 245 212 19 245 212 19 245 212 19 245 212 19 245 212 19 245 212 19 245 212 19 246 212 19 246 212 19 246 212 19 246 212 19 246 212 19 246 212 19 247 212 19 247 212 19 247 212 19 247 212 19 247 212 19 247 212 19 247 212 19 248 212 19 248 212 19 248 212 19 32 228 173 32 229 173 32 229 173 33 230 173 33 230 173 33 231 173 33 231 173 33 232 173 33 232 173 34 233 173 34 234 173 34 234 173 34 235 173 34 235 173 34 236 173 35 237 173 35 238 173 35 238 173 35 239 173 35 239 173 35 240 173 36 240 173 36 241 173 36 242 173 36 242 173 36 243 173 36 243 173 37 244 173 37 244 173 37 245 173 37 246 173 37 247 173 37 247 173 38 248 173 38 248 173 38 249 173 38 249 173 38 250 173 38 251 173 39 251 173 39 252 173 39 252 173 39 253 173 39 253 173 40 255 173
0 0 173 0 0 173 0 0 173 0 1 173 0 1 173 0 2 173 0 2 173 1 3 173 1 3 173 1 3 173 1 4 173 1 4 173 1 5 173 2 5 173 2 6 173 2 7 173 2 7 173 2 7 173 2 8 173 3 8 173 3 9 173 3 9 173 3 10 173 3 10 173 3 10 173 4 11 173 4 11 173 4 12 173 4 12 173 4 13 173 5 14 173 5 14 173 5 14 173 5 15 173 5 15 173 5 16 173 5 16 173 6 17 173 6 17 173 6 18 173 6 18 173 6 18 173 6 19 173 7 19 173 7 20 173 7 21 173 226 212 19 226 212 19 227 212 19 227 212 19 227 212 19 227 212 19 227 212 19 227 212 19 227 212 19 227 212 19 228 212 19 228 212 19 228 212 19 228 212 19 228 212 19 228 212 19 229 212 19 229 212 19 229 212 19 229 212 19 229 212 19 229 212 19 229 212 19 230 212 19 230 212 19 230 212 19 230 212 19 230 212 19 230 212 19 230 212 19 231 212 19 231 212 19 231 212 19 231 212 19 224 191 27 224 191 27 224 191 27 224 191 27 224 191 27 224 191 27 224 191 27 224 191 27 224 191 27 224 191 27 224 191 27 224 191 27 224 191 27 224 191 27 224 191 27 224 191 27 224 191 27 224 191 27 224 191 27 224 191 27 224 191 27 224 191 27 224 191 27 224 191 27 224 191 27 224 191 27 224 191 27 224 191 27 224 191 27 224 191 27 224 191 27 224 191 27 224 191 27 224 191 27 224 191 27 224 191 27 224 191 27 224 191 27 224 191 27 224 191 27 224 191 27 224 191 27 224 191 27 224 191 27 224 191 27 224 191 27 224 191 27 224 191 27 224 191 27 224 191 27 224 191 27 224 191 27 224 191 27 224 191 27 224 191 27 224 191 27 224 191 27 224 191 27 224 191 27 224 191 27 224 191 27 224 191 27 224 191 27 224 191 27 224 191 27 224 191 27 224 191 27 224 191 27 224 191 27 224 191 27 224 191 27 224 191 27 224 191 27 224 191 27 224 191 27 224 191 27 224 191 27 224 191 27 224 191 27 224 191 27 224 191 27 243 212 19 243 212 19 243 212 19 243 212 19 244 212 19 244 212 19 244 212 19 244 212 19 244 212 19 244 212 19 244 212 19 245 212 19 245 212 19 245 212 19 245 212 19 245 212 19 245 212 19 245 212 19 246 212 19 246 212 19 246 212 19 246 212 19 246 212 19 246 212 19 247 212 19 247 212 19 247 212 19 247 212 19 247 212 19 247 212 19 247 212 19 248 212 19 248 212 19 248 212 19 32 228 173 32 229 173 32 229 173 33 230 173 33 230 173 33 231 173 33 232 173 33 232 173 33 233 173 34 233 173 34 234 173 34 234 173 34 235 173 34 235 173 34 236 173 35 237 173 35 238 173 35 238 173 35 239 173 35 239 173 35 240 173 36 240 173 36 241 173 36 242 173 36 242 173 36 243 173 36 243 173 37 244 173 37 244 173 37 245 173 37 246 173 37 247 173 37 247 173 38 248 173 38 248 173 38 249 173 38 249 173 38 250 173 38 251 173 39 251 173 39 252 173 39 252 173 39 253 173 39 253 173 40 255 173
0 0 172 0 0 172 0 0 172 0 1 172 0 1 172 0 2 172 0 2 172 1 3 172 1 3 172 1 3 172 1 4 172 1 4 172 1 5 172 2 5 172 2 6 172 2 7 172 2 7 172 2 7 172 2 8 172 3 8 172 3 9 172 3 9 172 3 10 172 3 10 172 3 11 172 4 11 172 4 11 172 4 12 172 4 12 172 4 13 172 5 14 172 5 14 172 5 15 172 5 15 172 5 15 172 5 16 172 5 16 172 6 17 172 6 17 172 6 18 172 6 18 172 6 19 172 6 19 172 7 19 172 7 20 172 7 21 172 226 213 19 226 213 19 227 213 19 227 213 19 227 213 19 227 213 19 227 213 19 227 213 19 227 213 19 227 213 19 228 213 19 228 213 19 228 213 19 228 213 19 228 213 19 228 213 19 229 213 19 229 213 19 229 213 19 229 213 19 229 213 19 229 213 19 229 213 19 230 213 19 230 213 19 230 213 19 230 213 19 230 213 19 230 213 19 230 213 19 231 213 19 231 213 19 231 213 19 231 213 19 224 191 27 224 191 27 224 191 27 224 191 27 224 191 27 224 191 27 224 191 27 224 191 27 224 191 27 224 191 27 224 191 27 224 191 27 224 191 27 224 191 27 224 191 27 224 191 27 224 191 27 224 191 27 224 191 27 224 191 27 224 191 27 224 191 27 224 191 27 224 191 27 224 191 27 224 191 27 224 191 27 224 191 27 224 191 27 224 191 27 224 191 27 224 191 27 224 191 27 224 191 27 224 191 27 224 191 27 224 191 27 224 191 27 224 191 27 224 191 27 224 191 27 224 191 27 224 191 27 224 191 27 224 191 27 224 191 27 224 191 27 224 191 27 224 191 27 224 191 27 224 191 27 224 191 27 224 191 27 224 191 27 224 191 27 224 191 27 224 191 27 224 191 27 224 191 27 224 191 27 224 191 27 224 191 27 224 191 27 224 191 27 224 191 27 224 191 27 224 191 27 224 191 27 224 191 27 224 191 27 224 191 27 224 191 27 224 191 27 224 191 27 224 191 27 224 191 27 224 191 27 224 191 27 224 191 27 224 191 27 224 191 27 243 213 19 243 213 19 243 213 19 243 213 19 244 213 19 244 213 19 244 213 19 244 213 19 244 213 19 244 213 19 244 213 19 245 213 19 245 213 19 245 213 19 245 213 19 245 213 19 245 213 19 245 213 19 246 213 19 246 213 19 246 213 19 246 213 19 246 213 19 246 213 19 247 213 19 247 213 19 247 213 19 247 213 19 247 213 19 247 213 19 247 213 19 248 213 19 248 213 19 248 213 19 32 228 172 32 229 172 32 229 172 33 230 172 33 231 172 33 231 172 33 232 172 33 232 172 33 233 172 34 233 172 34 234 172 34 234 172 34 235 172 34 236 172 34 236 172 35 237 172 35 238 172 35 238 172 35 239 172 35 239 172 35 240 172 36 241 172 36 241 172 36 242 172 36 242 172 36 243 172 36 243 172 37 244 172 37 244 172 37 245 172 37 246 172 37 247 172 37 247 172 38 248 172 38 248 172 38 249 172 38 249 172 38 250 172 38 251 172 39 251 172 39 252 172 39 252 172 39 253 172 39 253 172 40 255 172
0 0 170 0 0 170 0 0 170 0 1 170 0 1 170 0 2 170 0 2 170 1 3 170 1 3 170 1 4 170 1 4 170 1 4 170 1 5 170 2 5 170 2 6 170 2 7 170 2 7 170 2 8 170 2 8 170 3 9 170 3 9 170 3 9 170 3 10 170 3 10 170 3 11 170 4 11 170 4 12 170 4 12 170 4 13 170 4 13 170 5 14 170 5 14 170 5 15 170 5 15 170 5 16 170 5 16 170 5 17 170 6 17 170 6 18 170 6 18 170 6 18 170 6 19 170 6 19 170 7 20 170 7 20 170 7 21 170 226 213 19 226 213 19 227 213 19 227 213 19 227 213 19 227 213 19 227 213 19 227 213 19 227 213 19 227 213 19 228 213 19 228 213 19 228 213 19 228 213 19 228 213 19 228 213 19 229 213 19 229 213 19 229 213 19 229 213 19 229 213 19 229 213 19 229 213 19 230 213 19 230 213 19 230 213 19 230 213 19 230 213 19 230 213 19 230 213 19 231 213 19 231 213 19 231 213 19 224 191 27 224 191 27 224 191 27 224 191 27 224 191 27 224 191 27 224 191 27 224 191 27 224 191 27 224 191 27 224 191 27 224 191 27 224 191 27 224 191 27 224 191 27 224 191 27 224 191 27 224 191 27 224 191 27 224 191 27 224 191 27 224 191 27 224 191 27 224 191 27 224 191 27 224 191 27 224 191 27 224 191 27 224 191 27 224 191 27 224 191 27 224 191 27 224 191 27 224 191 27 224 191 27 224 191 27 224 191 27 224 191 27 224 191 27 224 191 27 224 191 27 224 191 27 224 191 27 224 191 27 224 191 27 224 191 27 224 191 27 224 191 27 224 191 27 224 191 27 224 191 27 224 191 27 224 191 27 224 191 27 224 191 27 224 191 27 224 191 27 224 191 27 224 191 27 224 191 27 224 191 27 224 191 27 224 191 27 224 191 27 224 191 27 224 191 27 224 191 27 224 191 27 224 191 27 224 191 27 224 191 27 224 191 27 224 191 27 224 191 27 224 191 27 224 191 27 224 191 27 224 191 27 224 191 27 224 191 27 224 191 27 224 191 27 224 191 27 243 213 19 243 213 19 243 213 19 244 213 19 244 213 19 244 213 19 244 213 19 244 213 19 244 213 19 244 213 19 245 213 19 245 213 19 245 213 19 245 213 19 245 213 19 245 213 19 245 213 19 246 213 19 246 213 19 246 213 19 246 213 19 246 213 19 246 213 19 247 213 19 247 213 19 247 213 19 247 213 19 247 213 19 247 213 19 247 213 19 248 213 19 248 213 19 248 213 19 32 229 170 32 229 170 32 230 170 33 230 170 33 231 170 33 231 170 33 232 170 33 233 170 33 233 170 34 234 170 34 234 170 34 235 170 34 235 170 34 236 170 34 236 170 35 237 170 35 238 170 35 239 170 35 239 170 35 240 170 35 240 170 36 241 170 36 241 170 36 242 170 36 242 170 36 243 170 36 244 170 37 244 170 37 245 170 37 245 170 37 246 170 37 247 170 37 247 170 38 248 170 38 248 170 38 249 170 38 250 170 38 250 170 38 251 170 39 251 170 39 252 170 39 252 170 39 253 170 39 253 170 40 255 170
0 0 170 0 0 170 0 0 170 0 1 170 0 1 170 0 2 170 0 2 170 1 3 170 1 3 170 1 4 170 1 4 170 1 5 170 1 5 170 2 5 170 2 6 170 2 7 170 2 7 170 2 8 170 2 8 170 3 9 170 3 9 170 3 10 170 3 10 170 3 10 170 3 11 170 4 11 170 4 12 170 4 12 170 4 13 170 4 13 170 5 14 170 5 15 170 5 15 170 5 15 170 5 16 170 5 16 170 5 17 170 6 17 170 6 18 170 6 18 170 6 19 170 6 19 170 6 20 170 7 20 170 7 20 170 7 21 170 226 214 19 226 214 19 227 214 19 227 214 19 227 214 19 227 214 19 227 214 19 227 214 19 227 214 19 227 214 19 228 214 19 228 214 19 228 214 19 228 214 19 228 214 19 228 214 19 229 214 19 229 214 19 229 214 19 229 214 19 229 214 19 229 214 19 229 214 19 230 214 19 230 214 19 230 214 19 230 214 19 230 214 19 230 214 19 230 214 19 231 214 19 231 214 19 231 214 19 224 191 27 224 191 27 224 191 27 224 191 27 224 191 27 224 191 27 224 191 27 224 191 27 224 191 27 224 191 27 224 191 27 224 191 27 224 191 27 224 191 27 224 191 27 224 191 27 224 191 27 224 191 27 224 191 27 224 191 27 224 191 27 224 191 27 224 191 27 224 191 27 224 191 27 224 191 27 224 191 27 224 191 27 224 191 27 224 191 27 224 191 27 224 191 27 224 191 27 224 191 27 224 191 27 224 191 27 224 191 27 224 191 27 224 191 27 224 191 27 224 191 27 224 191 27 224 191 27 224 191 27 224 191 27 224 191 27 224 191 27 224 191 27 224 191 27 224 191 27 224 191 27 224 191 27 224 191 27 224 191 27 224 191 27 224 191 27 224 191 27 224 191 27 224 191 27 224 191 27 224 191 27 224 191 27 224 191 27 224 191 27 224 191 27 224 191 27 224 191 27 224 191 27 224 191 27 224 191 27 224 191 27 224 191 27 224 191 27 224 191 27 224 191 27 224 191 27 224 191 27 224 191 27 224 191 27 224 191 27 224 191 27 224 191 27 224 191 27 243 214 19 243 214 19 243 214 19 244 214 19 244 214 19 244 214 19 244 214 19 244 214 19 244 214 19 244 214 19 245 214 19 245 214 19 245 214 19 245 214 19 245 214 19 245 214 19 245 214 19 246 214 19 246 214 19 246 214 19 246 214 19 246 214 19 246 214 19 247 214 19 247 214 19 247 214 19 247 214 19 247 214 19 247 214 19 247 214 19 248 214 19 248 214 19 248 214 19 32 229 170 32 229 170 32 230 170 33 231 170 33 231 170 33 232 170 33 232 170 33 233 170 33 233 170 34 234 170 34 234 170 34 235 170 34 235 170 34 236 170 34 237 170 35 238 170 35 238 170 35 239 170 35 239 170 35 240 170 35 240 170 36 241 170 36 241 170 36 242 170 36 243 170 36 243 170 36 244 170 37 244 170 37 245 170 37 245 170 37 246 170 37 247 170 37 247 170 38 248 170 38 249 170 38 249 170 38 250 170 38 250 170 38 251 170 39 251 170 39 252 170 39 252 170 39 253 170 39 253 170 40 255 170
0 0 168 0 0 168 0 0 168 0 1 168 0 1 168 0 2 168 0 2 168 1 3 168 1 3 168 1 4 168 1 4 168 1 5 168 1 5 168 2 6 168 2 6 168 2 7 168 2 7 168 2 8 168 2 8 168 3 9 168 3 9 168 3 10 168 3 10 168 3 11 168 3 11 168 4 12 168 4 12 168 4 12 168 4 13 168 4 13 168 5 14 168 5 15 168 5 15 168 5 16 168 5 16 168 5 17 168 5 17 168 6 18 168 6 18 168 6 18 168 6 19 168 6 19 168 6 20 168 7 20 168 7 21 168 7 22 168 226 214 19 226 214 19 227 214 19 227 214 19 227 214 19 227 214 19 227 214 19 227 214 19 227 214 19 227 214 19 228 214 19 228 214 19 228 214 19 228 214 19 228 214 19 228 214 19 229 214 19 229 214 19 229 214 19 229 214 19 229 214 19 229 214 19 229 214 19 230 214 19 230 214 19 230 214 19 230 214 19 230 214 19 230 214 19 230 214 19 231 214 19 231 214 19 231 214 19 224 191 27 224 191 27 224 191 27 224 191 27 224 191 27 224 191 27 224 191 27 224 191 27 224 191 27 224 191 27 224 191 27 224 191 27 224 191 27 224 191 27 224 191 27 224 191 27 224 191 27 224 191 27 224 191 27 224 191 27 224 191 27 224 191 27 224 191 27 224 191 27 224 191 27 224 191 27 224 191 27 224 191 27 224 191 27 224 191 27 224 191 27 224 191 27 224 191 27 224 191 27 224 191 27 224 191 27 224 191 27 224 191 27 224 191 27 224 191 27 224 191 27 224 191 27 224 191 27 224 191 27 224 191 27 224 191 27 224 191 27 224 191 27 224 191 27 224 191 27 224 191 27 224 191 27 224 191 27 224 191 27 224 191 27 224 191 27 224 191 27 224 191 27 224 191 27 224 191 27 224 191 27 224 191 27 224 191 27 224 191 27 224 191 27 224 191 27 224 191 27 224 191 27 224 191 27 224 191 27 224 191 27 224 191 27 224 191 27 224 191 27 224 191 27 224 191 27 224 191 27 224 191 27 224 191 27 224 191 27 224 191 27 224 191 27 224 191 27 243 214 19 243 214 19 243 214 19 244 214 19 244 214 19 244 214 19 244 214 19 244 214 19 244 214 19 244 214 19 245 214 19 245 214 19 245 214 19 245 214 19 245 214 19 245 214 19 245 214 19 246 214 19 246 214 19 246 214 19 246 214 19 246 214 19 246 214 19 247 214 19 247 214 19 247 214 19 247 214 19 247 214 19 247 214 19 247 214 19 248 214 19 248 214 19 248 214 19 32 229 168 32 230 168 32 230 168 33 231 168 33 231 168 33 232 168 33 232 168 33 233 168 33 234 168 34 234 168 34 235 168 34 235 168 34 236 168 34 236 168 34 237 168 35 238 168 35 238 168 35 239 168 35 239 168 35 240 168 35 241 168 36 241 168 36 242 168 36 242 168 36 243 168 36 243 168 36 244 168 37 244 168 37 245 168 37 245 168 37 246 168 37 247 168 37 248 168 38 248 168 38 249 168 38 249 168 38 250 168 38 250 168 38 251 168 39 251 168 39 252 168 39 252 168 39 253 168 39 253 168 40 255 168
0 0 167 0 0 167 0 0 167 0 1 167 0 1 167 0 2 167 0 2 167 1 3 167 1 3 167 1 4 167 1 4 167 1 5 167 1 5 167 2 6 167 2 6 167 2 7 167 2 7 167 2 8 167 2 8 167 3 9 167 3 9 167 3 10 167 3 10 167 3 11 167 3 11 167 4 12 167 4 12 167 4 13 167 4 13 167 4 14 167 5 14 167 5 15 167 5 15 167 5 16 167 5 16 167 5 17 167 5 17 167 6 18 167 6 18 167 6 19 167 6 19 167 6 20 167 6 20 167 7 21 167 7 21 167 7 22 167 226 215 19 226 215 19 227 215 19 227 215 19 227 215 19 227 215 19 227 215 19 227 215 19 227 215 19 227 215 19 228 215 19 228 215 19 228 215 19 228 215 19 228 215 19 228 215 19 229 215 19 229 215 19 229 215 19 229 215 19 229 215 19 229 215 19 229 215 19 230 215 19 230 215 19 230 215 19 230 215 19 230 215 19 230 215 19 230 215 19 231 215 19 231 215 19 231 215 19 224 191 27 224 191 27 224 191 27 224 191 27 224 191 27 224 191 27 224 191 27 224 191 27 224 191 27 224 191 27 224 191 27 224 191 27 224 191 27 224 191 27 224 191 27 224 191 27 224 191 27 224 191 27 224 191 27 224 191 27 224 191 27 224 191 27 224 191 27 224 191 27 224 191 27 224 191 27 224 191 27 224 191 27 224 191 27 224 191 27 224 191 27 224 191 27 224 191 27 224 191 27 224 191 27 224 191 27 224 191 27 224 191 27 224 191 27 224 191 27 224 191 27 224 191 27 224 191 27 224 191 27 224 191 27 224 191 27 224 191 27 224 191 27 224 191 27 224 191 27 224 191 27 224 191 27 224 191 27 224 191 27 224 191 27 224 191 27 224 191 27 224 191 27 224 191 27 224 191 27 224 191 27 224 191 27 224 191 27 224 191 27 224 191 27 224 191 27 224 191 27 224 191 27 224 191 27 224 191 27 224 191 27 224 191 27 224 191 27 224 191 27 224 191 27 224 191 27 224 191 27 224 191 27 224 191 27 224 191 27 224 191 27 224 191 27 224 191 27 243 215 19 243 215 19 243 215 19 244 215 19 244 215 19 244 215 19 244 215 19 244 215 19 244 215 19 244 215 19 245 215 19 245 215 19 245 215 19 245 215 19 245 215 19 245 215 19 245 215 19 246 215 19 246 215 19 246 215 19 246 215 19 246 215 19 246 215 19 247 215 19 247 215 19 247 215 19 247 215 19 247 215 19 247 215 19 247 215 19 248 215 19 248 215 19 248 215 19 32 229 167 32 230 167 32 231 167 33 231 167 33 232 167 33 232 167 33 233 167 33 233 167 33 234 167 34 234 167 34 235 167 34 235 167 34 236 167 34 236 167 34 237 167 35 238 167 35 239 167 35 239 167 35 240 167 35 240 167 35 241 167 36 241 167 36 242 167 36 242 167 36 243 167 36 243 167 36 244 167 37 244 167 37 245 167 37 245 167 37 247 167 37 247 167 37 248 167 38 248 167 38 249 167 38 249 167 38 250 167 38 250 167 38 251 167 39 251 167 39 252 167 39 252 167 39 253 167 39 253 167 40 255 167
0 0 166 0 0 166 0 0 166 0 1 166 0 1 166 0 2 166 0 2 166 1 3 166 1 3 166 1 4 166 1 4 166 1 5 166 1 5 166 2 6 166 2 6 166 2 7 166 2 8 166 2 8 166 2 9 166 3 9 166 3 9 166 3 10 166 3 10 166 3 11 166 3 11 166 4 12 166 4 12 166 4 13 166 4 13 166 4 14 166 5 15 166 5 15 166 5 16 166 5 16 166 5 17 166 5 17 166 5 18 166 6 18 166 6 18 166 6 19 166 6 19 166 6 20 166 6 20 166 7 21 166 7 21 166 7 22 166 226 215 19 226 215 19 227 215 19 227 215 19 227 215 19 227 215 19 227 215 19 227 215 19 227 215 19 227 215 19 228 215 19 228 215 19 228 215 19 228 215 19 228 215 19 228 215 19 229 215 19 229 215 19 229 215 19 229 215 19 229 215 19 229 215 19 229 215 19 230 215 19 230 215 19 230 215 19 230 215 19 230 215 19 230 215 19 230 215 19 231 215 19 231 215 19 231 215 19 224 191 27 224 191 27 224 191 27 224 191 27 224 191 27 224 191 27 224 191 27 224 191 27 224 191 27 224 191 27 224 191 27 224 191 27 224 191 27 224 191 27 224 191 27 224 191 27 224 191 27 224 191 27 224 191 27 224 191 27 224 191 27 224 191 27 224 191 27 224 191 27 224 191 27 224 191 27 224 191 27 224 191 27 224 191 27 224 191 27 224 191 27 224 191 27 224 191 27 224 191 27 224 191 27 224 191 27 224 191 27 224 191 27 224 191 27 224 191 27 224 191 27 224 191 27 224 191 27 224 191 27 224 191 27 224 191 27 224 191 27 224 191 27 224 191 27 224 191 27 224 191 27 224 191 27 224 191 27 224 191 27 224 191 27 224 191 27 224 191 27 224 191 27 224 191 27 224 191 27 224 191 27 224 191 27 224 191 27 224 191 27 224 191 27 224 191 27 224 191 27 224 191 27 224 191 27 224 191 27 224 191 27 224 191 27 224 191 27 224 191 27 224 191 27 224 191 27 224 191 27 224 191 27 224 191 27 224 191 27 224 191 27 224 191 27 224 191 27 243 215 19 243 215 19 243 215 19 244 215 19 244 215 19 244 215 19 244 215 19 244 215 19 244 215 19 244 215 19 245 215 19 245 215 19 245 215 19 245 215 19 245 215 19 245 215 19 245 215 19 246 215 19 246 215 19 246 215 19 246 215 19 246 215 19 246 215 19 247 215 19 247 215 19 247 215 19 247 215 19 247 215 19 247 215 19 247 215 19 248 215 19 248 215 19 248 215 19 32 230 166 32 230 166 32 231 166 33 231 166 33 232 166 33 232 166 33 233 166 33 233 166 33 234 166 34 235 166 34 235 166 34 236 166 34 236 166 34 237 166 34 237 166 35 238 166 35 239 166 35 239 166 35 240 166 35 240 166 35 241 166 36 241 166 36 242 166 36 242 166 36 243 166 36 243 166 36 244 166 37 245 166 37 245 166 37 246 166 37 247 166 37 247 166 37 248 166 38 248 166 38 249 166 38 249 166 38 250 166 38 250 166 38 251 166 39 251 166 39 252 166 39 252 166 39 253 166 39 253 166 40 255 166
0 0 165 0 0 165 0 0 165 0 1 165 0 1 165 0 2 165 0 2 165 1 3 165 1 3 165 1 4 165 1 4 165 1 5 165 1 5 165 2 6 165 2 6 165 2 7 165 2 8 165 2 8 165 2 9 165 3 9 165 3 10 165 3 10 165 3 11 165 3 11 165 3 11 165 4 12 165 4 12 165 4 13 165 4 13 165 4 14 165 5 15 165 5 15 165 5 16 165 5 16 165 5 17 165 5 17 165 5 18 165 6 18 165 6 19 165 6 19 165 6 20 165 6 20 165 6 21 165 7 21 165 7 22 165 7 22 165 226 215 19 226 215 19 227 215 19 227 215 19 227 215 19 227 215 19 227 215 19 227 215 19 227 215 19 227 215 19 228 215 19 228 215 19 228 215 19 228 215 19 228 215 19 228 215 19 229 215 19 229 215 19 229 215 19 229 215 19 229 215 19 229 215 19 229 215 19 230 215 19 230 215 19 230 215 19 230 215 19 230 215 19 230 215 19 230 215 19 231 215 19 231 215 19 231 215 19 224 191 27 224 191 27 224 191 27 224 191 27 224 191 27 224 191 27 224 191 27 224 191 27 224 191 27 224 191 27 224 191 27 224 191 27 224 191 27 224 191 27 224 191 27 224 191 27 224 191 27 224 191 27 224 191 27 224 191 27 224 191 27 224 191 27 224 191 27 224 191 27 224 191 27 224 191 27 224 191 27 224 191 27 224 191 27 224 191 27 224 191 27 224 191 27 224 191 27 224 191 27 224 191 27 224 191 27 224 191 27 224 191 27 224 191 27 224 191 27 224 191 27 224 191 27 224 191 27 224 191 27 224 191 27 224 191 27 224 191 27 224 191 27 224 191 27 224 191 27 224 191 27 224 191 27 224 191 27 224 191 27 224 191 27 224 191 27 224 191 27 224 191 27 224 191 27 224 191 27 224 191 27 224 191 27 224 191 27 224 191 27 224 191 27 224 191 27 224 191 27 224 191 27 224 191 27 224 191 27 224 191 27 224 191 27 224 191 27 224 191 27 224 191 27 224 191 27 224 191 27 224 191 27 224 191 27 224 191 27 224 191 27 224 191 27 224 191 27 243 215 19 243 215 19 243 215 19 244 215 19 244 215 19 244 215 19 244 215 19 244 215 19 244 215 19 244 215 19 245 215 19 245 215 19 245 215 19 245 215 19 245 215 19 245 215 19 245 215 19 246 215 19 246 215 19 246 215 19 246 215 19 246 215 19 246 215 19 247 215 19 247 215 19 247 215 19 247 215 19 247 215 19 247 215 19 247 215 19 248 215 19 248 215 19 248 215 19 32 230 165 32 231 165 32 231 165 33 232 165 33 232 165 33 233 165 33 233 165 33 234 165 33 234 165 34 235 165 34 235 165 34 236 165 34 236 165 34 237 165 34 237 165 35 238 165 35 239 165 35 239 165 35 240 165 35 240 165 35 241 165 36 241 165 36 242 165 36 243 165 36 243 165 36 244 165 36 244 165 37 245 165 37 245 165 37 246 165 37 247 165 37 247 165 37 248 165 38 248 165 38 249 165 38 249 165 38 250 165 38 250 165 38 251 165 39 251 165 39 252 165 39 252 165 39 253 165 39 253 165 40 255 165
0 0 165 0 0 165 0 0 165 0 1 165 0 1 165 0 2 165 0 2 165 1 3 165 1 3 165 1 4 165 1 4 165 1 5 165 1 5 165 2 6 165 2 6 165 2 7 165 2 8 165 2 8 165 2 9 165 3 9 165 3 10 165 3 10 165 3 11 165 3 11 165 3 12 165 4 12 165 4 13 165 4 13 165 4 13 165 4 14 165 5 15 165 5 15 165 5 16 165 5 16 165 5 17 165 5 17 165 5 18 165 6 18 165 6 19 165 6 19 165 6 20 165 6 20 165 6 21 165 7 21 165 7 22 165 7 23 165 226 216 19 226 216 19 227 216 19 227 216 19 227 216 19 227 216 19 227 216 19 227 216 19 227 216 19 227 216 19 228 216 19 228 216 19 228 216 19 228 216 19 228 216 19 228 216 19 229 216 19 229 216 19 229 216 19 229 216 19 229 216 19 229 216 19 229 216 19 230 216 19 230 216 19 230 216 19 230 216 19 230 216 19 230 216 19 230 216 19 231 216 19 231 216 19 231 216 19 224 191 27 224 191 27 224 191 27 224 191 27 224 191 27 224 191 27 224 191 27 224 191 27 224 191 27 224 191 27 224 191 27 224 191 27 224 191 27 224 191 27 224 191 27 224 191 27 224 191 27 224 191 27 224 191 27 224 191 27 224 191 27 224 191 27 224 191 27 224 191 27 224 191 27 224 191 27 224 191 27 224 191 27 224 191 27 224 191 27 224 191 27 224 191 27 224 191 27 224 191 27 224 191 27 224 191 27 224 191 27 224 191 27 224 191 27 224 191 27 224 191 27 224 191 27 224 191 27 224 191 27 224 191 27 224 191 27 224 191 27 224 191 27 224 191 27 224 191 27 224 191 27 224 191 27 224 191 27 224 191 27 224 191 27 224 191 27 224 191 27 224 191 27 224 191 27 224 191 27 224 191 27 224 191 27 224 191 27 224 191 27 224 191 27 224 191 27 224 191 27 224 191 27 224 191 27 224 191 27 224 191 27 224 191 27 224 191 27 224 191 27 224 191 27 224 191 27 224 191 27 224 191 27 224 191 27 224 191 27 224 191 27 224 191 27 224 191 27 243 216 19 243 216 19 243 216 19 244 216 19 244 216 19 244 216 19 244 216 19 244 216 19 244 216 19 244 216 19 245 216 19 245 216 19 245 216 19 245 216 19 245 216 19 245 216 19 245 216 19 246 216 19 246 216 19 246 216 19 246 216 19 246 216 19 246 216 19 247 216 19 247 216 19 247 216 19 247 216 19 247 216 19 247 216 19 247 216 19 248 216 19 248 216 19 248 216 19 32 230 165 32 231 165 32 231 165 33 232 165 33 232 165 33 233 165 33 233 165 33 234 165 33 234 165 34 235 165 34 235 165 34 236 165 34 236 165 34 237 165 34 237 165 35 238 165 35 239 165 35 239 165 35 240 165 35 241 165 35 241 165 36 242 165 36 242 165 36 243 165 36 243 165 36 244 165 36 244 165 37 245 165 37 245 165 37 246 165 37 247 165 37 247 165 37 248 165 38 248 165 38 249 165 38 249 165 38 250 165 38 250 165 38 251 165 39 251 165 39 252 165 39 252 165 39 253 165 39 253 165 40 255 165
0 0 163 0 0 163 0 0 163 0 1 163 0 1 163 0 2 163 0 2 163 1 3 163 1 3 163 1 4 163 1 4 163 1 5 163 1 5 163 2 6 163 2 6 163 2 7 163 2 8 163 2 8 163 2 9 163 3 9 163 3 10 163 3 10 163 3 11 163 3 11 163 3 12 163 4 12 163 4 13 163 4 13 163 4 14 163 4 14 163 5 15 163 5 16 163 5 16 163 5 17 163 5 17 163 5 18 163 5 18 163 6 19 163 6 19 163 6 20 163 6 20 163 6 21 163 6 21 163 7 22 163 7 22 163 7 23 163 226 216 19 226 216 19 227 216 19 227 216 19 227 216 19 227 216 19 227 216 19 227 216 19 227 216 19 227 216 19 228 216 19 228 216 19 228 216 19 228 216 19 228 216 19 228 216 19 229 216 19 229 216 19 229 216 19 229 216 19 229 216 19 229 216 19 229 216 19 230 216 19 230 216 19 230 216 19 230 216 19 230 216 19 230 216 19 230 216 19 231 216 19 231 216 19 231 216 19 224 191 27 224 191 27 224 191 27 224 191 27 224 191 27 224 191 27 224 191 27 224 191 27 224 191 27 224 191 27 224 191 27 224 191 27 224 191 27 224 191 27 224 191 27 224 191 27 224 191 27 224 191 27 224 191 27 224 191 27 224 191 27 224 191 27 224 191 27 224 191 27 224 191 27 224 191 27 224 191 27 224 191 27 224 191 27 224 191 27 224 191 27 224 191 27 224 191 27 224 191 27 224 191 27 224 191 27 224 191 27 224 191 27 224 191 27 224 191 27 224 191 27 224 191 27 224 191 27 224 191 27 224 191 27 224 191 27 224 191 27 224 191 27 224 191 27 224 191 27 224 191 27 224 191 27 224 191 27 224 191 27 224 191 27 224 191 27 224 191 27 224 191 27 224 191 27 224 191 27 224 191 27 224 191 27 224 191 27 224 191 27 224 191 27 224 191 27 224 191 27 224 191 27 224 191 27 224 191 27 224 191 27 224 191 27 224 191 27 224 191 27 224 191 27 224 191 27 224 191 27 224 191 27 224 191 27 224 191 27 224 191 27 224 191 27 224 191 27 243 216 19 243 216 19 243 216 19 244 216 19 244 216 19 244 216 19 244 216 19 244 216 19 244 216 19 244 216 19 245 216 19 245 216 19 245 216 19 245 216 19 245 216 19 245 216 19 245 216 19 246 216 19 246 216 19 246 216 19 246 216 19 246 216 19 246 216 19 247 216 19 247 216 19 247 216 19 247 216 19 247 216 19 247 216 19 247 216 19 248 216 19 248 216 19 248 216 19 32 231 163 32 231 163 32 232 163 33 232 163 33 233 163 33 233 163 33 234 163 33 234 163 33 235 163 34 235 163 34 236 163 34 236 163 34 237 163 34 237 163 34 238 163 35 239 163 35 239 163 35 240 163 35 240 163 35 241 163 35 241 163 36 242 163 36 242 163 36 243 163 36 243 163 36 244 163 36 244 163 37 245 163 37 245 163 37 246 163 37 247 163 37 247 163 37 248 163 38 248 163 38 249 163 38 249 163 38 250 163 38 250 163 38 251 163 39 251 163 39 252 163 39 252 163 39 253 163 39 253 163 40 255 163
0 0 162 0 0 162 0 0 162 0 1 162 0 1 162 0 2 162 0 2 162 1 3 162 1 3 162 1 4 162 1 4 162 1 5 162 1 5 162 2 6 162 2 6 162 2 7 162 2 8 162 2 8 162 2 9 162 3 9 162 3 10 162 3 10 162 3 11 162 3 11 162 3 12 162 4 12 162 4 13 162 4 13 162 4 14 162 4 14 162 5 15 162 5 16 162 5 16 162 5 17 162 5 17 162 5 18 162 5 18 162 6 19 162 6 19 162 6 20 162 6 20 162 6 21 162 6 21 162 7 22 162 7 22 162 7 23 162 226 217 19 226 217 19 227 217 19 227 217 19 227 217 19 227 217 19 227 217 19 227 217 19 227 217 19 227 217 19 228 217 19 228 217 19 228 217 19 228 217 19 228 217 19 228 217 19 229 217 19 229 217 19 229 217 19 229 217 19 229 217 19 229 217 19 229 217 19 230 217 19 230 217 19 230 217 19 230 217 19 230 217 19 230 217 19 230 217 19 231 217 19 231 217 19 231 217 19 224 191 27 224 191 27 224 191 27 224 191 27 224 191 27 224 191 27 224 191 27 224 191 27 224 191 27 224 191 27 224 191 27 224 191 27 224 191 27 224 191 27 224 191 27 224 191 27 224 191 27 224 191 27 224 191 27 224 191 27 224 191 27 224 191 27 224 191 27 224 191 27 224 191 27 224 191 27 224 191 27 224 191 27 224 191 27 224 191 27 224 191 27 224 191 27 224 191 27 224 191 27 224 191 27 224 191 27 224 191 27 224 191 27 224 191 27 224 191 27 224 191 27 224 191 27 224 191 27 224 191 27 224 191 27 224 191 27 224 191 27 224 191 27 224 191 27 224 191 27 224 191 27 224 191 27 224 191 27 224 191 27 224 191 27 224 191 27 224 191 27 224 191 27 224 191 27 224 191 27 224 191 27 224 191 27 224 191 27 224 191 27 224 191 27 224 191 27 224 191 27 224 191 27 224 191 27 224 191 27 224 191 27 224 191 27 224 191 27 224 191 27 224 191 27 224 191 27 224 191 27 224 191 27 224 191 27 224 191 27 224 191 27 224 191 27 224 191 27 243 217 19 243 217 19 243 217 19 244 217 19 244 217 19 244 217 19 244 217 19 244 217 19 244 217 19 244 217 19 245 217 19 245 217 19 245 217 19 245 217 19 245 217 19 245 217 19 245 217 19 246 217 19 246 217 19 246 217 19 246 217 19 246 217 19 246 217 19 247 217 19 247 217 19 247 217 19 247 217 19 247 217 19 247 217 19 247 217 19 248 217 19 248 217 19 248 217 19 32 231 162 32 231 162 32 232 162 33 232 162 33 233 162 33 233 162 33 234 162 33 234 162 33 235 162 34 235 162 34 236 162 34 236 162 34 237 162 34 237 162 34 238 162 35 239 162 35 239 162 35 240 162 35 240 162 35 241 162 35 241 162 36 242 162 36 242 162 36 243 162 36 243 162 36 244 162 36 244 162 37 245 162 37 245 162 37 246 162 37 247 162 37 247 162 37 248 162 38 248 162 38 249 162 38 249 162 38 250 162 38 250 162 38 251 162 39 251 162 39 252 162 39 252 162 39 253 162 39 253 162 40 255 162
0 0 34 0 0 34 0 1 34 0 1 34 0 2 34 0 2 34 0 3 34 1 3 34 1 4 34 1 4 34 1 5 34 1 5 34 1 6 34 2 6 34 2 7 34 2 8 34 2 8 34 2 9 34 2 9 34 3 10 34 3 10 34 3 11 34 3 11 34 3 12 34 3 12 34 4 13 34 4 13 34 4 14 34 4 14 34 4 15 34 5 16 34 5 16 34 5 17 34 5 17 34 5 18 34 5 18 34 5 19 34 6 19 34 6 20 34 6 20 34 6 21 34 6 21 34 6 22 34 7 22 34 7 23 34 7 24 34 226 217 19 226 217 19 227 217 19 227 217 19 227 217 19 227 217 19 227 217 19 227 217 19 227 217 19 227 217 19 228 217 19 228 217 19 228 217 19 228 217 19 228 217 19 228 217 19 229 217 19 229 217 19 229 217 19 229 217 19 229 217 19 229 217 19 229 217 19 230 217 19 230 217 19 230 217 19 230 217 19 230 217 19 230 217 19 230 217 19 231 217 19 231 217 19 231 217 19 224 191 27 224 191 27 224 191 27 224 191 27 224 191 27 224 191 27 224 191 27 224 191 27 224 191 27 224 191 27 224 191 27 224 191 27 224 191 27 224 191 27 224 191 27 224 191 27 224 191 27 224 191 27 224 191 27 224 191 27 224 191 27 224 191 27 224 191 27 224 191 27 224 191 27 224 191 27 224 191 27 224 191 27 224 191 27 224 191 27 224 191 27 224 191 27 224 191 27 224 191 27 224 191 27 224 191 27 224 191 27 224 191 27 224 191 27 224 191 27 224 191 27 224 191 27 224 191 27 224 191 27 224 191 27 224 191 27 224 191 27 224 191 27 224 191 27 224 191 27 224 191 27 224 191 27 224 191 27 224 191 27 224 191 27 224 191 27 224 191 27 224 191 27 224 191 27 224 191 27 224 191 27 224 191 27 224 191 27 224 191 27 224 191 27 224 191 27 224 191 27 224 191 27 224 191 27 224 191 27 224 191 27 224 191 27 224 191 27 224 191 27 224 191 27 224 191 27 224 191 27 224 191 27 224 191 27 224 191 27 224 191 27 224 191 27 224 191 27 243 217 19 243 217 19 243 217 19 244 217 19 244 217 19 244 217 19 244 217 19 244 217 19 244 217 19 244 217 19 245 217 19 245 217 19 245 217 19 245 217 19 245 217 19 245 217 19 245 217 19 246 217 19 246 217 19 246 217 19 246 217 19 246 217 19 246 217 19 247 217 19 247 217 19 247 217 19 247 217 19 247 217 19 247 217 19 247 217 19 248 217 19 248 217 19 248 217 19 32 231 34 32 232 34 32 232 34 33 233 34 33 233 34 33 234 34 33 234 34 33 235 34 33 235 34 34 236 34 34 236 34 34 237 34 34 237 34 34 238 34 34 238 34 35 239 34 35 240 34 35 240 34 35 241 34 35 241 34 35 242 34 36 242 34 36 243 34 36 243 34 36 244 34 36 244 34 36 245 34 37 245 34 37 246 34 37 246 34 37 247 34 37 248 34 37 248 34 38 249 34 38 249 34 38 250 34 38 250 34 38 251 34 38 251 34 39 252 34 39 252 34 39 253 34 39 253 34 39 254 34 40 255 34
0 0 34 0 0 34 0 1 34 0 1 34 0 2 34 0 2 34 0 3 34 1 3 34 1 4 34 1 4 34 1 5 34 1 5 34 1 6 34 2 6 34 2 7 34 2 8 34 2 8 34 2 9 34 2 9 34 3 10 34 3 10 34 3 11 34 3 11 34 3 12 34 3 12 34 4 13 34 4 13 34 4 14 34 4 14 34 4 15 34 5 16 34 5 16 34 5 17 34 5 17 34 5 18 34 5 18 34 5 19 34 6 19 34 6 20 34 6 20 34 6 21 34 6 21 34 6 22 34 7 22 34 7 23 34 7 24 34 226 217 19 226 217 19 227 217 19 227 217 19 227 217 19 227 217 19 227 217 19 227 217 19 227 217 19 227 217 19 228 217 19 228 217 19 228 217 19 228 217 19 228 217 19 228 217 19 229 217 19 229 217 19 229 217 19 229 217 19 229 217 19 229 217 19 229 217 19 230 217 19 230 217 19 230 217 19 230 217 19 230 217 19 230 217 19 230 217 19 231 217 19 231 217 19 231 217 19 224 191 27 224 191 27 224 191 27 224 191 27 224 191 27 224 191 27 224 191 27 224 191 27 224 191 27 224 191 27 224 191 27 224 191 27 224 191 27 224 191 27 224 191 27 224 191 27 224 191 27 224 191 27 224 191 27 224 191 27 224 191 27 224 191 27 224 191 27 224 191 27 224 191 27 224 191 27 224 191 27 224 191 27 224 191 27 224 191 27 224 191 27 224 191 27 224 191 27 224 191 27 224 191 27 224 191 27 224 191 27 224 191 27 224 191 27 224 191 27 224 191 27 224 191 27 224 191 27 224 191 27 224 191 27 224 191 27 224 191 27 224 191 27 224 191 27 224 191 27 224 191 27 224 191 27 224 191 27 224 191 27 224 191 27 224 191 27 224 191 27 224 191 27 224 191 27 224 191 27 224 191 27 224 191 27 224 191 27 224 191 27 224 191 27 224 191 27 224 191 27 224 191 27 224 191 27 224 191 27 224 191 27 224 191 27 224 191 27 224 191 27 224 191 27 224 191 27 224 191 27 224 191 27 224 191 27 224 191 27 224 191 27 224 191 27 224 191 27 243 217 19 243 217 19 243 217 19 244 217 19 244 217 19 244 217 19 244 217 19 244 217 19 244 217 19 244 217 19 245 217 19 245 217 19 245 217 19 245 217 19 245 217 19 245 217 19 245 217 19 246 217 19 246 217 19 246 217 19 246 217 19 246 217 19 246 217 19 247 217 19 247 217 19 247 217 19 247 217 19 247 217 19 247 217 19 247 217 19 248 217 19 248 217 19 248 217 19 32 231 34 32 232 34 32 232 34 33 233 34 33 233 34 33 234 34 33 234 34 33 235 34 33 235 34 34 236 34 34 236 34 34 237 34 34 237 34 34 238 34 34 238 34 35 239 34 35 240 34 35 240 34 35 241 34 35 241 34 35 242 34 36 242 34 36 243 34 36 243 34 36 244 34 36 244 34 36 245 34 37 245 34 37 246 34 37 246 34 37 247 34 37 248 34 37 248 34 38 249 34 38 249 34 38 250 34 38 250 34 38 251 34 38 251 34 39 252 34 39 252 34 39 253 34 39 253 34 39 254 34 40 255 34
0 0 33 0 0 33 0 1 33 0 1 33 0 2 33 0 2 33 0 3 33 1 3 33 1 4 33 1 4 33 1 5 33 1 5 33 1 6 33 2 6 33 2 7 33 2 8 33 2 8 33 2 9 33 2 9 33 3 10 33 3 10 33 3 11 33 3 11 33 3 12 33 3 12 33 4 13 33 4 13 33 4 14 33 4 14 33 4 15 33 5 16 33 5 16 33 5 17 33 5 17 33 5 18 33 5 19 33 5 19 33 6 20 33 6 20 33 6 21 33 6 21 33 6 22 33 6 22 33 7 23 33 7 23 33 7 24 33 226 218 19 226 218 19 227 218 19 227 218 19 227 218 19 227 218 19 227 218 19 227 218 19 227 218 19 227 218 19 228 218 19 228 218 19 228 218 19 228 218 19 228 218 19 228 218 19 229 218 19 229 218 19 229 218 19 229 218 19 229 218 19 229 218 19 229 218 19 230 218 19 230 218 19 230 218 19 230 218 19 230 218 19 230 218 19 230 218 19 231 218 19 231 218 19 231 218 19 224 191 27 224 191 27 224 191 27 224 191 27 224 191 27 224 191 27 224 191 27 224 191 27 224 191 27 224 191 27 224 191 27 224 191 27 224 191 27 224 191 27 224 191 27 224 191 27 224 191 27 224 191 27 224 191 27 224 191 27 224 191 27 224 191 27 224 191 27 224 191 27 224 191 27 224 191 27 224 191 27 224 191 27 224 191 27 224 191 27 224 191 27 224 191 27 224 191 27 224 191 27 224 191 27 224 191 27 224 191 27 224 191 27 224 191 27 224 191 27 224 191 27 224 191 27 224 191 27 224 191 27 224 191 27 224 191 27 224 191 27 224 191 27 224 191 27 224 191 27 224 191 27 224 191 27 224 191 27 224 191 27 224 191 27 224 191 27 224 191 27 224 191 27 224 191 27 224 191 27 224 191 27 224 191 27 224 191 27 224 191 27 224 191 27 224 191 27 224 191 27 224 191 27 224 191 27 224 191 27 224 191 27 224 191 27 224 191 27 224 191 27 224 191 27 224 191 27 224 191 27 224 191 27 224 191 27 224 191 27 224 191 27 224 191 27 224 191 27 243 218 19 243 218 19 243 218 19 244 218 19 244 218 19 244 218 19 244 218 19 244 218 19 244 218 19 244 218 19 245 218 19 245 218 19 245 218 19 245 218 19 245 218 19 245 218 19 245 218 19 246 218 19 246 218 19 246 218 19 246 218 19 246 218 19 246 218 19 247 218 19 247 218 19 247 218 19 247 218 19 247 218 19 247 218 19 247 218 19 248 218 19 248 218 19 248 218 19 32 232 33 32 232 33 32 233 33 33 233 33 33 234 33 33 234 33 33 235 33 33 235 33 33 236 33 34 236 33 34 237 33 34 237 33 34 237 33 34 238 33 34 238 33 35 239 33 35 240 33 35 240 33 35 241 33 35 241 33 35 242 33 36 242 33 36 243 33 36 243 33 36 244 33 36 244 33 36 245 33 37 245 33 37 246 33 37 246 33 37 247 33 37 248 33 37 248 33 38 249 33 38 249 33 38 250 33 38 250 33 38 251 33 38 251 33 39 252 33 39 252 33 39 253 33 39 253 33 39 254 33 40 255 33
0 0 33 0 0 33 0 1 33 0 1 33 0 2 33 0 2 33 0 3 33 1 3 33 1 4 33 1 4 33 1 5 33 1 5 33 1 6 33 2 6 33 2 7 33 2 8 33 2 8 33 2 9 33 2 9 33 3 10 33 3 10 33 3 11 33 3 11 33 3 12 33 3 12 33 4 13 33 4 13 33 4 14 33 4 15 33 4 15 33 5 16 33 5 17 33 5 17 33 5 18 33 5 18 33 5 19 33 5 19 33 6 20 33 6 20 33 6 21 33 6 21 33 6 22 33 6 22 33 7 23 33 7 23 33 7 24 33 226 218 19 226 218 19 227 218 19 227 218 19 227 218 19 227 218 19 227 218 19 227 218 19 227 218 19 227 218 19 228 218 19 228 218 19 228 218 19 228 218 19 228 218 19 228 218 19 229 218 19 229 218 19 229 218 19 229 218 19 229 218 19 229 218 19 229 218 19 230 218 19 230 218 19 230 218 19 230 218 19 230 218 19 230 218 19 230 218 19 231 218 19 231 218 19 231 218 19 224 191 27 224 191 27 224 191 27 224 191 27 224 191 27 224 191 27 224 191 27 224 191 27 224 191 27 224 191 27 224 191 27 224 191 27 224 191 27 224 191 27 224 191 27 224 191 27 224 191 27 224 191 27 224 191 27 224 191 27 224 191 27 224 191 27 224 191 27 224 191 27 224 191 27 224 191 27 224 191 27 224 191 27 224 191 27 224 191 27 224 191 27 224 191 27 224 191 27 224 191 27 224 191 27 224 191 27 224 191 27 224 191 27 224 191 27 224 191 27 224 191 27 224 191 27 224 191 27 224 191 27 224 191 27 224 191 27 224 191 27 224 191 27 224 191 27 224 191 27 224 191 27 224 191 27 224 191 27 224 191 27 224 191 27 224 191 27 224 191 27 224 191 27 224 191 27 224 191 27 224 191 27 224 191 27 224 191 27 224 191 27 224 191 27 224 191 27 224 191 27 224 191 27 224 191 27 224 191 27 224 191 27 224 191 27 224 191 27 224 191 27 224 191 27 224 191 27 224 191 27 224 191 27 224 191 27 224 191 27 224 191 27 224 191 27 224 191 27 243 218 19 243 218 19 243 218 19 244 218 19 244 218 19 244 218 19 244 218 19 244 218 19 244 218 19 244 218 19 245 218 19 245 218 19 245 218 19 245 218 19 245 218 19 245 218 19 245 218 19 246 218 19 246 218 19 246 218 19 246 218 19 246 218 19 246 218 19 247 218 19 247 218 19 247 218 19 247 218 19 247 218 19 247 218 19 247 218 19 248 218 19 248 218 19 248 218 19 32 232 33 32 232 33 32 233 33 33 233 33 33 234 33 33 234 33 33 235 33 33 235 33 33 236 33 34 236 33 34 237 33 34 237 33 34 238 33 34 238 33 34 239 33 35 240 33 35 240 33 35 241 33 35 241 33 35 241 33 35 242 33 36 242 33 36 243 33 36 243 33 36 244 33 36 244 33 36 245 33 37 245 33 37 246 33 37 246 33 37 247 33 37 248 33 37 248 33 38 249 33 38 249 33 38 250 33 38 250 33 38 251 33 38 251 33 39 252 33 39 252 33 39 253 33 39 253 33 39 254 33 40 255 33
0 0 33 0 0 33 0 1 33 0 1 33 0 2 33 0 2 33 0 3 33 1 3 33 1 4 33 1 4 33 1 5 33 1 5 33 1 6 33 2 6 33 2 7 33 2 8 33 2 8 33 2 9 33 2 9 33 3 10 33 3 10 33 3 11 33 3 11 33 3 12 33 3 13 33 4 13 33 4 14 33 4 14 33 4 15 33 4 15 33 5 16 33 5 17 33 5 17 33 5 18 33 5 18 33 5 19 33 5 19 33 6 20 33 6 20 33 6 21 33 6 21 33 6 22 33 6 22 33 7 23 33 7 23 33 7 25 33 226 219 19 226 219 19 227 219 19 227 219 19 227 219 19 227 219 19 227 219 19 227 219 19 227 219 19 227 219 19 228 219 19 228 219 19 228 219 19 228 219 19 228 219 19 228 219 19 229 219 19 229 219 19 229 219 19 229 219 19 229 219 19 229 219 19 229 219 19 230 219 19 230 219 19 230 219 19 230 219 19 230 219 19 230 219 19 230 219 19 231 219 19 231 219 19 231 219 19 224 191 27 224 191 27 224 191 27 224 191 27 224 191 27 224 191 27 224 191 27 224 191 27 224 191 27 224 191 27 224 191 27 224 191 27 224 191 27 224 191 27 224 191 27 224 191 27 224 191 27 224 191 27 224 191 27 224 191 27 224 191 27 224 191 27 224 191 27 224 191 27 224 191 27 224 191 27 224 191 27 224 191 27 224 191 27 224 191 27 224 191 27 224 191 27 224 191 27 224 191 27 224 191 27 224 191 27 224 191 27 224 191 27 224 191 27 224 191 27 224 191 27 224 191 27 224 191 27 224 191 27 224 191 27 224 191 27 224 191 27 224 191 27 224 191 27 224 191 27 224 191 27 224 191 27 224 191 27 224 191 27 224 191 27 224 191 27 224 191 27 224 191 27 224 191 27 224 191 27 224 191 27 224 191 27 224 191 27 224 191 27 224 191 27 224 191 27 224 191 27 224 191 27 224 191 27 224 191 27 224 191 27 224 191 27 224 191 27 224 191 27 224 191 27 224 191 27 224 191 27 224 191 27 224 191 27 224 191 27 224 191 27 224 191 27 224 191 27 243 219 19 243 219 19 243 219 19 244 219 19 244 219 19 244 219 19 244 219 19 244 219 19 244 219 19 244 219 19 245 219 19 245 219 19 245 219 19 245 219 19 245 219 19 245 219 19 245 219 19 246 219 19 246 219 19 246 219 19 246 219 19 246 219 19 246 219 19 247 219 19 247 219 19 247 219 19 247 219 19 247 219 19 247 219 19 247 219 19 248 219 19 248 219 19 248 219 19 32 232 33 32 232 33 32 233 33 33 233 33 33 234 33 33 234 33 33 235 33 33 235 33 33 236 33 34 236 33 34 237 33 34 237 33 34 238 33 34 238 33 34 239 33 35 240 33 35 240 33 35 241 33 35 241 33 35 242 33 35 242 33 36 243 33 36 243 33 36 243 33 36 244 33 36 244 33 36 245 33 37 245 33 37 246 33 37 246 33 37 247 33 37 248 33 37 248 33 38 249 33 38 249 33 38 250 33 38 250 33 38 251 33 38 251 33 39 252 33 39 252 33 39 253 33 39 253 33 39 254 33 40 255 33
0 0 32 0 0 32 0 1 32 0 1 32 0 2 32 0 2 32 0 3 32 1 3 32 1 4 32 1 4 32 1 5 32 1 5 32 1 6 32 2 6 32 2 7 32 2 8 32 2 9 32 2 9 32 2 10 32 3 10 32 3 11 32 3 11 32 3 12 32 3 12 32 3 13 32 4 13 32 4 14 32 4 14 32 4 15 32 4 15 32 5 16 32 5 17 32 5 18 32 5 18 32 5 19 32 5 19 32 5 20 32 6 20 32 6 21 32 6 21 32 6 22 32 6 22 32 6 23 32 7 23 32 7 24 32 7 25 32 226 219 19 226 219 19 227 219 19 227 219 19 227 219 19 227 219 19 227 219 19 227 219 19 227 219 19 227 219 19 228 219 19 228 219 19 228 219 19 228 219 19 228 219 19 228 219 19 229 219 19 229 219 19 229 219 19 229 219 19 229 219 19 229 219 19 229 219 19 230 219 19 230 219 19 230 219 19 230 219 19 230 219 19 230 219 19 230 219 19 231 219 19 231 219 19 231 219 19 224 191 27 224 191 27 224 191 27 224 191 27 224 191 27 224 191 27 224 191 27 224 191 27 224 191 27 224 191 27 224 191 27 224 191 27 224 191 27 224 191 27 224 191 27 224 191 27 224 191 27 224 191 27 224 191 27 224 191 27 224 191 27 224 191 27 224 191 27 224 191 27 224 191 27 224 191 27 224 191 27 224 191 27 224 191 27 224 191 27 224 191 27 224 191 27 224 191 27 224 191 27 224 191 27 224 191 27 224 191 27 224 191 27 224 191 27 224 191 27 224 191 27 224 191 27 224 191 27 224 191 27 224 191 27 224 191 27 224 191 27 224 191 27 224 191 27 224 191 27 224 191 27 224 191 27 224 191 27 224 191 27 224 191 27 224 191 27 224 191 27 224 191 27 224 191 27 224 191 27 224 191 27 224 191 27 224 191 27 224 191 27 224 191 27 224 191 27 224 191 27 224 191 27 224 191 27 224 191 27 224 191 27 224 191 27 224 191 27 224 191 27 224 191 27 224 191 27 224 191 27 224 191 27 224 191 27 224 191 27 224 191 27 224 191 27 224 191 27 243 219 19 243 219 19 243 219 19 244 219 19 244 219 19 244 219 19 244 219 19 244 219 19 244 219 19 244 219 19 245 219 19 245 219 19 245 219 19 245 219 19 245 219 19 245 219 19 245 219 19 246 219 19 246 219 19 246 219 19 246 219 19 246 219 19 246 219 19 247 219 19 247 219 19 247 219 19 247 219 19 247 219 19 247 219 19 247 219 19 248 219 19 248 219 19 248 219 19 32 232 32 32 233 32 32 233 32 33 234 32 33 234 32 33 235 32 33 235 32 33 236 32 33 236 32 34 237 32 34 237 32 34 238 32 34 238 32 34 239 32 34 239 32 35 240 32 35 240 32 35 241 32 35 241 32 35 242 32 35 242 32 36 243 32 36 243 32 36 244 32 36 244 32 36 245 32 36 245 32 37 246 32 37 246 32 37 247 32 37 247 32 37 248 32 37 248 32 38 249 32 38 249 32 38 250 32 38 250 32 38 251 32 38 251 32 39 252 32 39 252 32 39 253 32 39 253 32 39 254 32 40 255 32
0 0 32 0 0 32 0 1 32 0 1 32 0 2 32 0 2 32 0 3 32 1 3 32 1 4 32 1 4 32 1 5 32 1 5 32 1 6 32 2 6 32 2 7 32 2 8 32 2 9 32 2 9 32 2 10 32 3 10 32 3 11 32 3 11 32 3 12 32 3 12 32 3 13 32 4 13 32 4 14 32 4 14 32 4 15 32 4 16 32 5 17 32 5 17 32 5 18 32 5 18 32 5 19 32 5 19 32 5 20 32 6 20 32 6 21 32 6 21 32 6 22 32 6 22 32 6 23 32 7 24 32 7 24 32 7 25 32 226 220 19 226 220 19 227 220 19 227 220 19 227 220 19 227 220 19 227 220 19 227 220 19 227 220 19 227 220 19 228 220 19 228 220 19 228 220 19 228 220 19 228 220 19 228 220 19 229 220 19 229 220 19 229 220 19 229 220 19 229 220 19 229 220 19 229 220 19 230 220 19 230 220 19 230 220 19 230 220 19 230 220 19 230 220 19 230 220 19 231 220 19 231 220 19 231 220 19 224 191 27 224 191 27 224 191 27 224 191 27 224 191 27 224 191 27 224 191 27 224 191 27 224 191 27 224 191 27 224 191 27 224 191 27 224 191 27 224 191 27 224 191 27 224 191 27 224 191 27 224 191 27 224 191 27 224 191 27 224 191 27 224 191 27 224 191 27 224 191 27 224 191 27 224 191 27 224 191 27 224 191 27 224 191 27 224 191 27 224 191 27 224 191 27 224 191 27 224 191 27 224 191 27 224 191 27 224 191 27 224 191 27 224 191 27 224 191 27 224 191 27 224 191 27 224 191 27 224 191 27 224 191 27 224 191 27 224 191 27 224 191 27 224 191 27 224 191 27 224 191 27 224 191 27 224 191 27 224 191 27 224 191 27 224 191 27 224 191 27 224 191 27 224 191 27 224 191 27 224 191 27 224 191 27 224 191 27 224 191 27 224 191 27 224 191 27 224 191 27 224 191 27 224 191 27 224 191 27 224 191 27 224 191 27 224 191 27 224 191 27 224 191 27 224 191 27 224 191 27 224 191 27 224 191 27 224 191 27 224 191 27 224 191 27 224 191 27 243 220 19 243 220 19 243 220 19 244 220 19 244 220 19 244 220 19 244 220 19 244 220 19 244 220 19 244 220 19 245 220 19 245 220 19 245 220 19 245 220 19 245 220 19 245 220 19 245 220 19 246 220 19 246 220 19 246 220 19 246 220 19 246 220 19 246 220 19 247 220 19 247 220 19 247 220 19 247 220 19 247 220 19 247 220 19 247 220 19 248 220 19 248 220 19 248 220 19 32 233 32 32 233 32 32 234 32 33 234 32 33 234 32 33 235 32 33 235 32 33 236 32 33 236 32 34 237 32 34 237 32 34 238 32 34 238 32 34 239 32 34 239 32 35 240 32 35 241 32 35 241 32 35 241 32 35 242 32 35 242 32 36 243 32 36 243 32 36 244 32 36 244 32 36 245 32 36 245 32 37 246 32 37 246 32 37 247 32 37 248 32 37 248 32 37 248 32 38 249 32 38 249 32 38 250 32 38 250 32 38 251 32 38 251 32 39 252 32 39 252 32 39 253 32 39 253 32 39 254 32 40 255 32
0 0 31 0 0 31 0 1 31 0 1 31 0 2 31 0 2 31 0 3 31 1 3 31 1 4 31 1 4 31 1 5 31 1 5 31 1 6 31 2 7 31 2 7 31 2 8 31 2 9 31 2 9 31 2 10 31 3 10 31 3 11 31 3 11 31 3 12 31 3 12 31 3 13 31 4 14 31 4 14 31 4 15 31 4 15 31 4 16 31 5 17 31 5 17 31 5 18 31 5 18 31 5 19 31 5 20 31 5 20 31 6 21 31 6 21 31 6 22 31 6 22 31 6 23 31 6 23 31 7 24 31 7 24 31 7 25 31 226 220 19 226 220 19 227 220 19 227 220 19 227 220 19 227 220 19 227 220 19 227 220 19 227 220 19 227 220 19 228 220 19 228 220 19 228 220 19 228 220 19 228 220 19 228 220 19 229 220 19 229 220 19 229 220 19 229 220 19 229 220 19 229 220 19 229 220 19 230 220 19 230 220 19 230 220 19 230 220 19 230 220 19 230 220 19 230 220 19 231 220 19 231 220 19 231 220 19 224 191 27 224 191 27 224 191 27 224 191 27 224 191 27 224 191 27 224 191 27 224 191 27 224 191 27 224 191 27 224 191 27 224 191 27 224 191 27 224 191 27 224 191 27 224 191 27 224 191 27 224 191 27 224 191 27 224 191 27 224 191 27 224 191 27 224 191 27 224 191 27 224 191 27 224 191 27 224 191 27 224 191 27 224 191 27 224 191 27 224 191 27 224 191 27 224 191 27 224 191 27 224 191 27 224 191 27 224 191 27 224 191 27 224 191 27 224 191 27 224 191 27 224 191 27 224 191 27 224 191 27 224 191 27 224 191 27 224 191 27 224 191 27 224 191 27 224 191 27 224 191 27 224 191 27 224 191 27 224 191 27 224 191 27 224 191 27 224 191 27 224 191 27 224 191 27 224 191 27 224 191 27 224 191 27 224 191 27 224 191 27 224 191 27 224 191 27 224 191 27 224 191 27 224 191 27 224 191 27 224 191 27 224 191 27 224 191 27 224 191 27 224 191 27 224 191 27 224 191 27 224 191 27 224 191 27 224 191 27 224 191 27 224 191 27 224 191 27 243 220 19 243 220 19 243 220 19 244 220 19 244 220 19 244 220 19 244 220 19 244 220 19 244 220 19 244 220 19 245 220 19 245 220 19 245 220 19 245 220 19 245 220 19 245 220 19 245 220 19 246 220 19 246 220 19 246 220 19 246 220 19 246 220 19 246 220 19 247 220 19 247 220 19 247 220 19 247 220 19 247 220 19 247 220 19 247 220 19 248 220 19 248 220 19 248 220 19 32 233 31 32 233 31 32 234 31 33 234 31 33 235 31 33 235 31 33 236 31 33 236 31 33 237 31 34 237 31 34 238 31 34 238 31 34 238 31 34 239 31 34 239 31 35 240 31 35 241 31 35 241 31 35 242 31 35 242 31 35 243 31 36 243 31 36 243 31 36 244 31 36 244 31 36 245 31 36 245 31 37 246 31 37 246 31 37 247 31 37 248 31 37 248 31 37 249 31 38 249 31 38 249 31 38 250 31 38 250 31 38 251 31 38 251 31 39 252 31 39 252 31 39 253 31 39 253 31 39 254 31 40 255 31
0 0 31 0 0 31 0 1 31 0 1 31 0 2 31 0 2 31 0 3 31 1 3 31 1 4 31 1 4 31 1 5 31 1 5 31 1 6 31 2 7 31 2 7 31 2 8 31 2 9 31 2 9 31 2 10 31 3 10 31 3 11 31 3 11 31 3 12 31 3 13 31 3 13 31 4 14 31 4 14 31 4 15 31 4 15 31 4 16 31 5 17 31 5 17 31 5 18 31 5 19 31 5 19 31 5 20 31 5 20 31 6 21 31 6 21 31 6 22 31 6 22 31 6 23 31 6 23 31 7 24 31 7 25 31 7 26 31 226 220 19 226 220 19 227 220 19 227 220 19 227 220 19 227 220 19 227 220 19 227 220 19 227 220 19 227 220 19 228 220 19 228 220 19 228 220 19 228 220 19 228 220 19 228 220 19 229 220 19 229 220 19 229 220 19 229 220 19 229 220 19 229 220 19 229 220 19 230 220 19 230 220 19 230 220 19 230 220 19 230 220 19 230 220 19 230 220 19 231 220 19 231 220 19 231 220 19 224 191 27 224 191 27 224 191 27 224 191 27 224 191 27 224 191 27 224 191 27 224 191 27 224 191 27 224 191 27 224 191 27 224 191 27 224 191 27 224 191 27 224 191 27 224 191 27 224 191 27 224 191 27 224 191 27 224 191 27 224 191 27 224 191 27 224 191 27 224 191 27 224 191 27 224 191 27 224 191 27 224 191 27 224 191 27 224 191 27 224 191 27 224 191 27 224 191 27 224 191 27 224 191 27 224 191 27 224 191 27 224 191 27 224 191 27 224 191 27 224 191 27 224 191 27 224 191 27 224 191 27 224 191 27 224 191 27 224 191 27 224 191 27 224 191 27 224 191 27 224 191 27 224 191 27 224 191 27 224 191 27 224 191 27 224 191 27 224 191 27 224 191 27 224 191 27 224 191 27 224 191 27 224 191 27 224 191 27 224 191 27 224 191 27 224 191 27 224 191 27 224 191 27 224 191 27 224 191 27 224 191 27 224 191 27 224 191 27 224 191 27 224 191 27 224 191 27 224 191 27 224 191 27 224 191 27 224 191 27 224 191 27 224 191 27 224 191 27 243 220 19 243 220 19 243 220 19 244 220 19 244 220 19 244 220 19 244 220 19 244 220 19 244 220 19 244 220 19 245 220 19 245 220 19 245 220 19 245 220 19 245 220 19 245 220 19 245 220 19 246 220 19 246 220 19 246 220 19 246 220 19 246 220 19 246 220 19 247 220 19 247 220 19 247 220 19 247 220 19 247 220 19 247 220 19 247 220 19 248 220 19 248 220 19 248 220 19 32 233 31 32 234 31 32 234 31 33 234 31 33 235 31 33 235 31 33 236 31 33 236 31 33 237 31 34 237 31 34 238 31 34 238 31 34 239 31 34 239 31 34 239 31 35 240 31 35 241 31 35 241 31 35 242 31 35 242 31 35 243 31 36 243 31 36 244 31 36 244 31 36 244 31 36 245 31 36 245 31 37 246 31 37 246 31 37 247 31 37 248 31 37 248 31 37 249 31 38 249 31 38 249 31 38 250 31 38 250 31 38 251 31 38 251 31 39 252 31 39 252 31 39 253 31 39 253 31 39 254 31 40 255 31
0 0 31 0 0 31 0 1 31 0 1 31 0 2 31 0 2 31 0 3 31 1 3 31 1 4 31 1 4 31 1 5 31 1 6 31 1 6 31 2 7 31 2 7 31 2 8 31 2 9 31 2 9 31 2 10 31 3 11 31 3 11 31 3 12 31 3 12 31 3 13 31 3 13 31 4 14 31 4 14 31 4 15 31 4 16 31 4 16 31 5 17 31 5 18 31 5 18 31 5 19 31 5 19 31 5 20 31 5 21 31 6 21 31 6 22 31 6 22 31 6 23 31 6 23 31 6 24 31 7 24 31 7 25 31 7 26 31 226 221 19 226 221 19 227 221 19 227 221 19 227 221 19 227 221 19 227 221 19 227 221 19 227 221 19 227 221 19 228 221 19 228 221 19 228 221 19 228 221 19 228 221 19 228 221 19 229 221 19 229 221 19 229 221 19 229 221 19 229 221 19 229 221 19 229 221 19 230 221 19 230 221 19 230 221 19 230 221 19 230 221 19 230 221 19 230 221 19 231 221 19 231 221 19 231 221 19 224 191 27 224 191 27 224 191 27 224 191 27 224 191 27 224 191 27 224 191 27 224 191 27 224 191 27 224 191 27 224 191 27 224 191 27 224 191 27 224 191 27 224 191 27 224 191 27 224 191 27 224 191 27 224 191 27 224 191 27 224 191 27 224 191 27 224 191 27 224 191 27 224 191 27 224 191 27 224 191 27 224 191 27 224 191 27 224 191 27 224 191 27 224 191 27 224 191 27 224 191 27 224 191 27 224 191 27 224 191 27 224 191 27 224 191 27 224 191 27 224 191 27 224 191 27 224 191 27 224 191 27 224 191 27 224 191 27 224 191 27 224 191 27 224 191 27 224 191 27 224 191 27 224 191 27 224 191 27 224 191 27 224 191 27 224 191 27 224 191 27 224 191 27 224 191 27 224 191 27 224 191 27 224 191 27 224 191 27 224 191 27 224 191 27 224 191 27 224 191 27 224 191 27 224 191 27 224 191 27 224 191 27 224 191 27 224 191 27 224 191 27 224 191 27 224 191 27 224 191 27 224 191 27 224 191 27 224 191 27 224 191 27 224 191 27 224 191 27 243 221 19 243 221 19 243 221 19 244 221 19 244 221 19 244 221 19 244 221 19 244 221 19 244 221 19 244 221 19 245 221 19 245 221 19 245 221 19 245 221 19 245 221 19 245 221 19 245 221 19 246 221 19 246 221 19 246 221 19 246 221 19 246 221 19 246 221 19 247 221 19 247 221 19 247 221 19 247 221 19 247 221 19 247 221 19 247 221 19 248 221 19 248 221 19 248 221 19 32 233 31 32 234 31 32 234 31 33 235 31 33 235 31 33 236 31 33 236 31 33 237 31 33 237 31 34 238 31 34 238 31 34 238 31 34 239 31 34 239 31 34 240 31 35 241 31 35 241 31 35 242 31 35 242 31 35 242 31 35 243 31 36 243 31 36 244 31 36 244 31 36 245 31 36 245 31 36 246 31 37 246 31 37 246 31 37 247 31 37 248 31 37 248 31 37 249 31 38 249 31 38 250 31 38 250 31 38 250 31 38 251 31 38 251 31 39 252 31 39 252 31 39 253 31 39 253 31 39 254 31 40 255 31
0 0 30 0 0 30 0 1 30 0 1 30 0 2 30 0 2 30 0 3 30 1 3 30 1 4 30 1 5 30 1 5 30 1 6 30 1 6 30 2 7 30 2 7 30 2 8 30 2 9 30 2 10 30 2 10 30 3 11 30 3 11 30 3 12 30 3 12 30 3 13 30 3 13 30 4 14 30 4 15 30 4 15 30 4 16 30 4 16 30 5 17 30 5 18 30 5 18 30 5 19 30 5 20 30 5 20 30 5 21 30 6 21 30 6 22 30 6 22 30 6 23 30 6 23 30 6 24 30 7 25 30 7 25 30 7 26 30 226 221 19 226 221 19 227 221 19 227 221 19 227 221 19 227 221 19 227 221 19 227 221 19 227 221 19 227 221 19 228 221 19 228 221 19 228 221 19 228 221 19 228 221 19 228 221 19 229 221 19 229 221 19 229 221 19 229 221 19 229 221 19 229 221 19 229 221 19 230 221 19 230 221 19 230 221 19 230 221 19 230 221 19 230 221 19 230 221 19 231 221 19 231 221 19 231 221 19 231 221 19 224 191 27 224 191 27 224 191 27 224 191 27 224 191 27 224 191 27 224 191 27 224 191 27 224 191 27 224 191 27 224 191 27 224 191 27 224 191 27 224 191 27 224 191 27 224 191 27 224 191 27 224 191 27 224 191 27 224 191 27 224 191 27 224 191 27 224 191 27 224 191 27 224 191 27 224 191 27 224 191 27 224 191 27 224 191 27 224 191 27 224 191 27 224 191 27 224 191 27 224 191 27 224 191 27 224 191 27 224 191 27 224 191 27 224 191 27 224 191 27 224 191 27 224 191 27 224 191 27 224 191 27 224 191 27 224 191 27 224 191 27 224 191 27 224 191 27 224 191 27 224 191 27 224 191 27 224 191 27 224 191 27 224 191 27 224 191 27 224 191 27 224 191 27 224 191 27 224 191 27 224 191 27 224 191 27 224 191 27 224 191 27 224 191 27 224 191 27 224 191 27 224 191 27 224 191 27 224 191 27 224 191 27 224 191 27 224 191 27 224 191 27 224 191 27 224 191 27 224 191 27 224 191 27 224 191 27 224 191 27 224 191 27 243 221 19 243 221 19 243 221 19 243 221 19 244 221 19 244 221 19 244 221 19 244 221 19 244 221 19 244 221 19 244 221 19 245 221 19 245 221 19 245 221 19 245 221 19 245 221 19 245 221 19 245 221 19 246 221 19 246 221 19 246 221 19 246 221 19 246 221 19 246 221 19 247 221 19 247 221 19 247 221 19 247 221 19 247 221 19 247 221 19 247 221 19 248 221 19 248 221 19 248 221 19 32 234 30 32 234 30 32 235 30 33 235 30 33 235 30 33 236 30 33 236 30 33 237 30 33 237 30 34 238 30 34 238 30 34 239 30 34 239 30 34 239 30 34 240 30 35 241 30 35 241 30 35 242 30 35 242 30 35 243 30 35 243 30 36 243 30 36 244 30 36 244 30 36 245 30 36 245 30 36 246 30 37 246 30 37 247 30 37 247 30 37 248 30 37 248 30 37 249 30 38 249 30 38 250 30 38 250 30 38 251 30 38 251 30 38 251 30 39 252 30 39 252 30 39 253 30 39 253 30 39 254 30 40 255 30
0 0 30 0 0 30 0 1 30 0 1 30 0 2 30 0 2 30 0 3 30 1 3 30 1 4 30 1 5 30 1 5 30 1 6 30 1 6 30 2 7 30 2 7 30 2 8 30 2 9 30 2 10 30 2 10 30 3 11 30 3 11 30 3 12 30 3 12 30 3 13 30 3 14 30 4 14 30 4 15 30 4 15 30 4 16 30 4 16 30 5 17 30 5 18 30 5 19 30 5 19 30 5 20 30 5 20 30 5 21 30 6 21 30 6 22 30 6 22 30 6 23 30 6 24 30 6 24 30 7 25 30 7 25 30 7 26 30 226 222 19 226 222 19 227 222 19 227 222 19 227 222 19 227 222 19 227 222 19 227 222 19 227 222 19 227 222 19 228 222 19 228 222 19 228 222 19 228 222 19 228 222 19 228 222 19 229 222 19 229 222 19 229 222 19 229 222 19 229 222 19 229 222 19 229 222 19 230 222 19 230 222 19 230 222 19 230 222 19 230 222 19 230 222 19 230 222 19 231 222 19 231 222 19 231 222 19 231 222 19 224 191 27 224 191 27 224 191 27 224 191 27 224 191 27 224 191 27 224 191 27 224 191 27 224 191 27 224 191 27 224 191 27 224 191 27 224 191 27 224 191 27 224 191 27 224 191 27 224 191 27 224 191 27 224 191 27 224 191 27 224 191 27 224 191 27 224 191 27 224 191 27 224 191 27 224 191 27 224 191 27 224 191 27 224 191 27 224 191 27 224 191 27 224 191 27 224 191 27 224 191 27 224 191 27 224 191 27 224 191 27 224 191 27 224 191 27 224 191 27 224 191 27 224 191 27 224 191 27 224 191 27 224 191 27 224 191 27 224 191 27 224 191 27 224 191 27 224 191 27 224 191 27 224 191 27 224 191 27 224 191 27 224 191 27 224 191 27 224 191 27 224 191 27 224 191 27 224 191 27 224 191 27 224 191 27 224 191 27 224 191 27 224 191 27 224 191 27 224 191 27 224 191 27 224 191 27 224 191 27 224 191 27 224 191 27 224 191 27 224 191 27 224 191 27 224 191 27 224 191 27 224 191 27 224 191 27 224 191 27 224 191 27 243 222 19 243 222 19 243 222 19 243 222 19 244 222 19 244 222 19 244 222 19 244 222 19 244 222 19 244 222 19 244 222 19 245 222 19 245 222 19 245 222 19 245 222 19 245 222 19 245 222 19 245 222 19 246 222 19 246 222 19 246 222 19 246 222 19 246 222 19 246 222 19 247 222 19 247 222 19 247 222 19 247 222 19 247 222 19 247 222 19 247 222 19 248 222 19 248 222 19 248 222 19 32 234 30 32 234 30 32 235 30 33 235 30 33 236 30 33 236 30 33 236 30 33 237 30 33 237 30 34 238 30 34 238 30 34 239 30 34 239 30 34 240 30 34 240 30 35 241 30 35 241 30 35 242 30 35 242 30 35 243 30 35 243 30 36 244 30 36 244 30 36 244 30 36 245 30 36 245 30 36 246 30 37 246 30 37 247 30 37 247 30 37 248 30 37 248 30 37 249 30 38 249 30 38 250 30 38 250 30 38 251 30 38 251 30 38 251 30 39 252 30 39 252 30 39 253 30 39 253 30 39 254 30 40 255 30
0 0 29 0 0 29 0 1 29 0 1 29 0 2 29 0 2 29 0 3 29 1 3 29 1 4 29 1 5 29 1 5 29 1 6 29 1 6 29 2 7 29 2 7 29 2 9 29 2 9 29 2 10 29 2 10 29 3 11 29 3 11 29 3 12 29 3 13 29 3 13 29 3 14 29 4 14 29 4 15 29 4 15 29 4 16 29 4 17 29 5 18 29 5 18 29 5 19 29 5 19 29 5 20 29 5 21 29 5 21 29 6 22 29 6 22 29 6 23 29 6 23 29 6 24 29 6 25 29 7 25 29 7 26 29 7 27 29 226 222 19 226 222 19 227 222 19 227 222 19 227 222 19 227 222 19 227 222 19 227 222 19 227 222 19 227 222 19 228 222 19 228 222 19 228 222 19 228 222 19 228 222 19 228 222 19 229 222 19 229 222 19 229 222 19 229 222 19 229 222 19 229 222 19 229 222 19 230 222 19 230 222 19 230 222 19 230 222 19 230 222 19 230 222 19 230 222 19 231 222 19 231 222 19 231 222 19 231 222 19 224 191 27 224 191 27 224 191 27 224 191 27 224 191 27 224 191 27 224 191 27 224 191 27 224 191 27 224 191 27 224 191 27 224 191 27 224 191 27 224 191 27 224 191 27 224 191 27 224 191 27 224 191 27 224 191 27 224 191 27 224 191 27 224 191 27 224 191 27 224 191 27 224 191 27 224 191 27 224 191 27 224 191 27 224 191 27 224 191 27 224 191 27 224 191 27 224 191 27 224 191 27 224 191 27 224 191 27 224 191 27 224 191 27 224 191 27 224 191 27 224 191 27 224 191 27 224 191 27 224 191 27 224 191 27 224 191 27 224 191 27 224 191 27 224 191 27 224 191 27 224 191 27 224 191 27 224 191 27 224 191 27 224 191 27 224 191 27 224 191 27 224 191 27 224 191 27 224 191 27 224 191 27 224 191 27 224 191 27 224 191 27 224 191 27 224 191 27 224 191 27 224 191 27 224 191 27 224 191 27 224 191 27 224 191 27 224 191 27 224 191 27 224 191 27 224 191 27 224 191 27 224 191 27 224 191 27 224 191 27 224 191 27 243 222 19 243 222 19 243 222 19 243 222 19 244 222 19 244 222 19 244 222 19 244 222 19 244 222 19 244 222 19 244 222 19 245 222 19 245 222 19 245 222 19 245 222 19 245 222 19 245 222 19 245 222 19 246 222 19 246 222 19 246 222 19 246 222 19 246 222 19 246 222 19 247 222 19 247 222 19 247 222 19 247 222 19 247 222 19 247 222 19 247 222 19 248 222 19 248 222 19 248 222 19 32 234 29 32 235 29 32 235 29 33 236 29 33 236 29 33 236 29 33 237 29 33 237 29 33 238 29 34 238 29 34 239 29 34 239 29 34 239 29 34 240 29 34 240 29 35 241 29 35 242 29 35 242 29 35 242 29 35 243 29 35 243 29 36 244 29 36 244 29 36 245 29 36 245 29 36 245 29 36 246 29 37 246 29 37 247 29 37 247 29 37 248 29 37 248 29 37 249 29 38 249 29 38 250 29 38 250 29 38 251 29 38 251 29 38 251 29 39 252 29 39 252 29 39 253 29 39 253 29 39 254 29 40 255 29
0 0 29 0 0 29 0 1 29 0 1 29 0 2 29 0 2 29 0 3 29 1 4 29 1 4 29 1 5 29 1 5 29 1 6 29 1 6 29 2 7 29 2 8 29 2 9 29 2 9 29 2 10 29 2 10 29 3 11 29 3 12 29 3 12 29 3 13 29 3 13 29 3 14 29 4 14 29 4 15 29 4 16 29 4 16 29 4 17 29 5 18 29 5 18 29 5 19 29 5 20 29 5 20 29 5 21 29 5 21 29 6 22 29 6 22 29 6 23 29 6 24 29 6 24 29 6 25 29 7 25 29 7 26 29 7 27 29 226 222 19 226 222 19 227 222 19 227 222 19 227 222 19 227 222 19 227 222 19 227 222 19 227 222 19 227 222 19 228 222 19 228 222 19 228 222 19 228 222 19 228 222 19 228 222 19 229 222 19 229 222 19 229 222 19 229 222 19 229 222 19 229 222 19 229 222 19 230 222 19 230 222 19 230 222 19 230 222 19 230 222 19 230 222 19 230 222 19 231 222 19 231 222 19 231 222 19 231 222 19 231 222 19 224 191 27 224 191 27 224 191 27 224 191 27 224 191 27 224 191 27 224 191 27 224 191 27 224 191 27 224 191 27 224 191 27 224 191 27 224 191 27 224 191 27 224 191 27 224 191 27 224 191 27 224 191 27 224 191 27 224 191 27 224 191 27 224 191 27 224 191 27 224 191 27 224 191 27 224 191 27 224 191 27 224 191 27 224 191 27 224 191 27 224 191 27 224 191 27 224 191 27 224 191 27 224 191 27 224 191 27 224 191 27 224 191 27 224 191 27 224 191 27 224 191 27 224 191 27 224 191 27 224 191 27 224 191 27 224 191 27 224 191 27 224 191 27 224 191 27 224 191 27 224 191 27 224 191 27 224 191 27 224 191 27 224 191 27 224 191 27 224 191 27 224 191 27 224 191 27 224 191 27 224 191 27 224 191 27 224 191 27 224 191 27 224 191 27 224 191 27 224 191 27 224 191 27 224 191 27 224 191 27 224 191 27 224 191 27 224 191 27 224 191 27 224 191 27 224 191 27 224 191 27 224 191 27 224 191 27 243 222 19 243 222 19 243 222 19 243 222 19 243 222 19 244 222 19 244 222 19 244 222 19 244 222 19 244 222 19 244 222 19 244 222 19 245 222 19 245 222 19 245 222 19 245 222 19 245 222 19 245 222 19 245 222 19 246 222 19 246 222 19 246 222 19 246 222 19 246 222 19 246 222 19 247 222 19 247 222 19 247 222 19 247 222 19 247 222 19 247 222 19 247 222 19 248 222 19 248 222 19 248 222 19 32 234 29 32 235 29 32 235 29 33 236 29 33 236 29 33 237 29 33 237 29 33 237 29 33 238 29 34 238 29 34 239 29 34 239 29 34 240 29 34 240 29 34 240 29 35 241 29 35 242 29 35 242 29 35 243 29 35 243 29 35 243 29 36 244 29 36 244 29 36 245 29 36 245 29 36 246 29 36 246 29 37 246 29 37 247 29 37 247 29 37 248 29 37 249 29 37 249 29 38 249 29 38 250 29 38 250 29 38 251 29 38 251 29 38 252 29 39 252 29 39 252 29 39 253 29 39 253 29 39 254 29 40 255 29
0 0 29 0 0 29 0 1 29 0 1 29 0 2 29 0 2 29 0 3 29 1 4 29 1 4 29 1 5 29 1 5 29 1 6 29 1 6 29 2 7 29 2 8 29 2 9 29 2 9 29 2 10 29 2 11 29 3 11 29 3 12 29 3 12 29 3 13 29 3 13 29 3 14 29 4 15 29 4 15 29 4 16 29 4 16 29 4 17 29 5 18 29 5 19 29 5 19 29 5 20 29 5 20 29 5 21 29 5 22 29 6 22 29 6 23 29 6 23 29 6 24 29 6 24 29 6 25 29 7 26 29 7 26 29 7 27 29 226 223 19 226 223 19 227 223 19 227 223 19 227 223 19 227 223 19 227 223 19 227 223 19 227 223 19 227 223 19 228 223 19 228 223 19 228 223 19 228 223 19 228 223 19 228 223 19 229 223 19 229 223 19 229 223 19 229 223 19 229 223 19 229 223 19 229 223 19 230 223 19 230 223 19 230 223 19 230 223 19 230 223 19 230 223 19 230 223 19 231 223 19 231 223 19 231 223 19 231 223 19 231 223 19 224 191 27 224 191 27 224 191 27 224 191 27 224 191 27 224 191 27 224 191 27 224 191 27 224 191 27 224 191 27 224 191 27 224 191 27 224 191 27 224 191 27 224 191 27 224 191 27 224 191 27 224 191 27 224 191 27 224 191 27 224 191 27 224 191 27 224 191 27 224 191 27 224 191 27 224 191 27 224 191 27 224 191 27 224 191 27 224 191 27 224 191 27 224 191 27 224 191 27 224 191 27 224 191 27 224 191 27 224 191 27 224 191 27 224 191 27 224 191 27 224 191 27 224 191 27 224 191 27 224 191 27 224 191 27 224 191 27 224 191 27 224 191 27 224 191 27 224 191 27 224 191 27 224 191 27 224 191 27 224 191 27 224 191 27 224 191 27 224 191 27 224 191 27 224 191 27 224 191 27 224 191 27 224 191 27 224 191 27 224 191 27 224 191 27 224 191 27 224 191 27 224 191 27 224 191 27 224 191 27 224 191 27 224 191 27 224 191 27 224 191 27 224 191 27 224 191 27 224 191 27 224 191 27 224 191 27 243 223 19 243 223 19 243 223 19 243 223 19 243 223 19 244 223 19 244 223 19 244 223 19 244 223 19 244 223 19 244 223 19 244 223 19 245 223 19 245 223 19 245 223 19 245 223 19 245 223 19 245 223 19 245 223 19 246 223 19 246 223 19 246 223 19 246 223 19 246 223 19 246 223 19 247 223 19 247 223 19 247 223 19 247 223 19 247 223 19 247 223 19 247 223 19 248 223 19 248 223 19 248 223 19 32 235 29 32 235 29 32 236 29 33 236 29 33 236 29 33 237 29 33 237 29 33 238 29 33 238 29 34 239 29 34 239 29 34 239 29 34 240 29 34 240 29 34 241 29 35 241 29 35 242 29 35 242 29 35 243 29 35 243 29 35 244 29 36 244 29 36 244 29 36 245 29 36 245 29 36 246 29 36 246 29 37 247 29 37 247 29 37 247 29 37 248 29 37 249 29 37 249 29 38 249 29 38 250 29 38 250 29 38 251 29 38 251 29 38 252 29 39 252 29 39 252 29 39 253 29 39 253 29 39 254 29 40 255 29
0 0 28 0 0 28 0 1 28 0 1 28 0 2 28 0 2 28 0 3 28 1 4 28 1 4 28 1 5 28 1 5 28 1 6 28 1 7 28 2 7 28 2 8 28 2 9 28 2 9 28 2 10 28 2 11 28 3 11 28 3 12 28 3 12 28 3 13 28 3 14 28 3 14 28 4 15 28 4 15 28 4 16 28 4 16 28 4 17 28 5 18 28 5 19 28 5 19 28 5 20 28 5 21 28 5 21 28 5 22 28 6 22 28 6 23 28 6 23 28 6 24 28 6 25 28 6 25 28 7 26 28 7 26 28 7 28 28 226 223 19 226 223 19 227 223 19 227 223 19 227 223 19 227 223 19 227 223 19 227 223 19 227 223 19 227 223 19 228 223 19 228 223 19 228 223 19 228 223 19 228 223 19 228 223 19 229 223 19 229 223 19 229 223 19 229 223 19 229 223 19 229 223 19 229 223 19 230 223 19 230 223 19 230 223 19 230 223 19 230 223 19 230 223 19 230 223 19 231 223 19 231 223 19 231 223 19 231 223 19 231 223 19 224 191 27 224 191 27 224 191 27 224 191 27 224 191 27 224 191 27 224 191 27 224 191 27 224 191 27 224 191 27 224 191 27 224 191 27 224 191 27 224 191 27 224 191 27 224 191 27 224 191 27 224 191 27 224 191 27 224 191 27 224 191 27 224 191 27 224 191 27 224 191 27 224 191 27 224 191 27 224 191 27 224 191 27 224 191 27 224 191 27 224 191 27 224 191 27 224 191 27 224 191 27 224 191 27 224 191 27 224 191 27 224 191 27 224 191 27 224 191 27 224 191 27 224 191 27 224 191 27 224 191 27 224 191 27 224 191 27 224 191 27 224 191 27 224 191 27 224 191 27 224 191 27 224 191 27 224 191 27 224 191 27 224 191 27 224 191 27 224 191 27 224 191 27 224 191 27 224 191 27 224 191 27 224 191 27 224 191 27 224 191 27 224 191 27 224 191 27 224 191 27 224 191 27 224 191 27 224 191 27 224 191 27 224 191 27 224 191 27 224 191 27 224 191 27 224 191 27 224 191 27 224 191 27 224 191 27 243 223 19 243 223 19 243 223 19 243 223 19 243 223 19 244 223 19 244 223 19 244 223 19 244 223 19 244 223 19 244 223 19 244 223 19 245 223 19 245 223 19 245 223 19 245 223 19 245 223 19 245 223 19 245 223 19 246 223 19 246 223 19 246 223 19 246 223 19 246 223 19 246 223 19 247 223 19 247 223 19 247 223 19 247 223 19 247 223 19 247 223 19 247 223 19 248 223 19 248 223 19 248 223 19 32 235 28 32 235 28 32 236 28 33 236 28 33 237 28 33 237 28 33 237 28 33 238 28 33 238 28 34 239 28 34 239 28 34 240 28 34 240 28 34 240 28 34 241 28 35 242 28 35 242 28 35 242 28 35 243 28 35 243 28 35 244 28 36 244 28 36 245 28 36 245 28 36 245 28 36 246 28 36 246 28 37 247 28 37 247 28 37 247 28 37 248 28 37 249 28 37 249 28 38 250 28 38 250 28 38 250 28 38 251 28 38 251 28 38 252 28 39 252 28 39 252 28 39 253 28 39 253 28 39 254 28 40 255 28
0 0 28 0 0 28 0 1 28 0 1 28 0 2 28 0 2 28 0 3 28 1 4 28 1 4 28 1 5 28 1 5 28 1 6 28 1 7 28 2 7 28 2 8 28 2 9 28 2 10 28 2 10 28 2 11 28 3 11 28 3 12 28 3 13 28 3 13 28 3 14 28 3 14 28 4 15 28 4 15 28 4 16 28 4 17 28 4 17 28 5 18 28 5 19 28 5 20 28 5 20 28 5 21 28 5 21 28 5 22 28 6 23 28 6 23 28 6 24 28 6 24 28 6 25 28 6 26 28 7 26 28 7 27 28 7 28 28 226 224 19 226 224 19 227 224 19 227 224 19 227 224 19 227 224 19 227 224 19 227 224 19 227 224 19 227 224 19 228 224 19 228 224 19 228 224 19 228 224 19 228 224 19 228 224 19 229 224 19 229 224 19 229 224 19 229 224 19 229 224 19 229 224 19 229 224 19 230 224 19 230 224 19 230 224 19 230 224 19 230 224 19 230 224 19 230 224 19 231 224 19 231 224 19 231 224 19 231 224 19 231 224 19 231 224 19 224 191 27 224 191 27 224 191 27 224 191 27 224 191 27 224 191 27 224 191 27 224 191 27 224 191 27 224 191 27 224 191 27 224 191 27 224 191 27 224 191 27 224 191 27 224 191 27 224 191 27 224 191 27 224 191 27 224 191 27 224 191 27 224 191 27 224 191 27 224 191 27 224 191 27 224 191 27 224 191 27 224 191 27 224 191 27 224 191 27 224 191 27 224 191 27 224 191 27 224 191 27 224 191 27 224 191 27 224 191 27 224 191 27 224 191 27 224 191 27 224 191 27 224 191 27 224 191 27 224 191 27 224 191 27 224 191 27 224 191 27 224 191 27 224 191 27 224 191 27 224 191 27 224 191 27 224 191 27 224 191 27 224 191 27 224 191 27 224 191 27 224 191 27 224 191 27 224 191 27 224 191 27 224 191 27 224 191 27 224 191 27 224 191 27 224 191 27 224 191 27 224 191 27 224 191 27 224 191 27 224 191 27 224 191 27 224 191 27 224 191 27 224 191 27 224 191 27 224 191 27 243 224 19 243 224 19 243 224 19 243 224 19 243 224 19 243 224 19 244 224 19 244 224 19 244 224 19 244 224 19 244 224 19 244 224 19 244 224 19 245 224 19 245 224 19 245 224 19 245 224 19 245 224 19 245 224 19 245 224 19 246 224 19 246 224 19 246 224 19 246 224 19 246 224 19 246 224 19 247 224 19 247 224 19 247 224 19 247 224 19 247 224 19 247 224 19 247 224 19 248 224 19 248 224 19 248 224 19 32 235 28 32 236 28 32 236 28 33 237 28 33 237 28 33 237 28 33 238 28 33 238 28 33 239 28 34 239 28 34 239 28 34 240 28 34 240 28 34 241 28 34 241 28 35 242 28 35 242 28 35 243 28 35 243 28 35 243 28 35 244 28 36 244 28 36 245 28 36 245 28 36 246 28 36 246 28 36 246 28 37 247 28 37 247 28 37 248 28 37 248 28 37 249 28 37 249 28 38 250 28 38 250 28 38 250 28 38 251 28 38 251 28 38 252 28 39 252 28 39 252 28 39 253 28 39 253 28 39 254 28 40 255 28
0 0 28 0 0 28 0 1 28 0 1 28 0 2 28 0 2 28 0 3 28 1 4 28 1 4 28 1 5 28 1 5 28 1 6 28 1 7 28 2 7 28 2 8 28 2 9 28 2 10 28 2 10 28 2 11 28 3 11 28 3 12 28 3 13 28 3 13 28 3 14 28 3 14 28 4 15 28 4 16 28 4 16 28 4 17 28 4 17 28 5 19 28 5 19 28 5 20 28 5 20 28 5 21 28 5 22 28 5 22 28 6 23 28 6 23 28 6 24 28 6 25 28 6 25 28 6 26 28 7 26 28 7 27 28 7 28 28 226 224 19 226 224 19 227 224 19 227 224 19 227 224 19 227 224 19 227 224 19 227 224 19 227 224 19 227 224 19 228 224 19 228 224 19 228 224 19 228 224 19 228 224 19 228 224 19 229 224 19 229 224 19 229 224 19 229 224 19 229 224 19 229 224 19 229 224 19 230 224 19 230 224 19 230 224 19 230 224 19 230 224 19 230 224 19 230 224 19 231 224 19 231 224 19 231 224 19 231 224 19 231 224 19 231 224 19 224 191 27 224 191 27 224 191 27 224 191 27 224 191 27 224 191 27 224 191 27 224 191 27 224 191 27 224 191 27 224 191 27 224 191 27 224 191 27 224 191 27 224 191 27 224 191 27 224 191 27 224 191 27 224 191 27 224 191 27 224 191 27 224 191 27 224 191 27 224 191 27 224 191 27 224 191 27 224 191 27 224 191 27 224 191 27 224 191 27 224 191 27 224 191 27 224 191 27 224 191 27 224 191 27 224 191 27 224 191 27 224 191 27 224 191 27 224 191 27 224 191 27 224 191 27 224 191 27 224 191 27 224 191 27 224 191 27 224 191 27 224 191 27 224 191 27 224 191 27 224 191 27 224 191 27 224 191 27 224 191 27 224 191 27 224 191 27 224 191 27 224 191 27 224 191 27 224 191 27 224 191 27 224 191 27 224 191 27 224 191 27 224 191 27 224 191 27 224 191 27 224 191 27 224 191 27 224 191 27 224 191 27 224 191 27 224 191 27 224 191 27 224 191 27 224 191 27 224 191 27 243 224 19 243 224 19 243 224 19 243 224 19 243 224 19 243 224 19 244 224 19 244 224 19 244 224 19 244 224 19 244 224 19 244 224 19 244 224 19 245 224 19 245 224 19 245 224 19 245 224 19 245 224 19 245 224 19 245 224 19 246 224 19 246 224 19 246 224 19 246 224 19 246 224 19 246 224 19 247 224 19 247 224 19 247 224 19 247 224 19 247 224 19 247 224 19 247 224 19 248 224 19 248 224 19 248 224 19 32 236 28 32 236 28 32 236 28 33 237 28 33 237 28 33 238 28 33 238 28 33 238 28 33 239 28 34 239 28 34 240 28 34 240 28 34 240 28 34 241 28 34 241 28 35 242 28 35 242 28 35 243 28 35 243 28 35 244 28 35 244 28 36 244 28 36 245 28 36 245 28 36 246 28 36 246 28 36 246 28 37 247 28 37 247 28 37 248 28 37 248 28 37 249 28 37 249 28 38 250 28 38 250 28 38 250 28 38 251 28 38 251 28 38 252 28 39 252 28 39 252 28 39 253 28 39 253 28 39 254 28 40 255 28
0 0 27 0 0 27 0 1 27 0 1 27 0 2 27 0 3 27 0 3 27 1 4 27 1 4 27 1 5 27 1 6 27 1 6 27 1 7 27 2 7 27 2 8 27 2 9 27 2 10 27 2 10 27 2 11 27 3 12 27 3 12 27 3 13 27 3 13 27 3 14 27 3 15 27 4 15 27 4 16 27 4 16 27 4 17 27 4 18 27 5 19 27 5 19 27 5 20 27 5 21 27 5 21 27 5 22 27 5 22 27 6 23 27 6 24 27 6 24 27 6 25 27 6 25 27 6 26 27 7 27 27 7 27 27 7 28 27 226 225 19 226 225 19 227 225 19 227 225 19 227 225 19 227 225 19 227 225 19 227 225 19 227 225 19 227 225 19 228 225 19 228 225 19 228 225 19 228 225 19 228 225 19 228 225 19 229 225 19 229 225 19 229 225 19 229 225 19 229 225 19 229 225 19 229 225 19 230 225 19 230 225 19 230 225 19 230 225 19 230 225 19 230 225 19 230 225 19 231 225 19 231 225 19 231 225 19 231 225 19 231 225 19 231 225 19 231 225 19 224 191 27 224 191 27 224 191 27 224 191 27 224 191 27 224 191 27 224 191 27 224 191 27 224 191 27 224 191 27 224 191 27 224 191 27 224 191 27 224 191 27 224 191 27 224 191 27 224 191 27 224 191 27 224 191 27 224 191 27 224 191 27 224 191 27 224 191 27 224 191 27 224 191 27 224 191 27 224 191 27 224 191 27 224 191 27 224 191 27 224 191 27 224 191 27 224 191 27 224 191 27 224 191 27 224 191 27 224 191 27 224 191 27 224 191 27 224 191 27 224 191 27 224 191 27 224 191 27 224 191 27 224 191 27 224 191 27 224 191 27 224 191 27 224 191 27 224 191 27 224 191 27 224 191 27 224 191 27 224 191 27 224 191 27 224 191 27 224 191 27 224 191 27 224 191 27 224 191 27 224 191 27 224 191 27 224 191 27 224 191 27 224 191 27 224 191 27 224 191 27 224 191 27 224 191 27 224 191 27 224 191 27 224 191 27 224 191 27 224 191 27 224 191 27 243 225 19 243 225 19 243 225 19 243 225 19 243 225 19 243 225 19 243 225 19 244 225 19 244 225 19 244 225 19 244 225 19 244 225 19 244 225 19 244 225 19 245 225 19 245 225 19 245 225 19 245 225 19 245 225 19 245 225 19 245 225 19 246 225 19 246 225 19 246 225 19 246 225 19 246 225 19 246 225 19 247 225 19 247 225 19 247 225 19 247 225 19 247 225 19 247 225 19 247 225 19 248 225 19 248 225 19 248 225 19 32 236 27 32 236 27 32 237 27 33 237 27 33 237 27 33 238 27 33 238 27 33 239 27 33 239 27 34 239 27 34 240 27 34 240 27 34 241 27 34 241 27 34 241 27 35 242 27 35 243 27 35 243 27 35 243 27 35 244 27 35 244 27 36 245 27 36 245 27 36 245 27 36 246 27 36 246 27 36 247 27 37 247 27 37 247 27 37 248 27 37 249 27 37 249 27 37 249 27 38 250 27 38 250 27 38 251 27 38 251 27 38 251 27 38 252 27 39 252 27 39 253 27 39 253 27 39 253 27 39 254 27 40 255 27
0 0 27 0 0 27 0 1 27 0 1 27 0 2 27 0 3 27 0 3 27 1 4 27 1 4 27 1 5 27 1 6 27 1 6 27 1 7 27 2 7 27 2 8 27 2 9 27 2 10 27 2 10 27 2 11 27 3 12 27 3 12 27 3 13 27 3 13 27 3 14 27 3 15 27 4 15 27 4 16 27 4 17 27 4 17 27 4 18 27 5 19 27 5 20 27 5 20 27 5 21 27 5 21 27 5 22 27 5 23 27 6 23 27 6 24 27 6 24 27 6 25 27 6 26 27 6 26 27 7 27 27 7 27 27 7 29 27 226 225 19 226 225 19 227 225 19 227 225 19 227 225 19 227 225 19 227 225 19 227 225 19 227 225 19 227 225 19 228 225 19 228 225 19 228 225 19 228 225 19 228 225 19 228 225 19 229 225 19 229 225 19 229 225 19 229 225 19 229 225 19 229 225 19 229 225 19 230 225 19 230 225 19 230 225 19 230 225 19 230 225 19 230 225 19 230 225 19 231 225 19 231 225 19 231 225 19 231 225 19 231 225 19 231 225 19 231 225 19 224 191 27 224 191 27 224 191 27 224 191 27 224 191 27 224 191 27 224 191 27 224 191 27 224 191 27 224 191 27 224 191 27 224 191 27 224 191 27 224 191 27 224 191 27 224 191 27 224 191 27 224 191 27 224 191 27 224 191 27 224 191 27 224 191 27 224 191 27 224 191 27 224 191 27 224 191 27 224 191 27 224 191 27 224 191 27 224 191 27 224 191 27 224 191 27 224 191 27 224 191 27 224 191 27 224 191 27 224 191 27 224 191 27 224 191 27 224 191 27 224 191 27 224 191 27 224 191 27 224 191 27 224 191 27 224 191 27 224 191 27 224 191 27 224 191 27 224 191 27 224 191 27 224 191 27 224 191 27 224 191 27 224 191 27 224 191 27 224 191 27 224 191 27 224 191 27 224 191 27 224 191 27 224 191 27 224 191 27 224 191 27 224 191 27 224 191 27 224 191 27 224 191 27 224 191 27 224 191 27 224 191 27 224 191 27 224 191 27 224 191 27 224 191 27 243 225 19 243 225 19 243 225 19 243 225 19 243 225 19 243 225 19 243 225 19 244 225 19 244 225 19 244 225 19 244 225 19 244 225 19 244 225 19 244 225 19 245 225 19 245 225 19 245 225 19 245 225 19 245 225 19 245 225 19 245 225 19 246 225 19 246 225 19 246 225 19 246 225 19 246 225 19 246 225 19 247 225 19 247 225 19 247 225 19 247 225 19 247 225 19 247 225 19 247 225 19 248 225 19 248 225 19 248 225 19 32 236 27 32 236 27 32 237 27 33 237 27 33 238 27 33 238 27 33 238 27 33 239 27 33 239 27 34 240 27 34 240 27 34 240 27 34 241 27 34 241 27 34 242 27 35 242 27 35 243 27 35 243 27 35 244 27 35 244 27 35 244 27 36 245 27 36 245 27 36 245 27 36 246 27 36 246 27 36 247 27 37 247 27 37 247 27 37 248 27 37 249 27 37 249 27 37 249 27 38 250 27 38 250 27 38 251 27 38 251 27 38 251 27 38 252 27 39 252 27 39 253 27 39 253 27 39 253 27 39 254 27 40 255 27
0 0 26 0 0 26 0 1 26 0 1 26 0 2 26 0 3 26 0 3 26 1 4 26 1 4 26 1 5 26 1 6 26 1 6 26 1 7 26 2 7 26 2 8 26 2 9 26 2 10 26 2 11 26 2 11 26 3 12 26 3 12 26 3 13 26 3 14 26 3 14 26 3 15 26 4 15 26 4 16 26 4 17 26 4 17 26 4 18 26 5 19 26 5 20 26 5 20 26 5 21 26 5 22 26 5 22 26 5 23 26 6 23 26 6 24 26 6 25 26 6 25 26 6 26 26 6 26 26 7 27 26 7 28 26 7 29 26 226 225 19 226 225 19 227 225 19 227 225 19 227 225 19 227 225 19 227 225 19 227 225 19 227 225 19 227 225 19 228 225 19 228 225 19 228 225 19 228 225 19 228 225 19 228 225 19 229 225 19 229 225 19 229 225 19 229 225 19 229 225 19 229 225 19 229 225 19 230 225 19 230 225 19 230 225 19 230 225 19 230 225 19 230 225 19 230 225 19 231 225 19 231 225 19 231 225 19 231 225 19 231 225 19 231 225 19 231 225 19 232 225 19 224 191 27 224 191 27 224 191 27 224 191 27 224 191 27 224 191 27 224 191 27 224 191 27 224 191 27 224 191 27 224 191 27 224 191 27 224 191 27 224 191 27 224 191 27 224 191 27 224 191 27 224 191 27 224 191 27 224 191 27 224 191 27 224 191 27 224 191 27 224 191 27 224 191 27 224 191 27 224 191 27 224 191 27 224 191 27 224 191 27 224 191 27 224 191 27 224 191 27 224 191 27 224 191 27 224 191 27 224 191 27 224 191 27 224 191 27 224 191 27 224 191 27 224 191 27 224 191 27 224 191 27 224 191 27 224 191 27 224 191 27 224 191 27 224 191 27 224 191 27 224 191 27 224 191 27 224 191 27 224 191 27 224 191 27 224 191 27 224 191 27 224 191 27 224 191 27 224 191 27 224 191 27 224 191 27 224 191 27 224 191 27 224 191 27 224 191 27 224 191 27 224 191 27 224 191 27 224 191 27 224 191 27 224 191 27 224 191 27 242 225 19 243 225 19 243 225 19 243 225 19 243 225 19 243 225 19 243 225 19 243 225 19 244 225 19 244 225 19 244 225 19 244 225 19 244 225 19 244 225 19 244 225 19 245 225 19 245 225 19 245 225 19 245 225 19 245 225 19 245 225 19 245 225 19 246 225 19 246 225 19 246 225 19 246 225 19 246 225 19 246 225 19 247 225 19 247 225 19 247 225 19 247 225 19 247 225 19 247 225 19 247 225 19 248 225 19 248 225 19 248 225 19 32 236 26 32 237 26 32 237 26 33 237 26 33 238 26 33 238 26 33 239 26 33 239 26 33 239 26 34 240 26 34 240 26 34 241 26 34 241 26 34 241 26 34 242 26 35 242 26 35 243 26 35 243 26 35 244 26 35 244 26 35 244 26 36 245 26 36 245 26 36 246 26 36 246 26 36 246 26 36 247 26 37 247 26 37 248 26 37 248 26 37 249 26 37 249 26 37 249 26 38 250 26 38 250 26 38 251 26 38 251 26 38 251 26 38 252 26 39 252 26 39 253 26 39 253 26 39 253 26 39 254 26 40 255 26
0 0 26 0 0 26 0 1 26 0 1 26 0 2 26 0 3 26 0 3 26 1 4 26 1 4 26 1 5 26 1 6 26 1 6 26 1 7 26 2 8 26 2 8 26 2 9 26 2 10 26 2 11 26 2 11 26 3 12 26 3 13 26 3 13 26 3 14 26 3 14 26 3 15 26 4 16 26 4 16 26 4 17 26 4 17 26 4 18 26 5 19 26 5 20 26 5 21 26 5 21 26 5 22 26 5 22 26 5 23 26 6 24 26 6 24 26 6 25 26 6 26 26 6 26 26 6 27 26 7 27 26 7 28 26 7 29 26 226 226 19 226 226 19 227 226 19 227 226 19 227 226 19 227 226 19 227 226 19 227 226 19 227 226 19 227 226 19 228 226 19 228 226 19 228 226 19 228 226 19 228 226 19 228 226 19 229 226 19 229 226 19 229 226 19 229 226 19 229 226 19 229 226 19 229 226 19 230 226 19 230 226 19 230 226 19 230 226 19 230 226 19 230 226 19 230 226 19 231 226 19 231 226 19 231 226 19 231 226 19 231 226 19 231 226 19 231 226 19 232 226 19 224 191 27 224 191 27 224 191 27 224 191 27 224 191 27 224 191 27 224 191 27 224 191 27 224 191 27 224 191 27 224 191 27 224 191 27 224 191 27 224 191 27 224 191 27 224 191 27 224 191 27 224 191 27 224 191 27 224 191 27 224 191 27 224 191 27 224 191 27 224 191 27 224 191 27 224 191 27 224 191 27 224 191 27 224 191 27 224 191 27 224 191 27 224 191 27 224 191 27 224 191 27 224 191 27 224 191 27 224 191 27 224 191 27 224 191 27 224 191 27 224 191 27 224 191 27 224 191 27 224 191 27 224 191 27 224 191 27 224 191 27 224 191 27 224 191 27 224 191 27 224 191 27 224 191 27 224 191 27 224 191 27 224 191 27 224 191 27 224 191 27 224 191 27 224 191 27 224 191 27 224 191 27 224 191 27 224 191 27 224 191 27 224 191 27 224 191 27 224 191 27 224 191 27 224 191 27 224 191 27 224 191 27 224 191 27 224 191 27 242 226 19 243 226 19 243 226 19 243 226 19 243 226 19 243 226 19 243 226 19 243 226 19 244 226 19 244 226 19 244 226 19 244 226 19 244 226 19 244 226 19 244 226 19 245 226 19 245 226 19 245 226 19 245 226 19 245 226 19 245 226 19 245 226 19 246 226 19 246 226 19 246 226 19 246 226 19 246 226 19 246 226 19 247 226 19 247 226 19 247 226 19 247 226 19 247 226 19 247 226 19 247 226 19 248 226 19 248 226 19 248 226 19 32 237 26 32 237 26 32 237 26 33 238 26 33 238 26 33 239 26 33 239 26 33 239 26 33 240 26 34 240 26 34 240 26 34 241 26 34 241 26 34 242 26 34 242 26 35 243 26 35 243 26 35 243 26 35 244 26 35 244 26 35 245 26 36 245 26 36 245 26 36 246 26 36 246 26 36 247 26 36 247 26 37 247 26 37 248 26 37 248 26 37 249 26 37 249 26 37 250 26 38 250 26 38 250 26 38 251 26 38 251 26 38 251 26 38 252 26 39 252 26 39 253 26 39 253 26 39 253 26 39 254 26 40 255 26
0 0 26 0 0 26 0 1 26 0 1 26 0 2 26 0 3 26 0 3 26 1 4 26 1 4 26 1 5 26 1 6 26 1 6 26 1 7 26 2 8 26 2 8 26 2 9 26 2 10 26 2 11 26 2 11 26 3 12 26 3 13 26 3 13 26 3 14 26 3 14 26 3 15 26 4 16 26 4 16 26 4 17 26 4 18 26 4 18 26 5 19 26 5 20 26 5 21 26 5 21 26 5 22 26 5 23 26 5 23 26 6 24 26 6 24 26 6 25 26 6 26 26 6 26 26 6 27 26 7 28 26 7 28 26 7 29 26 226 226 19 226 226 19 227 226 19 227 226 19 227 226 19 227 226 19 227 226 19 227 226 19 227 226 19 227 226 19 228 226 19 228 226 19 228 226 19 228 226 19 228 226 19 228 226 19 229 226 19 229 226 19 229 226 19 229 226 19 229 226 19 229 226 19 229 226 19 230 226 19 230 226 19 230 226 19 230 226 19 230 226 19 230 226 19 230 226 19 231 226 19 231 226 19 231 226 19 231 226 19 231 226 19 231 226 19 231 226 19 232 226 19 232 226 19 224 191 27 224 191 27 224 191 27 224 191 27 224 191 27 224 191 27 224 191 27 224 191 27 224 191 27 224 191 27 224 191 27 224 191 27 224 191 27 224 191 27 224 191 27 224 191 27 224 191 27 224 191 27 224 191 27 224 191 27 224 191 27 224 191 27 224 191 27 224 191 27 224 191 27 224 191 27 224 191 27 224 191 27 224 191 27 224 191 27 224 191 27 224 191 27 224 191 27 224 191 27 224 191 27 224 191 27 224 191 27 224 191 27 224 191 27 224 191 27 224 191 27 224 191 27 224 191 27 224 191 27 224 191 27 224 191 27 224 191 27 224 191 27 224 191 27 224 191 27 224 191 27 224 191 27 224 191 27 224 191 27 224 191 27 224 191 27 224 191 27 224 191 27 224 191 27 224 191 27 224 191 27 224 191 27 224 191 27 224 191 27 224 191 27 224 191 27 224 191 27 224 191 27 224 191 27 224 191 27 224 191 27 242 226 19 242 226 19 243 226 19 243 226 19 243 226 19 243 226 19 243 226 19 243 226 19 243 226 19 244 226 19 244 226 19 244 226 19 244 226 19 244 226 19 244 226 19 244 226 19 245 226 19 245 226 19 245 226 19 245 226 19 245 226 19 245 226 19 245 226 19 246 226 19 246 226 19 246 226 19 246 226 19 246 226 19 246 226 19 247 226 19 247 226 19 247 226 19 247 226 19 247 226 19 247 226 19 247 226 19 248 226 19 248 226 19 248 226 19 32 237 26 32 237 26 32 238 26 33 238 26 33 238 26 33 239 26 33 239 26 33 239 26 33 240 26 34 240 26 34 241 26 34 241 26 34 241 26 34 242 26 34 242 26 35 243 26 35 243 26 35 244 26 35 244 26 35 244 26 35 245 26 36 245 26 36 245 26 36 246 26 36 246 26 36 247 26 36 247 26 37 247 26 37 248 26 37 248 26 37 249 26 37 249 26 37 250 26 38 250 26 38 250 26 38 251 26 38 251 26 38 251 26 38 252 26 39 252 26 39 253 26 39 253 26 39 253 26 39 254 26 40 255 26
0 0 25 0 0 25 0 1 25 0 1 25 0 2 25 0 3 25 0 3 25 1 4 25 1 5 25 1 5 25 1 6 25 1 6 25 1 7 25 2 8 25 2 8 25 2 10 25 2 10 25 2 11 25 2 11 25 3 12 25 3 13 25 3 13 25 3 14 25 3 15 25 3 15 25 4 16 25 4 16 25 4 17 25 4 18 25 4 18 25 5 20 25 5 20 25 5 21 25 5 21 25 5 22 25 5 23 25 5 23 25 6 24 25 6 25 25 6 25 25 6 26 25 6 26 25 6 27 25 7 28 25 7 28 25 7 30 25 226 227 19 226 227 19 227 227 19 227 227 19 227 227 19 227 227 19 227 227 19 227 227 19 227 227 19 227 227 19 228 227 19 228 227 19 228 227 19 228 227 19 228 227 19 228 227 19 229 227 19 229 227 19 229 227 19 229 227 19 229 227 19 229 227 19 229 227 19 230 227 19 230 227 19 230 227 19 230 227 19 230 227 19 230 227 19 230 227 19 231 227 19 231 227 19 231 227 19 231 227 19 231 227 19 231 227 19 231 227 19 232 227 19 232 227 19 224 191 27 224 191 27 224 191 27 224 191 27 224 191 27 224 191 27 224 191 27 224 191 27 224 191 27 224 191 27 224 191 27 224 191 27 224 191 27 224 191 27 224 191 27 224 191 27 224 191 27 224 191 27 224 191 27 224 191 27 224 191 27 224 191 27 224 191 27 224 191 27 224 191 27 224 191 27 224 191 27 224 191 27 224 191 27 224 191 27 224 191 27 224 191 27 224 191 27 224 191 27 224 191 27 224 191 27 224 191 27 224 191 27 224 191 27 224 191 27 224 191 27 224 191 27 224 191 27 224 191 27 224 191 27 224 191 27 224 191 27 224 191 27 224 191 27 224 191 27 224 191 27 224 191 27 224 191 27 224 191 27 224 191 27 224 191 27 224 191 27 224 191 27 224 191 27 224 191 27 224 191 27 224 191 27 224 191 27 224 191 27 224 191 27 224 191 27 224 191 27 224 191 27 224 191 27 224 191 27 224 191 27 242 227 19 242 227 19 243 227 19 243 227 19 243 227 19 243 227 19 243 227 19 243 227 19 243 227 19 244 227 19 244 227 19 244 227 19 244 227 19 244 227 19 244 227 19 244 227 19 245 227 19 245 227 19 245 227 19 245 227 19 245 227 19 245 227 19 245 227 19 246 227 19 246 227 19 246 227 19 246 227 19 246 227 19 246 227 19 247 227 19 247 227 19 247 227 19 247 227 19 247 227 19 247 227 19 247 227 19 248 227 19 248 227 19 248 227 19 32 237 25 32 237 25 32 238 25 33 238 25 33 238 25 33 239 25 33 239 25 33 240 25 33 240 25 34 240 25 34 241 25 34 241 25 34 241 25 34 242 25 34 242 25 35 243 25 35 243 25 35 244 25 35 244 25 35 244 25 35 245 25 36 245 25 36 246 25 36 246 25 36 246 25 36 247 25 36 247 25 37 247 25 37 248 25 37 248 25 37 249 25 37 249 25 37 250 25 38 250 25 38 250 25 38 251 25 38 251 25 38 252 25 38 252 25 39 252 25 39 253 25 39 253 25 39 253 25 39 254 25 40 255 25
0 0 25 0 0 25 0 1 25 0 1 25 0 2 25 0 3 25 0 3 25 1 4 25 1 5 25 1 5 25 1 6 25 1 6 25 1 7 25 2 8 25 2 8 25 2 10 25 2 10 25 2 11 25 2 12 25 3 12 25 3 13 25 3 13 25 3 14 25 3 15 25 3 15 25 4 16 25 4 17 25 4 17 25 4 18 25 4 19 25 5 20 25 5 20 25 5 21 25 5 22 25 5 22 25 5 23 25 5 24 25 6 24 25 6 25 25 6 26 25 6 26 25 6 27 25 6 27 25 7 28 25 7 29 25 7 30 25 226 227 19 226 227 19 227 227 19 227 227 19 227 227 19 227 227 19 227 227 19 227 227 19 227 227 19 227 227 19 228 227 19 228 227 19 228 227 19 228 227 19 228 227 19 228 227 19 229 227 19 229 227 19 229 227 19 229 227 19 229 227 19 229 227 19 229 227 19 230 227 19 230 227 19 230 227 19 230 227 19 230 227 19 230 227 19 230 227 19 231 227 19 231 227 19 231 227 19 231 227 19 231 227 19 231 227 19 231 227 19 232 227 19 232 227 19 232 227 19 224 191 27 224 191 27 224 191 27 224 191 27 224 191 27 224 191 27 224 191 27 224 191 27 224 191 27 224 191 27 224 191 27 224 191 27 224 191 27 224 191 27 224 191 27 224 191 27 224 191 27 224 191 27 224 191 27 224 191 27 224 191 27 224 191 27 224 191 27 224 191 27 224 191 27 224 191 27 224 191 27 224 191 27 224 191 27 224 191 27 224 191 27 224 191 27 224 191 27 224 191 27 224 191 27 224 191 27 224 191 27 224 191 27 224 191 27 224 191 27 224 191 27 224 191 27 224 191 27 224 191 27 224 191 27 224 191 27 224 191 27 224 191 27 224 191 27 224 191 27 224 191 27 224 191 27 224 191 27 224 191 27 224 191 27 224 191 27 224 191 27 224 191 27 224 191 27 224 191 27 224 191 27 224 191 27 224 191 27 224 191 27 224 191 27 224 191 27 224 191 27 224 191 27 224 191 27 242 227 19 242 227 19 242 227 19 243 227 19 243 227 19 243 227 19 243 227 19 243 227 19 243 227 19 243 227 19 244 227 19 244 227 19 244 227 19 244 227 19 244 227 19 244 227 19 244 227 19 245 227 19 245 227 19 245 227 19 245 227 19 245 227 19 245 227 19 245 227 19 246 227 19 246 227 19 246 227 19 246 227 19 246 227 19 246 227 19 247 227 19 247 227 19 247 227 19 247 227 19 247 227 19 247 227 19 247 227 19 248 227 19 248 227 19 248 227 19 32 237 25 32 238 25 32 238 25 33 238 25 33 239 25 33 239 25 33 240 25 33 240 25 33 240 25 34 241 25 34 241 25 34 241 25 34 242 25 34 242 25 34 242 25 35 243 25 35 244 25 35 244 25 35 244 25 35 245 25 35 245 25 36 245 25 36 246 25 36 246 25 36 246 25 36 247 25 36 247 25 37 248 25 37 248 25 37 248 25 37 249 25 37 249 25 37 250 25 38 250 25 38 250 25 38 251 25 38 251 25 38 252 25 38 252 25 39 252 25 39 253 25 39 253 25 39 253 25 39 254 25 40 255 25
0 0 24 0 0 24 0 1 24 0 1 24 0 2 24 0 3 24 0 3 24 1 4 24 1 5 24 1 5 24 1 6 24 1 7 24 1 7 24 2 8 24 2 8 24 2 10 24 2 10 24 2 11 24 2 12 24 3 12 24 3 13 24 3 14 24 3 14 24 3 15 24 3 15 24 4 16 24 4 17 24 4 17 24 4 18 24 4 19 24 5 20 24 5 21 24 5 21 24 5 22 24 5 23 24 5 23 24 5 24 24 6 24 24 6 25 24 6 26 24 6 26 24 6 27 24 6 28 24 7 28 24 7 29 24 7 30 24 226 227 19 226 227 19 227 227 19 227 227 19 227 227 19 227 227 19 227 227 19 227 227 19 227 227 19 227 227 19 228 227 19 228 227 19 228 227 19 228 227 19 228 227 19 228 227 19 229 227 19 229 227 19 229 227 19 229 227 19 229 227 19 229 227 19 229 227 19 230 227 19 230 227 19 230 227 19 230 227 19 230 227 19 230 227 19 230 227 19 231 227 19 231 227 19 231 227 19 231 227 19 231 227 19 231 227 19 231 227 19 232 227 19 232 227 19 232 227 19 232 227 19 224 191 27 224 191 27 224 191 27 224 191 27 224 191 27 224 191 27 224 191 27 224 191 27 224 191 27 224 191 27 224 191 27 224 191 27 224 191 27 224 191 27 224 191 27 224 191 27 224 191 27 224 191 27 224 191 27 224 191 27 224 191 27 224 191 27 224 191 27 224 191 27 224 191 27 224 191 27 224 191 27 224 191 27 224 191 27 224 191 27 224 191 27 224 191 27 224 191 27 224 191 27 224 191 27 224 191 27 224 191 27 224 191 27 224 191 27 224 191 27 224 191 27 224 191 27 224 191 27 224 191 27 224 191 27 224 191 27 224 191 27 224 191 27 224 191 27 224 191 27 224 191 27 224 191 27 224 191 27 224 191 27 224 191 27 224 191 27 224 191 27 224 191 27 224 191 27 224 191 27 224 191 27 224 191 27 224 191 27 224 191 27 224 191 27 224 191 27 224 191 27 242 227 19 242 227 19 242 227 19 242 227 19 243 227 19 243 227 19 243 227 19 243 227 19 243 227 19 243 227 19 243 227 19 244 227 19 244 227 19 244 227 19 244 227 19 244 227 19 244 227 19 244 227 19 245 227 19 245 227 19 245 227 19 245 227 19 245 227 19 245 227 19 245 227 19 246 227 19 246 227 19 246 227 19 246 227 19 246 227 19 246 227 19 247 227 19 247 227 19 247 227 19 247 227 19 247 227 19 247 227 19 247 227 19 248 227 19 248 227 19 248 227 19 32 238 24 32 238 24 32 238 24 33 239 24 33 239 24 33 239 24 33 240 24 33 240 24 33 240 24 34 241 24 34 241 24 34 242 24 34 242 24 34 242 24 34 243 24 35 243 24 35 244 24 35 244 24 35 244 24 35 245 24 35 245 24 36 245 24 36 246 24 36 246 24 36 247 24 36 247 24 36 247 24 37 248 24 37 248 24 37 248 24 37 249 24 37 249 24 37 250 24 38 250 24 38 251 24 38 251 24 38 251 24 38 252 24 38 252 24 39 252 24 39 253 24 39 253 24 39 253 24 39 254 24 40 255 24
0 0 24 0 0 24 0 1 24 0 1 24 0 2 24 0 3 24 0 3 24 1 4 24 1 5 24 1 5 24 1 6 24 1 7 24 1 7 24 2 8 24 2 9 24 2 10 24 2 11 24 2 11 24 2 12 24 3 12 24 3 13 24 3 14 24 3 14 24 3 15 24 3 16 24 4 16 24 4 17 24 4 18 24 4 18 24 4 19 24 5 20 24 5 21 24 5 22 24 5 22 24 5 23 24 5 23 24 5 24 24 6 25 24 6 25 24 6 26 24 6 27 24 6 27 24 6 28 24 7 29 24 7 29 24 7 31 24 226 228 19 226 228 19 227 228 19 227 228 19 227 228 19 227 228 19 227 228 19 227 228 19 227 228 19 227 228 19 228 228 19 228 228 19 228 228 19 228 228 19 228 228 19 228 228 19 229 228 19 229 228 19 229 228 19 229 228 19 229 228 19 229 228 19 229 228 19 230 228 19 230 228 19 230 228 19 230 228 19 230 228 19 230 228 19 230 228 19 231 228 19 231 228 19 231 228 19 231 228 19 231 228 19 231 228 19 231 228 19 232 228 19 232 228 19 232 228 19 232 228 19 232 228 19 224 191 27 224 191 27 224 191 27 224 191 27 224 191 27 224 191 27 224 191 27 224 191 27 224 191 27 224 191 27 224 191 27 224 191 27 224 191 27 224 191 27 224 191 27 224 191 27 224 191 27 224 191 27 224 191 27 224 191 27 224 191 27 224 191 27 224 191 27 224 191 27 224 191 27 224 191 27 224 191 27 224 191 27 224 191 27 224 191 27 224 191 27 224 191 27 224 191 27 224 191 27 224 191 27 224 191 27 224 191 27 224 191 27 224 191 27 224 191 27 224 191 27 224 191 27 224 191 27 224 191 27 224 191 27 224 191 27 224 191 27 224 191 27 224 191 27 224 191 27 224 191 27 224 191 27 224 191 27 224 191 27 224 191 27 224 191 27 224 191 27 224 191 27 224 191 27 224 191 27 224 191 27 224 191 27 224 191 27 224 191 27 224 191 27 242 228 19 242 228 19 242 228 19 242 228 19 242 228 19 243 228 19 243 228 19 243 228 19 243 228 19 243 228 19 243 228 19 243 228 19 244 228 19 244 228 19 244 228 19 244 228 19 244 228 19 244 228 19 244 228 19 245 228 19 245 228 19 245 228 19 245 228 19 245 228 19 245 228 19 245 228 19 246 228 19 246 228 19 246 228 19 246 228 19 246 228 19 246 228 19 247 228 19 247 228 19 247 228 19 247 228 19 247 228 19 247 228 19 247 228 19 248 228 19 248 228 19 248 228 19 32 238 24 32 238 24 32 239 24 33 239 24 33 239 24 33 240 24 33 240 24 33 240 24 33 241 24 34 241 24 34 241 24 34 242 24 34 242 24 34 243 24 34 243 24 35 244 24 35 244 24 35 244 24 35 245 24 35 245 24 35 245 24 36 246 24 36 246 24 36 246 24 36 247 24 36 247 24 36 247 24 37 248 24 37 248 24 37 249 24 37 249 24 37 250 24 37 250 24 38 250 24 38 251 24 38 251 24 38 251 24 38 252 24 38 252 24 39 252 24 39 253 24 39 253 24 39 253 24 39 254 24 40 255 24
0 0 24 0 0 24 0 1 24 0 1 24 0 2 24 0 3 24 0 3 24 1 4 24 1 5 24 1 5 24 1 6 24 1 7 24 1 7 24 2 8 24 2 9 24 2 10 24 2 11 24 2 11 24 2 12 24 3 13 24 3 13 24 3 14 24 3 14 24 3 15 24 3 16 24 4 16 24 4 17 24 4 18 24 4 18 24 4 19 24 5 20 24 5 21 24 5 22 24 5 22 24 5 23 24 5 24 24 5 24 24 6 25 24 6 26 24 6 26 24 6 27 24 6 27 24 6 28 24 7 29 24 7 29 24 7 31 24 226 228 19 226 228 19 227 228 19 227 228 19 227 228 19 227 228 19 227 228 19 227 228 19 227 228 19 227 228 19 228 228 19 228 228 19 228 228 19 228 228 19 228 228 19 228 228 19 229 228 19 229 228 19 229 228 19 229 228 19 229 228 19 229 228 19 229 228 19 230 228 19 230 228 19 230 228 19 230 228 19 230 228 19 230 228 19 230 228 19 231 228 19 231 228 19 231 228 19 231 228 19 231 228 19 231 228 19 231 228 19 232 228 19 232 228 19 232 228 19 232 228 19 232 228 19 224 191 27 224 191 27 224 191 27 224 191 27 224 191 27 224 191 27 224 191 27 224 191 27 224 191 27 224 191 27 224 191 27 224 191 27 224 191 27 224 191 27 224 191 27 224 191 27 224 191 27 224 191 27 224 191 27 224 191 27 224 191 27 224 191 27 224 191 27 224 191 27 224 191 27 224 191 27 224 191 27 224 191 27 224 191 27 224 191 27 224 191 27 224 191 27 224 191 27 224 191 27 224 191 27 224 191 27 224 191 27 224 191 27 224 191 27 224 191 27 224 191 27 224 191 27 224 191 27 224 191 27 224 191 27 224 191 27 224 191 27 224 191 27 224 191 27 224 191 27 224 191 27 224 191 27 224 191 27 224 191 27 224 191 27 224 191 27 224 191 27 224 191 27 224 191 27 224 191 27 224 191 27 224 191 27 224 191 27 224 191 27 224 191 27 242 228 19 242 228 19 242 228 19 242 228 19 242 228 19 243 228 19 243 228 19 243 228 19 243 228 19 243 228 19 243 228 19 243 228 19 244 228 19 244 228 19 244 228 19 244 228 19 244 228 19 244 228 19 244 228 19 245 228 19 245 228 19 245 228 19 245 228 19 245 228 19 245 228 19 245 228 19 246 228 19 246 228 19 246 228 19 246 228 19 246 228 19 246 228 19 247 228 19 247 228 19 247 228 19 247 228 19 247 228 19 247 228 19 247 228 19 248 228 19 248 228 19 248 228 19 32 238 24 32 238 24 32 239 24 33 239 24 33 239 24 33 240 24 33 240 24 33 241 24 33 241 24 34 241 24 34 242 24 34 242 24 34 242 24 34 243 24 34 243 24 35 244 24 35 244 24 35 244 24 35 245 24 35 245 24 35 245 24 36 246 24 36 246 24 36 246 24 36 247 24 36 247 24 36 248 24 37 248 24 37 248 24 37 249 24 37 249 24 37 250 24 37 250 24 38 250 24 38 251 24 38 251 24 38 251 24 38 252 24 38 252 24 39 252 24 39 253 24 39 253 24 39 253 24 39 254 24 40 255 24
0 0 23 0 0 23 0 1 23 0 1 23 0 2 23 0 3 23 0 3 23 1 4 23 1 5 23 1 5 23 1 6 23 1 7 23 1 7 23 2 8 23 2 9 23 2 10 23 2 11 23 2 11 23 2 12 23 3 13 23 3 13 23 3 14 23 3 15 23 3 15 23 3 16 23 4 17 23 4 17 23 4 18 23 4 19 23 4 19 23 5 21 23 5 21 23 5 22 23 5 23 23 5 23 23 5 24 23 5 25 23 6 25 23 6 26 23 6 27 23 6 27 23 6 28 23 6 28 23 7 29 23 7 30 23 7 31 23 226 229 19 226 229 19 227 229 19 227 229 19 227 229 19 227 229 19 227 229 19 227 229 19 227 229 19 227 229 19 228 229 19 228 229 19 228 229 19 228 229 19 228 229 19 228 229 19 229 229 19 229 229 19 229 229 19 229 229 19 229 229 19 229 229 19 229 229 19 230 229 19 230 229 19 230 229 19 230 229 19 230 229 19 230 229 19 230 229 19 231 229 19 231 229 19 231 229 19 231 229 19 231 229 19 231 229 19 231 229 19 232 229 19 232 229 19 232 229 19 232 229 19 232 229 19 232 229 19 224 191 27 224 191 27 224 191 27 224 191 27 224 191 27 224 191 27 224 191 27 224 191 27 224 191 27 224 191 27 224 191 27 224 191 27 224 191 27 224 191 27 224 191 27 224 191 27 224 191 27 224 191 27 224 191 27 224 191 27 224 191 27 224 191 27 224 191 27 224 191 27 224 191 27 224 191 27 224 191 27 224 191 27 224 191 27 224 191 27 224 191 27 224 191 27 224 191 27 224 191 27 224 191 27 224 191 27 224 191 27 224 191 27 224 191 27 224 191 27 224 191 27 224 191 27 224 191 27 224 191 27 224 191 27 224 191 27 224 191 27 224 191 27 224 191 27 224 191 27 224 191 27 224 191 27 224 191 27 224 191 27 224 191 27 224 191 27 224 191 27 224 191 27 224 191 27 224 191 27 224 191 27 224 191 27 224 191 27 242 229 19 242 229 19 242 229 19 242 229 19 242 229 19 242 229 19 243 229 19 243 229 19 243 229 19 243 229 19 243 229 19 243 229 19 243 229 19 244 229 19 244 229 19 244 229 19 244 229 19 244 229 19 244 229 19 244 229 19 245 229 19 245 229 19 245 229 19 245 229 19 245 229 19 245 229 19 245 229 19 246 229 19 246 229 19 246 229 19 246 229 19 246 229 19 246 229 19 247 229 19 247 229 19 247 229 19 247 229 19 247 229 19 247 229 19 247 229 19 248 229 19 248 229 19 248 229 19 32 238 23 32 239 23 32 239 23 33 239 23 33 240 23 33 240 23 33 241 23 33 241 23 33 241 23 34 242 23 34 242 23 34 242 23 34 243 23 34 243 23 34 243 23 35 244 23 35 244 23 35 245 23 35 245 23 35 245 23 35 246 23 36 246 23 36 246 23 36 247 23 36 247 23 36 247 23 36 248 23 37 248 23 37 248 23 37 249 23 37 249 23 37 250 23 37 250 23 38 250 23 38 251 23 38 251 23 38 251 23 38 252 23 38 252 23 39 252 23 39 253 23 39 253 23 39 253 23 39 254 23 40 255 23
0 0 23 0 0 23 0 1 23 0 1 23 0 2 23 0 3 23 0 3 23 1 4 23 1 5 23 1 5 23 1 6 23 1 7 23 1 7 23 2 8 23 2 9 23 2 10 23 2 11 23 2 11 23 2 12 23 3 13 23 3 13 23 3 14 23 3 15 23 3 15 23 3 16 23 4 17 23 4 17 23 4 18 23 4 19 23 4 19 23 5 21 23 5 21 23 5 22 23 5 23 23 5 23 23 5 24 23 5 25 23 6 25 23 6 26 23 6 27 23 6 27 23 6 28 23 6 29 23 7 29 23 7 30 23 7 31 23 226 229 19 226 229 19 227 229 19 227 229 19 227 229 19 227 229 19 227 229 19 227 229 19 227 229 19 227 229 19 228 229 19 228 229 19 228 229 19 228 229 19 228 229 19 228 229 19 229 229 19 229 229 19 229 229 19 229 229 19 229 229 19 229 229 19 229 229 19 230 229 19 230 229 19 230 229 19 230 229 19 230 229 19 230 229 19 230 229 19 231 229 19 231 229 19 231 229 19 231 229 19 231 229 19 231 229 19 231 229 19 232 229 19 232 229 19 232 229 19 232 229 19 232 229 19 232 229 19 232 229 19 224 191 27 224 191 27 224 191 27 224 191 27 224 191 27 224 191 27 224 191 27 224 191 27 224 191 27 224 191 27 224 191 27 224 191 27 224 191 27 224 191 27 224 191 27 224 191 27 224 191 27 224 191 27 224 191 27 224 191 27 224 191 27 224 191 27 224 191 27 224 191 27 224 191 27 224 191 27 224 191 27 224 191 27 224 191 27 224 191 27 224 191 27 224 191 27 224 191 27 224 191 27 224 191 27 224 191 27 224 191 27 224 191 27 224 191 27 224 191 27 224 191 27 224 191 27 224 191 27 224 191 27 224 191 27 224 191 27 224 191 27 224 191 27 224 191 27 224 191 27 224 191 27 224 191 27 224 191 27 224 191 27 224 191 27 224 191 27 224 191 27 224 191 27 224 191 27 224 191 27 224 191 27 242 229 19 242 229 19 242 229 19 242 229 19 242 229 19 242 229 19 242 229 19 243 229 19 243 229 19 243 229 19 243 229 19 243 229 19 243 229 19 243 229 19 244 229 19 244 229 19 244 229 19 244 229 19 244 229 19 244 229 19 244 229 19 245 229 19 245 229 19 245 229 19 245 229 19 245 229 19 245 229 19 245 229 19 246 229 19 246 229 19 246 229 19 246 229 19 246 229 19 246 229 19 247 229 19 247 229 19 247 229 19 247 229 19 247 229 19 247 229 19 247 229 19 248 229 19 248 229 19 248 229 19 32 239 23 32 239 23 32 239 23 33 240 23 33 240 23 33 240 23 33 241 23 33 241 23 33 241 23 34 242 23 34 242 23 34 242 23 34 243 23 34 243 23 34 243 23 35 244 23 35 244 23 35 245 23 35 245 23 35 245 23 35 246 23 36 246 23 36 246 23 36 247 23 36 247 23 36 247 23 36 248 23 37 248 23 37 248 23 37 249 23 37 249 23 37 250 23 37 250 23 38 250 23 38 251 23 38 251 23 38 251 23 38 252 23 38 252 23 39 252 23 39 253 23 39 253 23 39 253 23 39 254 23 40 255 23
0 0 23 0 0 23 0 1 23 0 2 23 0 2 23 0 3 23 0 4 23 1 4 23 1 5 23 1 6 23 1 6 23 1 7 23 1 8 23 2 8 23 2 9 23 2 10 23 2 11 23 2 12 23 2 12 23 3 13 23 3 14 23 3 14 23 3 15 23 3 16 23 3 16 23 4 17 23 4 18 23 4 18 23 4 19 23 4 20 23 5 21 23 5 22 23 5 22 23 5 23 23 5 24 23 5 24 23 5 25 23 6 26 23 6 26 23 6 27 23 6 28 23 6 28 23 6 29 23 7 30 23 7 30 23 7 32 23 226 230 19 226 230 19 227 230 19 227 230 19 227 230 19 227 230 19 227 230 19 227 230 19 227 230 19 227 230 19 228 230 19 228 230 19 228 230 19 228 230 19 228 230 19 228 230 19 229 230 19 229 230 19 229 230 19 229 230 19 229 230 19 229 230 19 229 230 19 230 230 19 230 230 19 230 230 19 230 230 19 230 230 19 230 230 19 230 230 19 231 230 19 231 230 19 231 230 19 231 230 19 231 230 19 231 230 19 231 230 19 232 230 19 232 230 19 232 230 19 232 230 19 232 230 19 232 230 19 232 230 19 233 230 19 224 191 27 224 191 27 224 191 27 224 191 27 224 191 27 224 191 27 224 191 27 224 191 27 224 191 27 224 191 27 224 191 27 224 191 27 224 191 27 224 191 27 224 191 27 224 191 27 224 191 27 224 191 27 224 191 27 224 191 27 224 191 27 224 191 27 224 191 27 224 191 27 224 191 27 224 191 27 224 191 27 224 191 27 224 191 27 224 191 27 224 191 27 224 191 27 224 191 27 224 191 27 224 191 27 224 191 27 224 191 27 224 191 27 224 191 27 224 191 27 224 191 27 224 191 27 224 191 27 224 191 27 224 191 27 224 191 27 224 191 27 224 191 27 224 191 27 224 191 27 224 191 27 224 191 27 224 191 27 224 191 27 224 191 27 224 191 27 224 191 27 224 191 27 224 191 27 241 230 19 242 230 19 242 230 19 242 230 19 242 230 19 242 230 19 242 230 19 242 230 19 243 230 19 243 230 19 243 230 19 243 230 19 243 230 19 243 230 19 243 230 19 244 230 19 244 230 19 244 230 19 244 230 19 244 230 19 244 230 19 244 230 19 245 230 19 245 230 19 245 230 19 245 230 19 245 230 19 245 230 19 245 230 19 246 230 19 246 230 19 246 230 19 246 230 19 246 230 19 246 230 19 247 230 19 247 230 19 247 230 19 247 230 19 247 230 19 247 230 19 247 230 19 248 230 19 248 230 19 248 230 19 32 239 23 32 239 23 32 240 23 33 240 23 33 240 23 33 241 23 33 241 23 33 241 23 33 242 23 34 242 23 34 242 23 34 243 23 34 243 23 34 243 23 34 244 23 35 244 23 35 245 23 35 245 23 35 245 23 35 246 23 35 246 23 36 246 23 36 247 23 36 247 23 36 247 23 36 248 23 36 248 23 37 248 23 37 249 23 37 249 23 37 250 23 37 250 23 37 250 23 38 251 23 38 251 23 38 251 23 38 252 23 38 252 23 38 252 23 39 253 23 39 253 23 39 253 23 39 254 23 39 254 23 40 255 23
0 0 22 0 0 22 0 1 22 0 2 22 0 2 22 0 3 22 0 4 22 1 4 22 1 5 22 1 6 22 1 6 22 1 7 22 1 8 22 2 8 22 2 9 22 2 10 22 2 11 22 2 12 22 2 12 22 3 13 22 3 14 22 3 14 22 3 15 22 3 16 22 3 16 22 4 17 22 4 18 22 4 18 22 4 19 22 4 20 22 5 21 22 5 22 22 5 22 22 5 23 22 5 24 22 5 24 22 5 25 22 6 26 22 6 26 22 6 27 22 6 28 22 6 29 22 6 29 22 7 30 22 7 31 22 7 32 22 226 230 19 226 230 19 227 230 19 227 230 19 227 230 19 227 230 19 227 230 19 227 230 19 227 230 19 227 230 19 228 230 19 228 230 19 228 230 19 228 230 19 228 230 19 228 230 19 229 230 19 229 230 19 229 230 19 229 230 19 229 230 19 229 230 19 229 230 19 230 230 19 230 230 19 230 230 19 230 230 19 230 230 19 230 230 19 230 230 19 231 230 19 231 230 19 231 230 19 231 230 19 231 230 19 231 230 19 231 230 19 232 230 19 232 230 19 232 230 19 232 230 19 232 230 19 232 230 19 232 230 19 233 230 19 233 230 19 224 191 27 224 191 27 224 191 27 224 191 27 224 191 27 224 191 27 224 191 27 224 191 27 224 191 27 224 191 27 224 191 27 224 191 27 224 191 27 224 191 27 224 191 27 224 191 27 224 191 27 224 191 27 224 191 27 224 191 27 224 191 27 224 191 27 224 191 27 224 191 27 224 191 27 224 191 27 224 191 27 224 191 27 224 191 27 224 191 27 224 191 27 224 191 27 224 191 27 224 191 27 224 191 27 224 191 27 224 191 27 224 191 27 224 191 27 224 191 27 224 191 27 224 191 27 224 191 27 224 191 27 224 191 27 224 191 27 224 191 27 224 191 27 224 191 27 224 191 27 224 191 27 224 191 27 224 191 27 224 191 27 224 191 27 224 191 27 224 191 27 241 230 19 241 230 19 242 230 19 242 230 19 242 230 19 242 230 19 242 230 19 242 230 19 242 230 19 243 230 19 243 230 19 243 230 19 243 230 19 243 230 19 243 230 19 243 230 19 244 230 19 244 230 19 244 230 19 244 230 19 244 230 19 244 230 19 244 230 19 245 230 19 245 230 19 245 230 19 245 230 19 245 230 19 245 230 19 245 230 19 246 230 19 246 230 19 246 230 19 246 230 19 246 230 19 246 230 19 247 230 19 247 230 19 247 230 19 247 230 19 247 230 19 247 230 19 247 230 19 248 230 19 248 230 19 248 230 19 32 239 22 32 240 22 32 240 22 33 240 22 33 241 22 33 241 22 33 241 22 33 241 22 33 242 22 34 242 22 34 242 22 34 243 22 34 243 22 34 243 22 34 244 22 35 244 22 35 245 22 35 245 22 35 245 22 35 246 22 35 246 22 36 246 22 36 247 22 36 247 22 36 247 22 36 248 22 36 248 22 37 248 22 37 249 22 37 249 22 37 250 22 37 250 22 37 250 22 38 251 22 38 251 22 38 251 22 38 252 22 38 252 22 38 252 22 39 253 22 39 253 22 39 253 22 39 254 22 39 254 22 40 255 22
0 0 22 0 0 22 0 1 22 0 2 22 0 2 22 0 3 22 0 4 22 1 4 22 1 5 22 1 6 22 1 6 22 1 7 22 1 8 22 2 8 22 2 9 22 2 10 22 2 11 22 2 12 22 2 12 22 3 13 22 3 14 22 3 14 22 3 15 22 3 16 22 3 16 22 4 17 22 4 18 22 4 18 22 4 19 22 4 20 22 5 21 22 5 22 22 5 23 22 5 23 22 5 24 22 5 25 22 5 25 22 6 26 22 6 27 22 6 27 22 6 28 22 6 29 22 6 29 22 7 30 22 7 31 22 7 32 22 226 230 19 226 230 19 227 230 19 227 230 19 227 230 19 227 230 19 227 230 19 227 230 19 227 230 19 227 230 19 228 230 19 228 230 19 228 230 19 228 230 19 228 230 19 228 230 19 229 230 19 229 230 19 229 230 19 229 230 19 229 230 19 229 230 19 229 230 19 230 230 19 230 230 19 230 230 19 230 230 19 230 230 19 230 230 19 230 230 19 231 230 19 231 230 19 231 230 19 231 230 19 231 230 19 231 230 19 231 230 19 232 230 19 232 230 19 232 230 19 232 230 19 232 230 19 232 230 19 232 230 19 233 230 19 233 230 19 233 230 19 224 191 27 224 191 27 224 191 27 224 191 27 224 191 27 224 191 27 224 191 27 224 191 27 224 191 27 224 191 27 224 191 27 224 191 27 224 191 27 224 191 27 224 191 27 224 191 27 224 191 27 224 191 27 224 191 27 224 191 27 224 191 27 224 191 27 224 191 27 224 191 27 224 191 27 224 191 27 224 191 27 224 191 27 224 191 27 224 191 27 224 191 27 224 191 27 224 191 27 224 191 27 224 191 27 224 191 27 224 191 27 224 191 27 224 191 27 224 191 27 224 191 27 224 191 27 224 191 27 224 191 27 224 191 27 224 191 27 224 191 27 224 191 27 224 191 27 224 191 27 224 191 27 224 191 27 224 191 27 224 191 27 224 191 27 241 230 19 241 230 19 241 230 19 242 230 19 242 230 19 242 230 19 242 230 19 242 230 19 242 230 19 242 230 19 243 230 19 243 230 19 243 230 19 243 230 19 243 230 19 243 230 19 243 230 19 244 230 19 244 230 19 244 230 19 244 230 19 244 230 19 244 230 19 244 230 19 245 230 19 245 230 19 245 230 19 245 230 19 245 230 19 245 230 19 245 230 19 246 230 19 246 230 19 246 230 19 246 230 19 246 230 19 246 230 19 247 230 19 247 230 19 247 230 19 247 230 19 247 230 19 247 230 19 247 230 19 248 230 19 248 230 19 248 230 19 32 239 22 32 240 22 32 240 22 33 240 22 33 241 22 33 241 22 33 241 22 33 242 22 33 242 22 34 242 22 34 243 22 34 243 22 34 243 22 34 244 22 34 244 22 35 245 22 35 245 22 35 245 22 35 245 22 35 246 22 35 246 22 36 246 22 36 247 22 36 247 22 36 247 22 36 248 22 36 248 22 37 248 22 37 249 22 37 249 22 37 250 22 37 250 22 37 250 22 38 251 22 38 251 22 38 251 22 38 252 22 38 252 22 38 252 22 39 253 22 39 253 22 39 253 22 39 254 22 39 254 22 40 255 22
0 0 21 0 0 21 0 1 21 0 2 21 0 2 21 0 3 21 0 4 21 1 4 21 1 5 21 1 6 21 1 6 21 1 7 21 1 8 21 2 8 21 2 9 21 2 10 21 2 11 21 2 12 21 2 13 21 3 13 21 3 14 21 3 15 21 3 15 21 3 16 21 3 17 21 4 17 21 4 18 21 4 19 21 4 19 21 4 20 21 5 21 21 5 22 21 5 23 21 5 24 21 5 24 21 5 25 21 5 26 21 6 26 21 6 27 21 6 28 21 6 28 21 6 29 21 6 30 21 7 30 21 7 31 21 7 32 21 226 231 19 226 231 19 227 231 19 227 231 19 227 231 19 227 231 19 227 231 19 227 231 19 227 231 19 227 231 19 228 231 19 228 231 19 228 231 19 228 231 19 228 231 19 228 231 19 229 231 19 229 231 19 229 231 19 229 231 19 229 231 19 229 231 19 229 231 19 230 231 19 230 231 19 230 231 19 230 231 19 230 231 19 230 231 19 230 231 19 231 231 19 231 231 19 231 231 19 231 231 19 231 231 19 231 231 19 231 231 19 232 231 19 232 231 19 232 231 19 232 231 19 232 231 19 232 231 19 232 231 19 233 231 19 233 231 19 233 231 19 233 231 19 233 231 19 224 191 27 224 191 27 224 191 27 224 191 27 224 191 27 224 191 27 224 191 27 224 191 27 224 191 27 224 191 27 224 191 27 224 191 27 224 191 27 224 191 27 224 191 27 224 191 27 224 191 27 224 191 27 224 191 27 224 191 27 224 191 27 224 191 27 224 191 27 224 191 27 224 191 27 224 191 27 224 191 27 224 191 27 224 191 27 224 191 27 224 191 27 224 191 27 224 191 27 224 191 27 224 191 27 224 191 27 224 191 27 224 191 27 224 191 27 224 191 27 224 191 27 224 191 27 224 191 27 224 191 27 224 191 27 224 191 27 224 191 27 224 191 27 224 191 27 224 191 27 224 191 27 241 231 19 241 231 19 241 231 19 241 231 19 241 231 19 242 231 19 242 231 19 242 231 19 242 231 19 242 231 19 242 231 19 242 231 19 243 231 19 243 231 19 243 231 19 243 231 19 243 231 19 243 231 19 243 231 19 244 231 19 244 231 19 244 231 19 244 231 19 244 231 19 244 231 19 244 231 19 245 231 19 245 231 19 245 231 19 245 231 19 245 231 19 245 231 19 245 231 19 246 231 19 246 231 19 246 231 19 246 231 19 246 231 19 246 231 19 247 231 19 247 231 19 247 231 19 247 231 19 247 231 19 247 231 19 247 231 19 248 231 19 248 231 19 248 231 19 32 240 21 32 240 21 32 240 21 33 241 21 33 241 21 33 241 21 33 242 21 33 242 21 33 242 21 34 243 21 34 243 21 34 243 21 34 244 21 34 244 21 34 244 21 35 245 21 35 245 21 35 245 21 35 246 21 35 246 21 35 246 21 36 247 21 36 247 21 36 247 21 36 248 21 36 248 21 36 248 21 37 249 21 37 249 21 37 249 21 37 250 21 37 250 21 37 250 21 38 251 21 38 251 21 38 251 21 38 252 21 38 252 21 38 252 21 39 253 21 39 253 21 39 253 21 39 254 21 39 254 21 40 255 21
0 0 21 0 0 21 0 1 21 0 2 21 0 2 21 0 3 21 0 4 21 1 4 21 1 5 21 1 6 21 1 6 21 1 7 21 1 8 21 2 8 21 2 9 21 2 11 21 2 11 21 2 12 21 2 13 21 3 13 21 3 14 21 3 15 21 3 15 21 3 16 21 3 17 21 4 17 21 4 18 21 4 19 21 4 20 21 4 20 21 5 22 21 5 22 21 5 23 21 5 24 21 5 24 21 5 25 21 5 26 21 6 26 21 6 27 21 6 28 21 6 28 21 6 29 21 6 30 21 7 31 21 7 31 21 7 33 21 226 231 19 226 231 19 227 231 19 227 231 19 227 231 19 227 231 19 227 231 19 227 231 19 227 231 19 227 231 19 228 231 19 228 231 19 228 231 19 228 231 19 228 231 19 228 231 19 229 231 19 229 231 19 229 231 19 229 231 19 229 231 19 229 231 19 229 231 19 230 231 19 230 231 19 230 231 19 230 231 19 230 231 19 230 231 19 230 231 19 231 231 19 231 231 19 231 231 19 231 231 19 231 231 19 231 231 19 231 231 19 232 231 19 232 231 19 232 231 19 232 231 19 232 231 19 232 231 19 232 231 19 233 231 19 233 231 19 233 231 19 233 231 19 233 231 19 233 231 19 224 191 27 224 191 27 224 191 27 224 191 27 224 191 27 224 191 27 224 191 27 224 191 27 224 191 27 224 191 27 224 191 27 224 191 27 224 191 27 224 191 27 224 191 27 224 191 27 224 191 27 224 191 27 224 191 27 224 191 27 224 191 27 224 191 27 224 191 27 224 191 27 224 191 27 224 191 27 224 191 27 224 191 27 224 191 27 224 191 27 224 191 27 224 191 27 224 191 27 224 191 27 224 191 27 224 191 27 224 191 27 224 191 27 224 191 27 224 191 27 224 191 27 224 191 27 224 191 27 224 191 27 224 191 27 224 191 27 224 191 27 224 191 27 224 191 27 241 231 19 241 231 19 241 231 19 241 231 19 241 231 19 241 231 19 242 231 19 242 231 19 242 231 19 242 231 19 242 231 19 242 231 19 242 231 19 243 231 19 243 231 19 243 231 19 243 231 19 243 231 19 243 231 19 243 231 19 244 231 19 244 231 19 244 231 19 244 231 19 244 231 19 244 231 19 244 231 19 245 231 19 245 231 19 245 231 19 245 231 19 245 231 19 245 231 19 245 231 19 246 231 19 246 231 19 246 231 19 246 231 19 246 231 19 246 231 19 247 231 19 247 231 19 247 231 19 247 231 19 247 231 19 247 231 19 247 231 19 248 231 19 248 231 19 248 231 19 32 240 21 32 240 21 32 241 21 33 241 21 33 241 21 33 241 21 33 242 21 33 242 21 33 242 21 34 243 21 34 243 21 34 243 21 34 244 21 34 244 21 34 244 21 35 245 21 35 245 21 35 246 21 35 246 21 35 246 21 35 246 21 36 247 21 36 247 21 36 247 21 36 248 21 36 248 21 36 248 21 37 249 21 37 249 21 37 249 21 37 250 21 37 250 21 37 250 21 38 251 21 38 251 21 38 251 21 38 252 21 38 252 21 38 252 21 39 253 21 39 253 21 39 253 21 39 254 21 39 254 21 40 255 21
0 0 20 0 0 20 0 1 20 0 2 20 0 2 20 0 3 20 0 4 20 1 4 20 1 5 20 1 6 20 1 6 20 1 7 20 1 8 20 2 9 20 2 9 20 2 11 20 2 11 20 2 12 20 2 13 20 3 13 20 3 14 20 3 15 20 3 16 20 3 16 20 3 17 20 4 18 20 4 18 20 4 19 20 4 20 20 4 20 20 5 22 20 5 23 20 5 23 20 5 24 20 5 25 20 5 25 20 5 26 20 6 27 20 6 27 20 6 28 20 6 29 20 6 30 20 6 30 20 7 31 20 7 32 20 7 33 20 7 34 20 7 34 20 8 35 20 8 36 20 8 36 20 8 37 20 8 38 20 8 39 20 8 39 20 9 40 20 9 41 20 9 41 20 9 42 20 9 43 20 10 44 20 10 45 20 10 46 20 10 46 20 10 47 20 10 48 20 10 48 20 11 49 20 11 50 20 11 50 20 11 51 20 11 52 20 11 53 20 12 53 20 12 54 20 12 55 20 12 56 20 12 57 20 13 57 20 13 58 20 13 59 20 13 60 20 13 60 20 13 61 20 13 62 20 14 62 20 14 63 20 14 64 20 14 64 20 14 65 20 15 67 20 15 67 20 15 68 20 15 69 20 15 69 20 15 70 20 16 71 20 4 16 29 4 16 29 4 16 29 4 16 29 4 16 29 4 16 29 4 17 29 4 17 29 4 17 29 4 17 29 4 17 29 4 18 29 4 18 29 4 18 29 4 18 29 4 18 29 4 18 29 4 18 29 4 19 29 4 19 29 4 19 29 4 19 29 4 19 29 4 147 29 4 148 29 4 149 29 4 150 29 4 151 29 4 152 29 4 152 29 4 153 29 4 154 29 4 155 29 4 156 29 4 157 29 4 158 29 4 158 29 4 159 29 4 161 29 4 162 29 4 163 29 4 163 29 4 164 29 4 165 29 4 166 29 4 167 29 4 168 29 24 224 20 24 224 20 24 224 20 24 225 20 24 225 20 24 225 20 25 226 20 25 226 20 25 226 20 25 227 20 25 227 20 25 227 20 26 228 20 26 228 20 26 228 20 26 229 20 26 229 20 26 229 20 26 229 20 27 230 20 27 230 20 27 231 20 27 231 20 27 231 20 28 232 20 28 232 20 28 232 20 28 232 20 28 233 20 28 233 20 29 233 20 29 234 20 29 234 20 29 234 20 29 235 20 29 235 20 30 235 20 30 236 20 30 236 20 30 236 20 30 237 20 30 237 20 31 237 20 31 238 20 31 238 20 31 238 20 31 238 20 31 239 20 32 239 20 32 239 20 32 240 20 32 240 20 32 241 20 32 241 20 33 241 20 33 242 20 33 242 20 33 242 20 33 242 20 33 243 20 34 243 20 34 243 20 34 244 20 34 244 20 34 244 20 34 245 20 35 245 20 35 245 20 35 246 20 35 246 20 35 246 20 35 247 20 36 247 20 36 247 20 36 248 20 36 248 20 36 248 20 36 248 20 37 249 20 37 249 20 37 249 20 37 250 20 37 250 20 37 251 20 38 251 20 38 251 20 38 251 20 38 252 20 38 252 20 38 252 20 39 253 20 39 253 20 39 253 20 39 254 20 39 254 20 40 255 20
0 0 20 0 0 20 0 1 20 0 2 20 0 2 20 0 3 20 0 4 20 1 4 20 1 5 20 1 6 20 1 7 20 1 7 20 1 8 20 2 9 20 2 9 20 2 11 20 2 11 20 2 12 20 2 13 20 3 14 20 3 14 20 3 15 20 3 16 20 3 16 20 3 17 20 4 18 20 4 18 20 4 19 20 4 20 20 4 21 20 5 22 20 5 23 20 5 23 20 5 24 20 5 25 20 5 25 20 5 26 20 6 27 20 6 28 20 6 28 20 6 29 20 6 30 20 6 30 20 7 31 20 7 32 20 7 33 20 7 34 20 7 35 20 8 35 20 8 36 20 8 37 20 8 37 20 8 38 20 8 39 20 8 40 20 9 40 20 9 41 20 9 42 20 9 42 20 9 43 20 10 44 20 10 45 20 10 46 20 10 47 20 10 47 20 10 48 20 10 49 20 11 49 20 11 50 20 11 51 20 11 51 20 11 52 20 11 53 20 12 54 20 12 54 20 12 56 20 12 56 20 12 57 20 13 58 20 13 58 20 13 59 20 13 60 20 13 61 20 13 61 20 13 62 20 14 63 20 14 63 20 14 64 20 14 65 20 14 65 20 15 67 20 15 68 20 15 68 20 15 69 20 15 70 20 15 70 20 16 71 20 16 72 20 16 73 20 4 16 29 4 16 29 4 16 29 4 16 29 4 17 29 4 17 29 4 17 29 4 17 29 4 17 29 4 18 29 4 18 29 4 18 29 4 18 29 4 18 29 4 18 29 4 18 29 4 19 29 4 19 29 4 19 29 4 19 29 4 19 29 4 147 29 4 148 29 4 149 29 4 150 29 4 151 29 4 152 29 4 152 29 4 153 29 4 154 29 4 155 29 4 156 29 4 157 29 4 158 29 4 158 29 4 159 29 4 161 29 4 162 29 4 163 29 4 163 29 4 164 29 4 165 29 4 166 29 23 224 20 23 224 20 24 224 20 24 224 20 24 225 20 24 225 20 24 225 20 24 226 20 25 226 20 25 226 20 25 227 20 25 227 20 25 227 20 25 228 20 26 228 20 26 228 20 26 229 20 26 229 20 26 229 20 26 229 20 26 230 20 27 230 20 27 230 20 27 231 20 27 231 20 27 232 20 28 232 20 28 232 20 28 232 20 28 233 20 28 233 20 28 233 20 29 234 20 29 234 20 29 234 20 29 235 20 29 235 20 29 235 20 30 236 20 30 236 20 30 236 20 30 237 20 30 237 20 30 237 20 31 238 20 31 238 20 31 238 20 31 238 20 31 239 20 31 239 20 32 239 20 32 240 20 32 240 20 32 240 20 32 241 20 32 241 20 33 241 20 33 242 20 33 242 20 33 242 20 33 243 20 33 243 20 34 243 20 34 243 20 34 244 20 34 244 20 34 244 20 34 245 20 35 245 20 35 246 20 35 246 20 35 246 20 35 246 20 35 247 20 36 247 20 36 247 20 36 248 20 36 248 20 36 248 20 36 249 20 37 249 20 37 249 20 37 249 20 37 250 20 37 250 20 37 251 20 38 251 20 38 251 20 38 252 20 38 252 20 38 252 20 38 252 20 39 253 20 39 253 20 39 253 20 39 254 20 39 254 20 40 255 20
0 0 20 0 0 20 0 1 20 0 2 20 0 2 20 0 3 20 0 4 20 1 4 20 1 5 20 1 6 20 1 7 20 1 7 20 1 8 20 2 9 20 2 9 20 2 11 20 2 12 20 2 12 20 2 13 20 3 14 20 3 14 20 3 15 20 3 16 20 3 16 20 3 17 20 4 18 20 4 19 20 4 19 20 4 20 20 4 21 20 5 22 20 5 23 20 5 24 20 5 24 20 5 25 20 5 26 20 5 26 20 6 27 20 6 28 20 6 28 20 6 29 20 6 30 20 6 31 20 7 31 20 7 32 20 7 33 20 7 34 20 7 35 20 8 36 20 8 36 20 8 37 20 8 38 20 8 38 20 8 39 20 8 40 20 9 40 20 9 41 20 9 42 20 9 43 20 9 43 20 10 45 20 10 45 20 10 46 20 10 47 20 10 48 20 10 48 20 10 49 20 11 50 20 11 50 20 11 51 20 11 52 20 11 52 20 11 53 20 12 54 20 12 55 20 12 56 20 12 57 20 12 57 20 13 58 20 13 59 20 13 60 20 13 60 20 13 61 20 13 62 20 13 62 20 14 63 20 14 64 20 14 64 20 14 65 20 14 66 20 15 67 20 15 68 20 15 69 20 15 69 20 15 70 20 15 71 20 16 72 20 16 72 20 16 73 20 16 74 20 16 74 20 4 16 29 4 16 29 4 17 29 4 17 29 4 17 29 4 17 29 4 17 29 4 18 29 4 18 29 4 18 29 4 18 29 4 18 29 4 18 29 4 18 29 4 19 29 4 19 29 4 19 29 4 19 29 4 19 29 4 147 29 4 148 29 4 149 29 4 150 29 4 151 29 4 152 29 4 152 29 4 153 29 4 154 29 4 155 29 4 156 29 4 157 29 4 158 29 4 158 29 4 159 29 4 161 29 4 162 29 4 163 29 4 163 29 4 164 29 23 223 20 23 224 20 23 224 20 23 224 20 24 225 20 24 225 20 24 225 20 24 225 20 24 226 20 24 226 20 25 227 20 25 227 20 25 227 20 25 227 20 25 228 20 25 228 20 26 228 20 26 229 20 26 229 20 26 229 20 26 230 20 26 230 20 26 230 20 27 230 20 27 231 20 27 231 20 27 232 20 27 232 20 28 232 20 28 232 20 28 233 20 28 233 20 28 233 20 28 234 20 29 234 20 29 234 20 29 235 20 29 235 20 29 235 20 29 235 20 30 236 20 30 236 20 30 237 20 30 237 20 30 237 20 30 237 20 31 238 20 31 238 20 31 238 20 31 239 20 31 239 20 31 239 20 32 240 20 32 240 20 32 240 20 32 241 20 32 241 20 32 241 20 33 242 20 33 242 20 33 242 20 33 242 20 33 243 20 33 243 20 34 243 20 34 244 20 34 244 20 34 244 20 34 245 20 34 245 20 35 245 20 35 246 20 35 246 20 35 246 20 35 247 20 35 247 20 36 247 20 36 247 20 36 248 20 36 248 20 36 248 20 36 249 20 37 249 20 37 249 20 37 250 20 37 250 20 37 250 20 37 251 20 38 251 20 38 251 20 38 252 20 38 252 20 38 252 20 38 252 20 39 253 20 39 253 20 39 253 20 39 254 20 39 254 20 40 255 20
0 0 19 0 0 19 0 1 19 0 2 19 0 2 19 0 3 19 0 4 19 1 4 19 1 5 19 1 6 19 1 7 19 1 7 19 1 8 19 2 9 19 2 9 19 2 11 19 2 12 19 2 12 19 2 13 19 3 14 19 3 14 19 3 15 19 3 16 19 3 17 19 3 17 19 4 18 19 4 19 19 4 19 19 4 20 19 4 21 19 5 22 19 5 23 19 5 24 19 5 24 19 5 25 19 5 26 19 5 27 19 6 27 19 6 28 19 6 29 19 6 29 19 6 30 19 6 31 19 7 32 19 7 32 19 7 34 19 7 34 19 7 35 19 8 36 19 8 37 19 8 37 19 8 38 19 8 39 19 8 39 19 8 40 19 9 41 19 9 42 19 9 42 19 9 43 19 9 44 19 10 45 19 10 46 19 10 47 19 10 47 19 10 48 19 10 49 19 10 49 19 11 50 19 11 51 19 11 52 19 11 52 19 11 53 19 11 54 19 12 54 19 12 55 19 12 57 19 12 57 19 12 58 19 13 59 19 13 59 19 13 60 19 13 61 19 13 62 19 13 62 19 13 63 19 14 64 19 14 64 19 14 65 19 14 66 19 14 67 19 15 68 19 15 69 19 15 69 19 15 70 19 15 71 19 15 72 19 16 72 19 16 73 19 16 74 19 16 74 19 16 75 19 16 76 19 16 77 19 4 17 28 4 17 28 4 17 28 4 17 28 4 17 28 4 18 28 4 18 28 4 18 28 4 18 28 4 18 28 4 18 28 4 18 28 4 19 28 4 19 28 4 19 28 4 19 28 4 19 28 4 147 28 4 148 28 4 149 28 4 150 28 4 151 28 4 152 28 4 152 28 4 153 28 4 154 28 4 155 28 4 156 28 4 157 28 4 158 28 4 158 28 4 159 28 4 161 28 4 162 28 4 163 28 23 224 19 23 224 19 23 224 19 23 224 19 23 225 19 23 225 19 24 225 19 24 226 19 24 226 19 24 226 19 24 226 19 24 227 19 25 227 19 25 228 19 25 228 19 25 228 19 25 228 19 25 229 19 26 229 19 26 229 19 26 230 19 26 230 19 26 230 19 26 230 19 26 231 19 27 231 19 27 231 19 27 232 19 27 232 19 27 232 19 28 233 19 28 233 19 28 233 19 28 234 19 28 234 19 28 234 19 29 234 19 29 235 19 29 235 19 29 235 19 29 236 19 29 236 19 30 236 19 30 237 19 30 237 19 30 237 19 30 238 19 30 238 19 31 238 19 31 238 19 31 239 19 31 239 19 31 239 19 31 240 19 32 240 19 32 240 19 32 240 19 32 241 19 32 241 19 32 242 19 33 242 19 33 242 19 33 242 19 33 243 19 33 243 19 33 243 19 34 244 19 34 244 19 34 244 19 34 244 19 34 245 19 34 245 19 35 246 19 35 246 19 35 246 19 35 246 19 35 247 19 35 247 19 36 247 19 36 248 19 36 248 19 36 248 19 36 248 19 36 249 19 37 249 19 37 249 19 37 250 19 37 250 19 37 250 19 37 251 19 38 251 19 38 251 19 38 252 19 38 252 19 38 252 19 38 252 19 39 253 19 39 253 19 39 253 19 39 254 19 39 254 19 40 255 19
0 0 19 0 0 19 0 1 19 0 2 19 0 2 19 0 3 19 0 4 19 1 5 19 1 5 19 1 6 19 1 7 19 1 7 19 1 8 19 2 9 19 2 10 19 2 11 19 2 12 19 2 12 19 2 13 19 3 14 19 3 15 19 3 15 19 3 16 19 3 17 19 3 17 19 4 18 19 4 19 19 4 20 19 4 20 19 4 21 19 5 22 19 5 23 19 5 24 19 5 25 19 5 25 19 5 26 19 5 27 19 6 27 19 6 28 19 6 29 19 6 30 19 6 30 19 6 31 19 7 32 19 7 33 19 7 34 19 7 35 19 7 35 19 8 36 19 8 37 19 8 38 19 8 38 19 8 39 19 8 40 19 8 40 19 9 41 19 9 42 19 9 43 19 9 43 19 9 44 19 10 45 19 10 46 19 10 47 19 10 48 19 10 48 19 10 49 19 10 50 19 11 50 19 11 51 19 11 52 19 11 53 19 11 53 19 11 54 19 12 55 19 12 55 19 12 57 19 12 58 19 12 58 19 13 59 19 13 60 19 13 60 19 13 61 19 13 62 19 13 63 19 13 63 19 14 64 19 14 65 19 14 66 19 14 66 19 14 67 19 15 68 19 15 69 19 15 70 19 15 71 19 15 71 19 15 72 19 16 73 19 16 73 19 16 74 19 16 75 19 16 76 19 16 76 19 16 77 19 17 78 19 17 78 19 4 17 27 4 17 27 4 17 27 4 18 27 4 18 27 4 18 27 4 18 27 4 18 27 4 18 27 4 18 27 4 19 27 4 19 27 4 19 27 4 19 27 4 19 27 4 147 27 4 148 27 4 149 27 4 150 27 4 151 27 4 152 27 4 152 27 4 153 27 4 154 27 4 155 27 4 156 27 4 157 27 4 158 27 4 158 27 4 159 27 4 161 27 22 223 19 22 224 19 23 224 19 23 224 19 23 225 19 23 225 19 23 225 19 23 225 19 24 226 19 24 226 19 24 226 19 24 227 19 24 227 19 24 227 19 25 228 19 25 228 19 25 228 19 25 229 19 25 229 19 25 229 19 26 229 19 26 230 19 26 230 19 26 230 19 26 231 19 26 231 19 26 231 19 27 231 19 27 232 19 27 232 19 27 232 19 27 233 19 28 233 19 28 233 19 28 234 19 28 234 19 28 234 19 28 234 19 29 235 19 29 235 19 29 235 19 29 236 19 29 236 19 29 236 19 30 237 19 30 237 19 30 237 19 30 238 19 30 238 19 30 238 19 31 238 19 31 239 19 31 239 19 31 239 19 31 240 19 31 240 19 32 240 19 32 240 19 32 241 19 32 241 19 32 242 19 32 242 19 33 242 19 33 242 19 33 243 19 33 243 19 33 243 19 33 243 19 34 244 19 34 244 19 34 244 19 34 245 19 34 245 19 34 245 19 35 246 19 35 246 19 35 246 19 35 247 19 35 247 19 35 247 19 36 247 19 36 248 19 36 248 19 36 248 19 36 249 19 36 249 19 37 249 19 37 249 19 37 250 19 37 250 19 37 251 19 37 251 19 38 251 19 38 251 19 38 252 19 38 252 19 38 252 19 38 253 19 39 253 19 39 253 19 39 253 19 39 254 19 39 254 19 40 255 19
0 0 18 0 0 18 0 1 18 0 2 18 0 2 18 0 3 18 0 4 18 1 5 18 1 5 18 1 6 18 1 7 18 1 7 18 1 8 18 2 9 18 2 10 18 2 11 18 2 12 18 2 13 18 2 13 18 3 14 18 3 15 18 3 15 18 3 16 18 3 17 18 3 18 18 4 18 18 4 19 18 4 20 18 4 21 18 4 21 18 5 23 18 5 23 18 5 24 18 5 25 18 5 26 18 5 26 18 5 27 18 6 28 18 6 29 18 6 29 18 6 30 18 6 31 18 6 31 18 7 32 18 7 33 18 7 34 18 7 35 18 7 36 18 8 37 18 8 37 18 8 38 18 8 39 18 8 39 18 8 40 18 8 41 18 9 42 18 9 42 18 9 43 18 9 44 18 9 44 18 10 46 18 10 47 18 10 47 18 10 48 18 10 49 18 10 50 18 10 50 18 11 51 18 11 52 18 11 52 18 11 53 18 11 54 18 11 55 18 12 55 18 12 56 18 12 58 18 12 58 18 12 59 18 13 60 18 13 60 18 13 61 18 13 62 18 13 63 18 13 63 18 13 64 18 14 65 18 14 66 18 14 66 18 14 67 18 14 68 18 15 69 18 15 70 18 15 71 18 15 71 18 15 72 18 15 73 18 16 74 18 16 74 18 16 75 18 16 76 18 16 76 18 16 77 18 16 78 18 17 79 18 17 79 18 17 81 18 17 81 18 17 82 18 4 18 27 4 18 27 4 18 27 4 18 27 4 18 27 4 18 27 4 18 27 4 19 27 4 19 27 4 19 27 4 19 27 4 19 27 4 147 27 4 148 27 4 149 27 4 150 27 4 151 27 4 152 27 4 152 27 4 153 27 4 154 27 4 155 27 4 156 27 4 157 27 4 158 27 22 223 18 22 223 18 22 224 18 22 224 18 22 225 18 23 225 18 23 225 18 23 225 18 23 226 18 23 226 18 23 226 18 24 227 18 24 227 18 24 227 18 24 227 18 24 228 18 24 228 18 25 228 18 25 229 18 25 229 18 25 229 18 25 230 18 25 230 18 26 230 18 26 230 18 26 231 18 26 231 18 26 231 18 26 231 18 26 232 18 27 232 18 27 232 18 27 233 18 27 233 18 27 233 18 28 234 18 28 234 18 28 234 18 28 234 18 28 235 18 28 235 18 29 235 18 29 236 18 29 236 18 29 236 18 29 236 18 29 237 18 30 237 18 30 237 18 30 238 18 30 238 18 30 238 18 30 239 18 31 239 18 31 239 18 31 239 18 31 240 18 31 240 18 31 240 18 32 241 18 32 241 18 32 241 18 32 242 18 32 242 18 32 242 18 33 242 18 33 243 18 33 243 18 33 243 18 33 244 18 33 244 18 34 244 18 34 244 18 34 245 18 34 245 18 34 245 18 34 245 18 35 246 18 35 246 18 35 247 18 35 247 18 35 247 18 35 247 18 36 248 18 36 248 18 36 248 18 36 248 18 36 249 18 36 249 18 37 249 18 37 250 18 37 250 18 37 250 18 37 251 18 37 251 18 38 251 18 38 251 18 38 252 18 38 252 18 38 252 18 38 253 18 39 253 18 39 253 18 39 253 18 39 254 18 39 254 18 40 255 18
0 0 18 0 0 18 0 1 18 0 2 18 0 2 18 0 3 18 0 4 18 1 5 18 1 5 18 1 6 18 1 7 18 1 8 18 1 8 18 2 9 18 2 10 18 2 11 18 2 12 18 2 13 18 2 13 18 3 14 18 3 15 18 3 16 18 3 16 18 3 17 18 3 18 18 4 18 18 4 19 18 4 20 18 4 21 18 4 21 18 5 23 18 5 24 18 5 24 18 5 25 18 5 26 18 5 26 18 5 27 18 6 28 18 6 29 18 6 29 18 6 30 18 6 31 18 6 32 18 7 32 18 7 33 18 7 35 18 7 35 18 7 36 18 8 37 18 8 37 18 8 38 18 8 39 18 8 40 18 8 40 18 8 41 18 9 42 18 9 43 18 9 43 18 9 44 18 9 45 18 10 46 18 10 47 18 10 48 18 10 48 18 10 49 18 10 50 18 10 51 18 11 51 18 11 52 18 11 53 18 11 53 18 11 54 18 11 55 18 12 56 18 12 56 18 12 58 18 12 59 18 12 59 18 13 60 18 13 61 18 13 61 18 13 62 18 13 63 18 13 64 18 13 64 18 14 65 18 14 66 18 14 67 18 14 67 18 14 68 18 15 70 18 15 70 18 15 71 18 15 72 18 15 72 18 15 73 18 16 74 18 16 75 18 16 75 18 16 76 18 16 77 18 16 78 18 16 78 18 17 79 18 17 80 18 17 81 18 17 82 18 17 83 18 18 83 18 18 84 18 18 85 18 4 18 26 4 18 26 4 18 26 4 18 26 4 19 26 4 19 26 4 19 26 4 19 26 4 19 26 4 147 26 4 148 26 4 149 26 4 150 26 4 151 26 4 152 26 4 152 26 4 153 26 4 154 26 4 155 26 21 223 18 21 223 18 21 223 18 22 224 18 22 224 18 22 224 18 22 225 18 22 225 18 23 225 18 23 226 18 23 226 18 23 226 18 23 226 18 23 227 18 24 227 18 24 227 18 24 227 18 24 228 18 24 228 18 24 228 18 25 229 18 25 229 18 25 229 18 25 230 18 25 230 18 25 230 18 26 230 18 26 231 18 26 231 18 26 231 18 26 232 18 26 232 18 26 232 18 27 232 18 27 233 18 27 233 18 27 233 18 27 234 18 28 234 18 28 234 18 28 234 18 28 235 18 28 235 18 28 235 18 29 236 18 29 236 18 29 236 18 29 236 18 29 237 18 29 237 18 30 237 18 30 238 18 30 238 18 30 238 18 30 239 18 30 239 18 31 239 18 31 239 18 31 240 18 31 240 18 31 240 18 31 240 18 32 241 18 32 241 18 32 241 18 32 242 18 32 242 18 32 242 18 33 243 18 33 243 18 33 243 18 33 243 18 33 244 18 33 244 18 34 244 18 34 244 18 34 245 18 34 245 18 34 245 18 34 246 18 35 246 18 35 246 18 35 247 18 35 247 18 35 247 18 35 247 18 36 248 18 36 248 18 36 248 18 36 249 18 36 249 18 36 249 18 37 249 18 37 250 18 37 250 18 37 250 18 37 251 18 37 251 18 38 251 18 38 252 18 38 252 18 38 252 18 38 252 18 38 253 18 39 253 18 39 253 18 39 253 18 39 254 18 39 254 18 40 255 18
0 0 18 0 0 18 0 1 18 0 2 18 0 2 18 0 3 18 0 4 18 1 5 18 1 5 18 1 6 18 1 7 18 1 8 18 1 8 18 2 9 18 2 10 18 2 11 18 2 12 18 2 13 18 2 14 18 3 14 18 3 15 18 3 16 18 3 16 18 3 17 18 3 18 18 4 19 18 4 19 18 4 20 18 4 21 18 4 22 18 5 23 18 5 24 18 5 25 18 5 25 18 5 26 18 5 27 18 5 28 18 6 28 18 6 29 18 6 30 18 6 30 18 6 31 18 6 32 18 7 33 18 7 33 18 7 35 18 7 36 18 7 36 18 8 37 18 8 38 18 8 39 18 8 39 18 8 40 18 8 41 18 8 42 18 9 42 18 9 43 18 9 44 18 9 44 18 9 45 18 10 47 18 10 47 18 10 48 18 10 49 18 10 50 18 10 50 18 10 51 18 11 52 18 11 53 18 11 53 18 11 54 18 11 55 18 11 56 18 12 56 18 12 57 18 12 58 18 12 59 18 12 60 18 13 61 18 13 61 18 13 62 18 13 63 18 13 64 18 13 64 18 13 65 18 14 66 18 14 67 18 14 67 18 14 68 18 14 69 18 15 70 18 15 71 18 15 72 18 15 72 18 15 73 18 15 74 18 16 75 18 16 75 18 16 76 18 16 77 18 16 78 18 16 78 18 16 79 18 17 80 18 17 81 18 17 82 18 17 83 18 17 84 18 18 84 18 18 85 18 18 86 18 18 86 18 18 87 18 18 88 18 18 89 18 19 89 18 19 90 18 19 91 18 19 92 18 19 92 18 20 221 18 20 221 18 20 222 18 20 222 18 20 222 18 20 222 18 21 223 18 21 223 18 21 223 18 21 223 18 21 224 18 21 224 18 21 224 18 22 225 18 22 225 18 22 225 18 22 226 18 22 226 18 23 226 18 23 226 18 23 227 18 23 227 18 23 227 18 23 227 18 24 228 18 24 228 18 24 228 18 24 228 18 24 229 18 24 229 18 25 230 18 25 230 18 25 230 18 25 230 18 25 231 18 25 231 18 26 231 18 26 231 18 26 232 18 26 232 18 26 232 18 26 232 18 26 233 18 27 233 18 27 233 18 27 234 18 27 234 18 27 234 18 28 235 18 28 235 18 28 235 18 28 235 18 28 236 18 28 236 18 29 236 18 29 236 18 29 237 18 29 237 18 29 237 18 29 237 18 30 238 18 30 238 18 30 238 18 30 239 18 30 239 18 30 239 18 31 240 18 31 240 18 31 240 18 31 240 18 31 241 18 31 241 18 32 241 18 32 241 18 32 242 18 32 242 18 32 242 18 32 243 18 33 243 18 33 243 18 33 243 18 33 244 18 33 244 18 33 244 18 34 245 18 34 245 18 34 245 18 34 245 18 34 246 18 34 246 18 35 246 18 35 247 18 35 247 18 35 247 18 35 247 18 35 248 18 36 248 18 36 248 18 36 248 18 36 249 18 36 249 18 36 249 18 37 250 18 37 250 18 37 250 18 37 251 18 37 251 18 37 251 18 38 251 18 38 252 18 38 252 18 38 252 18 38 252 18 38 253 18 39 253 18 39 253 18 39 253 18 39 254 18 39 254 18 40 255 18
0 0 17 0 0 17 0 1 17 0 2 17 0 2 17 0 3 17 0 4 17 1 5 17 1 5 17 1 6 17 1 7 17 1 8 17 1 8 17 2 9 17 2 10 17 2 11 17 2 12 17 2 13 17 2 14 17 3 14 17 3 15 17 3 16 17 3 17 17 3 17 17 3 18 17 4 19 17 4 20 17 4 20 17 4 21 17 4 22 17 5 23 17 5 24 17 5 25 17 5 25 17 5 26 17 5 27 17 5 28 17 6 28 17 6 29 17 6 30 17 6 31 17 6 31 17 6 32 17 7 33 17 7 34 17 7 35 17 7 36 17 7 37 17 8 37 17 8 38 17 8 39 17 8 40 17 8 40 17 8 41 17 8 42 17 9 42 17 9 43 17 9 44 17 9 45 17 9 45 17 10 47 17 10 48 17 10 48 17 10 49 17 10 50 17 10 51 17 10 51 17 11 52 17 11 53 17 11 54 17 11 54 17 11 55 17 11 56 17 12 57 17 12 57 17 12 59 17 12 60 17 12 60 17 13 61 17 13 62 17 13 63 17 13 63 17 13 64 17 13 65 17 13 65 17 14 66 17 14 67 17 14 68 17 14 68 17 14 69 17 15 71 17 15 71 17 15 72 17 15 73 17 15 74 17 15 74 17 16 75 17 16 76 17 16 77 17 16 77 17 16 78 17 16 79 17 16 80 17 17 80 17 17 81 17 17 83 17 17 83 17 17 84 17 18 85 17 18 85 17 18 86 17 18 87 17 18 88 17 18 88 17 18 89 17 19 90 17 19 91 17 19 91 17 19 92 17 19 93 17 20 222 17 20 222 17 20 222 17 20 222 17 20 223 17 20 223 17 21 223 17 21 223 17 21 224 17 21 224 17 21 224 17 21 224 17 21 225 17 22 225 17 22 225 17 22 226 17 22 226 17 22 226 17 23 227 17 23 227 17 23 227 17 23 227 17 23 228 17 23 228 17 24 228 17 24 228 17 24 229 17 24 229 17 24 229 17 24 229 17 25 230 17 25 230 17 25 230 17 25 231 17 25 231 17 25 231 17 26 231 17 26 232 17 26 232 17 26 232 17 26 233 17 26 233 17 26 233 17 27 233 17 27 234 17 27 234 17 27 234 17 27 235 17 28 235 17 28 235 17 28 235 17 28 236 17 28 236 17 28 236 17 29 236 17 29 237 17 29 237 17 29 237 17 29 237 17 29 238 17 30 238 17 30 238 17 30 239 17 30 239 17 30 239 17 30 239 17 31 240 17 31 240 17 31 240 17 31 241 17 31 241 17 31 241 17 32 241 17 32 242 17 32 242 17 32 242 17 32 243 17 32 243 17 33 243 17 33 243 17 33 244 17 33 244 17 33 244 17 33 244 17 34 245 17 34 245 17 34 245 17 34 245 17 34 246 17 34 246 17 35 246 17 35 247 17 35 247 17 35 247 17 35 248 17 35 248 17 36 248 17 36 248 17 36 249 17 36 249 17 36 249 17 36 249 17 37 250 17 37 250 17 37 250 17 37 251 17 37 251 17 37 251 17 38 251 17 38 252 17 38 252 17 38 252 17 38 252 17 38 253 17 39 253 17 39 253 17 39 253 17 39 254 17 39 254 17 40 255 17
0 0 17 0 0 17 0 1 17 0 2 17 0 2 17 0 3 17 0 4 17 1 5 17 1 5 17 1 6 17 1 7 17 1 8 17 1 8 17 2 9 17 2 10 17 2 11 17 2 12 17 2 13 17 2 14 17 3 14 17 3 15 17 3 16 17 3 17 17 3 17 17 3 18 17 4 19 17 4 20 17 4 20 17 4 21 17 4 22 17 5 23 17 5 24 17 5 25 17 5 26 17 5 26 17 5 27 17 5 28 17 6 29 17 6 29 17 6 30 17 6 31 17 6 32 17 6 32 17 7 33 17 7 34 17 7 35 17 7 36 17 7 37 17 8 38 17 8 38 17 8 39 17 8 40 17 8 40 17 8 41 17 8 42 17 9 43 17 9 43 17 9 44 17 9 45 17 9 46 17 10 47 17 10 48 17 10 49 17 10 49 17 10 50 17 10 51 17 10 52 17 11 52 17 11 53 17 11 54 17 11 55 17 11 55 17 11 56 17 12 57 17 12 58 17 12 59 17 12 60 17 12 61 17 13 61 17 13 62 17 13 63 17 13 64 17 13 64 17 13 65 17 13 66 17 14 67 17 14 67 17 14 68 17 14 69 17 14 70 17 15 71 17 15 72 17 15 73 17 15 73 17 15 74 17 15 75 17 16 76 17 16 76 17 16 77 17 16 78 17 16 78 17 16 79 17 16 80 17 17 81 17 17 81 17 17 83 17 17 84 17 17 84 17 18 85 17 18 86 17 18 87 17 18 87 17 18 88 17 18 89 17 18 90 17 19 90 17 19 91 17 19 92 17 19 93 17 19 93 17 20 222 17 20 222 17 20 223 17 20 223 17 20 223 17 20 223 17 21 224 17 21 224 17 21 224 17 21 224 17 21 225 17 21 225 17 21 225 17 22 225 17 22 226 17 22 226 17 22 226 17 22 227 17 23 227 17 23 227 17 23 227 17 23 228 17 23 228 17 23 228 17 24 229 17 24 229 17 24 229 17 24 229 17 24 230 17 24 230 17 25 230 17 25 231 17 25 231 17 25 231 17 25 231 17 25 232 17 26 232 17 26 232 17 26 232 17 26 233 17 26 233 17 26 233 17 26 233 17 27 234 17 27 234 17 27 234 17 27 235 17 27 235 17 28 235 17 28 235 17 28 236 17 28 236 17 28 236 17 28 236 17 29 237 17 29 237 17 29 237 17 29 237 17 29 238 17 29 238 17 30 238 17 30 239 17 30 239 17 30 239 17 30 239 17 30 240 17 31 240 17 31 240 17 31 240 17 31 241 17 31 241 17 31 241 17 32 242 17 32 242 17 32 242 17 32 243 17 32 243 17 32 243 17 33 243 17 33 244 17 33 244 17 33 244 17 33 244 17 33 245 17 34 245 17 34 245 17 34 245 17 34 246 17 34 246 17 34 246 17 35 247 17 35 247 17 35 247 17 35 247 17 35 248 17 35 248 17 36 248 17 36 248 17 36 249 17 36 249 17 36 249 17 36 249 17 37 250 17 37 250 17 37 250 17 37 251 17 37 251 17 37 251 17 38 251 17 38 252 17 38 252 17 38 252 17 38 252 17 38 253 17 39 253 17 39 253 17 39 253 17 39 254 17 39 254 17 40 255 17
0 0 17 0 0 17 0 1 17 0 2 17 0 3 17 0 3 17 0 4 17 1 5 17 1 6 17 1 6 17 1 7 17 1 8 17 1 9 17 2 9 17 2 10 17 2 12 17 2 12 17 2 13 17 2 14 17 3 15 17 3 15 17 3 16 17 3 17 17 3 18 17 3 18 17 4 19 17 4 20 17 4 21 17 4 21 17 4 22 17 5 24 17 5 24 17 5 25 17 5 26 17 5 27 17 5 27 17 5 28 17 6 29 17 6 30 17 6 30 17 6 31 17 6 32 17 6 33 17 7 33 17 7 34 17 7 36 17 7 36 17 7 37 17 8 38 17 8 39 17 8 39 17 8 40 17 8 41 17 8 42 17 8 42 17 9 43 17 9 44 17 9 45 17 9 45 17 9 46 17 10 48 17 10 48 17 10 49 17 10 50 17 10 51 17 10 51 17 10 52 17 11 53 17 11 54 17 11 54 17 11 55 17 11 56 17 11 57 17 12 57 17 12 58 17 12 60 17 12 60 17 12 61 17 13 62 17 13 63 17 13 64 17 13 64 17 13 65 17 13 66 17 13 67 17 14 67 17 14 68 17 14 69 17 14 70 17 14 70 17 15 72 17 15 73 17 15 73 17 15 74 17 15 75 17 15 76 17 16 76 17 16 77 17 16 78 17 16 79 17 16 79 17 16 80 17 16 81 17 17 82 17 17 82 17 17 84 17 17 85 17 17 85 17 18 86 17 18 87 17 18 88 17 18 88 17 18 89 17 18 90 17 18 91 17 19 91 17 19 92 17 19 93 17 19 94 17 19 94 17 20 223 17 20 223 17 20 224 17 20 224 17 20 224 17 20 224 17 21 225 17 21 225 17 21 225 17 21 225 17 21 226 17 21 226 17 21 226 17 22 226 17 22 227 17 22 227 17 22 227 17 22 228 17 23 228 17 23 228 17 23 228 17 23 229 17 23 229 17 23 229 17 24 229 17 24 230 17 24 230 17 24 230 17 24 230 17 24 231 17 25 231 17 25 231 17 25 232 17 25 232 17 25 232 17 25 232 17 26 233 17 26 233 17 26 233 17 26 233 17 26 234 17 26 234 17 26 234 17 27 234 17 27 234 17 27 235 17 27 235 17 27 235 17 28 236 17 28 236 17 28 236 17 28 236 17 28 237 17 28 237 17 29 237 17 29 237 17 29 238 17 29 238 17 29 238 17 29 238 17 30 239 17 30 239 17 30 239 17 30 240 17 30 240 17 30 240 17 31 240 17 31 241 17 31 241 17 31 241 17 31 241 17 31 242 17 32 242 17 32 242 17 32 242 17 32 243 17 32 243 17 32 243 17 33 244 17 33 244 17 33 244 17 33 244 17 33 245 17 33 245 17 34 245 17 34 245 17 34 246 17 34 246 17 34 246 17 34 246 17 35 247 17 35 247 17 35 247 17 35 248 17 35 248 17 35 248 17 36 248 17 36 249 17 36 249 17 36 249 17 36 249 17 36 250 17 37 250 17 37 250 17 37 250 17 37 251 17 37 251 17 37 251 17 38 252 17 38 252 17 38 252 17 38 252 17 38 253 17 38 253 17 39 253 17 39 253 17 39 254 17 39 254 17 39 254 17 40 255 17
0 0 16 0 0 16 0 1 16 0 2 16 0 3 16 0 3 16 0 4 16 1 5 16 1 6 16 1 6 16 1 7 16 1 8 16 1 9 16 2 9 16 2 10 16 2 12 16 2 12 16 2 13 16 2 14 16 3 15 16 3 15 16 3 16 16 3 17 16 3 18 16 3 18 16 4 19 16 4 20 16 4 21 16 4 21 16 4 22 16 5 24 16 5 24 16 5 25 16 5 26 16 5 27 16 5 28 16 5 28 16 6 29 16 6 30 16 6 31 16 6 31 16 6 32 16 6 33 16 7 34 16 7 34 16 7 36 16 7 37 16 7 37 16 8 38 16 8 39 16 8 40 16 8 40 16 8 41 16 8 42 16 8 43 16 9 43 16 9 44 16 9 45 16 9 46 16 9 46 16 10 48 16 10 49 16 10 49 16 10 50 16 10 51 16 10 52 16 10 52 16 11 53 16 11 54 16 11 55 16 11 56 16 11 56 16 11 57 16 12 58 16 12 59 16 12 60 16 12 61 16 12 62 16 13 62 16 13 63 16 13 64 16 13 65 16 13 65 16 13 66 16 13 67 16 14 68 16 14 68 16 14 69 16 14 70 16 14 71 16 15 72 16 15 73 16 15 74 16 15 74 16 15 75 16 15 76 16 16 77 16 16 77 16 16 78 16 16 79 16 16 80 16 16 80 16 16 81 16 17 82 16 17 83 16 17 84 16 17 85 16 17 86 16 18 87 16 18 87 16 18 88 16 18 89 16 18 90 16 18 90 16 18 91 16 19 92 16 19 93 16 19 93 16 19 94 16 19 95 16 20 224 16 20 224 16 20 224 16 20 224 16 20 225 16 20 225 16 21 225 16 21 225 16 21 226 16 21 226 16 21 226 16 21 226 16 21 227 16 22 227 16 22 227 16 22 228 16 22 228 16 22 228 16 23 228 16 23 228 16 23 229 16 23 229 16 23 229 16 23 229 16 24 230 16 24 230 16 24 230 16 24 230 16 24 231 16 24 231 16 25 231 16 25 232 16 25 232 16 25 232 16 25 232 16 25 233 16 26 233 16 26 233 16 26 233 16 26 234 16 26 234 16 26 234 16 26 234 16 27 235 16 27 235 16 27 235 16 27 236 16 27 236 16 28 236 16 28 236 16 28 237 16 28 237 16 28 237 16 28 237 16 29 237 16 29 238 16 29 238 16 29 238 16 29 238 16 29 239 16 30 239 16 30 239 16 30 240 16 30 240 16 30 240 16 30 240 16 31 241 16 31 241 16 31 241 16 31 241 16 31 242 16 31 242 16 32 242 16 32 242 16 32 243 16 32 243 16 32 243 16 32 244 16 33 244 16 33 244 16 33 244 16 33 245 16 33 245 16 33 245 16 34 245 16 34 246 16 34 246 16 34 246 16 34 246 16 34 246 16 35 247 16 35 247 16 35 247 16 35 248 16 35 248 16 35 248 16 36 248 16 36 249 16 36 249 16 36 249 16 36 249 16 36 250 16 37 250 16 37 250 16 37 250 16 37 251 16 37 251 16 37 251 16 38 252 16 38 252 16 38 252 16 38 252 16 38 253 16 38 253 16 39 253 16 39 253 16 39 254 16 39 254 16 39 254 16 40 255 16
0 0 16 0 0 16 0 1 16 0 2 16 0 3 16 0 3 16 0 4 16 1 5 16 1 6 16 1 6 16 1 7 16 1 8 16 1 9 16 2 9 16 2 10 16 2 12 16 2 12 16 2 13 16 2 14 16 3 15 16 3 16 16 3 16 16 3 17 16 3 18 16 3 19 16 4 19 16 4 20 16 4 21 16 4 22 16 4 22 16 5 24 16 5 25 16 5 25 16 5 26 16 5 27 16 5 28 16 5 29 16 6 29 16 6 30 16 6 31 16 6 32 16 6 32 16 6 33 16 7 34 16 7 35 16 7 36 16 7 37 16 7 38 16 8 39 16 8 39 16 8 40 16 8 41 16 8 42 16 8 42 16 8 43 16 9 44 16 9 45 16 9 45 16 9 46 16 9 47 16 10 48 16 10 49 16 10 50 16 10 51 16 10 51 16 10 52 16 10 53 16 11 54 16 11 55 16 11 55 16 11 56 16 11 57 16 11 58 16 12 58 16 12 59 16 12 61 16 12 61 16 12 62 16 13 63 16 13 64 16 13 65 16 13 65 16 13 66 16 13 67 16 13 68 16 14 68 16 14 69 16 14 70 16 14 71 16 14 71 16 15 73 16 15 74 16 15 74 16 15 75 16 15 76 16 15 77 16 16 78 16 16 78 16 16 79 16 16 80 16 16 81 16 16 81 16 16 82 16 17 83 16 17 84 16 17 85 16 17 86 16 17 87 16 18 87 16 18 88 16 18 89 16 18 90 16 18 91 16 18 91 16 18 92 16 19 93 16 19 94 16 19 94 16 19 95 16 19 96 16 20 225 16 20 225 16 20 225 16 20 225 16 20 226 16 20 226 16 21 226 16 21 226 16 21 227 16 21 227 16 21 227 16 21 227 16 21 227 16 22 228 16 22 228 16 22 228 16 22 229 16 22 229 16 23 229 16 23 229 16 23 230 16 23 230 16 23 230 16 23 230 16 24 231 16 24 231 16 24 231 16 24 231 16 24 231 16 24 232 16 25 232 16 25 232 16 25 233 16 25 233 16 25 233 16 25 233 16 26 234 16 26 234 16 26 234 16 26 234 16 26 235 16 26 235 16 26 235 16 27 235 16 27 235 16 27 236 16 27 236 16 27 236 16 28 237 16 28 237 16 28 237 16 28 237 16 28 238 16 28 238 16 29 238 16 29 238 16 29 239 16 29 239 16 29 239 16 29 239 16 30 240 16 30 240 16 30 240 16 30 240 16 30 241 16 30 241 16 31 241 16 31 241 16 31 242 16 31 242 16 31 242 16 31 242 16 32 243 16 32 243 16 32 243 16 32 243 16 32 244 16 32 244 16 33 244 16 33 244 16 33 245 16 33 245 16 33 245 16 33 245 16 34 246 16 34 246 16 34 246 16 34 246 16 34 247 16 34 247 16 35 247 16 35 247 16 35 248 16 35 248 16 35 248 16 35 248 16 36 249 16 36 249 16 36 249 16 36 249 16 36 250 16 36 250 16 37 250 16 37 250 16 37 251 16 37 251 16 37 251 16 37 251 16 38 252 16 38 252 16 38 252 16 38 252 16 38 253 16 38 253 16 39 253 16 39 253 16 39 254 16 39 254 16 39 254 16 40 255 16
0 0 15 0 0 15 0 1 15 0 2 15 0 3 15 0 3 15 0 4 15 1 5 15 1 6 15 1 6 15 1 7 15 1 8 15 1 9 15 2 9 15 2 10 15 2 12 15 2 13 15 2 13 15 2 14 15 3 15 15 3 16 15 3 16 15 3 17 15 3 18 15 3 19 15 4 19 15 4 20 15 4 21 15 4 22 15 4 23 15 5 24 15 5 25 15 5 26 15 5 26 15 5 27 15 5 28 15 5 29 15 6 29 15 6 30 15 6 31 15 6 32 15 6 33 15 6 33 15 7 34 15 7 35 15 7 36 15 7 37 15 7 38 15 8 39 15 8 39 15 8 40 15 8 41 15 8 42 15 8 43 15 8 43 15 9 44 15 9 45 15 9 46 15 9 46 15 9 47 15 10 49 15 10 49 15 10 50 15 10 51 15 10 52 15 10 53 15 10 53 15 11 54 15 11 55 15 11 56 15 11 56 15 11 57 15 11 58 15 12 59 15 12 59 15 12 61 15 12 62 15 12 63 15 13 63 15 13 64 15 13 65 15 13 66 15 13 66 15 13 67 15 13 68 15 14 69 15 14 69 15 14 70 15 14 71 15 14 72 15 15 73 15 15 74 15 15 75 15 15 76 15 15 76 15 15 77 15 16 78 15 16 79 15 16 79 15 16 80 15 16 81 15 16 82 15 16 83 15 17 83 15 17 84 15 17 86 15 17 86 15 17 87 15 18 88 15 18 89 15 18 89 15 18 90 15 18 91 15 18 92 15 18 93 15 19 93 15 19 94 15 19 95 15 19 96 15 19 96 15 20 225 15 20 225 15 20 226 15 20 226 15 20 226 15 20 226 15 21 227 15 21 227 15 21 227 15 21 227 15 21 227 15 21 228 15 21 228 15 22 228 15 22 228 15 22 229 15 22 229 15 22 229 15 23 230 15 23 230 15 23 230 15 23 230 15 23 230 15 23 231 15 24 231 15 24 231 15 24 231 15 24 232 15 24 232 15 24 232 15 25 233 15 25 233 15 25 233 15 25 233 15 25 233 15 25 234 15 26 234 15 26 234 15 26 234 15 26 235 15 26 235 15 26 235 15 26 235 15 27 236 15 27 236 15 27 236 15 27 236 15 27 237 15 28 237 15 28 237 15 28 237 15 28 238 15 28 238 15 28 238 15 29 238 15 29 239 15 29 239 15 29 239 15 29 239 15 29 239 15 30 240 15 30 240 15 30 240 15 30 241 15 30 241 15 30 241 15 31 241 15 31 242 15 31 242 15 31 242 15 31 242 15 31 242 15 32 243 15 32 243 15 32 243 15 32 244 15 32 244 15 32 244 15 33 244 15 33 245 15 33 245 15 33 245 15 33 245 15 33 245 15 34 246 15 34 246 15 34 246 15 34 246 15 34 247 15 34 247 15 35 247 15 35 248 15 35 248 15 35 248 15 35 248 15 35 248 15 36 249 15 36 249 15 36 249 15 36 249 15 36 250 15 36 250 15 37 250 15 37 250 15 37 251 15 37 251 15 37 251 15 37 251 15 38 252 15 38 252 15 38 252 15 38 252 15 38 253 15 38 253 15 39 253 15 39 253 15 39 254 15 39 254 15 39 254 15 40 255 15
0 0 15 0 0 15 0 1 15 0 2 15 0 3 15 0 3 15 0 4 15 1 5 15 1 6 15 1 6 15 1 7 15 1 8 15 1 9 15 2 10 15 2 10 15 2 12 15 2 13 15 2 13 15 2 14 15 3 15 15 3 16 15 3 17 15 3 17 15 3 18 15 3 19 15 4 20 15 4 20 15 4 21 15 4 22 15 4 23 15 5 24 15 5 25 15 5 26 15 5 27 15 5 27 15 5 28 15 5 29 15 6 30 15 6 31 15 6 31 15 6 32 15 6 33 15 6 34 15 7 34 15 7 35 15 7 37 15 7 38 15 7 38 15 8 39 15 8 40 15 8 41 15 8 41 15 8 42 15 8 43 15 8 44 15 9 45 15 9 45 15 9 46 15 9 47 15 9 48 15 10 49 15 10 50 15 10 51 15 10 52 15 10 52 15 10 53 15 10 54 15 11 55 15 11 55 15 11 56 15 11 57 15 11 58 15 11 59 15 12 59 15 12 60 15 12 62 15 12 62 15 12 63 15 13 64 15 13 65 15 13 65 15 13 66 15 13 67 15 13 68 15 13 69 15 14 69 15 14 70 15 14 71 15 14 72 15 14 72 15 15 74 15 15 75 15 15 76 15 15 76 15 15 77 15 15 78 15 16 79 15 16 79 15 16 80 15 16 81 15 16 82 15 16 83 15 16 83 15 17 84 15 17 85 15 17 86 15 17 87 15 17 88 15 18 89 15 18 90 15 18 90 15 18 91 15 18 92 15 18 93 15 18 93 15 19 94 15 19 95 15 19 96 15 19 97 15 19 97 15 20 226 15 20 226 15 20 227 15 20 227 15 20 227 15 20 227 15 21 227 15 21 228 15 21 228 15 21 228 15 21 228 15 21 229 15 21 229 15 22 229 15 22 229 15 22 230 15 22 230 15 22 230 15 23 230 15 23 231 15 23 231 15 23 231 15 23 231 15 23 231 15 24 232 15 24 232 15 24 232 15 24 232 15 24 233 15 24 233 15 25 233 15 25 233 15 25 234 15 25 234 15 25 234 15 25 234 15 26 235 15 26 235 15 26 235 15 26 235 15 26 236 15 26 236 15 26 236 15 27 236 15 27 236 15 27 237 15 27 237 15 27 237 15 28 238 15 28 238 15 28 238 15 28 238 15 28 238 15 28 239 15 29 239 15 29 239 15 29 239 15 29 240 15 29 240 15 29 240 15 30 240 15 30 241 15 30 241 15 30 241 15 30 241 15 30 242 15 31 242 15 31 242 15 31 242 15 31 242 15 31 243 15 31 243 15 32 243 15 32 243 15 32 244 15 32 244 15 32 244 15 32 244 15 33 245 15 33 245 15 33 245 15 33 245 15 33 246 15 33 246 15 34 246 15 34 246 15 34 246 15 34 247 15 34 247 15 34 247 15 35 248 15 35 248 15 35 248 15 35 248 15 35 248 15 35 249 15 36 249 15 36 249 15 36 249 15 36 250 15 36 250 15 36 250 15 37 250 15 37 250 15 37 251 15 37 251 15 37 251 15 37 252 15 38 252 15 38 252 15 38 252 15 38 252 15 38 253 15 38 253 15 39 253 15 39 253 15 39 254 15 39 254 15 39 254 15 40 255 15
0 0 15 0 0 15 0 1 15 0 2 15 0 3 15 0 3 15 0 4 15 1 5 15 1 6 15 1 7 15 1 7 15 1 8 15 1 9 15 2 10 15 2 10 15 2 12 15 2 13 15 2 14 15 2 14 15 3 15 15 3 16 15 3 17 15 3 17 15 3 18 15 3 19 15 4 20 15 4 21 15 4 21 15 4 22 15 4 23 15 5 24 15 5 25 15 5 26 15 5 27 15 5 28 15 5 28 15 5 29 15 6 30 15 6 31 15 6 31 15 6 32 15 6 33 15 6 34 15 7 35 15 7 35 15 7 37 15 7 38 15 7 39 15 8 39 15 8 40 15 8 41 15 8 42 15 8 42 15 8 43 15 8 44 15 9 45 15 9 46 15 9 46 15 9 47 15 9 48 15 10 49 15 10 50 15 10 51 15 10 52 15 10 53 15 10 53 15 10 54 15 11 55 15 11 56 15 11 56 15 11 57 15 11 58 15 11 59 15 12 60 15 12 60 15 12 62 15 12 63 15 12 63 15 13 64 15 13 65 15 13 66 15 13 67 15 13 67 15 13 68 15 13 69 15 14 70 15 14 71 15 14 71 15 14 72 15 14 73 15 15 74 15 15 75 15 15 76 15 15 77 15 15 78 15 15 78 15 16 79 15 16 80 15 16 81 15 16 81 15 16 82 15 16 83 15 16 84 15 17 85 15 17 85 15 17 87 15 17 88 15 17 88 15 18 89 15 18 90 15 18 91 15 18 92 15 18 92 15 18 93 15 18 94 15 19 95 15 19 95 15 19 96 15 19 97 15 19 98 15 20 227 15 20 227 15 20 227 15 20 227 15 20 227 15 20 228 15 21 228 15 21 228 15 21 228 15 21 229 15 21 229 15 21 229 15 21 229 15 22 229 15 22 230 15 22 230 15 22 230 15 22 231 15 23 231 15 23 231 15 23 231 15 23 231 15 23 232 15 23 232 15 24 232 15 24 232 15 24 233 15 24 233 15 24 233 15 24 233 15 25 234 15 25 234 15 25 234 15 25 234 15 25 235 15 25 235 15 26 235 15 26 235 15 26 235 15 26 236 15 26 236 15 26 236 15 26 236 15 27 236 15 27 237 15 27 237 15 27 237 15 27 238 15 28 238 15 28 238 15 28 238 15 28 238 15 28 239 15 28 239 15 29 239 15 29 239 15 29 240 15 29 240 15 29 240 15 29 240 15 30 241 15 30 241 15 30 241 15 30 241 15 30 242 15 30 242 15 31 242 15 31 242 15 31 242 15 31 243 15 31 243 15 31 243 15 32 243 15 32 244 15 32 244 15 32 244 15 32 244 15 32 245 15 33 245 15 33 245 15 33 245 15 33 245 15 33 246 15 33 246 15 34 246 15 34 246 15 34 247 15 34 247 15 34 247 15 34 247 15 35 248 15 35 248 15 35 248 15 35 248 15 35 249 15 35 249 15 36 249 15 36 249 15 36 249 15 36 250 15 36 250 15 36 250 15 37 250 15 37 251 15 37 251 15 37 251 15 37 251 15 37 252 15 38 252 15 38 252 15 38 252 15 38 253 15 38 253 15 38 253 15 39 253 15 39 253 15 39 254 15 39 254 15 39 254 15 40 255 15
0 0 14 0 0 14 0 1 14 0 2 14 0 3 14 0 3 14 0 4 14 1 5 14 1 6 14 1 7 14 1 7 14 1 8 14 1 9 14 2 10 14 2 10 14 2 12 14 2 13 14 2 14 14 2 14 14 3 15 14 3 16 14 3 17 14 3 18 14 3 18 14 3 19 14 4 20 14 4 21 14 4 21 14 4 22 14 4 23 14 5 25 14 5 25 14 5 26 14 5 27 14 5 28 14 5 29 14 5 29 14 6 30 14 6 31 14 6 32 14 6 32 14 6 33 14 6 34 14 7 35 14 7 36 14 7 37 14 7 38 14 7 39 14 8 40 14 8 40 14 8 41 14 8 42 14 8 43 14 8 43 14 8 44 14 9 45 14 9 46 14 9 47 14 9 47 14 9 48 14 10 50 14 10 50 14 10 51 14 10 52 14 10 53 14 10 54 14 10 54 14 11 55 14 11 56 14 11 57 14 11 58 14 11 58 14 11 59 14 12 60 14 12 61 14 12 62 14 12 63 14 12 64 14 13 65 14 13 65 14 13 66 14 13 67 14 13 68 14 13 69 14 13 69 14 14 70 14 14 71 14 14 72 14 14 72 14 14 73 14 15 75 14 15 76 14 15 76 14 15 77 14 15 78 14 15 79 14 16 80 14 16 80 14 16 81 14 16 82 14 16 83 14 16 83 14 16 84 14 17 85 14 17 86 14 17 87 14 17 88 14 17 89 14 18 90 14 18 90 14 18 91 14 18 92 14 18 93 14 18 94 14 18 94 14 19 95 14 19 96 14 19 97 14 19 98 14 19 98 14 20 227 14 20 227 14 20 228 14 20 228 14 20 228 14 20 228 14 21 228 14 21 229 14 21 229 14 21 229 14 21 229 14 21 229 14 21 230 14 22 230 14 22 230 14 22 231 14 22 231 14 22 231 14 23 231 14 23 231 14 23 232 14 23 232 14 23 232 14 23 232 14 24 233 14 24 233 14 24 233 14 24 233 14 24 233 14 24 234 14 25 234 14 25 234 14 25 234 14 25 235 14 25 235 14 25 235 14 26 235 14 26 236 14 26 236 14 26 236 14 26 236 14 26 236 14 26 237 14 27 237 14 27 237 14 27 237 14 27 238 14 27 238 14 28 238 14 28 238 14 28 239 14 28 239 14 28 239 14 28 239 14 29 239 14 29 240 14 29 240 14 29 240 14 29 240 14 29 240 14 30 241 14 30 241 14 30 241 14 30 242 14 30 242 14 30 242 14 31 242 14 31 242 14 31 243 14 31 243 14 31 243 14 31 243 14 32 244 14 32 244 14 32 244 14 32 244 14 32 245 14 32 245 14 33 245 14 33 245 14 33 245 14 33 246 14 33 246 14 33 246 14 34 246 14 34 247 14 34 247 14 34 247 14 34 247 14 34 247 14 35 248 14 35 248 14 35 248 14 35 248 14 35 249 14 35 249 14 36 249 14 36 249 14 36 250 14 36 250 14 36 250 14 36 250 14 37 250 14 37 251 14 37 251 14 37 251 14 37 251 14 37 252 14 38 252 14 38 252 14 38 252 14 38 253 14 38 253 14 38 253 14 39 253 14 39 253 14 39 254 14 39 254 14 39 254 14 40 255 14
0 0 14 0 0 14 0 1 14 0 2 14 0 3 14 0 3 14 0 4 14 1 5 14 1 6 14 1 7 14 1 7 14 1 8 14 1 9 14 2 10 14 2 11 14 2 12 14 2 13 14 2 14 14 2 15 14 3 15 14 3 16 14 3 17 14 3 18 14 3 19 14 3 19 14 4 20 14 4 21 14 4 22 14 4 22 14 4 23 14 5 25 14 5 26 14 5 26 14 5 27 14 5 28 14 5 29 14 5 30 14 6 30 14 6 31 14 6 32 14 6 33 14 6 34 14 6 34 14 7 35 14 7 36 14 7 38 14 7 38 14 7 39 14 8 40 14 8 41 14 8 41 14 8 42 14 8 43 14 8 44 14 8 45 14 9 45 14 9 46 14 9 47 14 9 48 14 9 49 14 10 50 14 10 51 14 10 52 14 10 53 14 10 53 14 10 54 14 10 55 14 11 56 14 11 57 14 11 57 14 11 58 14 11 59 14 11 60 14 12 60 14 12 61 14 12 63 14 12 64 14 12 64 14 13 65 14 13 66 14 13 67 14 13 68 14 13 68 14 13 69 14 13 70 14 14 71 14 14 72 14 14 72 14 14 73 14 14 74 14 15 76 14 15 76 14 15 77 14 15 78 14 15 79 14 15 80 14 16 80 14 16 81 14 16 82 14 16 83 14 16 83 14 16 84 14 16 85 14 17 86 14 17 87 14 17 88 14 17 89 14 17 90 14 18 91 14 18 91 14 18 92 14 18 93 14 18 94 14 18 95 14 18 95 14 19 96 14 19 97 14 19 98 14 19 99 14 19 99 14 20 228 14 20 228 14 20 229 14 20 229 14 20 229 14 20 229 14 21 229 14 21 230 14 21 230 14 21 230 14 21 230 14 21 230 14 21 231 14 22 231 14 22 231 14 22 231 14 22 232 14 22 232 14 23 232 14 23 232 14 23 232 14 23 233 14 23 233 14 23 233 14 24 233 14 24 234 14 24 234 14 24 234 14 24 234 14 24 234 14 25 235 14 25 235 14 25 235 14 25 235 14 25 236 14 25 236 14 26 236 14 26 236 14 26 236 14 26 237 14 26 237 14 26 237 14 26 237 14 27 237 14 27 238 14 27 238 14 27 238 14 27 238 14 28 239 14 28 239 14 28 239 14 28 239 14 28 240 14 28 240 14 29 240 14 29 240 14 29 240 14 29 241 14 29 241 14 29 241 14 30 241 14 30 242 14 30 242 14 30 242 14 30 242 14 30 242 14 31 243 14 31 243 14 31 243 14 31 243 14 31 243 14 31 244 14 32 244 14 32 244 14 32 244 14 32 245 14 32 245 14 32 245 14 33 245 14 33 246 14 33 246 14 33 246 14 33 246 14 33 246 14 34 247 14 34 247 14 34 247 14 34 247 14 34 247 14 34 248 14 35 248 14 35 248 14 35 248 14 35 249 14 35 249 14 35 249 14 36 249 14 36 250 14 36 250 14 36 250 14 36 250 14 36 250 14 37 251 14 37 251 14 37 251 14 37 251 14 37 252 14 37 252 14 38 252 14 38 252 14 38 252 14 38 253 14 38 253 14 38 253 14 39 253 14 39 253 14 39 254 14 39 254 14 39 254 14 40 255 14
0 0 14 0 0 14 0 1 14 0 2 14 0 3 14 0 3 14 0 4 14 1 5 14 1 6 14 1 7 14 1 7 14 1 8 14 1 9 14 2 10 14 2 11 14 2 12 14 2 13 14 2 14 14 2 15 14 3 15 14 3 16 14 3 17 14 3 18 14 3 19 14 3 19 14 4 20 14 4 21 14 4 22 14 4 23 14 4 23 14 5 25 14 5 26 14 5 27 14 5 27 14 5 28 14 5 29 14 5 30 14 6 31 14 6 31 14 6 32 14 6 33 14 6 34 14 6 35 14 7 35 14 7 36 14 7 38 14 7 39 14 7 39 14 8 40 14 8 41 14 8 42 14 8 42 14 8 43 14 8 44 14 8 45 14 9 46 14 9 46 14 9 47 14 9 48 14 9 49 14 10 50 14 10 51 14 10 52 14 10 53 14 10 54 14 10 54 14 10 55 14 11 56 14 11 57 14 11 58 14 11 58 14 11 59 14 11 60 14 12 61 14 12 62 14 12 63 14 12 64 14 12 65 14 13 66 14 13 66 14 13 67 14 13 68 14 13 69 14 13 70 14 13 70 14 14 71 14 14 72 14 14 73 14 14 74 14 14 74 14 15 76 14 15 77 14 15 78 14 15 78 14 15 79 14 15 80 14 16 81 14 16 81 14 16 82 14 16 83 14 16 84 14 16 85 14 16 85 14 17 86 14 17 87 14 17 89 14 17 89 14 17 90 14 18 91 14 18 92 14 18 93 14 18 93 14 18 94 14 18 95 14 18 96 14 19 97 14 19 97 14 19 98 14 19 99 14 19 100 14 20 229 14 20 229 14 20 229 14 20 229 14 20 229 14 20 230 14 21 230 14 21 230 14 21 230 14 21 230 14 21 231 14 21 231 14 21 231 14 22 231 14 22 231 14 22 232 14 22 232 14 22 232 14 23 232 14 23 233 14 23 233 14 23 233 14 23 233 14 23 233 14 24 234 14 24 234 14 24 234 14 24 234 14 24 235 14 24 235 14 25 235 14 25 235 14 25 236 14 25 236 14 25 236 14 25 236 14 26 236 14 26 237 14 26 237 14 26 237 14 26 237 14 26 237 14 26 238 14 27 238 14 27 238 14 27 238 14 27 239 14 27 239 14 28 239 14 28 239 14 28 239 14 28 240 14 28 240 14 28 240 14 29 240 14 29 240 14 29 241 14 29 241 14 29 241 14 29 241 14 30 242 14 30 242 14 30 242 14 30 242 14 30 242 14 30 243 14 31 243 14 31 243 14 31 243 14 31 243 14 31 244 14 31 244 14 32 244 14 32 244 14 32 245 14 32 245 14 32 245 14 32 245 14 33 246 14 33 246 14 33 246 14 33 246 14 33 246 14 33 247 14 34 247 14 34 247 14 34 247 14 34 247 14 34 248 14 34 248 14 35 248 14 35 248 14 35 249 14 35 249 14 35 249 14 35 249 14 36 249 14 36 250 14 36 250 14 36 250 14 36 250 14 36 250 14 37 251 14 37 251 14 37 251 14 37 251 14 37 252 14 37 252 14 38 252 14 38 252 14 38 252 14 38 253 14 38 253 14 38 253 14 39 253 14 39 253 14 39 254 14 39 254 14 39 254 14 40 255 14
0 0 13 0 0 13 0 1 13 0 2 13 0 3 13 0 4 13 0 4 13 1 5 13 1 6 13 1 7 13 1 8 13 1 8 13 1 9 13 2 10 13 2 11 13 2 12 13 2 13 13 2 14 13 2 15 13 3 16 13 3 16 13 3 17 13 3 18 13 3 19 13 3 20 13 4 20 13 4 21 13 4 22 13 4 23 13 4 24 13 5 25 13 5 26 13 5 27 13 5 28 13 5 28 13 5 29 13 5 30 13 6 31 13 6 32 13 6 32 13 6 33 13 6 34 13 6 35 13 7 36 13 7 36 13 7 38 13 7 39 13 7 40 13 8 41 13 8 41 13 8 42 13 8 43 13 8 44 13 8 45 13 8 45 13 9 46 13 9 47 13 9 48 13 9 49 13 9 49 13 10 51 13 10 52 13 10 53 13 10 53 13 10 54 13 10 55 13 10 56 13 11 57 13 11 57 13 11 58 13 11 59 13 11 60 13 11 61 13 12 61 13 12 62 13 12 64 13 12 65 13 12 65 13 13 66 13 13 67 13 13 68 13 13 69 13 13 69 13 13 70 13 13 71 13 14 72 13 14 73 13 14 73 13 14 74 13 14 75 13 15 77 13 15 77 13 15 78 13 15 79 13 15 80 13 15 81 13 16 82 13 16 82 13 16 83 13 16 84 13 16 85 13 16 86 13 16 86 13 17 87 13 17 88 13 17 90 13 17 90 13 17 91 13 18 92 13 18 93 13 18 94 13 18 94 13 18 95 13 18 96 13 18 97 13 19 98 13 19 98 13 19 99 13 19 100 13 19 101 13 20 230 13 20 230 13 20 230 13 20 230 13 20 230 13 20 231 13 21 231 13 21 231 13 21 231 13 21 231 13 21 232 13 21 232 13 21 232 13 22 232 13 22 232 13 22 233 13 22 233 13 22 233 13 23 233 13 23 234 13 23 234 13 23 234 13 23 234 13 23 234 13 24 235 13 24 235 13 24 235 13 24 235 13 24 235 13 24 235 13 25 236 13 25 236 13 25 236 13 25 236 13 25 237 13 25 237 13 26 237 13 26 237 13 26 237 13 26 238 13 26 238 13 26 238 13 26 238 13 27 238 13 27 239 13 27 239 13 27 239 13 27 239 13 28 240 13 28 240 13 28 240 13 28 240 13 28 240 13 28 241 13 29 241 13 29 241 13 29 241 13 29 241 13 29 242 13 29 242 13 30 242 13 30 242 13 30 243 13 30 243 13 30 243 13 30 243 13 31 243 13 31 244 13 31 244 13 31 244 13 31 244 13 31 244 13 32 245 13 32 245 13 32 245 13 32 245 13 32 245 13 32 246 13 33 246 13 33 246 13 33 246 13 33 246 13 33 247 13 33 247 13 34 247 13 34 247 13 34 247 13 34 248 13 34 248 13 34 248 13 35 248 13 35 249 13 35 249 13 35 249 13 35 249 13 35 249 13 36 250 13 36 250 13 36 250 13 36 250 13 36 250 13 36 251 13 37 251 13 37 251 13 37 251 13 37 252 13 37 252 13 37 252 13 38 252 13 38 252 13 38 253 13 38 253 13 38 253 13 38 253 13 39 253 13 39 254 13 39 254 13 39 254 13 39 254 13 40 255 13
0 0 13 0 0 13 0 1 13 0 2 13 0 3 13 0 4 13 0 4 13 1 5 13 1 6 13 1 7 13 1 8 13 1 8 13 1 9 13 2 10 13 2 11 13 2 12 13 2 13 13 2 14 13 2 15 13 3 16 13 3 16 13 3 17 13 3 18 13 3 19 13 3 20 13 4 21 13 4 21 13 4 22 13 4 23 13 4 24 13 5 25 13 5 26 13 5 27 13 5 28 13 5 29 13 5 29 13 5 30 13 6 31 13 6 32 13 6 33 13 6 33 13 6 34 13 6 35 13 7 36 13 7 37 13 7 38 13 7 39 13 7 40 13 8 41 13 8 42 13 8 42 13 8 43 13 8 44 13 8 45 13 8 46 13 9 46 13 9 47 13 9 48 13 9 49 13 9 50 13 10 51 13 10 52 13 10 53 13 10 54 13 10 54 13 10 55 13 10 56 13 11 57 13 11 58 13 11 58 13 11 59 13 11 60 13 11 61 13 12 62 13 12 63 13 12 64 13 12 65 13 12 66 13 13 67 13 13 67 13 13 68 13 13 69 13 13 70 13 13 71 13 13 71 13 14 72 13 14 73 13 14 74 13 14 75 13 14 75 13 15 77 13 15 78 13 15 79 13 15 79 13 15 80 13 15 81 13 16 82 13 16 83 13 16 84 13 16 84 13 16 85 13 16 86 13 16 87 13 17 88 13 17 88 13 17 90 13 17 91 13 17 92 13 18 92 13 18 93 13 18 94 13 18 95 13 18 96 13 18 96 13 18 97 13 19 98 13 19 99 13 19 100 13 19 100 13 19 101 13 20 230 13 20 230 13 20 230 13 20 231 13 20 231 13 20 231 13 21 231 13 21 231 13 21 232 13 21 232 13 21 232 13 21 232 13 21 232 13 22 233 13 22 233 13 22 233 13 22 233 13 22 234 13 23 234 13 23 234 13 23 234 13 23 234 13 23 235 13 23 235 13 24 235 13 24 235 13 24 235 13 24 235 13 24 236 13 24 236 13 25 236 13 25 236 13 25 237 13 25 237 13 25 237 13 25 237 13 26 237 13 26 238 13 26 238 13 26 238 13 26 238 13 26 238 13 26 239 13 27 239 13 27 239 13 27 239 13 27 240 13 27 240 13 28 240 13 28 240 13 28 240 13 28 240 13 28 241 13 28 241 13 29 241 13 29 241 13 29 241 13 29 242 13 29 242 13 29 242 13 30 242 13 30 243 13 30 243 13 30 243 13 30 243 13 30 243 13 31 244 13 31 244 13 31 244 13 31 244 13 31 244 13 31 245 13 32 245 13 32 245 13 32 245 13 32 245 13 32 246 13 32 246 13 33 246 13 33 246 13 33 246 13 33 247 13 33 247 13 33 247 13 34 247 13 34 247 13 34 248 13 34 248 13 34 248 13 34 248 13 35 249 13 35 249 13 35 249 13 35 249 13 35 249 13 35 250 13 36 250 13 36 250 13 36 250 13 36 250 13 36 250 13 36 251 13 37 251 13 37 251 13 37 251 13 37 252 13 37 252 13 37 252 13 38 252 13 38 252 13 38 253 13 38 253 13 38 253 13 38 253 13 39 253 13 39 254 13 39 254 13 39 254 13 39 254 13 40 255 13
0 0 12 0 0 12 0 1 12 0 2 12 0 3 12 0 4 12 0 4 12 1 5 12 1 6 12 1 7 12 1 8 12 1 8 12 1 9 12 2 10 12 2 11 12 2 12 12 2 13 12 2 14 12 2 15 12 3 16 12 3 17 12 3 17 12 3 18 12 3 19 12 3 20 12 4 21 12 4 21 12 4 22 12 4 23 12 4 24 12 5 25 12 5 26 12 5 27 12 5 28 12 5 29 12 5 30 12 5 30 12 6 31 12 6 32 12 6 33 12 6 34 12 6 34 12 6 35 12 7 36 12 7 37 12 7 38 12 7 39 12 7 40 12 8 41 12 8 42 12 8 43 12 8 43 12 8 44 12 8 45 12 8 46 12 9 47 12 9 47 12 9 48 12 9 49 12 9 50 12 10 51 12 10 52 12 10 53 12 10 54 12 10 55 12 10 56 12 10 56 12 11 57 12 11 58 12 11 59 12 11 60 12 11 60 12 11 61 12 12 62 12 12 63 12 12 64 12 12 65 12 12 66 12 13 67 12 13 68 12 13 69 12 13 69 12 13 70 12 13 71 12 13 72 12 14 73 12 14 73 12 14 74 12 14 75 12 14 76 12 15 77 12 15 78 12 15 79 12 15 80 12 15 81 12 15 81 12 16 82 12 16 83 12 16 84 12 16 85 12 16 86 12 16 86 12 16 87 12 17 88 12 17 89 12 17 90 12 17 91 12 17 92 12 18 93 12 18 94 12 18 94 12 18 95 12 18 96 12 18 97 12 18 98 12 19 99 12 19 99 12 19 100 12 19 101 12 19 102 12 20 231 12 20 231 12 20 231 12 20 231 12 20 231 12 20 232 12 21 232 12 21 232 12 21 232 12 21 232 12 21 232 12 21 233 12 21 233 12 22 233 12 22 233 12 22 234 12 22 234 12 22 234 12 23 234 12 23 234 12 23 235 12 23 235 12 23 235 12 23 235 12 24 235 12 24 235 12 24 236 12 24 236 12 24 236 12 24 236 12 25 237 12 25 237 12 25 237 12 25 237 12 25 237 12 25 238 12 26 238 12 26 238 12 26 238 12 26 238 12 26 239 12 26 239 12 26 239 12 27 239 12 27 239 12 27 240 12 27 240 12 27 240 12 28 240 12 28 240 12 28 241 12 28 241 12 28 241 12 28 241 12 29 241 12 29 242 12 29 242 12 29 242 12 29 242 12 29 242 12 30 243 12 30 243 12 30 243 12 30 243 12 30 243 12 30 244 12 31 244 12 31 244 12 31 244 12 31 244 12 31 245 12 31 245 12 32 245 12 32 245 12 32 245 12 32 246 12 32 246 12 32 246 12 33 246 12 33 246 12 33 247 12 33 247 12 33 247 12 33 247 12 34 247 12 34 248 12 34 248 12 34 248 12 34 248 12 34 248 12 35 249 12 35 249 12 35 249 12 35 249 12 35 249 12 35 250 12 36 250 12 36 250 12 36 250 12 36 250 12 36 251 12 36 251 12 37 251 12 37 251 12 37 251 12 37 252 12 37 252 12 37 252 12 38 252 12 38 252 12 38 253 12 38 253 12 38 253 12 38 253 12 39 253 12 39 254 12 39 254 12 39 254 12 39 254 12 40 255 12
0 0 12 0 0 12 0 1 12 0 2 12 0 3 12 0 4 12 0 4 12 1 5 12 1 6 12 1 7 12 1 8 12 1 9 12 1 9 12 2 10 12 2 11 12 2 13 12 2 13 12 2 14 12 2 15 12 3 16 12 3 17 12 3 18 12 3 18 12 3 19 12 3 20 12 4 21 12 4 22 12 4 22 12 4 23 12 4 24 12 5 26 12 5 27 12 5 27 12 5 28 12 5 29 12 5 30 12 5 31 12 6 31 12 6 32 12 6 33 12 6 34 12 6 35 12 6 36 12 7 36 12 7 37 12 7 39 12 7 40 12 7 40 12 8 41 12 8 42 12 8 43 12 8 44 12 8 45 12 8 45 12 8 46 12 9 47 12 9 48 12 9 49 12 9 49 12 9 50 12 10 52 12 10 53 12 10 54 12 10 54 12 10 55 12 10 56 12 10 57 12 11 58 12 11 59 12 11 59 12 11 60 12 11 61 12 11 62 12 12 63 12 12 63 12 12 65 12 12 66 12 12 67 12 13 68 12 13 68 12 13 69 12 13 70 12 13 71 12 13 72 12 13 72 12 14 73 12 14 74 12 14 75 12 14 76 12 14 77 12 15 78 12 15 79 12 15 80 12 15 81 12 15 81 12 15 82 12 16 83 12 16 84 12 16 85 12 16 86 12 16 86 12 16 87 12 16 88 12 17 89 12 17 90 12 17 91 12 17 92 12 17 93 12 18 94 12 18 95 12 18 95 12 18 96 12 18 97 12 18 98 12 18 99 12 19 99 12 19 100 12 19 101 12 19 102 12 19 103 12 20 232 12 20 232 12 20 232 12 20 232 12 20 232 12 20 232 12 21 233 12 21 233 12 21 233 12 21 233 12 21 233 12 21 234 12 21 234 12 22 234 12 22 234 12 22 234 12 22 235 12 22 235 12 23 235 12 23 235 12 23 235 12 23 236 12 23 236 12 23 236 12 24 236 12 24 236 12 24 236 12 24 237 12 24 237 12 24 237 12 25 237 12 25 238 12 25 238 12 25 238 12 25 238 12 25 238 12 26 238 12 26 239 12 26 239 12 26 239 12 26 239 12 26 239 12 26 240 12 27 240 12 27 240 12 27 240 12 27 240 12 27 241 12 28 241 12 28 241 12 28 241 12 28 241 12 28 242 12 28 242 12 29 242 12 29 242 12 29 242 12 29 242 12 29 243 12 29 243 12 30 243 12 30 243 12 30 243 12 30 244 12 30 244 12 30 244 12 31 244 12 31 244 12 31 245 12 31 245 12 31 245 12 31 245 12 32 245 12 32 245 12 32 246 12 32 246 12 32 246 12 32 246 12 33 247 12 33 247 12 33 247 12 33 247 12 33 247 12 33 247 12 34 248 12 34 248 12 34 248 12 34 248 12 34 248 12 34 249 12 35 249 12 35 249 12 35 249 12 35 249 12 35 250 12 35 250 12 36 250 12 36 250 12 36 250 12 36 251 12 36 251 12 36 251 12 37 251 12 37 251 12 37 251 12 37 252 12 37 252 12 37 252 12 38 252 12 38 253 12 38 253 12 38 253 12 38 253 12 38 253 12 39 253 12 39 254 12 39 254 12 39 254 12 39 254 12 40 255 12
0 0 12 0 0 12 0 1 12 0 2 12 0 3 12 0 4 12 0 4 12 1 5 12 1 6 12 1 7 12 1 8 12 1 9 12 1 9 12 2 10 12 2 11 12 2 13 12 2 14 12 2 14 12 2 15 12 3 16 12 3 17 12 3 18 12 3 18 12 3 19 12 3 20 12 4 21 12 4 22 12 4 23 12 4 23 12 4 24 12 5 26 12 5 27 12 5 28 12 5 28 12 5 29 12 5 30 12 5 31 12 6 32 12 6 32 12 6 33 12 6 34 12 6 35 12 6 36 12 7 37 12 7 37 12 7 39 12 7 40 12 7 41 12 8 42 12 8 42 12 8 43 12 8 44 12 8 45 12 8 46 12 8 46 12 9 47 12 9 48 12 9 49 12 9 50 12 9 51 12 10 52 12 10 53 12 10 54 12 10 55 12 10 56 12 10 56 12 10 57 12 11 58 12 11 59 12 11 60 12 11 60 12 11 61 12 11 62 12 12 63 12 12 64 12 12 65 12 12 66 12 12 67 12 13 68 12 13 69 12 13 69 12 13 70 12 13 71 12 13 72 12 13 73 12 14 74 12 14 74 12 14 75 12 14 76 12 14 77 12 15 79 12 15 79 12 15 80 12 15 81 12 15 82 12 15 83 12 16 84 12 16 84 12 16 85 12 16 86 12 16 87 12 16 88 12 16 88 12 17 89 12 17 90 12 17 92 12 17 93 12 17 93 12 18 94 12 18 95 12 18 96 12 18 97 12 18 97 12 18 98 12 18 99 12 19 100 12 19 101 12 19 102 12 19 102 12 19 103 12 20 232 12 20 232 12 20 232 12 20 233 12 20 233 12 20 233 12 21 233 12 21 233 12 21 234 12 21 234 12 21 234 12 21 234 12 21 234 12 22 234 12 22 235 12 22 235 12 22 235 12 22 235 12 23 235 12 23 236 12 23 236 12 23 236 12 23 236 12 23 236 12 24 237 12 24 237 12 24 237 12 24 237 12 24 237 12 24 237 12 25 238 12 25 238 12 25 238 12 25 238 12 25 238 12 25 239 12 26 239 12 26 239 12 26 239 12 26 239 12 26 240 12 26 240 12 26 240 12 27 240 12 27 240 12 27 241 12 27 241 12 27 241 12 28 241 12 28 241 12 28 241 12 28 242 12 28 242 12 28 242 12 29 242 12 29 242 12 29 243 12 29 243 12 29 243 12 29 243 12 30 243 12 30 244 12 30 244 12 30 244 12 30 244 12 30 244 12 31 244 12 31 245 12 31 245 12 31 245 12 31 245 12 31 245 12 32 246 12 32 246 12 32 246 12 32 246 12 32 246 12 32 247 12 33 247 12 33 247 12 33 247 12 33 247 12 33 247 12 33 248 12 34 248 12 34 248 12 34 248 12 34 248 12 34 249 12 34 249 12 35 249 12 35 249 12 35 249 12 35 250 12 35 250 12 35 250 12 36 250 12 36 250 12 36 250 12 36 251 12 36 251 12 36 251 12 37 251 12 37 251 12 37 252 12 37 252 12 37 252 12 37 252 12 38 252 12 38 253 12 38 253 12 38 253 12 38 253 12 38 253 12 39 253 12 39 254 12 39 254 12 39 254 12 39 254 12 40 255 12
0 0 11 0 0 11 0 1 11 0 2 11 0 3 11 0 4 11 0 4 11 1 5 11 1 6 11 1 7 11 1 8 11 1 9 11 1 9 11 2 10 11 2 11 11 2 13 11 2 14 11 2 14 11 2 15 11 3 16 11 3 17 11 3 18 11 3 19 11 3 19 11 3 20 11 4 21 11 4 22 11 4 23 11 4 24 11 4 24 11 5 26 11 5 27 11 5 28 11 5 29 11 5 29 11 5 30 11 5 31 11 6 32 11 6 33 11 6 34 11 6 34 11 6 35 11 6 36 11 7 37 11 7 38 11 7 39 11 7 40 11 7 41 11 8 42 11 8 43 11 8 44 11 8 44 11 8 45 11 8 46 11 8 47 11 9 48 11 9 49 11 9 49 11 9 50 11 9 51 11 10 53 11 10 54 11 10 54 11 10 55 11 10 56 11 10 57 11 10 58 11 11 59 11 11 59 11 11 60 11 11 61 11 11 62 11 11 63 11 12 64 11 12 64 11 12 66 11 12 67 11 12 68 11 13 69 11 13 69 11 13 70 11 13 71 11 13 72 11 13 73 11 13 73 11 14 74 11 14 75 11 14 76 11 14 77 11 14 78 11 15 79 11 15 80 11 15 81 11 15 82 11 15 83 11 15 83 11 16 84 11 16 85 11 16 86 11 16 87 11 16 88 11 16 88 11 16 89 11 17 90 11 17 91 11 17 93 11 17 93 11 17 94 11 18 95 11 18 96 11 18 97 11 18 98 11 18 98 11 18 99 11 18 100 11 19 101 11 19 102 11 19 103 11 19 103 11 19 104 11 20 233 11 20 233 11 20 233 11 20 234 11 20 234 11 20 234 11 21 234 11 21 234 11 21 234 11 21 235 11 21 235 11 21 235 11 21 235 11 22 235 11 22 235 11 22 236 11 22 236 11 22 236 11 23 236 11 23 236 11 23 237 11 23 237 11 23 237 11 23 237 11 24 237 11 24 237 11 24 238 11 24 238 11 24 238 11 24 238 11 25 238 11 25 239 11 25 239 11 25 239 11 25 239 11 25 239 11 26 239 11 26 240 11 26 240 11 26 240 11 26 240 11 26 240 11 26 241 11 27 241 11 27 241 11 27 241 11 27 241 11 27 242 11 28 242 11 28 242 11 28 242 11 28 242 11 28 242 11 28 243 11 29 243 11 29 243 11 29 243 11 29 243 11 29 243 11 29 244 11 30 244 11 30 244 11 30 244 11 30 244 11 30 245 11 30 245 11 31 245 11 31 245 11 31 245 11 31 245 11 31 246 11 31 246 11 32 246 11 32 246 11 32 246 11 32 247 11 32 247 11 32 247 11 33 247 11 33 247 11 33 247 11 33 248 11 33 248 11 33 248 11 34 248 11 34 248 11 34 248 11 34 249 11 34 249 11 34 249 11 35 249 11 35 249 11 35 250 11 35 250 11 35 250 11 35 250 11 36 250 11 36 250 11 36 251 11 36 251 11 36 251 11 36 251 11 37 251 11 37 251 11 37 252 11 37 252 11 37 252 11 37 252 11 38 252 11 38 253 11 38 253 11 38 253 11 38 253 11 38 253 11 39 253 11 39 254 11 39 254 11 39 254 11 39 254 11 40 255 11
0 0 11 0 0 11 0 1 11 0 2 11 0 3 11 0 4 11 0 5 11 1 5 11 1 6 11 1 7 11 1 8 11 1 9 11 1 10 11 2 10 11 2 11 11 2 13 11 2 14 11 2 15 11 2 15 11 3 16 11 3 17 11 3 18 11 3 19 11 3 20 11 3 20 11 4 21 11 4 22 11 4 23 11 4 24 11 4 25 11 5 26 11 5 27 11 5 28 11 5 29 11 5 30 11 5 30 11 5 31 11 6 32 11 6 33 11 6 34 11 6 35 11 6 35 11 6 36 11 7 37 11 7 38 11 7 40 11 7 40 11 7 41 11 8 42 11 8 43 11 8 44 11 8 45 11 8 45 11 8 46 11 8 47 11 9 48 11 9 49 11 9 50 11 9 50 11 9 51 11 10 53 11 10 54 11 10 55 11 10 55 11 10 56 11 10 57 11 10 58 11 11 59 11 11 60 11 11 60 11 11 61 11 11 62 11 11 63 11 12 64 11 12 65 11 12 66 11 12 67 11 12 68 11 13 69 11 13 70 11 13 71 11 13 71 11 13 72 11 13 73 11 13 74 11 14 75 11 14 76 11 14 76 11 14 77 11 14 78 11 15 80 11 15 81 11 15 81 11 15 82 11 15 83 11 15 84 11 16 85 11 16 86 11 16 86 11 16 87 11 16 88 11 16 89 11 16 90 11 17 91 11 17 91 11 17 93 11 17 94 11 17 95 11 18 96 11 18 96 11 18 97 11 18 98 11 18 99 11 18 100 11 18 101 11 19 101 11 19 102 11 19 103 11 19 104 11 19 105 11 20 234 11 20 234 11 20 234 11 20 234 11 20 234 11 20 234 11 21 235 11 21 235 11 21 235 11 21 235 11 21 235 11 21 235 11 21 236 11 22 236 11 22 236 11 22 236 11 22 236 11 22 237 11 23 237 11 23 237 11 23 237 11 23 237 11 23 237 11 23 238 11 24 238 11 24 238 11 24 238 11 24 238 11 24 238 11 24 239 11 25 239 11 25 239 11 25 239 11 25 239 11 25 240 11 25 240 11 26 240 11 26 240 11 26 240 11 26 240 11 26 241 11 26 241 11 26 241 11 27 241 11 27 241 11 27 241 11 27 242 11 27 242 11 28 242 11 28 242 11 28 242 11 28 242 11 28 243 11 28 243 11 29 243 11 29 243 11 29 243 11 29 243 11 29 244 11 29 244 11 30 244 11 30 244 11 30 244 11 30 245 11 30 245 11 30 245 11 31 245 11 31 245 11 31 245 11 31 246 11 31 246 11 31 246 11 32 246 11 32 246 11 32 246 11 32 247 11 32 247 11 32 247 11 33 247 11 33 247 11 33 248 11 33 248 11 33 248 11 33 248 11 34 248 11 34 248 11 34 249 11 34 249 11 34 249 11 34 249 11 35 249 11 35 250 11 35 250 11 35 250 11 35 250 11 35 250 11 36 250 11 36 251 11 36 251 11 36 251 11 36 251 11 36 251 11 37 251 11 37 252 11 37 252 11 37 252 11 37 252 11 37 252 11 38 253 11 38 253 11 38 253 11 38 253 11 38 253 11 38 253 11 39 254 11 39 254 11 39 254 11 39 254 11 39 254 11 40 255 11
0 0 10 0 0 10 0 1 10 0 2 10 0 3 10 0 4 10 0 5 10 1 5 10 1 6 10 1 7 10 1 8 10 1 9 10 1 10 10 2 10 10 2 11 10 2 13 10 2 14 10 2 15 10 2 16 10 3 16 10 3 17 10 3 18 10 3 19 10 3 20 10 3 21 10 4 21 10 4 22 10 4 23 10 4 24 10 4 25 10 5 26 10 5 27 10 5 28 10 5 29 10 5 30 10 5 31 10 5 32 10 6 32 10 6 33 10 6 34 10 6 35 10 6 36 10 6 37 10 7 37 10 7 38 10 7 40 10 7 41 10 7 42 10 8 43 10 8 43 10 8 44 10 8 45 10 8 46 10 8 47 10 8 48 10 9 48 10 9 49 10 9 50 10 9 51 10 9 52 10 10 53 10 10 54 10 10 55 10 10 56 10 10 57 10 10 58 10 10 59 10 11 59 10 11 60 10 11 61 10 11 62 10 11 63 10 11 64 10 12 64 10 12 65 10 12 67 10 12 68 10 12 69 10 13 69 10 13 70 10 13 71 10 13 72 10 13 73 10 13 74 10 13 75 10 14 75 10 14 76 10 14 77 10 14 78 10 14 79 10 15 80 10 15 81 10 15 82 10 15 83 10 15 84 10 15 85 10 16 86 10 16 86 10 16 87 10 16 88 10 16 89 10 16 90 10 16 91 10 17 91 10 17 92 10 17 94 10 17 95 10 17 96 10 18 96 10 18 97 10 18 98 10 18 99 10 18 100 10 18 101 10 18 102 10 19 102 10 19 103 10 19 104 10 19 105 10 19 106 10 20 235 10 20 235 10 20 235 10 20 235 10 20 235 10 20 235 10 21 236 10 21 236 10 21 236 10 21 236 10 21 236 10 21 236 10 21 236 10 22 237 10 22 237 10 22 237 10 22 237 10 22 237 10 23 238 10 23 238 10 23 238 10 23 238 10 23 238 10 23 238 10 24 239 10 24 239 10 24 239 10 24 239 10 24 239 10 24 239 10 25 240 10 25 240 10 25 240 10 25 240 10 25 240 10 25 240 10 26 241 10 26 241 10 26 241 10 26 241 10 26 241 10 26 241 10 26 241 10 27 242 10 27 242 10 27 242 10 27 242 10 27 242 10 28 243 10 28 243 10 28 243 10 28 243 10 28 243 10 28 243 10 29 244 10 29 244 10 29 244 10 29 244 10 29 244 10 29 244 10 30 245 10 30 245 10 30 245 10 30 245 10 30 245 10 30 245 10 31 246 10 31 246 10 31 246 10 31 246 10 31 246 10 31 246 10 32 247 10 32 247 10 32 247 10 32 247 10 32 247 10 32 247 10 33 248 10 33 248 10 33 248 10 33 248 10 33 248 10 33 248 10 34 249 10 34 249 10 34 249 10 34 249 10 34 249 10 34 249 10 35 250 10 35 250 10 35 250 10 35 250 10 35 250 10 35 250 10 36 251 10 36 251 10 36 251 10 36 251 10 36 251 10 36 251 10 37 252 10 37 252 10 37 252 10 37 252 10 37 252 10 37 252 10 38 253 10 38 253 10 38 253 10 38 253 10 38 253 10 38 253 10 39 254 10 39 254 10 39 254 10 39 254 10 39 254 10 40 255 10
0 0 10 0 0 10 0 1 10 0 2 10 0 3 10 0 4 10 0 5 10 1 5 10 1 6 10 1 7 10 1 8 10 1 9 10 1 10 10 2 11 10 2 11 10 2 13 10 2 14 10 2 15 10 2 16 10 3 16 10 3 17 10 3 18 10 3 19 10 3 20 10 3 21 10 4 22 10 4 22 10 4 23 10 4 24 10 4 25 10 5 27 10 5 27 10 5 28 10 5 29 10 5 30 10 5 31 10 5 32 10 6 33 10 6 33 10 6 34 10 6 35 10 6 36 10 6 37 10 7 38 10 7 38 10 7 40 10 7 41 10 7 42 10 8 43 10 8 44 10 8 44 10 8 45 10 8 46 10 8 47 10 8 48 10 9 49 10 9 49 10 9 50 10 9 51 10 9 52 10 10 54 10 10 55 10 10 55 10 10 56 10 10 57 10 10 58 10 10 59 10 11 60 10 11 60 10 11 61 10 11 62 10 11 63 10 11 64 10 12 65 10 12 66 10 12 67 10 12 68 10 12 69 10 13 70 10 13 71 10 13 72 10 13 72 10 13 73 10 13 74 10 13 75 10 14 76 10 14 77 10 14 77 10 14 78 10 14 79 10 15 81 10 15 82 10 15 83 10 15 83 10 15 84 10 15 85 10 16 86 10 16 87 10 16 88 10 16 88 10 16 89 10 16 90 10 16 91 10 17 92 10 17 93 10 17 94 10 17 95 10 17 96 10 18 97 10 18 98 10 18 99 10 18 99 10 18 100 10 18 101 10 18 102 10 19 103 10 19 104 10 19 105 10 19 105 10 19 106 10 20 235 10 20 235 10 20 235 10 20 236 10 20 236 10 20 236 10 21 236 10 21 236 10 21 236 10 21 236 10 21 237 10 21 237 10 21 237 10 22 237 10 22 237 10 22 238 10 22 238 10 22 238 10 23 238 10 23 238 10 23 238 10 23 238 10 23 239 10 23 239 10 24 239 10 24 239 10 24 239 10 24 239 10 24 240 10 24 240 10 25 240 10 25 240 10 25 240 10 25 240 10 25 241 10 25 241 10 26 241 10 26 241 10 26 241 10 26 241 10 26 242 10 26 242 10 26 242 10 27 242 10 27 242 10 27 242 10 27 243 10 27 243 10 28 243 10 28 243 10 28 243 10 28 243 10 28 243 10 28 244 10 29 244 10 29 244 10 29 244 10 29 244 10 29 244 10 29 245 10 30 245 10 30 245 10 30 245 10 30 245 10 30 245 10 30 246 10 31 246 10 31 246 10 31 246 10 31 246 10 31 246 10 31 247 10 32 247 10 32 247 10 32 247 10 32 247 10 32 247 10 32 248 10 33 248 10 33 248 10 33 248 10 33 248 10 33 248 10 33 249 10 34 249 10 34 249 10 34 249 10 34 249 10 34 249 10 34 249 10 35 250 10 35 250 10 35 250 10 35 250 10 35 250 10 35 251 10 36 251 10 36 251 10 36 251 10 36 251 10 36 251 10 36 251 10 37 252 10 37 252 10 37 252 10 37 252 10 37 252 10 37 253 10 38 253 10 38 253 10 38 253 10 38 253 10 38 253 10 38 253 10 39 254 10 39 254 10 39 254 10 39 254 10 39 254 10 40 255 10
0 0 10 0 0 10 0 1 10 0 2 10 0 3 10 0 4 10 0 5 10 1 5 10 1 6 10 1 7 10 1 8 10 1 9 10 1 10 10 2 11 10 2 11 10 2 13 10 2 14 10 2 15 10 2 16 10 3 17 10 3 17 10 3 18 10 3 19 10 3 20 10 3 21 10 4 22 10 4 22 10 4 23 10 4 24 10 4 25 10 5 27 10 5 28 10 5 28 10 5 29 10 5 30 10 5 31 10 5 32 10 6 33 10 6 34 10 6 34 10 6 35 10 6 36 10 6 37 10 7 38 10 7 39 10 7 40 10 7 41 10 7 42 10 8 43 10 8 44 10 8 45 10 8 45 10 8 46 10 8 47 10 8 48 10 9 49 10 9 50 10 9 51 10 9 51 10 9 52 10 10 54 10 10 55 10 10 56 10 10 57 10 10 57 10 10 58 10 10 59 10 11 60 10 11 61 10 11 62 10 11 62 10 11 63 10 11 64 10 12 65 10 12 66 10 12 68 10 12 68 10 12 69 10 13 70 10 13 71 10 13 72 10 13 73 10 13 74 10 13 74 10 13 75 10 14 76 10 14 77 10 14 78 10 14 79 10 14 79 10 15 81 10 15 82 10 15 83 10 15 84 10 15 85 10 15 85 10 16 86 10 16 87 10 16 88 10 16 89 10 16 90 10 16 91 10 16 91 10 17 92 10 17 93 10 17 95 10 17 96 10 17 97 10 18 97 10 18 98 10 18 99 10 18 100 10 18 101 10 18 102 10 18 102 10 19 103 10 19 104 10 19 105 10 19 106 10 19 107 10 20 236 10 20 236 10 20 236 10 20 236 10 20 236 10 20 236 10 21 236 10 21 237 10 21 237 10 21 237 10 21 237 10 21 237 10 21 237 10 22 238 10 22 238 10 22 238 10 22 238 10 22 238 10 23 238 10 23 239 10 23 239 10 23 239 10 23 239 10 23 239 10 24 239 10 24 239 10 24 240 10 24 240 10 24 240 10 24 240 10 25 240 10 25 240 10 25 241 10 25 241 10 25 241 10 25 241 10 26 241 10 26 241 10 26 242 10 26 242 10 26 242 10 26 242 10 26 242 10 27 242 10 27 242 10 27 243 10 27 243 10 27 243 10 28 243 10 28 243 10 28 243 10 28 244 10 28 244 10 28 244 10 29 244 10 29 244 10 29 244 10 29 245 10 29 245 10 29 245 10 30 245 10 30 245 10 30 245 10 30 246 10 30 246 10 30 246 10 31 246 10 31 246 10 31 246 10 31 246 10 31 247 10 31 247 10 32 247 10 32 247 10 32 247 10 32 247 10 32 248 10 32 248 10 33 248 10 33 248 10 33 248 10 33 248 10 33 249 10 33 249 10 34 249 10 34 249 10 34 249 10 34 249 10 34 249 10 34 250 10 35 250 10 35 250 10 35 250 10 35 250 10 35 250 10 35 251 10 36 251 10 36 251 10 36 251 10 36 251 10 36 251 10 36 252 10 37 252 10 37 252 10 37 252 10 37 252 10 37 252 10 37 253 10 38 253 10 38 253 10 38 253 10 38 253 10 38 253 10 38 253 10 39 254 10 39 254 10 39 254 10 39 254 10 39 254 10 40 255 10
0 0 9 0 0 9 0 1 9 0 2 9 0 3 9 0 4 9 0 5 9 1 6 9 1 6 9 1 7 9 1 8 9 1 9 9 1 10 9 2 11 9 2 12 9 2 13 9 2 14 9 2 15 9 2 16 9 3 17 9 3 18 9 3 18 9 3 19 9 3 20 9 3 21 9 4 22 9 4 23 9 4 24 9 4 24 9 4 25 9 5 27 9 5 28 9 5 29 9 5 30 9 5 30 9 5 31 9 5 32 9 6 33 9 6 34 9 6 35 9 6 36 9 6 36 9 6 37 9 7 38 9 7 39 9 7 41 9 7 42 9 7 42 9 8 43 9 8 44 9 8 45 9 8 46 9 8 47 9 8 48 9 8 48 9 9 49 9 9 50 9 9 51 9 9 52 9 9 53 9 10 54 9 10 55 9 10 56 9 10 57 9 10 58 9 10 59 9 10 60 9 11 60 9 11 61 9 11 62 9 11 63 9 11 64 9 11 65 9 12 66 9 12 66 9 12 68 9 12 69 9 12 70 9 13 71 9 13 72 9 13 73 9 13 73 9 13 74 9 13 75 9 13 76 9 14 77 9 14 78 9 14 79 9 14 79 9 14 80 9 15 82 9 15 83 9 15 84 9 15 85 9 15 85 9 15 86 9 16 87 9 16 88 9 16 89 9 16 90 9 16 91 9 16 91 9 16 92 9 17 93 9 17 94 9 17 96 9 17 97 9 17 97 9 18 98 9 18 99 9 18 100 9 18 101 9 18 102 9 18 103 9 18 103 9 19 104 9 19 105 9 19 106 9 19 107 9 19 108 9 20 237 9 20 237 9 20 237 9 20 237 9 20 237 9 20 237 9 21 237 9 21 238 9 21 238 9 21 238 9 21 238 9 21 238 9 21 238 9 22 238 9 22 239 9 22 239 9 22 239 9 22 239 9 23 239 9 23 239 9 23 240 9 23 240 9 23 240 9 23 240 9 24 240 9 24 240 9 24 240 9 24 241 9 24 241 9 24 241 9 25 241 9 25 241 9 25 241 9 25 242 9 25 242 9 25 242 9 26 242 9 26 242 9 26 242 9 26 242 9 26 243 9 26 243 9 26 243 9 27 243 9 27 243 9 27 243 9 27 243 9 27 244 9 28 244 9 28 244 9 28 244 9 28 244 9 28 244 9 28 244 9 29 245 9 29 245 9 29 245 9 29 245 9 29 245 9 29 245 9 30 246 9 30 246 9 30 246 9 30 246 9 30 246 9 30 246 9 31 246 9 31 247 9 31 247 9 31 247 9 31 247 9 31 247 9 32 247 9 32 247 9 32 248 9 32 248 9 32 248 9 32 248 9 33 248 9 33 248 9 33 249 9 33 249 9 33 249 9 33 249 9 34 249 9 34 249 9 34 249 9 34 250 9 34 250 9 34 250 9 35 250 9 35 250 9 35 250 9 35 251 9 35 251 9 35 251 9 36 251 9 36 251 9 36 251 9 36 251 9 36 252 9 36 252 9 37 252 9 37 252 9 37 252 9 37 252 9 37 253 9 37 253 9 38 253 9 38 253 9 38 253 9 38 253 9 38 253 9 38 254 9 39 254 9 39 254 9 39 254 9 39 254 9 39 254 9 40 255 9
0 0 9 0 0 9 0 1 9 0 2 9 0 3 9 0 4 9 0 5 9 1 6 9 1 6 9 1 7 9 1 8 9 1 9 9 1 10 9 2 11 9 2 12 9 2 13 9 2 14 9 2 15 9 2 16 9 3 17 9 3 18 9 3 18 9 3 19 9 3 20 9 3 21 9 4 22 9 4 23 9 4 24 9 4 25 9 4 25 9 5 27 9 5 28 9 5 29 9 5 30 9 5 31 9 5 31 9 5 32 9 6 33 9 6 34 9 6 35 9 6 36 9 6 37 9 6 37 9 7 38 9 7 39 9 7 41 9 7 42 9 7 43 9 8 44 9 8 44 9 8 45 9 8 46 9 8 47 9 8 48 9 8 49 9 9 50 9 9 50 9 9 51 9 9 52 9 9 53 9 10 55 9 10 56 9 10 56 9 10 57 9 10 58 9 10 59 9 10 60 9 11 61 9 11 62 9 11 62 9 11 63 9 11 64 9 11 65 9 12 66 9 12 67 9 12 69 9 12 69 9 12 70 9 13 71 9 13 72 9 13 73 9 13 74 9 13 75 9 13 75 9 13 76 9 14 77 9 14 78 9 14 79 9 14 80 9 14 81 9 15 82 9 15 83 9 15 84 9 15 85 9 15 86 9 15 87 9 16 88 9 16 88 9 16 89 9 16 90 9 16 91 9 16 92 9 16 93 9 17 94 9 17 94 9 17 96 9 17 97 9 17 98 9 18 99 9 18 100 9 18 100 9 18 101 9 18 102 9 18 103 9 18 104 9 19 105 9 19 106 9 19 106 9 19 107 9 19 108 9 20 237 9 20 237 9 20 237 9 20 237 9 20 238 9 20 238 9 21 238 9 21 238 9 21 238 9 21 238 9 21 238 9 21 239 9 21 239 9 22 239 9 22 239 9 22 239 9 22 239 9 22 240 9 23 240 9 23 240 9 23 240 9 23 240 9 23 240 9 23 240 9 24 241 9 24 241 9 24 241 9 24 241 9 24 241 9 24 241 9 25 241 9 25 242 9 25 242 9 25 242 9 25 242 9 25 242 9 26 242 9 26 242 9 26 243 9 26 243 9 26 243 9 26 243 9 26 243 9 27 243 9 27 243 9 27 244 9 27 244 9 27 244 9 28 244 9 28 244 9 28 244 9 28 244 9 28 245 9 28 245 9 29 245 9 29 245 9 29 245 9 29 245 9 29 245 9 29 246 9 30 246 9 30 246 9 30 246 9 30 246 9 30 246 9 30 247 9 31 247 9 31 247 9 31 247 9 31 247 9 31 247 9 31 247 9 32 248 9 32 248 9 32 248 9 32 248 9 32 248 9 32 248 9 33 248 9 33 249 9 33 249 9 33 249 9 33 249 9 33 249 9 34 249 9 34 249 9 34 250 9 34 250 9 34 250 9 34 250 9 35 250 9 35 250 9 35 251 9 35 251 9 35 251 9 35 251 9 36 251 9 36 251 9 36 251 9 36 251 9 36 252 9 36 252 9 37 252 9 37 252 9 37 252 9 37 252 9 37 253 9 37 253 9 38 253 9 38 253 9 38 253 9 38 253 9 38 253 9 38 254 9 39 254 9 39 254 9 39 254 9 39 254 9 39 254 9 40 255 9
0 0 8 0 0 8 0 1 8 0 2 8 0 3 8 0 4 8 0 5 8 1 6 8 1 6 8 1 7 8 1 8 8 1 9 8 1 10 8 2 11 8 2 12 8 2 13 8 2 14 8 2 15 8 2 16 8 3 17 8 3 18 8 3 19 8 3 20 8 3 20 8 3 21 8 4 22 8 4 23 8 4 24 8 4 25 8 4 26 8 5 27 8 5 28 8 5 29 8 5 30 8 5 31 8 5 32 8 5 33 8 6 33 8 6 34 8 6 35 8 6 36 8 6 37 8 6 38 8 7 39 8 7 40 8 7 41 8 7 42 8 7 43 8 8 44 8 8 45 8 8 46 8 8 47 8 8 47 8 8 48 8 8 49 8 9 50 8 9 51 8 9 52 8 9 53 8 9 53 8 10 55 8 10 56 8 10 57 8 10 58 8 10 59 8 10 60 8 10 60 8 11 61 8 11 62 8 11 63 8 11 64 8 11 65 8 11 66 8 12 67 8 12 67 8 12 69 8 12 70 8 12 71 8 13 72 8 13 73 8 13 73 8 13 74 8 13 75 8 13 76 8 13 77 8 14 78 8 14 79 8 14 80 8 14 80 8 14 81 8 15 83 8 15 84 8 15 85 8 15 86 8 15 87 8 15 87 8 16 88 8 16 89 8 16 90 8 16 91 8 16 92 8 16 93 8 16 94 8 17 94 8 17 95 8 17 97 8 17 98 8 17 99 8 18 100 8 18 100 8 18 101 8 18 102 8 18 103 8 18 104 8 18 105 8 19 106 8 19 107 8 19 107 8 19 108 8 19 109 8 20 238 8 20 238 8 20 238 8 20 238 8 20 239 8 20 239 8 21 239 8 21 239 8 21 239 8 21 239 8 21 239 8 21 239 8 21 240 8 22 240 8 22 240 8 22 240 8 22 240 8 22 240 8 23 241 8 23 241 8 23 241 8 23 241 8 23 241 8 23 241 8 24 241 8 24 241 8 24 242 8 24 242 8 24 242 8 24 242 8 25 242 8 25 242 8 25 242 8 25 243 8 25 243 8 25 243 8 26 243 8 26 243 8 26 243 8 26 243 8 26 244 8 26 244 8 26 244 8 27 244 8 27 244 8 27 244 8 27 244 8 27 245 8 28 245 8 28 245 8 28 245 8 28 245 8 28 245 8 28 245 8 29 245 8 29 246 8 29 246 8 29 246 8 29 246 8 29 246 8 30 246 8 30 246 8 30 247 8 30 247 8 30 247 8 30 247 8 31 247 8 31 247 8 31 247 8 31 248 8 31 248 8 31 248 8 32 248 8 32 248 8 32 248 8 32 248 8 32 249 8 32 249 8 33 249 8 33 249 8 33 249 8 33 249 8 33 249 8 33 249 8 34 250 8 34 250 8 34 250 8 34 250 8 34 250 8 34 250 8 35 250 8 35 251 8 35 251 8 35 251 8 35 251 8 35 251 8 36 251 8 36 251 8 36 252 8 36 252 8 36 252 8 36 252 8 37 252 8 37 252 8 37 252 8 37 253 8 37 253 8 37 253 8 38 253 8 38 253 8 38 253 8 38 253 8 38 253 8 38 254 8 39 254 8 39 254 8 39 254 8 39 254 8 39 254 8 40 255 8
0 0 8 0 0 8 0 1 8 0 2 8 0 3 8 0 4 8 0 5 8 1 6 8 1 6 8 1 7 8 1 8 8 1 9 8 1 10 8 2 11 8 2 12 8 2 13 8 2 14 8 2 15 8 2 16 8 3 17 8 3 18 8 3 19 8 3 20 8 3 20 8 3 21 8 4 22 8 4 23 8 4 24 8 4 25 8 4 26 8 5 27 8 5 28 8 5 29 8 5 30 8 5 31 8 5 32 8 5 33 8 6 34 8 6 34 8 6 35 8 6 36 8 6 37 8 6 38 8 7 39 8 7 40 8 7 41 8 7 42 8 7 43 8 8 44 8 8 45 8 8 46 8 8 47 8 8 48 8 8 48 8 8 49 8 9 50 8 9 51 8 9 52 8 9 53 8 9 54 8 10 55 8 10 56 8 10 57 8 10 58 8 10 59 8 10 60 8 10 61 8 11 62 8 11 62 8 11 63 8 11 64 8 11 65 8 11 66 8 12 67 8 12 68 8 12 69 8 12 70 8 12 71 8 13 72 8 13 73 8 13 74 8 13 75 8 13 76 8 13 76 8 13 77 8 14 78 8 14 79 8 14 80 8 14 81 8 14 82 8 15 83 8 15 84 8 15 85 8 15 86 8 15 87 8 15 88 8 16 89 8 16 90 8 16 90 8 16 91 8 16 92 8 16 93 8 16 94 8 17 95 8 17 96 8 17 97 8 17 98 8 17 99 8 18 100 8 18 101 8 18 102 8 18 103 8 18 104 8 18 104 8 18 105 8 19 106 8 19 107 8 19 108 8 19 109 8 19 110 8 20 239 8 20 239 8 20 239 8 20 239 8 20 239 8 20 239 8 21 239 8 21 239 8 21 240 8 21 240 8 21 240 8 21 240 8 21 240 8 22 240 8 22 240 8 22 241 8 22 241 8 22 241 8 23 241 8 23 241 8 23 241 8 23 241 8 23 241 8 23 242 8 24 242 8 24 242 8 24 242 8 24 242 8 24 242 8 24 242 8 25 243 8 25 243 8 25 243 8 25 243 8 25 243 8 25 243 8 26 243 8 26 243 8 26 244 8 26 244 8 26 244 8 26 244 8 26 244 8 27 244 8 27 244 8 27 245 8 27 245 8 27 245 8 28 245 8 28 245 8 28 245 8 28 245 8 28 245 8 28 246 8 29 246 8 29 246 8 29 246 8 29 246 8 29 246 8 29 246 8 30 247 8 30 247 8 30 247 8 30 247 8 30 247 8 30 247 8 31 247 8 31 247 8 31 248 8 31 248 8 31 248 8 31 248 8 32 248 8 32 248 8 32 248 8 32 249 8 32 249 8 32 249 8 33 249 8 33 249 8 33 249 8 33 249 8 33 249 8 33 250 8 34 250 8 34 250 8 34 250 8 34 250 8 34 250 8 34 250 8 35 251 8 35 251 8 35 251 8 35 251 8 35 251 8 35 251 8 36 251 8 36 251 8 36 252 8 36 252 8 36 252 8 36 252 8 37 252 8 37 252 8 37 252 8 37 253 8 37 253 8 37 253 8 38 253 8 38 253 8 38 253 8 38 253 8 38 253 8 38 254 8 39 254 8 39 254 8 39 254 8 39 254 8 39 254 8 40 255 8
0 0 7 0 0 7 0 1 7 0 2 7 0 3 7 0 4 7 0 5 7 1 6 7 1 7 7 1 7 7 1 8 7 1 9 7 1 10 7 2 11 7 2 12 7 2 14 7 2 15 7 2 15 7 2 16 7 3 17 7 3 18 7 3 19 7 3 20 7 3 21 7 3 22 7 4 22 7 4 23 7 4 24 7 4 25 7 4 26 7 5 28 7 5 29 7 5 30 7 5 30 7 5 31 7 5 32 7 5 33 7 6 34 7 6 35 7 6 36 7 6 37 7 6 37 7 6 38 7 7 39 7 7 40 7 7 42 7 7 43 7 7 44 7 8 45 7 8 45 7 8 46 7 8 47 7 8 48 7 8 49 7 8 50 7 9 51 7 9 52 7 9 52 7 9 53 7 9 54 7 10 56 7 10 57 7 10 58 7 10 59 7 10 60 7 10 60 7 10 61 7 11 62 7 11 63 7 11 64 7 11 65 7 11 66 7 11 67 7 12 67 7 12 68 7 12 70 7 12 71 7 12 72 7 13 73 7 13 74 7 13 74 7 13 75 7 13 76 7 13 77 7 13 78 7 14 79 7 14 80 7 14 81 7 14 82 7 14 82 7 15 84 7 15 85 7 15 86 7 15 87 7 15 88 7 15 89 7 16 90 7 16 90 7 16 91 7 16 92 7 16 93 7 16 94 7 16 95 7 17 96 7 17 97 7 17 98 7 17 99 7 17 100 7 18 101 7 18 102 7 18 103 7 18 104 7 18 105 7 18 105 7 18 106 7 19 107 7 19 108 7 19 109 7 19 110 7 19 111 7 20 240 7 20 240 7 20 240 7 20 240 7 20 240 7 20 240 7 21 240 7 21 240 7 21 241 7 21 241 7 21 241 7 21 241 7 21 241 7 22 241 7 22 241 7 22 241 7 22 242 7 22 242 7 23 242 7 23 242 7 23 242 7 23 242 7 23 242 7 23 242 7 24 243 7 24 243 7 24 243 7 24 243 7 24 243 7 24 243 7 25 243 7 25 243 7 25 244 7 25 244 7 25 244 7 25 244 7 26 244 7 26 244 7 26 244 7 26 244 7 26 245 7 26 245 7 26 245 7 27 245 7 27 245 7 27 245 7 27 245 7 27 245 7 28 246 7 28 246 7 28 246 7 28 246 7 28 246 7 28 246 7 29 246 7 29 246 7 29 247 7 29 247 7 29 247 7 29 247 7 30 247 7 30 247 7 30 247 7 30 247 7 30 248 7 30 248 7 31 248 7 31 248 7 31 248 7 31 248 7 31 248 7 31 248 7 32 249 7 32 249 7 32 249 7 32 249 7 32 249 7 32 249 7 33 249 7 33 249 7 33 250 7 33 250 7 33 250 7 33 250 7 34 250 7 34 250 7 34 250 7 34 250 7 34 251 7 34 251 7 35 251 7 35 251 7 35 251 7 35 251 7 35 251 7 35 251 7 36 252 7 36 252 7 36 252 7 36 252 7 36 252 7 36 252 7 37 252 7 37 252 7 37 253 7 37 253 7 37 253 7 37 253 7 38 253 7 38 253 7 38 253 7 38 253 7 38 254 7 38 254 7 39 254 7 39 254 7 39 254 7 39 254 7 39 254 7 40 255 7
0 0 7 0 0 7 0 1 7 0 2 7 0 3 7 0 4 7 0 5 7 1 6 7 1 7 7 1 7 7 1 8 7 1 9 7 1 10 7 2 11 7 2 12 7 2 14 7 2 15 7 2 15 7 2 16 7 3 17 7 3 18 7 3 19 7 3 20 7 3 21 7 3 22 7 4 23 7 4 23 7 4 24 7 4 25 7 4 26 7 5 28 7 5 29 7 5 30 7 5 31 7 5 31 7 5 32 7 5 33 7 6 34 7 6 35 7 6 36 7 6 37 7 6 38 7 6 38 7 7 39 7 7 40 7 7 42 7 7 43 7 7 44 7 8 45 7 8 46 7 8 46 7 8 47 7 8 48 7 8 49 7 8 50 7 9 51 7 9 52 7 9 53 7 9 54 7 9 54 7 10 56 7 10 57 7 10 58 7 10 59 7 10 60 7 10 61 7 10 62 7 11 62 7 11 63 7 11 64 7 11 65 7 11 66 7 11 67 7 12 68 7 12 69 7 12 70 7 12 71 7 12 72 7 13 73 7 13 74 7 13 75 7 13 76 7 13 77 7 13 77 7 13 78 7 14 79 7 14 80 7 14 81 7 14 82 7 14 83 7 15 85 7 15 85 7 15 86 7 15 87 7 15 88 7 15 89 7 16 90 7 16 91 7 16 92 7 16 93 7 16 93 7 16 94 7 16 95 7 17 96 7 17 97 7 17 99 7 17 100 7 17 101 7 18 101 7 18 102 7 18 103 7 18 104 7 18 105 7 18 106 7 18 107 7 19 108 7 19 109 7 19 109 7 19 110 7 19 111 7 20 240 7 20 240 7 20 240 7 20 240 7 20 241 7 20 241 7 21 241 7 21 241 7 21 241 7 21 241 7 21 241 7 21 241 7 21 241 7 22 242 7 22 242 7 22 242 7 22 242 7 22 242 7 23 242 7 23 242 7 23 242 7 23 243 7 23 243 7 23 243 7 24 243 7 24 243 7 24 243 7 24 243 7 24 243 7 24 243 7 25 244 7 25 244 7 25 244 7 25 244 7 25 244 7 25 244 7 26 244 7 26 244 7 26 245 7 26 245 7 26 245 7 26 245 7 26 245 7 27 245 7 27 245 7 27 246 7 27 246 7 27 246 7 28 246 7 28 246 7 28 246 7 28 246 7 28 246 7 28 246 7 29 247 7 29 247 7 29 247 7 29 247 7 29 247 7 29 247 7 30 247 7 30 247 7 30 248 7 30 248 7 30 248 7 30 248 7 31 248 7 31 248 7 31 248 7 31 248 7 31 248 7 31 249 7 32 249 7 32 249 7 32 249 7 32 249 7 32 249 7 32 249 7 33 249 7 33 250 7 33 250 7 33 250 7 33 250 7 33 250 7 34 250 7 34 250 7 34 250 7 34 251 7 34 251 7 34 251 7 35 251 7 35 251 7 35 251 7 35 251 7 35 251 7 35 252 7 36 252 7 36 252 7 36 252 7 36 252 7 36 252 7 36 252 7 37 252 7 37 252 7 37 253 7 37 253 7 37 253 7 37 253 7 38 253 7 38 253 7 38 253 7 38 253 7 38 254 7 38 254 7 39 254 7 39 254 7 39 254 7 39 254 7 39 254 7 40 255 7
0 0 7 0 0 7 0 1 7 0 2 7 0 3 7 0 4 7 0 5 7 1 6 7 1 7 7 1 8 7 1 8 7 1 9 7 1 10 7 2 11 7 2 12 7 2 14 7 2 15 7 2 16 7 2 16 7 3 17 7 3 18 7 3 19 7 3 20 7 3 21 7 3 22 7 4 23 7 4 24 7 4 24 7 4 25 7 4 26 7 5 28 7 5 29 7 5 30 7 5 31 7 5 32 7 5 32 7 5 33 7 6 34 7 6 35 7 6 36 7 6 37 7 6 38 7 6 39 7 7 40 7 7 40 7 7 42 7 7 43 7 7 44 7 8 45 7 8 46 7 8 47 7 8 48 7 8 48 7 8 49 7 8 50 7 9 51 7 9 52 7 9 53 7 9 54 7 9 55 7 10 56 7 10 57 7 10 58 7 10 59 7 10 60 7 10 61 7 10 62 7 11 63 7 11 64 7 11 64 7 11 65 7 11 66 7 11 67 7 12 68 7 12 69 7 12 71 7 12 72 7 12 72 7 13 73 7 13 74 7 13 75 7 13 76 7 13 77 7 13 78 7 13 79 7 14 80 7 14 81 7 14 81 7 14 82 7 14 83 7 15 85 7 15 86 7 15 87 7 15 88 7 15 89 7 15 89 7 16 90 7 16 91 7 16 92 7 16 93 7 16 94 7 16 95 7 16 96 7 17 97 7 17 97 7 17 99 7 17 100 7 17 101 7 18 102 7 18 103 7 18 104 7 18 105 7 18 105 7 18 106 7 18 107 7 19 108 7 19 109 7 19 110 7 19 111 7 19 112 7 20 241 7 20 241 7 20 241 7 20 241 7 20 241 7 20 241 7 21 241 7 21 241 7 21 241 7 21 242 7 21 242 7 21 242 7 21 242 7 22 242 7 22 242 7 22 242 7 22 242 7 22 243 7 23 243 7 23 243 7 23 243 7 23 243 7 23 243 7 23 243 7 24 243 7 24 243 7 24 244 7 24 244 7 24 244 7 24 244 7 25 244 7 25 244 7 25 244 7 25 244 7 25 245 7 25 245 7 26 245 7 26 245 7 26 245 7 26 245 7 26 245 7 26 245 7 26 245 7 27 245 7 27 246 7 27 246 7 27 246 7 27 246 7 28 246 7 28 246 7 28 246 7 28 246 7 28 247 7 28 247 7 29 247 7 29 247 7 29 247 7 29 247 7 29 247 7 29 247 7 30 248 7 30 248 7 30 248 7 30 248 7 30 248 7 30 248 7 31 248 7 31 248 7 31 248 7 31 249 7 31 249 7 31 249 7 32 249 7 32 249 7 32 249 7 32 249 7 32 249 7 32 250 7 33 250 7 33 250 7 33 250 7 33 250 7 33 250 7 33 250 7 34 250 7 34 250 7 34 251 7 34 251 7 34 251 7 34 251 7 35 251 7 35 251 7 35 251 7 35 251 7 35 252 7 35 252 7 36 252 7 36 252 7 36 252 7 36 252 7 36 252 7 36 252 7 37 252 7 37 253 7 37 253 7 37 253 7 37 253 7 37 253 7 38 253 7 38 253 7 38 253 7 38 254 7 38 254 7 38 254 7 39 254 7 39 254 7 39 254 7 39 254 7 39 254 7 40 255 7
0 0 6 0 0 6 0 1 6 0 2 6 0 3 6 0 4 6 0 5 6 1 6 6 1 7 6 1 8 6 1 8 6 1 9 6 1 10 6 2 11 6 2 12 6 2 14 6 2 15 6 2 16 6 2 17 6 3 17 6 3 18 6 3 19 6 3 20 6 3 21 6 3 22 6 4 23 6 4 24 6 4 25 6 4 26 6 4 26 6 5 28 6 5 29 6 5 30 6 5 31 6 5 32 6 5 33 6 5 34 6 6 35 6 6 35 6 6 36 6 6 37 6 6 38 6 6 39 6 7 40 6 7 41 6 7 43 6 7 44 6 7 44 6 8 45 6 8 46 6 8 47 6 8 48 6 8 49 6 8 50 6 8 51 6 9 52 6 9 52 6 9 53 6 9 54 6 9 55 6 10 57 6 10 58 6 10 59 6 10 60 6 10 61 6 10 61 6 10 62 6 11 63 6 11 64 6 11 65 6 11 66 6 11 67 6 11 68 6 12 69 6 12 70 6 12 71 6 12 72 6 12 73 6 13 74 6 13 75 6 13 76 6 13 77 6 13 78 6 13 79 6 13 79 6 14 80 6 14 81 6 14 82 6 14 83 6 14 84 6 15 86 6 15 87 6 15 88 6 15 88 6 15 89 6 15 90 6 16 91 6 16 92 6 16 93 6 16 94 6 16 95 6 16 96 6 16 96 6 17 97 6 17 98 6 17 100 6 17 101 6 17 102 6 18 103 6 18 104 6 18 105 6 18 105 6 18 106 6 18 107 6 18 108 6 19 109 6 19 110 6 19 111 6 19 112 6 19 113 6 20 242 6 20 242 6 20 242 6 20 242 6 20 242 6 20 242 6 21 242 6 21 242 6 21 242 6 21 242 6 21 243 6 21 243 6 21 243 6 22 243 6 22 243 6 22 243 6 22 243 6 22 243 6 23 243 6 23 244 6 23 244 6 23 244 6 23 244 6 23 244 6 24 244 6 24 244 6 24 244 6 24 244 6 24 245 6 24 245 6 25 245 6 25 245 6 25 245 6 25 245 6 25 245 6 25 245 6 26 245 6 26 246 6 26 246 6 26 246 6 26 246 6 26 246 6 26 246 6 27 246 6 27 246 6 27 246 6 27 247 6 27 247 6 28 247 6 28 247 6 28 247 6 28 247 6 28 247 6 28 247 6 29 247 6 29 247 6 29 248 6 29 248 6 29 248 6 29 248 6 30 248 6 30 248 6 30 248 6 30 248 6 30 248 6 30 249 6 31 249 6 31 249 6 31 249 6 31 249 6 31 249 6 31 249 6 32 249 6 32 249 6 32 250 6 32 250 6 32 250 6 32 250 6 33 250 6 33 250 6 33 250 6 33 250 6 33 250 6 33 251 6 34 251 6 34 251 6 34 251 6 34 251 6 34 251 6 34 251 6 35 251 6 35 251 6 35 252 6 35 252 6 35 252 6 35 252 6 36 252 6 36 252 6 36 252 6 36 252 6 36 252 6 36 252 6 37 253 6 37 253 6 37 253 6 37 253 6 37 253 6 37 253 6 38 253 6 38 253 6 38 253 6 38 254 6 38 254 6 38 254 6 39 254 6 39 254 6 39 254 6 39 254 6 39 254 6 40 255 6
0 0 6 0 0 6 0 1 6 0 2 6 0 3 6 0 4 6 0 5 6 1 6 6 1 7 6 1 8 6 1 9 6 1 9 6 1 10 6 2 11 6 2 12 6 2 14 6 2 15 6 2 16 6 2 17 6 3 18 6 3 18 6 3 19 6 3 20 6 3 21 6 3 22 6 4 23 6 4 24 6 4 25 6 4 26 6 4 27 6 5 28 6 5 29 6 5 30 6 5 31 6 5 32 6 5 33 6 5 34 6 6 35 6 6 36 6 6 36 6 6 37 6 6 38 6 6 39 6 7 40 6 7 41 6 7 43 6 7 44 6 7 45 6 8 46 6 8 46 6 8 47 6 8 48 6 8 49 6 8 50 6 8 51 6 9 52 6 9 53 6 9 54 6 9 55 6 9 55 6 10 57 6 10 58 6 10 59 6 10 60 6 10 61 6 10 62 6 10 63 6 11 64 6 11 64 6 11 65 6 11 66 6 11 67 6 11 68 6 12 69 6 12 70 6 12 72 6 12 73 6 12 73 6 13 74 6 13 75 6 13 76 6 13 77 6 13 78 6 13 79 6 13 80 6 14 81 6 14 82 6 14 82 6 14 83 6 14 84 6 15 86 6 15 87 6 15 88 6 15 89 6 15 90 6 15 91 6 16 92 6 16 92 6 16 93 6 16 94 6 16 95 6 16 96 6 16 97 6 17 98 6 17 99 6 17 101 6 17 101 6 17 102 6 18 103 6 18 104 6 18 105 6 18 106 6 18 107 6 18 108 6 18 109 6 19 110 6 19 110 6 19 111 6 19 112 6 19 113 6 20 242 6 20 242 6 20 242 6 20 242 6 20 242 6 20 243 6 21 243 6 21 243 6 21 243 6 21 243 6 21 243 6 21 243 6 21 243 6 22 243 6 22 243 6 22 244 6 22 244 6 22 244 6 23 244 6 23 244 6 23 244 6 23 244 6 23 244 6 23 244 6 24 245 6 24 245 6 24 245 6 24 245 6 24 245 6 24 245 6 25 245 6 25 245 6 25 245 6 25 245 6 25 246 6 25 246 6 26 246 6 26 246 6 26 246 6 26 246 6 26 246 6 26 246 6 26 246 6 27 246 6 27 247 6 27 247 6 27 247 6 27 247 6 28 247 6 28 247 6 28 247 6 28 247 6 28 247 6 28 248 6 29 248 6 29 248 6 29 248 6 29 248 6 29 248 6 29 248 6 30 248 6 30 248 6 30 249 6 30 249 6 30 249 6 30 249 6 31 249 6 31 249 6 31 249 6 31 249 6 31 249 6 31 249 6 32 250 6 32 250 6 32 250 6 32 250 6 32 250 6 32 250 6 33 250 6 33 250 6 33 250 6 33 250 6 33 251 6 33 251 6 34 251 6 34 251 6 34 251 6 34 251 6 34 251 6 34 251 6 35 251 6 35 252 6 35 252 6 35 252 6 35 252 6 35 252 6 36 252 6 36 252 6 36 252 6 36 252 6 36 252 6 36 253 6 37 253 6 37 253 6 37 253 6 37 253 6 37 253 6 37 253 6 38 253 6 38 253 6 38 254 6 38 254 6 38 254 6 38 254 6 39 254 6 39 254 6 39 254 6 39 254 6 39 254 6 40 255 6
0 0 6 0 0 6 0 1 6 0 2 6 0 3 6 0 4 6 0 5 6 1 6 6 1 7 6 1 8 6 1 9 6 1 10 6 1 10 6 2 11 6 2 12 6 2 14 6 2 15 6 2 16 6 2 17 6 3 18 6 3 19 6 3 20 6 3 20 6 3 21 6 3 22 6 4 23 6 4 24 6 4 25 6 4 26 6 4 27 6 5 29 6 5 30 6 5 30 6 5 31 6 5 32 6 5 33 6 5 34 6 6 35 6 6 36 6 6 37 6 6 38 6 6 39 6 6 40 6 7 40 6 7 41 6 7 43 6 7 44 6 7 45 6 8 46 6 8 47 6 8 48 6 8 49 6 8 50 6 8 50 6 8 51 6 9 52 6 9 53 6 9 54 6 9 55 6 9 56 6 10 58 6 10 59 6 10 60 6 10 60 6 10 61 6 10 62 6 10 63 6 11 64 6 11 65 6 11 66 6 11 67 6 11 68 6 11 69 6 12 70 6 12 70 6 12 72 6 12 73 6 12 74 6 13 75 6 13 76 6 13 77 6 13 78 6 13 79 6 13 80 6 13 80 6 14 81 6 14 82 6 14 83 6 14 84 6 14 85 6 15 87 6 15 88 6 15 89 6 15 90 6 15 90 6 15 91 6 16 92 6 16 93 6 16 94 6 16 95 6 16 96 6 16 97 6 16 98 6 17 99 6 17 100 6 17 101 6 17 102 6 17 103 6 18 104 6 18 105 6 18 106 6 18 107 6 18 108 6 18 109 6 18 110 6 19 110 6 19 111 6 19 112 6 19 113 6 19 114 6 20 243 6 20 243 6 20 243 6 20 243 6 20 243 6 20 243 6 21 244 6 21 244 6 21 244 6 21 244 6 21 244 6 21 244 6 21 244 6 22 244 6 22 244 6 22 244 6 22 245 6 22 245 6 23 245 6 23 245 6 23 245 6 23 245 6 23 245 6 23 245 6 24 245 6 24 245 6 24 245 6 24 246 6 24 246 6 24 246 6 25 246 6 25 246 6 25 246 6 25 246 6 25 246 6 25 246 6 26 246 6 26 247 6 26 247 6 26 247 6 26 247 6 26 247 6 26 247 6 27 247 6 27 247 6 27 247 6 27 247 6 27 248 6 28 248 6 28 248 6 28 248 6 28 248 6 28 248 6 28 248 6 29 248 6 29 248 6 29 248 6 29 248 6 29 249 6 29 249 6 30 249 6 30 249 6 30 249 6 30 249 6 30 249 6 30 249 6 31 249 6 31 249 6 31 250 6 31 250 6 31 250 6 31 250 6 32 250 6 32 250 6 32 250 6 32 250 6 32 250 6 32 250 6 33 251 6 33 251 6 33 251 6 33 251 6 33 251 6 33 251 6 34 251 6 34 251 6 34 251 6 34 251 6 34 251 6 34 252 6 35 252 6 35 252 6 35 252 6 35 252 6 35 252 6 35 252 6 36 252 6 36 252 6 36 252 6 36 253 6 36 253 6 36 253 6 37 253 6 37 253 6 37 253 6 37 253 6 37 253 6 37 253 6 38 253 6 38 254 6 38 254 6 38 254 6 38 254 6 38 254 6 39 254 6 39 254 6 39 254 6 39 254 6 39 254 6 40 255 6
0 0 5 0 0 5 0 1 5 0 2 5 0 3 5 0 4 5 0 5 5 1 6 5 1 7 5 1 8 5 1 9 5 1 10 5 1 10 5 2 11 5 2 12 5 2 14 5 2 15 5 2 16 5 2 17 5 3 18 5 3 19 5 3 20 5 3 21 5 3 21 5 3 22 5 4 23 5 4 24 5 4 25 5 4 26 5 4 27 5 5 29 5 5 30 5 5 31 5 5 31 5 5 32 5 5 33 5 5 34 5 6 35 5 6 36 5 6 37 5 6 38 5 6 39 5 6 40 5 7 41 5 7 42 5 7 43 5 7 44 5 7 45 5 8 46 5 8 47 5 8 48 5 8 49 5 8 50 5 8 51 5 8 52 5 9 52 5 9 53 5 9 54 5 9 55 5 9 56 5 10 58 5 10 59 5 10 60 5 10 61 5 10 62 5 10 63 5 10 63 5 11 64 5 11 65 5 11 66 5 11 67 5 11 68 5 11 69 5 12 70 5 12 71 5 12 73 5 12 74 5 12 74 5 13 75 5 13 76 5 13 77 5 13 78 5 13 79 5 13 80 5 13 81 5 14 82 5 14 83 5 14 84 5 14 84 5 14 85 5 15 87 5 15 88 5 15 89 5 15 90 5 15 91 5 15 92 5 16 93 5 16 94 5 16 95 5 16 95 5 16 96 5 16 97 5 16 98 5 17 99 5 17 100 5 17 102 5 17 103 5 17 104 5 18 105 5 18 105 5 18 106 5 18 107 5 18 108 5 18 109 5 18 110 5 19 111 5 19 112 5 19 113 5 19 114 5 19 115 5 20 244 5 20 244 5 20 244 5 20 244 5 20 244 5 20 244 5 21 244 5 21 244 5 21 244 5 21 244 5 21 244 5 21 244 5 21 245 5 22 245 5 22 245 5 22 245 5 22 245 5 22 245 5 23 245 5 23 245 5 23 245 5 23 245 5 23 246 5 23 246 5 24 246 5 24 246 5 24 246 5 24 246 5 24 246 5 24 246 5 25 246 5 25 246 5 25 246 5 25 247 5 25 247 5 25 247 5 26 247 5 26 247 5 26 247 5 26 247 5 26 247 5 26 247 5 26 247 5 27 247 5 27 248 5 27 248 5 27 248 5 27 248 5 28 248 5 28 248 5 28 248 5 28 248 5 28 248 5 28 248 5 29 248 5 29 249 5 29 249 5 29 249 5 29 249 5 29 249 5 30 249 5 30 249 5 30 249 5 30 249 5 30 249 5 30 249 5 31 250 5 31 250 5 31 250 5 31 250 5 31 250 5 31 250 5 32 250 5 32 250 5 32 250 5 32 250 5 32 251 5 32 251 5 33 251 5 33 251 5 33 251 5 33 251 5 33 251 5 33 251 5 34 251 5 34 251 5 34 251 5 34 251 5 34 252 5 34 252 5 35 252 5 35 252 5 35 252 5 35 252 5 35 252 5 35 252 5 36 252 5 36 252 5 36 253 5 36 253 5 36 253 5 36 253 5 37 253 5 37 253 5 37 253 5 37 253 5 37 253 5 37 253 5 38 253 5 38 254 5 38 254 5 38 254 5 38 254 5 38 254 5 39 254 5 39 254 5 39 254 5 39 254 5 39 254 5 40 255 5
0 0 5 0 0 5 0 1 5 0 2 5 0 3 5 0 4 5 0 5 5 1 6 5 1 7 5 1 8 5 1 9 5 1 10 5 1 11 5 2 11 5 2 12 5 2 14 5 2 15 5 2 16 5 2 17 5 3 18 5 3 19 5 3 20 5 3 21 5 3 22 5 3 23 5 4 23 5 4 24 5 4 25 5 4 26 5 4 27 5 5 29 5 5 30 5 5 31 5 5 32 5 5 33 5 5 34 5 5 35 5 6 35 5 6 36 5 6 37 5 6 38 5 6 39 5 6 40 5 7 41 5 7 42 5 7 44 5 7 45 5 7 46 5 8 47 5 8 47 5 8 48 5 8 49 5 8 50 5 8 51 5 8 52 5 9 53 5 9 54 5 9 55 5 9 56 5 9 57 5 10 58 5 10 59 5 10 60 5 10 61 5 10 62 5 10 63 5 10 64 5 11 65 5 11 66 5 11 67 5 11 68 5 11 69 5 11 70 5 12 70 5 12 71 5 12 73 5 12 74 5 12 75 5 13 76 5 13 77 5 13 78 5 13 79 5 13 80 5 13 81 5 13 82 5 14 82 5 14 83 5 14 84 5 14 85 5 14 86 5 15 88 5 15 89 5 15 90 5 15 91 5 15 92 5 15 93 5 16 94 5 16 94 5 16 95 5 16 96 5 16 97 5 16 98 5 16 99 5 17 100 5 17 101 5 17 103 5 17 104 5 17 105 5 18 105 5 18 106 5 18 107 5 18 108 5 18 109 5 18 110 5 18 111 5 19 112 5 19 113 5 19 114 5 19 115 5 19 116 5 20 245 5 20 245 5 20 245 5 20 245 5 20 245 5 20 245 5 21 245 5 21 245 5 21 245 5 21 245 5 21 245 5 21 245 5 21 245 5 22 246 5 22 246 5 22 246 5 22 246 5 22 246 5 23 246 5 23 246 5 23 246 5 23 246 5 23 246 5 23 246 5 24 247 5 24 247 5 24 247 5 24 247 5 24 247 5 24 247 5 25 247 5 25 247 5 25 247 5 25 247 5 25 247 5 25 247 5 26 248 5 26 248 5 26 248 5 26 248 5 26 248 5 26 248 5 26 248 5 27 248 5 27 248 5 27 248 5 27 248 5 27 248 5 28 249 5 28 249 5 28 249 5 28 249 5 28 249 5 28 249 5 29 249 5 29 249 5 29 249 5 29 249 5 29 249 5 29 249 5 30 250 5 30 250 5 30 250 5 30 250 5 30 250 5 30 250 5 31 250 5 31 250 5 31 250 5 31 250 5 31 250 5 31 250 5 32 251 5 32 251 5 32 251 5 32 251 5 32 251 5 32 251 5 33 251 5 33 251 5 33 251 5 33 251 5 33 251 5 33 251 5 34 252 5 34 252 5 34 252 5 34 252 5 34 252 5 34 252 5 35 252 5 35 252 5 35 252 5 35 252 5 35 252 5 35 252 5 36 253 5 36 253 5 36 253 5 36 253 5 36 253 5 36 253 5 37 253 5 37 253 5 37 253 5 37 253 5 37 253 5 37 253 5 38 254 5 38 254 5 38 254 5 38 254 5 38 254 5 38 254 5 39 254 5 39 254 5 39 254 5 39 254 5 39 254 5 40 255 5
0 0 4 0 0 4 0 1 4 0 2 4 0 3 4 0 4 4 0 5 4 1 6 4 1 7 4 1 8 4 1 9 4 1 10 4 1 11 4 2 12 4 2 12 4 2 14 4 2 15 4 2 16 4 2 17 4 3 18 4 3 19 4 3 20 4 3 21 4 3 22 4 3 23 4 4 24 4 4 24 4 4 25 4 4 26 4 4 27 4 5 29 4 5 30 4 5 31 4 5 32 4 5 33 4 5 34 4 5 35 4 6 36 4 6 37 4 6 37 4 6 38 4 6 39 4 6 40 4 7 41 4 7 42 4 7 44 4 7 45 4 7 46 4 8 47 4 8 48 4 8 49 4 8 49 4 8 50 4 8 51 4 8 52 4 9 53 4 9 54 4 9 55 4 9 56 4 9 57 4 10 59 4 10 60 4 10 61 4 10 62 4 10 62 4 10 63 4 10 64 4 11 65 4 11 66 4 11 67 4 11 68 4 11 69 4 11 70 4 12 71 4 12 72 4 12 74 4 12 74 4 12 75 4 13 76 4 13 77 4 13 78 4 13 79 4 13 80 4 13 81 4 13 82 4 14 83 4 14 84 4 14 85 4 14 86 4 14 86 4 15 88 4 15 89 4 15 90 4 15 91 4 15 92 4 15 93 4 16 94 4 16 95 4 16 96 4 16 97 4 16 98 4 16 99 4 16 99 4 17 100 4 17 101 4 17 103 4 17 104 4 17 105 4 18 106 4 18 107 4 18 108 4 18 109 4 18 110 4 18 111 4 18 111 4 19 112 4 19 113 4 19 114 4 19 115 4 19 116 4 20 245 4 20 245 4 20 245 4 20 245 4 20 245 4 20 245 4 21 245 4 21 246 4 21 246 4 21 246 4 21 246 4 21 246 4 21 246 4 22 246 4 22 246 4 22 246 4 22 246 4 22 246 4 23 246 4 23 247 4 23 247 4 23 247 4 23 247 4 23 247 4 24 247 4 24 247 4 24 247 4 24 247 4 24 247 4 24 247 4 25 247 4 25 247 4 25 248 4 25 248 4 25 248 4 25 248 4 26 248 4 26 248 4 26 248 4 26 248 4 26 248 4 26 248 4 26 248 4 27 248 4 27 248 4 27 249 4 27 249 4 27 249 4 28 249 4 28 249 4 28 249 4 28 249 4 28 249 4 28 249 4 29 249 4 29 249 4 29 249 4 29 250 4 29 250 4 29 250 4 30 250 4 30 250 4 30 250 4 30 250 4 30 250 4 30 250 4 31 250 4 31 250 4 31 250 4 31 250 4 31 251 4 31 251 4 32 251 4 32 251 4 32 251 4 32 251 4 32 251 4 32 251 4 33 251 4 33 251 4 33 251 4 33 251 4 33 252 4 33 252 4 34 252 4 34 252 4 34 252 4 34 252 4 34 252 4 34 252 4 35 252 4 35 252 4 35 252 4 35 252 4 35 252 4 35 253 4 36 253 4 36 253 4 36 253 4 36 253 4 36 253 4 36 253 4 37 253 4 37 253 4 37 253 4 37 253 4 37 253 4 37 254 4 38 254 4 38 254 4 38 254 4 38 254 4 38 254 4 38 254 4 39 254 4 39 254 4 39 254 4 39 254 4 39 254 4 40 255 4
0 0 4 0 0 4 0 1 4 0 2 4 0 3 4 0 4 4 0 5 4 1 6 4 1 7 4 1 8 4 1 9 4 1 10 4 1 11 4 2 12 4 2 13 4 2 14 4 2 15 4 2 16 4 2 17 4 3 18 4 3 19 4 3 20 4 3 21 4 3 22 4 3 23 4 4 24 4 4 25 4 4 26 4 4 26 4 4 27 4 5 29 4 5 30 4 5 31 4 5 32 4 5 33 4 5 34 4 5 35 4 6 36 4 6 37 4 6 38 4 6 39 4 6 39 4 6 40 4 7 41 4 7 42 4 7 44 4 7 45 4 7 46 4 8 47 4 8 48 4 8 49 4 8 50 4 8 51 4 8 52 4 8 52 4 9 53 4 9 54 4 9 55 4 9 56 4 9 57 4 10 59 4 10 60 4 10 61 4 10 62 4 10 63 4 10 64 4 10 65 4 11 65 4 11 66 4 11 67 4 11 68 4 11 69 4 11 70 4 12 71 4 12 72 4 12 74 4 12 75 4 12 76 4 13 77 4 13 78 4 13 79 4 13 79 4 13 80 4 13 81 4 13 82 4 14 83 4 14 84 4 14 85 4 14 86 4 14 87 4 15 89 4 15 90 4 15 91 4 15 92 4 15 92 4 15 93 4 16 94 4 16 95 4 16 96 4 16 97 4 16 98 4 16 99 4 16 100 4 17 101 4 17 102 4 17 104 4 17 105 4 17 105 4 18 106 4 18 107 4 18 108 4 18 109 4 18 110 4 18 111 4 18 112 4 19 113 4 19 114 4 19 115 4 19 116 4 19 117 4 20 246 4 20 246 4 20 246 4 20 246 4 20 246 4 20 246 4 21 246 4 21 246 4 21 246 4 21 246 4 21 246 4 21 246 4 21 246 4 22 246 4 22 247 4 22 247 4 22 247 4 22 247 4 23 247 4 23 247 4 23 247 4 23 247 4 23 247 4 23 247 4 24 247 4 24 247 4 24 247 4 24 248 4 24 248 4 24 248 4 25 248 4 25 248 4 25 248 4 25 248 4 25 248 4 25 248 4 26 248 4 26 248 4 26 248 4 26 248 4 26 249 4 26 249 4 26 249 4 27 249 4 27 249 4 27 249 4 27 249 4 27 249 4 28 249 4 28 249 4 28 249 4 28 249 4 28 249 4 28 249 4 29 250 4 29 250 4 29 250 4 29 250 4 29 250 4 29 250 4 30 250 4 30 250 4 30 250 4 30 250 4 30 250 4 30 250 4 31 250 4 31 251 4 31 251 4 31 251 4 31 251 4 31 251 4 32 251 4 32 251 4 32 251 4 32 251 4 32 251 4 32 251 4 33 251 4 33 251 4 33 252 4 33 252 4 33 252 4 33 252 4 34 252 4 34 252 4 34 252 4 34 252 4 34 252 4 34 252 4 35 252 4 35 252 4 35 252 4 35 253 4 35 253 4 35 253 4 36 253 4 36 253 4 36 253 4 36 253 4 36 253 4 36 253 4 37 253 4 37 253 4 37 253 4 37 253 4 37 254 4 37 254 4 38 254 4 38 254 4 38 254 4 38 254 4 38 254 4 38 254 4 39 254 4 39 254 4 39 254 4 39 254 4 39 254 4 40 255 4
0 0 4 0 0 4 0 1 4 0 2 4 0 3 4 0 4 4 0 5 4 1 6 4 1 7 4 1 8 4 1 9 4 1 10 4 1 11 4 2 12 4 2 13 4 2 14 4 2 15 4 2 16 4 2 17 4 3 18 4 3 19 4 3 20 4 3 21 4 3 22 4 3 23 4 4 24 4 4 25 4 4 26 4 4 27 4 4 28 4 5 29 4 5 30 4 5 31 4 5 32 4 5 33 4 5 34 4 5 35 4 6 36 4 6 37 4 6 38 4 6 39 4 6 40 4 6 41 4 7 42 4 7 43 4 7 44 4 7 45 4 7 46 4 8 47 4 8 48 4 8 49 4 8 50 4 8 51 4 8 52 4 8 53 4 9 54 4 9 55 4 9 56 4 9 57 4 9 58 4 10 59 4 10 60 4 10 61 4 10 62 4 10 63 4 10 64 4 10 65 4 11 66 4 11 67 4 11 68 4 11 69 4 11 70 4 11 71 4 12 72 4 12 73 4 12 74 4 12 75 4 12 76 4 13 77 4 13 78 4 13 79 4 13 80 4 13 81 4 13 82 4 13 83 4 14 84 4 14 85 4 14 86 4 14 87 4 14 88 4 15 89 4 15 90 4 15 91 4 15 92 4 15 93 4 15 94 4 16 95 4 16 96 4 16 97 4 16 98 4 16 99 4 16 100 4 16 101 4 17 102 4 17 103 4 17 104 4 17 105 4 17 106 4 18 107 4 18 108 4 18 109 4 18 110 4 18 111 4 18 112 4 18 113 4 19 114 4 19 115 4 19 116 4 19 117 4 19 118 4 20 247 4 20 247 4 20 247 4 20 247 4 20 247 4 20 247 4 21 247 4 21 247 4 21 247 4 21 247 4 21 247 4 21 247 4 21 247 4 22 247 4 22 247 4 22 248 4 22 248 4 22 248 4 23 248 4 23 248 4 23 248 4 23 248 4 23 248 4 23 248 4 24 248 4 24 248 4 24 248 4 24 248 4 24 248 4 24 248 4 25 249 4 25 249 4 25 249 4 25 249 4 25 249 4 25 249 4 26 249 4 26 249 4 26 249 4 26 249 4 26 249 4 26 249 4 26 249 4 27 249 4 27 249 4 27 250 4 27 250 4 27 250 4 28 250 4 28 250 4 28 250 4 28 250 4 28 250 4 28 250 4 29 250 4 29 250 4 29 250 4 29 250 4 29 250 4 29 250 4 30 251 4 30 251 4 30 251 4 30 251 4 30 251 4 30 251 4 31 251 4 31 251 4 31 251 4 31 251 4 31 251 4 31 251 4 32 251 4 32 251 4 32 251 4 32 252 4 32 252 4 32 252 4 33 252 4 33 252 4 33 252 4 33 252 4 33 252 4 33 252 4 34 252 4 34 252 4 34 252 4 34 252 4 34 252 4 34 252 4 35 253 4 35 253 4 35 253 4 35 253 4 35 253 4 35 253 4 36 253 4 36 253 4 36 253 4 36 253 4 36 253 4 36 253 4 37 253 4 37 253 4 37 253 4 37 254 4 37 254 4 37 254 4 38 254 4 38 254 4 38 254 4 38 254 4 38 254 4 38 254 4 39 254 4 39 254 4 39 254 4 39 254 4 39 254 4 40 255 4
0 0 3 0 0 3 0 1 3 0 2 3 0 3 3 0 4 3 0 5 3 1 6 3 1 7 3 1 8 3 1 9 3 1 10 3 1 11 3 2 12 3 2 13 3 2 15 3 2 16 3 2 16 3 2 17 3 3 18 3 3 19 3 3 20 3 3 21 3 3 22 3 3 23 3 4 24 3 4 25 3 4 26 3 4 27 3 4 28 3 5 30 3 5 31 3 5 32 3 5 32 3 5 33 3 5 34 3 5 35 3 6 36 3 6 37 3 6 38 3 6 39 3 6 40 3 6 41 3 7 42 3 7 43 3 7 45 3 7 46 3 7 47 3 8 48 3 8 48 3 8 49 3 8 50 3 8 51 3 8 52 3 8 53 3 9 54 3 9 55 3 9 56 3 9 57 3 9 58 3 10 60 3 10 61 3 10 62 3 10 63 3 10 64 3 10 64 3 10 65 3 11 66 3 11 67 3 11 68 3 11 69 3 11 70 3 11 71 3 12 72 3 12 73 3 12 75 3 12 76 3 12 77 3 13 78 3 13 79 3 13 80 3 13 80 3 13 81 3 13 82 3 13 83 3 14 84 3 14 85 3 14 86 3 14 87 3 14 88 3 15 90 3 15 91 3 15 92 3 15 93 3 15 94 3 15 95 3 16 96 3 16 96 3 16 97 3 16 98 3 16 99 3 16 100 3 16 101 3 17 102 3 17 103 3 17 105 3 17 106 3 17 107 3 18 108 3 18 109 3 18 110 3 18 111 3 18 112 3 18 112 3 18 113 3 19 114 3 19 115 3 19 116 3 19 117 3 19 118 3 20 247 3 20 247 3 20 247 3 20 247 3 20 247 3 20 247 3 21 247 3 21 247 3 21 248 3 21 248 3 21 248 3 21 248 3 21 248 3 22 248 3 22 248 3 22 248 3 22 248 3 22 248 3 23 248 3 23 248 3 23 248 3 23 248 3 23 248 3 23 248 3 24 249 3 24 249 3 24 249 3 24 249 3 24 249 3 24 249 3 25 249 3 25 249 3 25 249 3 25 249 3 25 249 3 25 249 3 26 249 3 26 249 3 26 249 3 26 249 3 26 250 3 26 250 3 26 250 3 27 250 3 27 250 3 27 250 3 27 250 3 27 250 3 28 250 3 28 250 3 28 250 3 28 250 3 28 250 3 28 250 3 29 250 3 29 250 3 29 251 3 29 251 3 29 251 3 29 251 3 30 251 3 30 251 3 30 251 3 30 251 3 30 251 3 30 251 3 31 251 3 31 251 3 31 251 3 31 251 3 31 251 3 31 251 3 32 252 3 32 252 3 32 252 3 32 252 3 32 252 3 32 252 3 33 252 3 33 252 3 33 252 3 33 252 3 33 252 3 33 252 3 34 252 3 34 252 3 34 252 3 34 252 3 34 253 3 34 253 3 35 253 3 35 253 3 35 253 3 35 253 3 35 253 3 35 253 3 36 253 3 36 253 3 36 253 3 36 253 3 36 253 3 36 253 3 37 253 3 37 253 3 37 254 3 37 254 3 37 254 3 37 254 3 38 254 3 38 254 3 38 254 3 38 254 3 38 254 3 38 254 3 39 254 3 39 254 3 39 254 3 39 254 3 39 254 3 40 255 3
0 0 3 0 0 3 0 1 3 0 2 3 0 3 3 0 4 3 0 5 3 1 6 3 1 7 3 1 8 3 1 9 3 1 10 3 1 11 3 2 12 3 2 13 3 2 15 3 2 16 3 2 17 3 2 18 3 3 18 3 3 19 3 3 20 3 3 21 3 3 22 3 3 23 3 4 24 3 4 25 3 4 26 3 4 27 3 4 28 3 5 30 3 5 31 3 5 32 3 5 33 3 5 34 3 5 35 3 5 36 3 6 37 3 6 37 3 6 38 3 6 39 3 6 40 3 6 41 3 7 42 3 7 43 3 7 45 3 7 46 3 7 47 3 8 48 3 8 49 3 8 50 3 8 51 3 8 52 3 8 53 3 8 54 3 9 55 3 9 55 3 9 56 3 9 57 3 9 58 3 10 60 3 10 61 3 10 62 3 10 63 3 10 64 3 10 65 3 10 66 3 11 67 3 11 68 3 11 69 3 11 70 3 11 71 3 11 72 3 12 73 3 12 74 3 12 75 3 12 76 3 12 77 3 13 78 3 13 79 3 13 80 3 13 81 3 13 82 3 13 83 3 13 84 3 14 85 3 14 86 3 14 87 3 14 88 3 14 89 3 15 91 3 15 92 3 15 93 3 15 93 3 15 94 3 15 95 3 16 96 3 16 97 3 16 98 3 16 99 3 16 100 3 16 101 3 16 102 3 17 103 3 17 104 3 17 106 3 17 107 3 17 108 3 18 109 3 18 110 3 18 111 3 18 111 3 18 112 3 18 113 3 18 114 3 19 115 3 19 116 3 19 117 3 19 118 3 19 119 3 20 248 3 20 248 3 20 248 3 20 248 3 20 248 3 20 248 3 21 248 3 21 248 3 21 248 3 21 248 3 21 249 3 21 249 3 21 249 3 22 249 3 22 249 3 22 249 3 22 249 3 22 249 3 23 249 3 23 249 3 23 249 3 23 249 3 23 249 3 23 249 3 24 249 3 24 249 3 24 249 3 24 249 3 24 250 3 24 250 3 25 250 3 25 250 3 25 250 3 25 250 3 25 250 3 25 250 3 26 250 3 26 250 3 26 250 3 26 250 3 26 250 3 26 250 3 26 250 3 27 250 3 27 250 3 27 250 3 27 251 3 27 251 3 28 251 3 28 251 3 28 251 3 28 251 3 28 251 3 28 251 3 29 251 3 29 251 3 29 251 3 29 251 3 29 251 3 29 251 3 30 251 3 30 251 3 30 251 3 30 251 3 30 251 3 30 252 3 31 252 3 31 252 3 31 252 3 31 252 3 31 252 3 31 252 3 32 252 3 32 252 3 32 252 3 32 252 3 32 252 3 32 252 3 33 252 3 33 252 3 33 252 3 33 252 3 33 252 3 33 253 3 34 253 3 34 253 3 34 253 3 34 253 3 34 253 3 34 253 3 35 253 3 35 253 3 35 253 3 35 253 3 35 253 3 35 253 3 36 253 3 36 253 3 36 253 3 36 253 3 36 253 3 36 253 3 37 254 3 37 254 3 37 254 3 37 254 3 37 254 3 37 254 3 38 254 3 38 254 3 38 254 3 38 254 3 38 254 3 38 254 3 39 254 3 39 254 3 39 254 3 39 254 3 39 254 3 40 255 3
0 0 3 0 0 3 0 1 3 0 2 3 0 3 3 0 4 3 0 5 3 1 6 3 1 7 3 1 8 3 1 9 3 1 10 3 1 11 3 2 12 3 2 13 3 2 15 3 2 16 3 2 17 3 2 18 3 3 19 3 3 20 3 3 20 3 3 21 3 3 22 3 3 23 3 4 24 3 4 25 3 4 26 3 4 27 3 4 28 3 5 30 3 5 31 3 5 32 3 5 33 3 5 34 3 5 35 3 5 36 3 6 37 3 6 38 3 6 39 3 6 40 3 6 40 3 6 41 3 7 42 3 7 43 3 7 45 3 7 46 3 7 47 3 8 48 3 8 49 3 8 50 3 8 51 3 8 52 3 8 53 3 8 54 3 9 55 3 9 56 3 9 57 3 9 58 3 9 59 3 10 60 3 10 61 3 10 62 3 10 63 3 10 64 3 10 65 3 10 66 3 11 67 3 11 68 3 11 69 3 11 70 3 11 71 3 11 72 3 12 73 3 12 74 3 12 76 3 12 77 3 12 78 3 13 79 3 13 80 3 13 81 3 13 81 3 13 82 3 13 83 3 13 84 3 14 85 3 14 86 3 14 87 3 14 88 3 14 89 3 15 91 3 15 92 3 15 93 3 15 94 3 15 95 3 15 96 3 16 97 3 16 98 3 16 99 3 16 100 3 16 101 3 16 101 3 16 102 3 17 103 3 17 104 3 17 106 3 17 107 3 17 108 3 18 109 3 18 110 3 18 111 3 18 112 3 18 113 3 18 114 3 18 115 3 19 116 3 19 117 3 19 118 3 19 119 3 19 120 3 20 249 3 20 249 3 20 249 3 20 249 3 20 249 3 20 249 3 21 249 3 21 249 3 21 249 3 21 249 3 21 249 3 21 249 3 21 249 3 22 249 3 22 249 3 22 249 3 22 249 3 22 249 3 23 249 3 23 249 3 23 250 3 23 250 3 23 250 3 23 250 3 24 250 3 24 250 3 24 250 3 24 250 3 24 250 3 24 250 3 25 250 3 25 250 3 25 250 3 25 250 3 25 250 3 25 250 3 26 250 3 26 250 3 26 250 3 26 250 3 26 251 3 26 251 3 26 251 3 27 251 3 27 251 3 27 251 3 27 251 3 27 251 3 28 251 3 28 251 3 28 251 3 28 251 3 28 251 3 28 251 3 29 251 3 29 251 3 29 251 3 29 251 3 29 251 3 29 251 3 30 252 3 30 252 3 30 252 3 30 252 3 30 252 3 30 252 3 31 252 3 31 252 3 31 252 3 31 252 3 31 252 3 31 252 3 32 252 3 32 252 3 32 252 3 32 252 3 32 252 3 32 252 3 33 252 3 33 252 3 33 253 3 33 253 3 33 253 3 33 253 3 34 253 3 34 253 3 34 253 3 34 253 3 34 253 3 34 253 3 35 253 3 35 253 3 35 253 3 35 253 3 35 253 3 35 253 3 36 253 3 36 253 3 36 253 3 36 253 3 36 254 3 36 254 3 37 254 3 37 254 3 37 254 3 37 254 3 37 254 3 37 254 3 38 254 3 38 254 3 38 254 3 38 254 3 38 254 3 38 254 3 39 254 3 39 254 3 39 254 3 39 254 3 39 254 3 40 255 3
0 0 2 0 0 2 0 1 2 0 2 2 0 3 2 0 4 2 0 5 2 1 6 2 1 7 2 1 8 2 1 9 2 1 10 2 1 11 2 2 12 2 2 13 2 2 15 2 2 16 2 2 17 2 2 18 2 3 19 2 3 20 2 3 21 2 3 22 2 3 23 2 3 24 2 4 24 2 4 25 2 4 26 2 4 27 2 4 28 2 5 30 2 5 31 2 5 32 2 5 33 2 5 34 2 5 35 2 5 36 2 6 37 2 6 38 2 6 39 2 6 40 2 6 41 2 6 42 2 7 43 2 7 44 2 7 46 2 7 47 2 7 48 2 8 49 2 8 49 2 8 50 2 8 51 2 8 52 2 8 53 2 8 54 2 9 55 2 9 56 2 9 57 2 9 58 2 9 59 2 10 61 2 10 62 2 10 63 2 10 64 2 10 65 2 10 66 2 10 67 2 11 68 2 11 69 2 11 70 2 11 71 2 11 72 2 11 73 2 12 73 2 12 74 2 12 76 2 12 77 2 12 78 2 13 79 2 13 80 2 13 81 2 13 82 2 13 83 2 13 84 2 13 85 2 14 86 2 14 87 2 14 88 2 14 89 2 14 90 2 15 92 2 15 93 2 15 94 2 15 95 2 15 96 2 15 97 2 16 98 2 16 98 2 16 99 2 16 100 2 16 101 2 16 102 2 16 103 2 17 104 2 17 105 2 17 107 2 17 108 2 17 109 2 18 110 2 18 111 2 18 112 2 18 113 2 18 114 2 18 115 2 18 116 2 19 117 2 19 118 2 19 119 2 19 120 2 19 121 2 20 250 2 20 250 2 20 250 2 20 250 2 20 250 2 20 250 2 21 250 2 21 250 2 21 250 2 21 250 2 21 250 2 21 250 2 21 250 2 22 250 2 22 250 2 22 250 2 22 250 2 22 250 2 23 250 2 23 250 2 23 250 2 23 250 2 23 250 2 23 250 2 24 251 2 24 251 2 24 251 2 24 251 2 24 251 2 24 251 2 25 251 2 25 251 2 25 251 2 25 251 2 25 251 2 25 251 2 26 251 2 26 251 2 26 251 2 26 251 2 26 251 2 26 251 2 26 251 2 27 251 2 27 251 2 27 251 2 27 251 2 27 251 2 28 252 2 28 252 2 28 252 2 28 252 2 28 252 2 28 252 2 29 252 2 29 252 2 29 252 2 29 252 2 29 252 2 29 252 2 30 252 2 30 252 2 30 252 2 30 252 2 30 252 2 30 252 2 31 252 2 31 252 2 31 252 2 31 252 2 31 252 2 31 252 2 32 253 2 32 253 2 32 253 2 32 253 2 32 253 2 32 253 2 33 253 2 33 253 2 33 253 2 33 253 2 33 253 2 33 253 2 34 253 2 34 253 2 34 253 2 34 253 2 34 253 2 34 253 2 35 253 2 35 253 2 35 253 2 35 253 2 35 253 2 35 253 2 36 254 2 36 254 2 36 254 2 36 254 2 36 254 2 36 254 2 37 254 2 37 254 2 37 254 2 37 254 2 37 254 2 37 254 2 38 254 2 38 254 2 38 254 2 38 254 2 38 254 2 38 254 2 39 254 2 39 254 2 39 254 2 39 254 2 39 254 2 40 255 2
0 0 2 0 0 2 0 1 2 0 2 2 0 3 2 0 4 2 0 5 2 1 6 2 1 7 2 1 8 2 1 9 2 1 10 2 1 11 2 2 12 2 2 13 2 2 15 2 2 16 2 2 17 2 2 18 2 3 19 2 3 20 2 3 21 2 3 22 2 3 23 2 3 24 2 4 25 2 4 26 2 4 27 2 4 27 2 4 28 2 5 30 2 5 31 2 5 32 2 5 33 2 5 34 2 5 35 2 5 36 2 6 37 2 6 38 2 6 39 2 6 40 2 6 41 2 6 42 2 7 43 2 7 44 2 7 46 2 7 47 2 7 48 2 8 49 2 8 50 2 8 51 2 8 52 2 8 53 2 8 54 2 8 54 2 9 55 2 9 56 2 9 57 2 9 58 2 9 59 2 10 61 2 10 62 2 10 63 2 10 64 2 10 65 2 10 66 2 10 67 2 11 68 2 11 69 2 11 70 2 11 71 2 11 72 2 11 73 2 12 74 2 12 75 2 12 77 2 12 78 2 12 79 2 13 80 2 13 81 2 13 81 2 13 82 2 13 83 2 13 84 2 13 85 2 14 86 2 14 87 2 14 88 2 14 89 2 14 90 2 15 92 2 15 93 2 15 94 2 15 95 2 15 96 2 15 97 2 16 98 2 16 99 2 16 100 2 16 101 2 16 102 2 16 103 2 16 104 2 17 105 2 17 106 2 17 108 2 17 109 2 17 109 2 18 110 2 18 111 2 18 112 2 18 113 2 18 114 2 18 115 2 18 116 2 19 117 2 19 118 2 19 119 2 19 120 2 19 121 2 20 250 2 20 250 2 20 250 2 20 250 2 20 250 2 20 250 2 21 250 2 21 250 2 21 250 2 21 250 2 21 250 2 21 250 2 21 250 2 22 250 2 22 251 2 22 251 2 22 251 2 22 251 2 23 251 2 23 251 2 23 251 2 23 251 2 23 251 2 23 251 2 24 251 2 24 251 2 24 251 2 24 251 2 24 251 2 24 251 2 25 251 2 25 251 2 25 251 2 25 251 2 25 251 2 25 251 2 26 251 2 26 251 2 26 251 2 26 251 2 26 252 2 26 252 2 26 252 2 27 252 2 27 252 2 27 252 2 27 252 2 27 252 2 28 252 2 28 252 2 28 252 2 28 252 2 28 252 2 28 252 2 29 252 2 29 252 2 29 252 2 29 252 2 29 252 2 29 252 2 30 252 2 30 252 2 30 252 2 30 252 2 30 252 2 30 252 2 31 252 2 31 253 2 31 253 2 31 253 2 31 253 2 31 253 2 32 253 2 32 253 2 32 253 2 32 253 2 32 253 2 32 253 2 33 253 2 33 253 2 33 253 2 33 253 2 33 253 2 33 253 2 34 253 2 34 253 2 34 253 2 34 253 2 34 253 2 34 253 2 35 253 2 35 253 2 35 253 2 35 254 2 35 254 2 35 254 2 36 254 2 36 254 2 36 254 2 36 254 2 36 254 2 36 254 2 37 254 2 37 254 2 37 254 2 37 254 2 37 254 2 37 254 2 38 254 2 38 254 2 38 254 2 38 254 2 38 254 2 38 254 2 39 254 2 39 254 2 39 254 2 39 254 2 39 254 2 40 255 2
0 0 1 0 0 1 0 1 1 0 2 1 0 3 1 0 4 1 0 5 1 1 6 1 1 7 1 1 8 1 1 9 1 1 10 1 1 11 1 2 12 1 2 13 1 2 15 1 2 16 1 2 17 1 2 18 1 3 19 1 3 20 1 3 21 1 3 22 1 3 23 1 3 24 1 4 25 1 4 26 1 4 27 1 4 28 1 4 29 1 5 30 1 5 31 1 5 32 1 5 33 1 5 34 1 5 35 1 5 36 1 6 37 1 6 38 1 6 39 1 6 40 1 6 41 1 6 42 1 7 43 1 7 44 1 7 46 1 7 47 1 7 48 1 8 49 1 8 50 1 8 51 1 8 52 1 8 53 1 8 54 1 8 55 1 9 56 1 9 57 1 9 58 1 9 59 1 9 60 1 10 61 1 10 62 1 10 63 1 10 64 1 10 65 1 10 66 1 10 67 1 11 68 1 11 69 1 11 70 1 11 71 1 11 72 1 11 73 1 12 74 1 12 75 1 12 77 1 12 78 1 12 79 1 13 80 1 13 81 1 13 82 1 13 83 1 13 84 1 13 85 1 13 86 1 14 87 1 14 88 1 14 89 1 14 90 1 14 91 1 15 92 1 15 93 1 15 94 1 15 95 1 15 96 1 15 97 1 16 98 1 16 99 1 16 100 1 16 101 1 16 102 1 16 103 1 16 104 1 17 105 1 17 106 1 17 108 1 17 109 1 17 110 1 18 111 1 18 112 1 18 113 1 18 114 1 18 115 1 18 116 1 18 117 1 19 118 1 19 119 1 19 120 1 19 121 1 19 122 1 20 251 1 20 251 1 20 251 1 20 251 1 20 251 1 20 251 1 21 251 1 21 251 1 21 251 1 21 251 1 21 251 1 21 251 1 21 251 1 22 251 1 22 251 1 22 251 1 22 251 1 22 251 1 23 251 1 23 251 1 23 251 1 23 251 1 23 251 1 23 251 1 24 251 1 24 251 1 24 251 1 24 251 1 24 251 1 24 251 1 25 252 1 25 252 1 25 252 1 25 252 1 25 252 1 25 252 1 26 252 1 26 252 1 26 252 1 26 252 1 26 252 1 26 252 1 26 252 1 27 252 1 27 252 1 27 252 1 27 252 1 27 252 1 28 252 1 28 252 1 28 252 1 28 252 1 28 252 1 28 252 1 29 252 1 29 252 1 29 252 1 29 252 1 29 252 1 29 252 1 30 253 1 30 253 1 30 253 1 30 253 1 30 253 1 30 253 1 31 253 1 31 253 1 31 253 1 31 253 1 31 253 1 31 253 1 32 253 1 32 253 1 32 253 1 32 253 1 32 253 1 32 253 1 33 253 1 33 253 1 33 253 1 33 253 1 33 253 1 33 253 1 34 253 1 34 253 1 34 253 1 34 253 1 34 253 1 34 253 1 35 254 1 35 254 1 35 254 1 35 254 1 35 254 1 35 254 1 36 254 1 36 254 1 36 254 1 36 254 1 36 254 1 36 254 1 37 254 1 37 254 1 37 254 1 37 254 1 37 254 1 37 254 1 38 254 1 38 254 1 38 254 1 38 254 1 38 254 1 38 254 1 39 254 1 39 254 1 39 254 1 39 254 1 39 254 1 40 255 1
0 0 1 0 0 1 0 1 1 0 2 1 0 3 1 0 4 1 0 5 1 1 6 1 1 7 1 1 8 1 1 9 1 1 10 1 1 11 1 2 12 1 2 13 1 2 15 1 2 16 1 2 17 1 2 18 1 3 19 1 3 20 1 3 21 1 3 22 1 3 23 1 3 24 1 4 25 1 4 26 1 4 27 1 4 28 1 4 29 1 5 31 1 5 32 1 5 33 1 5 34 1 5 35 1 5 36 1 5 37 1 6 38 1 6 39 1 6 40 1 6 41 1 6 41 1 6 42 1 7 43 1 7 44 1 7 46 1 7 47 1 7 48 1 8 49 1 8 50 1 8 51 1 8 52 1 8 53 1 8 54 1 8 55 1 9 56 1 9 57 1 9 58 1 9 59 1 9 60 1 10 62 1 10 63 1 10 64 1 10 65 1 10 66 1 10 67 1 10 68 1 11 69 1 11 70 1 11 71 1 11 72 1 11 73 1 11 74 1 12 75 1 12 76 1 12 78 1 12 79 1 12 80 1 13 81 1 13 82 1 13 82 1 13 83 1 13 84 1 13 85 1 13 86 1 14 87 1 14 88 1 14 89 1 14 90 1 14 91 1 15 93 1 15 94 1 15 95 1 15 96 1 15 97 1 15 98 1 16 99 1 16 100 1 16 101 1 16 102 1 16 103 1 16 104 1 16 105 1 17 106 1 17 107 1 17 109 1 17 110 1 17 111 1 18 112 1 18 113 1 18 114 1 18 115 1 18 116 1 18 117 1 18 118 1 19 119 1 19 120 1 19 121 1 19 122 1 19 123 1 20 252 1 20 252 1 20 252 1 20 252 1 20 252 1 20 252 1 21 252 1 21 252 1 21 252 1 21 252 1 21 252 1 21 252 1 21 252 1 22 252 1 22 252 1 22 252 1 22 252 1 22 252 1 23 252 1 23 252 1 23 252 1 23 252 1 23 252 1 23 252 1 24 252 1 24 252 1 24 252 1 24 252 1 24 252 1 24 252 1 25 252 1 25 252 1 25 252 1 25 252 1 25 252 1 25 252 1 26 252 1 26 252 1 26 252 1 26 252 1 26 253 1 26 253 1 26 253 1 27 253 1 27 253 1 27 253 1 27 253 1 27 253 1 28 253 1 28 253 1 28 253 1 28 253 1 28 253 1 28 253 1 29 253 1 29 253 1 29 253 1 29 253 1 29 253 1 29 253 1 30 253 1 30 253 1 30 253 1 30 253 1 30 253 1 30 253 1 31 253 1 31 253 1 31 253 1 31 253 1 31 253 1 31 253 1 32 253 1 32 253 1 32 253 1 32 253 1 32 253 1 32 253 1 33 253 1 33 253 1 33 254 1 33 254 1 33 254 1 33 254 1 34 254 1 34 254 1 34 254 1 34 254 1 34 254 1 34 254 1 35 254 1 35 254 1 35 254 1 35 254 1 35 254 1 35 254 1 36 254 1 36 254 1 36 254 1 36 254 1 36 254 1 36 254 1 37 254 1 37 254 1 37 254 1 37 254 1 37 254 1 37 254 1 38 254 1 38 254 1 38 254 1 38 254 1 38 254 1 38 254 1 39 254 1 39 254 1 39 254 1 39 254 1 39 254 1 40 255 1
0 0 1 0 0 1 0 1 1 0 2 1 0 3 1 0 4 1 0 5 1 1 6 1 1 7 1 1 8 1 1 9 1 1 10 1 1 11 1 2 12 1 2 13 1 2 15 1 2 16 1 2 17 1 2 18 1 3 19 1 3 20 1 3 21 1 3 22 1 3 23 1 3 24 1 4 25 1 4 26 1 4 27 1 4 28 1 4 29 1 5 31 1 5 32 1 5 33 1 5 34 1 5 35 1 5 36 1 5 37 1 6 38 1 6 39 1 6 40 1 6 41 1 6 42 1 6 43 1 7 44 1 7 45 1 7 47 1 7 48 1 7 49 1 8 50 1 8 50 1 8 51 1 8 52 1 8 53 1 8 54 1 8 55 1 9 56 1 9 57 1 9 58 1 9 59 1 9 60 1 10 62 1 10 63 1 10 64 1 10 65 1 10 66 1 10 67 1 10 68 1 11 69 1 11 70 1 11 71 1 11 72 1 11 73 1 11 74 1 12 75 1 12 76 1 12 78 1 12 79 1 12 80 1 13 81 1 13 82 1 13 83 1 13 84 1 13 85 1 13 86 1 13 87 1 14 88 1 14 89 1 14 90 1 14 91 1 14 92 1 15 94 1 15 95 1 15 96 1 15 97 1 15 98 1 15 99 1 16 100 1 16 100 1 16 101 1 16 102 1 16 103 1 16 104 1 16 105 1 17 106 1 17 107 1 17 109 1 17 110 1 17 111 1 18 112 1 18 113 1 18 114 1 18 115 1 18 116 1 18 117 1 18 118 1 19 119 1 19 120 1 19 121 1 19 122 1 19 123 1 20 252 1 20 252 1 20 252 1 20 252 1 20 252 1 20 252 1 21 252 1 21 252 1 21 252 1 21 252 1 21 252 1 21 252 1 21 252 1 22 252 1 22 252 1 22 252 1 22 252 1 22 252 1 23 252 1 23 252 1 23 252 1 23 252 1 23 252 1 23 252 1 24 253 1 24 253 1 24 253 1 24 253 1 24 253 1 24 253 1 25 253 1 25 253 1 25 253 1 25 253 1 25 253 1 25 253 1 26 253 1 26 253 1 26 253 1 26 253 1 26 253 1 26 253 1 26 253 1 27 253 1 27 253 1 27 253 1 27 253 1 27 253 1 28 253 1 28 253 1 28 253 1 28 253 1 28 253 1 28 253 1 29 253 1 29 253 1 29 253 1 29 253 1 29 253 1 29 253 1 30 253 1 30 253 1 30 253 1 30 253 1 30 253 1 30 253 1 31 253 1 31 253 1 31 253 1 31 253 1 31 253 1 31 253 1 32 254 1 32 254 1 32 254 1 32 254 1 32 254 1 32 254 1 33 254 1 33 254 1 33 254 1 33 254 1 33 254 1 33 254 1 34 254 1 34 254 1 34 254 1 34 254 1 34 254 1 34 254 1 35 254 1 35 254 1 35 254 1 35 254 1 35 254 1 35 254 1 36 254 1 36 254 1 36 254 1 36 254 1 36 254 1 36 254 1 37 254 1 37 254 1 37 254 1 37 254 1 37 254 1 37 254 1 38 254 1 38 254 1 38 254 1 38 254 1 38 254 1 38 254 1 39 254 1 39 254 1 39 254 1 39 254 1 39 254 1 40 255 1
0 0 0 0 0 0 0 1 0 0 2 0 0 3 0 0 4 0 0 5 0 1 6 0 1 7 0 1 8 0 1 9 0 1 10 0 1 11 0 2 12 0 2 13 0 2 15 0 2 16 0 2 17 0 2 18 0 3 19 0 3 20 0 3 21 0 3 22 0 3 23 0 3 24 0 4 25 0 4 26 0 4 27 0 4 28 0 4 29 0 5 31 0 5 32 0 5 33 0 5 34 0 5 35 0 5 36 0 5 37 0 6 38 0 6 39 0 6 40 0 6 41 0 6 42 0 6 43 0 7 44 0 7 45 0 7 47 0 7 48 0 7 49 0 8 50 0 8 51 0 8 52 0 8 53 0 8 54 0 8 55 0 8 56 0 9 57 0 9 58 0 9 59 0 9 60 0 9 61 0 10 63 0 10 64 0 10 65 0 10 66 0 10 67 0 10 68 0 10 69 0 11 70 0 11 71 0 11 72 0 11 73 0 11 74 0 11 75 0 12 76 0 12 77 0 12 79 0 12 80 0 12 81 0 13 82 0 13 83 0 13 84 0 13 84 0 13 85 0 13 86 0 13 87 0 14 88 0 14 89 0 14 90 0 14 91 0 14 92 0 15 94 0 15 95 0 15 96 0 15 97 0 15 98 0 15 99 0 16 100 0 16 101 0 16 102 0 16 103 0 16 104 0 16 105 0 16 106 0 17 107 0 17 108 0 17 110 0 17 111 0 17 112 0 18 113 0 18 114 0 18 115 0 18 116 0 18 117 0 18 118 0 18 119 0 19 120 0 19 121 0 19 122 0 19 123 0 19 124 0 20 253 0 20 253 0 20 253 0 20 253 0 20 253 0 20 253 0 21 253 0 21 253 0 21 253 0 21 253 0 21 253 0 21 253 0 21 253 0 22 253 0 22 253 0 22 253 0 22 253 0 22 253 0 23 253 0 23 253 0 23 253 0 23 253 0 23 253 0 23 253 0 24 253 0 24 253 0 24 253 0 24 253 0 24 253 0 24 253 0 25 253 0 25 253 0 25 253 0 25 253 0 25 253 0 25 253 0 26 253 0 26 253 0 26 253 0 26 253 0 26 254 0 26 254 0 26 254 0 27 254 0 27 254 0 27 254 0 27 254 0 27 254 0 28 254 0 28 254 0 28 254 0 28 254 0 28 254 0 28 254 0 29 254 0 29 254 0 29 254 0 29 254 0 29 254 0 29 254 0 30 254 0 30 254 0 30 254 0 30 254 0 30 254 0 30 254 0 31 254 0 31 254 0 31 254 0 31 254 0 31 254 0 31 254 0 32 254 0 32 254 0 32 254 0 32 254 0 32 254 0 32 254 0 33 254 0 33 254 0 33 254 0 33 254 0 33 254 0 33 254 0 34 254 0 34 254 0 34 254 0 34 254 0 34 254 0 34 254 0 35 254 0 35 254 0 35 254 0 35 254 0 35 254 0 35 254 0 36 254 0 36 254 0 36 254 0 36 254 0 36 254 0 36 254 0 37 254 0 37 254 0 37 254 0 37 254 0 37 254 0 37 254 0 38 254 0 38 254 0 38 254 0 38 254 0 38 254 0 38 254 0 39 254 0 39 254 0 39 254 0 39 254 0 39 254 0 40 255 0
0 0 0 0 0 0 0 1 0 0 2 0 0 3 0 0 4 0 0 5 0 1 6 0 1 7 0 1 8 0 1 9 0 1 10 0 1 11 0 2 12 0 2 13 0 2 15 0 2 16 0 2 17 0 2 18 0 3 19 0 3 20 0 3 21 0 3 22 0 3 23 0 3 24 0 4 25 0 4 26 0 4 27 0 4 28 0 4 29 0 5 31 0 5 32 0 5 33 0 5 34 0 5 35 0 5 36 0 5 37 0 6 38 0 6 39 0 6 40 0 6 41 0 6 42 0 6 43 0 7 44 0 7 45 0 7 47 0 7 48 0 7 49 0 8 50 0 8 51 0 8 52 0 8 53 0 8 54 0 8 55 0 8 56 0 9 57 0 9 58 0 9 59 0 9 60 0 9 61 0 10 63 0 10 64 0 10 65 0 10 66 0 10 67 0 10 68 0 10 69 0 11 70 0 11 71 0 11 72 0 11 73 0 11 74 0 11 75 0 12 76 0 12 77 0 12 79 0 12 80 0 12 81 0 13 82 0 13 83 0 13 84 0 13 85 0 13 86 0 13 87 0 13 88 0 14 89 0 14 90 0 14 91 0 14 92 0 14 93 0 15 95 0 15 96 0 15 97 0 15 98 0 15 99 0 15 100 0 16 101 0 16 102 0 16 103 0 16 104 0 16 105 0 16 106 0 16 107 0 17 108 0 17 109 0 17 111 0 17 112 0 17 113 0 18 114 0 18 115 0 18 116 0 18 117 0 18 118 0 18 119 0 18 120 0 19 121 0 19 122 0 19 123 0 19 124 0 19 125 0 20 254 0 20 254 0 20 254 0 20 254 0 20 254 0 20 254 0 21 254 0 21 254 0 21 254 0 21 254 0 21 254 0 21 254 0 21 254 0 22 254 0 22 254 0 22 254 0 22 254 0 22 254 0 23 254 0 23 254 0 23 254 0 23 254 0 23 254 0 23 254 0 24 254 0 24 254 0 24 254 0 24 254 0 24 254 0 24 254 0 25 254 0 25 254 0 25 254 0 25 254 0 25 254 0 25 254 0 26 254 0 26 254 0 26 254 0 26 254 0 26 254 0 26 254 0 26 254 0 27 254 0 27 254 0 27 254 0 27 254 0 27 254 0 28 254 0 28 254 0 28 254 0 28 254 0 28 254 0 28 254 0 29 254 0 29 254 0 29 254 0 29 254 0 29 254 0 29 254 0 30 254 0 30 254 0 30 254 0 30 254 0 30 254 0 30 254 0 31 254 0 31 254 0 31 254 0 31 254 0 31 254 0 31 254 0 32 254 0 32 254 0 32 254 0 32 254 0 32 254 0 32 254 0 33 254 0 33 254 0 33 254 0 33 254 0 33 254 0 33 254 0 34 254 0 34 254 0 34 254 0 34 254 0 34 254 0 34 254 0 35 254 0 35 254 0 35 254 0 35 254 0 35 254 0 35 254 0 36 254 0 36 254 0 36 254 0 36 254 0 36 254 0 36 254 0 37 254 0 37 254 0 37 254 0 37 254 0 37 254 0 37 254 0 38 254 0 38 254 0 38 254 0 38 254 0 38 254 0 38 254 0 39 254 0 39 254 0 39 254 0 39 254 0 39 254 0 40 255 0
0 0 0 0 1 0 0 2 0 0 3 0 0 4 0 0 5 0 0 6 0 1 7 0 1 8 0 1 9 0 1 10 0 1 11 0 1 12 0 2 13 0 2 14 0 2 16 0 2 17 0 2 18 0 2 19 0 3 20 0 3 21 0 3 22 0 3 23 0 3 24 0 3 25 0 4 26 0 4 27 0 4 28 0 4 29 0 4 30 0 5 32 0 5 33 0 5 34 0 5 35 0 5 36 0 5 37 0 5 38 0 6 39 0 6 40 0 6 41 0 6 42 0 6 43 0 6 44 0 7 45 0 7 46 0 7 48 0 7 49 0 7 50 0 8 51 0 8 52 0 8 53 0 8 54 0 8 55 0 8 56 0 8 57 0 9 58 0 9 59 0 9 60 0 9 61 0 9 62 0 10 64 0 10 65 0 10 66 0 10 67 0 10 68 0 10 69 0 10 70 0 11 71 0 11 72 0 11 73 0 11 74 0 11 75 0 11 76 0 12 77 0 12 78 0 12 80 0 12 81 0 12 82 0 13 83 0 13 84 0 13 85 0 13 86 0 13 87 0 13 88 0 13 89 0 14 90 0 14 91 0 14 92 0 14 93 0 14 94 0 15 96 0 15 97 0 15 98 0 15 99 0 15 100 0 15 101 0 16 102 0 16 103 0 16 104 0 16 105 0 16 106 0 16 107 0 16 108 0 17 109 0 17 110 0 17 112 0 17 113 0 17 114 0 18 115 0 18 116 0 18 117 0 18 118 0 18 119 0 18 120 0 18 121 0 19 122 0 19 123 0 19 124 0 19 125 0 19 126 0 20 255 0 20 255 0 20 255 0 20 255 0 20 255 0 20 255 0 21 255 0 21 255 0 21 255 0 21 255 0 21 255 0 21 255 0 21 255 0 22 255 0 22 255 0 22 255 0 22 255 0 22 255 0 23 255 0 23 255 0 23 255 0 23 255 0 23 255 0 23 255 0 24 255 0 24 255 0 24 255 0 24 255 0 24 255 0 24 255 0 25 255 0 25 255 0 25 255 0 25 255 0 25 255 0 25 255 0 26 255 0 26 255 0 26 255 0 26 255 0 26 255 0 26 255 0 26 255 0 27 255 0 27 255 0 27 255 0 27 255 0 27 255 0 28 255 0 28 255 0 28 255 0 28 255 0 28 255 0 28 255 0 29 255 0 29 255 0 29 255 0 29 255 0 29 255 0 29 255 0 30 255 0 30 255 0 30 255 0 30 255 0 30 255 0 30 255 0 31 255 0 31 255 0 31 255 0 31 255 0 31 255 0 31 255 0 32 255 0 32 255 0 32 255 0 32 255 0 32 255 0 32 255 0 33 255 0 33 255 0 33 255 0 33 255 0 33 255 0 33 255 0 34 255 0 34 255 0 34 255 0 34 255 0 34 255 0 34 255 0 35 255 0 35 255 0 35 255 0 35 255 0 35 255 0 35 255 0 36 255 0 36 255 0 36 255 0 36 255 0 36 255 0 36 255 0 37 255 0 37 255 0 37 255 0 37 255 0 37 255 0 37 255 0 38 255 0 38 255 0 38 255 0 38 255 0 38 255 0 38 255 0 39 255 0 39 255 0 39 255 0 39 255 0 39 255 0 40 255 0
